ncols        40
nrows        40
xllcorner    -0.000000000000
yllcorner    0.000000000000
cellsize     5.000000000000
NODATA_value nan
3.4171311855316162109 3.1025938987731933594 3.0269863605499267578 2.8933806419372558594 2.9914133548736572266 2.9898571968078613281 2.7006037235260009766 3.128192901611328125 3.5088865756988525391 3.4140677452087402344 3.1688714027404785156 3.3331429958343505859 3.5755426883697509766 3.51595306396484375 3.8382601737976074219 3.7034206390380859375 3.3394801616668701172 3.0963394641876220703 2.8992948532104492188 2.7105715274810791016 2.785076141357421875 2.8994250297546386719 3.0103292465209960938 2.5758423805236816406 2.4985027313232421875 2.9990038871765136719 2.7472600936889648438 2.7218935489654541016 2.9006555080413818359 4.6027173995971679688 5.9819731712341308594 5.7071361541748046875 5.5487613677978515625 4.687160491943359375 3.555736541748046875 3.4011750221252441406 2.6175806522369384766 2.8668162822723388672 2.9290573596954345703 3.0535619258880615234 
3.0342707633972167969 2.8273394107818603516 3.0608983039855957031 3.1914823055267333984 3.1725678443908691406 2.6768307685852050781 2.4556972980499267578 2.7781574726104736328 3.2439045906066894531 3.576618194580078125 3.5173947811126708984 3.9777216911315917969 3.9029865264892578125 3.8104326725006103516 5.0349473953247070313 6.1252484321594238281 4.3370265960693359375 3.0567772388458251953 2.8261063098907470703 2.3660454750061035156 2.5764153003692626953 2.7394392490386962891 2.7015583515167236328 2.2545995712280273438 2.6799738407135009766 3.0986669063568115234 3.0814330577850341797 3.1454768180847167969 3.1969761848449707031 4.5246720314025878906 4.5304021835327148438 5.1538238525390625 4.50461578369140625 3.2428081035614013672 2.6782422065734863281 2.5037653446197509766 2.5463380813598632813 2.67362213134765625 2.7139406204223632813 3.0471649169921875 
2.8302247524261474609 3.0344736576080322266 3.0577816963195800781 3.2145254611968994141 3.1681284904479980469 2.8287405967712402344 2.3143904209136962891 2.3878927230834960938 2.4894697666168212891 2.8480961322784423828 3.4568533897399902344 3.6295919418334960938 4.4525618553161621094 4.5027985572814941406 5.8256011009216308594 5.9506840705871582031 5.5987448692321777344 3.7369132041931152344 4.1111521720886230469 3.4711272716522216797 2.2342929840087890625 2.3954923152923583984 2.4320383071899414063 2.0735783576965332031 2.1752588748931884766 2.7341420650482177734 2.7066547870635986328 3.057666778564453125 3.4818208217620849609 4.3982148170471191406 4.4474062919616699219 4.7015476226806640625 4.1010661125183105469 3.2954638004302978516 2.851955413818359375 2.6731777191162109375 2.7656393051147460938 2.6692628860473632813 2.7237813472747802734 2.9268488883972167969 
2.6754224300384521484 2.86780548095703125 3.0043587684631347656 3.1049094200134277344 3.0372745990753173828 2.7386250495910644531 2.3303148746490478516 2.1723947525024414063 2.6745057106018066406 3.31964111328125 3.7452394962310791016 3.5738534927368164063 4.0981478691101074219 4.0416226387023925781 5.1177477836608886719 5.2423801422119140625 4.0288262367248535156 4.6492800712585449219 4.5161581039428710938 3.1770222187042236328 2.9336862564086914063 2.5754773616790771484 2.2815699577331542969 2.1854662895202636719 2.0253748893737792969 1.9481236934661865234 2.1281168460845947266 2.5566308498382568359 2.9719676971435546875 3.4299960136413574219 3.7932028770446777344 3.6255235671997070313 3.2231454849243164063 2.860103607177734375 2.6761698722839355469 2.3876309394836425781 2.4958102703094482422 2.538028717041015625 2.5020351409912109375 2.4639186859130859375 
2.6948299407958984375 2.654239654541015625 2.8217008113861083984 2.9470384120941162109 2.8389449119567871094 2.6489567756652832031 2.1304755210876464844 2.1696577072143554688 2.7591445446014404297 2.7876019477844238281 3.1519680023193359375 3.3437497615814208984 3.7742152214050292969 3.9743547439575195313 4.4641022682189941406 4.874782562255859375 3.5924496650695800781 4.5364308357238769531 4.6637215614318847656 3.2176477909088134766 3.066043853759765625 2.1851422786712646484 2.2183611392974853516 2.0189011096954345703 1.9298747777938842773 2.0177295207977294922 2.0373389720916748047 2.38945770263671875 2.5311827659606933594 2.7848567962646484375 2.9911446571350097656 3.1139726638793945313 2.5365087985992431641 2.2047514915466308594 2.193813323974609375 2.0708053112030029297 2.2269756793975830078 2.3445851802825927734 2.2700939178466796875 1.950886845588684082 
2.8170719146728515625 2.4017095565795898438 2.5304193496704101563 2.6585481166839599609 2.8960804939270019531 2.5616519451141357422 2.3651525974273681641 2.0738694667816162109 2.6308121681213378906 2.8358814716339111328 2.7599303722381591797 3.0023353099822998047 3.5810008049011230469 3.6738419532775878906 4.2500944137573242188 3.6836473941802978516 3.1143002510070800781 2.986354827880859375 3.5996832847595214844 3.3218960762023925781 2.2561140060424804688 1.9915778636932373047 2.0708465576171875 2.0323696136474609375 2.1882758140563964844 2.1810564994812011719 2.4639286994934082031 2.5872402191162109375 2.488132476806640625 3.0673687458038330078 2.781719207763671875 2.7597789764404296875 2.5029861927032470703 2.3959829807281494141 2.3131914138793945313 2.1104502677917480469 2.1706128120422363281 2.2219569683074951172 2.3757946491241455078 2.4436855316162109375 
2.4282321929931640625 2.3802080154418945313 2.3603289127349853516 2.6673917770385742188 2.5479559898376464844 2.6053113937377929688 2.2014906406402587891 1.8047477006912231445 2.0801074504852294922 2.5891520977020263672 2.8108615875244140625 3.2471997737884521484 3.3195605278015136719 3.2701320648193359375 3.4344060420989990234 3.0025556087493896484 2.9112033843994140625 2.9341695308685302734 3.0854878425598144531 2.5955410003662109375 2.0119664669036865234 1.8301117420196533203 1.7617102861404418945 2.2563779354095458984 2.5035550594329833984 2.4576640129089355469 2.7782926559448242188 2.9534265995025634766 2.8844599723815917969 2.9203040599822998047 2.6679899692535400391 2.7372293472290039063 2.8402316570281982422 2.7524099349975585938 2.6646263599395751953 2.2059395313262939453 2.1494212150573730469 2.0859174728393554688 2.3531792163848876953 2.6086819171905517578 
2.5032527446746826172 2.3615796566009521484 2.3164196014404296875 2.3845369815826416016 2.41901397705078125 2.47772216796875 2.1389479637145996094 1.7847921848297119141 1.8517482280731201172 2.1707668304443359375 2.2761981487274169922 3.0498309135437011719 3.3724744319915771484 3.5642306804656982422 3.5082945823669433594 2.8278267383575439453 3.1127419471740722656 2.7895894050598144531 4.1079154014587402344 3.8419463634490966797 2.5928790569305419922 2.3341591358184814453 2.6240859031677246094 2.1391584873199462891 1.9418408870697021484 1.9940248727798461914 2.2909078598022460938 2.3751063346862792969 2.7679445743560791016 2.9916181564331054688 2.7424652576446533203 2.3463971614837646484 2.0963377952575683594 2.3593971729278564453 2.5258307456970214844 2.4596867561340332031 2.0040280818939208984 2.0980532169342041016 2.43062591552734375 2.8170530796051025391 
2.4184925556182861328 2.1982820034027099609 2.4303152561187744141 2.2585318088531494141 2.2419457435607910156 2.1070106029510498047 2.0839433670043945313 1.9332703351974487305 2.0702943801879882813 2.0773916244506835938 2.1933224201202392578 2.5201172828674316406 2.8648579120635986328 3.2326760292053222656 3.3399195671081542969 3.1610860824584960938 3.4784531593322753906 3.6774575710296630859 4.4721226692199707031 4.6693048477172851563 3.5408284664154052734 1.8078484535217285156 1.8419401645660400391 2.1883502006530761719 2.2076296806335449219 2.0817158222198486328 1.9686617851257324219 1.7552516460418701172 2.3006196022033691406 2.7735643386840820313 2.8442928791046142578 2.2177369594573974609 1.8287597894668579102 1.8235049247741699219 2.1571969985961914063 2.4209017753601074219 2.153629302978515625 1.7583383321762084961 1.9111974239349365234 2.3960864543914794922 
2.3093755245208740234 2.3814535140991210938 2.4928872585296630859 2.3864412307739257813 2.0326349735260009766 1.9664885997772216797 1.7334810495376586914 1.6442103385925292969 1.6754468679428100586 2.0044527053833007813 2.3480052947998046875 2.4603102207183837891 2.1721107959747314453 2.5561959743499755859 2.9699623584747314453 2.8203742504119873047 3.6462304592132568359 3.7201945781707763672 4.2768187522888183594 5.0604848861694335938 3.3203127384185791016 1.8776086568832397461 2.1627099514007568359 2.3285541534423828125 2.3684682846069335938 1.937084197998046875 2.5049731731414794922 2.1388683319091796875 1.9589645862579345703 2.2587347030639648438 2.5810236930847167969 2.4420642852783203125 1.7780539989471435547 1.8255817890167236328 2.2347743511199951172 2.1453943252563476563 2.1438889503479003906 1.8065135478973388672 1.6669898033142089844 1.8840705156326293945 
3.1123549938201904297 2.9826896190643310547 2.5708703994750976563 2.3503479957580566406 1.9881751537322998047 1.8202337026596069336 2.0101494789123535156 1.696309208869934082 1.6627422571182250977 1.7167280912399291992 2.0485320091247558594 2.0863959789276123047 1.9911338090896606445 2.0852451324462890625 2.2918314933776855469 2.5255064964294433594 2.3784425258636474609 3.7725150585174560547 4.2106618881225585938 3.3474113941192626953 2.1296732425689697266 1.6462293863296508789 1.6253407001495361328 1.8923006057739257813 2.2750527858734130859 2.6695857048034667969 4.1570057868957519531 2.5932874679565429688 1.9215723276138305664 1.8638097047805786133 1.9665290117263793945 2.3661608695983886719 2.3201961517333984375 1.9243491888046264648 1.8075015544891357422 1.9533456563949584961 2.0466866493225097656 1.5912320613861083984 1.6297202110290527344 1.8341048955917358398 
3.29766082763671875 3.5125606060028076172 2.641712188720703125 2.1876266002655029297 2.3101048469543457031 1.9938133955001831055 1.720309138298034668 1.4863866567611694336 1.5182958841323852539 1.5857539176940917969 1.7875655889511108398 1.9981772899627685547 2.4535520076751708984 2.7217438220977783203 1.9806830883026123047 2.1085748672485351563 2.4174294471740722656 3.2425673007965087891 2.1155858039855957031 1.8972593545913696289 1.728229522705078125 1.4719023704528808594 1.5038003921508789063 1.6535593271255493164 2.1776747703552246094 3.0967714786529541016 3.3102366924285888672 2.4422519207000732422 1.8353842496871948242 1.6093176603317260742 2.2040865421295166016 2.2379596233367919922 2.2365028858184814453 2.1097829341888427734 2.1868460178375244141 2.1500258445739746094 2.3050489425659179688 1.6036858558654785156 1.5954778194427490234 1.8265843391418457031 
3.5004510879516601563 3.1849849224090576172 3.3892743587493896484 1.9482256174087524414 1.8648710250854492188 1.8358874320983886719 1.5850324630737304688 1.5599181652069091797 1.4233241081237792969 2.4249923229217529297 2.5542142391204833984 3.0386629104614257813 4.62770843505859375 3.7838463783264160156 2.4322268962860107422 2.4233338832855224609 2.8310732841491699219 1.6783046722412109375 1.5293636322021484375 1.7143547534942626953 1.6026415824890136719 1.4029741287231445313 1.7405924797058105469 1.5623546838760375977 2.3680310249328613281 2.7650461196899414063 2.6771197319030761719 2.2987294197082519531 1.9422273635864257813 1.6605046987533569336 2.4845819473266601563 3.0777759552001953125 2.3162789344787597656 2.3517422676086425781 2.0209188461303710938 2.0539686679840087891 1.9060654640197753906 1.3656125068664550781 1.3738077878952026367 1.5464615821838378906 
2.9461469650268554688 2.8158097267150878906 2.5465686321258544922 1.87429046630859375 1.659241795539855957 1.5475345849990844727 1.5090787410736083984 1.6585907936096191406 1.8679457902908325195 1.8424406051635742188 3.5930495262145996094 4.3232412338256835938 7.111415863037109375 4.9921207427978515625 2.9989120960235595703 3.7481474876403808594 2.0968780517578125 1.797728419303894043 1.4619534015655517578 1.5629504919052124023 1.8559650182723999023 1.6076041460037231445 1.949345707893371582 1.7651665210723876953 2.1106235980987548828 3.1505062580108642578 3.1628007888793945313 3.1617362499237060547 2.6407642364501953125 2.6424338817596435547 2.98206329345703125 3.3695559501647949219 2.4750494956970214844 2.0393328666687011719 1.9842095375061035156 1.7876943349838256836 1.457045435905456543 1.3625557422637939453 1.3803783655166625977 1.4607702493667602539 
2.2384123802185058594 2.0338976383209228516 1.9184589385986328125 1.7873922586441040039 1.8947559595108032227 1.810053706169128418 1.5096646547317504883 1.5962122678756713867 1.6279848814010620117 1.7715420722961425781 2.4377803802490234375 3.3558759689331054688 6.8065094947814941406 5.6555523872375488281 3.7201714515686035156 4.2021098136901855469 2.3311014175415039063 1.670665740966796875 1.3542746305465698242 1.7885068655014038086 1.8745393753051757813 2.2311537265777587891 2.4716625213623046875 2.6795816421508789063 2.3851549625396728516 3.1622900962829589844 3.7608048915863037109 3.4528124332427978516 2.3342626094818115234 2.5865561962127685547 3.0652740001678466797 2.6714646816253662109 2.0534877777099609375 1.806647181510925293 1.2709531784057617188 1.569958806037902832 1.6186139583587646484 1.2719506025314331055 1.2646956443786621094 1.445209503173828125 
2.5104806423187255859 2.3702251911163330078 1.7233220338821411133 1.7736799716949462891 1.6769952774047851563 1.445611119270324707 1.318860173225402832 1.4405796527862548828 1.422772526741027832 2.1757116317749023438 2.8800787925720214844 3.3340315818786621094 7.3577618598937988281 5.467006683349609375 3.9758989810943603516 3.4731731414794921875 2.3162195682525634766 1.4078135490417480469 1.3092404603958129883 1.4465281963348388672 1.7415218353271484375 2.2338140010833740234 2.4114067554473876953 2.9107849597930908203 2.39374542236328125 3.8615782260894775391 4.032623291015625 3.9868988990783691406 3.0871884822845458984 2.3098835945129394531 1.8026614189147949219 1.723237156867980957 1.3932709693908691406 1.2494722604751586914 1.2936081886291503906 1.3628574609756469727 1.3179231882095336914 1.2850748300552368164 1.4299367666244506836 1.3291995525360107422 
2.1494264602661132813 2.4957048892974853516 2.1686294078826904297 2.1229114532470703125 1.6237189769744873047 1.6784027814865112305 1.2707005739212036133 1.488680720329284668 1.4592108726501464844 1.5901641845703125 3.0156636238098144531 3.97705078125 6.4554772377014160156 4.0410547256469726563 2.6252093315124511719 2.3336718082427978516 2.0454134941101074219 1.4746134281158447266 1.5122832059860229492 1.2960426807403564453 1.4760822057723999023 2.0034248828887939453 2.2437257766723632813 2.3094618320465087891 2.3495535850524902344 3.1920275688171386719 3.6865367889404296875 3.4778966903686523438 2.4453005790710449219 1.9157745838165283203 1.3200025558471679688 1.2393431663513183594 1.4253602027893066406 1.4413194656372070313 1.3287671804428100586 1.2651691436767578125 1.2880800962448120117 1.1543633937835693359 1.7741334438323974609 1.4544945955276489258 
2.1402308940887451172 2.5012445449829101563 3.0083551406860351563 2.716064453125 1.9024305343627929688 1.3914575576782226563 1.2510350942611694336 1.3773782253265380859 1.5662354230880737305 1.9441246986389160156 2.766315460205078125 3.7592940330505371094 4.09161376953125 3.4424672126770019531 2.7389521598815917969 2.7510404586791992188 2.3177084922790527344 2.1822862625122070313 1.7320752143859863281 1.5956419706344604492 1.5514018535614013672 1.2980859279632568359 2.0574030876159667969 2.3942656517028808594 2.2771000862121582031 2.5504539012908935547 3.2443854808807373047 3.4226021766662597656 2.3705623149871826172 1.7269219160079956055 1.1240504980087280273 1.1355952024459838867 1.3554855585098266602 1.5186339616775512695 1.4434049129486083984 1.1243164539337158203 1.1732516288757324219 1.2090435028076171875 1.2875200510025024414 1.5972942113876342773 
2.2649693489074707031 2.6662869453430175781 3.2298047542572021484 2.8010411262512207031 2.4064259529113769531 1.579991459846496582 1.6906541585922241211 1.5658295154571533203 1.7782354354858398438 2.5250260829925537109 3.0012383460998535156 3.6259109973907470703 3.2528259754180908203 2.565303802490234375 3.0946123600006103516 3.0193626880645751953 2.5947885513305664063 2.8246102333068847656 2.40500640869140625 1.9177750349044799805 1.8202892541885375977 1.9310129880905151367 2.1246297359466552734 2.5534527301788330078 2.6546077728271484375 2.1585507392883300781 2.3309214115142822266 2.8218119144439697266 2.1796381473541259766 1.8160549402236938477 1.1526893377304077148 1.3851360082626342773 1.3882688283920288086 1.1503624916076660156 1.2738921642303466797 1.3772312402725219727 1.2329617738723754883 1.1908625364303588867 1.5786393880844116211 1.8814167976379394531 
2.2329385280609130859 2.6664083003997802734 2.7776510715484619141 2.9266617298126220703 2.3278727531433105469 2.0278143882751464844 1.7400379180908203125 1.7842947244644165039 1.7290091514587402344 1.9989954233169555664 1.8284318447113037109 1.505932927131652832 2.4978387355804443359 2.4219770431518554688 3.2212483882904052734 3.2898037433624267578 2.8908982276916503906 2.8389077186584472656 2.2741019725799560547 2.2502651214599609375 2.3646304607391357422 2.5082783699035644531 2.2578196525573730469 2.0106987953186035156 1.824961543083190918 2.1735453605651855469 2.0051691532135009766 2.2481465339660644531 2.7786815166473388672 1.5314785242080688477 1.29013824462890625 1.4085446596145629883 1.2700016498565673828 1.109480738639831543 1.5828683376312255859 1.3233015537261962891 1.6693396568298339844 2.0576283931732177734 1.6228194236755371094 1.2754924297332763672 
2.2581806182861328125 2.61620330810546875 2.2612907886505126953 2.2033014297485351563 1.4956804513931274414 1.5847977399826049805 1.3400032520294189453 1.7327711582183837891 1.726531982421875 1.7864166498184204102 1.752850651741027832 1.4166545867919921875 1.6404258012771606445 1.0757020711898803711 2.2596375942230224609 2.6694719791412353516 3.0976967811584472656 2.5540883541107177734 2.1392118930816650391 2.2947978973388671875 2.4779031276702880859 2.5967683792114257813 2.2840669155120849609 1.8999863862991333008 1.4228653907775878906 1.4893984794616699219 1.7769604921340942383 2.5028107166290283203 2.2429990768432617188 2.4420821666717529297 1.6968442201614379883 2.2595984935760498047 1.2679855823516845703 1.0392129421234130859 1.1931498050689697266 1.5869218111038208008 1.9197857379913330078 2.4722814559936523438 1.935834050178527832 1.4837838411331176758 
2.4071216583251953125 2.38854217529296875 2.1779420375823974609 1.8231012821197509766 1.3596162796020507813 1.3260376453399658203 1.2919385433197021484 1.6599996089935302734 2.0920174121856689453 1.9440041780471801758 1.6641095876693725586 1.5824556350708007813 1.3744727373123168945 1.2820029258728027344 2.2041752338409423828 2.34519195556640625 2.7953457832336425781 2.3182132244110107422 2.4890751838684082031 2.3831355571746826172 2.8531889915466308594 2.2973074913024902344 2.2869756221771240234 1.9510183334350585938 1.4642502069473266602 1.0277751684188842773 1.1683762073516845703 1.4329159259796142578 1.5823318958282470703 2.2655527591705322266 2.2407245635986328125 3.6272625923156738281 1.5740311145782470703 1.4174275398254394531 1.1357922554016113281 1.555504918098449707 2.2305076122283935547 2.3256042003631591797 2.458465576171875 2.2106842994689941406 
2.8145668506622314453 2.6606199741363525391 2.7914803028106689453 2.1504459381103515625 1.5333489179611206055 1.3405097723007202148 1.1879212856292724609 1.3845386505126953125 1.8478820323944091797 2.0986239910125732422 1.9512270689010620117 1.4457757472991943359 1.5425837039947509766 1.7521383762359619141 2.4193658828735351563 2.2530710697174072266 2.5227277278900146484 2.3538529872894287109 2.5749673843383789063 2.5121750831604003906 2.678314208984375 2.5405561923980712891 2.14145660400390625 2.0698416233062744141 1.3898720741271972656 1.0014288425445556641 1.08640289306640625 1.1753655672073364258 1.2199859619140625 2.0654191970825195313 2.0811941623687744141 2.2279644012451171875 1.5450494289398193359 1.4665638208389282227 1.4230933189392089844 1.856898188591003418 2.3039457798004150391 1.8619543313980102539 1.7814506292343139648 2.0921590328216552734 
2.7249665260314941406 2.586528778076171875 3.0414144992828369141 2.6896402835845947266 1.9393812417984008789 1.1038711071014404297 1.5205481052398681641 1.2750551700592041016 1.4740653038024902344 2.0524094104766845703 1.8730328083038330078 2.1457796096801757813 2.138057708740234375 1.9345138072967529297 2.1312336921691894531 2.5790457725524902344 2.2594201564788818359 2.1642148494720458984 2.2824227809906005859 2.384212493896484375 2.6420710086822509766 2.5066606998443603516 2.4208190441131591797 1.7625641822814941406 1.0934977531433105469 1.0084894895553588867 1.1218603849411010742 1.1754946708679199219 1.2999204397201538086 1.2198169231414794922 1.3642115592956542969 1.4134554862976074219 1.5593135356903076172 1.1973587274551391602 1.1309446096420288086 1.8261470794677734375 1.9880695343017578125 1.4220690727233886719 1.4096517562866210938 1.0362949371337890625 
2.5774672031402587891 2.4211068153381347656 2.9101471900939941406 2.5978696346282958984 1.738396763801574707 1.4237424135208129883 2.2041037082672119141 1.5478730201721191406 2.0980474948883056641 2.8167369365692138672 3.285709381103515625 2.3061873912811279297 1.7830628156661987305 1.7985509634017944336 2.2440404891967773438 2.8764398097991943359 2.5942220687866210938 2.2002615928649902344 2.2695381641387939453 2.1923968791961669922 2.4611909389495849609 2.6280651092529296875 2.4557147026062011719 1.5389369726181030273 1 1.0377285480499267578 1.0772795677185058594 1.1817182302474975586 1.2214653491973876953 1.3414485454559326172 1.3599916696548461914 1.2605324983596801758 1.4183946847915649414 1.1741974353790283203 1.2439988851547241211 1.8172743320465087891 2.0333404541015625 1.5843890905380249023 1.5698628425598144531 1.4676190614700317383 
2.1832585334777832031 2.4287505149841308594 2.5444855690002441406 2.1942582130432128906 2.0310156345367431641 1.4889736175537109375 2.3348250389099121094 2.0833299160003662109 2.3757500648498535156 2.8856689929962158203 2.6226754188537597656 1.9255840778350830078 1.6983010768890380859 2.0321106910705566406 1.9089037179946899414 2.2568032741546630859 2.9464180469512939453 2.2805783748626708984 1.9923743009567260742 1.9835956096649169922 2.0159580707550048828 1.6208131313323974609 1.4955605268478393555 1.4722483158111572266 1.1638102531433105469 1 1 1.0955590009689331055 1.1470664739608764648 1.3068205118179321289 1.3021386861801147461 1.1078308820724487305 1.2142089605331420898 1 1.3072321414947509766 1.5152621269226074219 1.4120198488235473633 1.86795806884765625 1.7535495758056640625 1.5380274057388305664 
2.1023712158203125 2.1798031330108642578 2.247859954833984375 1.7767877578735351563 1.8676964044570922852 1.7562808990478515625 2.0983512401580810547 2.5401570796966552734 1.7557966709136962891 1.8314807415008544922 2.0960714817047119141 1.234943389892578125 1.2286223173141479492 1.1936684846878051758 1.1233265399932861328 1.6921532154083251953 2.3823783397674560547 2.0910902023315429688 1.3768078088760375977 1.3188445568084716797 1.4045318365097045898 1.2556352615356445313 1.3328061103820800781 1.6190485954284667969 1.3327618837356567383 1.1227672100067138672 1.0825215578079223633 1.0079785585403442383 1.0629711151123046875 1.0365800857543945313 1.0098054409027099609 1.2987110614776611328 1.5749367475509643555 1.7572630643844604492 1.5634374618530273438 1.4368277788162231445 1.5788474082946777344 1.9832131862640380859 1.485034942626953125 1.5924105644226074219 
1.94104766845703125 2.3811147212982177734 2.9482014179229736328 2.419338226318359375 1.8614679574966430664 2.3791866302490234375 2.2387492656707763672 2.2726769447326660156 1.4324761629104614258 1.1173437833786010742 1.2915352582931518555 1.158295750617980957 1.2876744270324707031 1.4792188405990600586 1.2602633237838745117 2.0528020858764648438 2.3954050540924072266 1.8736555576324462891 1.2494436502456665039 1.0735151767730712891 1.0480213165283203125 1 1.0363030433654785156 1.5736763477325439453 1.4826978445053100586 1.4806457757949829102 1.1095592975616455078 1.0771335363388061523 1.1759841442108154297 1.1073495149612426758 1.3038269281387329102 1.9102483987808227539 2.0135200023651123047 1.9556633234024047852 1.9038871526718139648 1.6525099277496337891 1.4955396652221679688 1.6222050189971923828 1.5473574399948120117 1.6055959463119506836 
3.168487548828125 3.1356706619262695313 2.7526090145111083984 2.6645882129669189453 2.7885375022888183594 2.7516131401062011719 3.2076287269592285156 2.4750795364379882813 1.9205076694488525391 1.2318170070648193359 1 1.0021948814392089844 1.2168781757354736328 1.4655689001083374023 1.8257526159286499023 1.4357155561447143555 1.6291841268539428711 1.3780801296234130859 1 1.1951251029968261719 1.1798923015594482422 1.1499754190444946289 1.1201127767562866211 1.3719921112060546875 1.6106618642807006836 2.3408970832824707031 2.323169708251953125 1.5995814800262451172 1.582423090934753418 2.16796875 2.3925213813781738281 2.7014865875244140625 2.3183865547180175781 1.823519587516784668 2.0245208740234375 2.2701880931854248047 1.8315500020980834961 1.6384278535842895508 1.4223542213439941406 1.5999532938003540039 
3.4841938018798828125 3.0782921314239501953 2.6597826480865478516 2.3594574928283691406 2.60727691650390625 3.0620286464691162109 3.3591682910919189453 2.6601071357727050781 2.0509476661682128906 1.3836318254470825195 1.126284480094909668 1 1 1 1 1 1.2401371002197265625 1 1 1.0853191614151000977 1.3076479434967041016 1.2601717710494995117 1.1312018632888793945 1.5413198471069335938 2.9945459365844726563 2.4465053081512451172 1.9557373523712158203 1.6530275344848632813 2.2021744251251220703 2.5513896942138671875 2.9752345085144042969 2.6726968288421630859 1.9097723960876464844 1.8222953081130981445 1.8385480642318725586 1.9183229207992553711 1.8990160226821899414 1.6762374639511108398 1.4093744754791259766 1.5666232109069824219 
2.9571003913879394531 2.2033302783966064453 2.0249052047729492188 1.634333491325378418 2.1526951789855957031 2.6016190052032470703 2.6379652023315429688 2.4794185161590576172 2.2121317386627197266 1.2541933059692382813 1 1 1 1 1 1.0099437236785888672 1 1 1 1.076763153076171875 1.2659064531326293945 1.2251191139221191406 1.0909845829010009766 1.1786910295486450195 2.1199126243591308594 1.6359483003616333008 1.6419222354888916016 1.5940351486206054688 2.1449239253997802734 2.5458111763000488281 3.0464475154876708984 2.6451559066772460938 1.6235716342926025391 1.6348626613616943359 1.738291621208190918 1.7218900918960571289 1.501580357551574707 1.5744147300720214844 1.2529016733169555664 1.1427457332611083984 
2.4985721111297607422 2.6654603481292724609 3.0073707103729248047 1.8836052417755126953 2.3863785266876220703 2.1984112262725830078 2.0735952854156494141 1.9142135381698608398 1.6581594944000244141 1.1331422328948974609 1.0674619674682617188 1 1 1 1 1 1 1 1 1.0201141834259033203 1.2014100551605224609 1.1444393396377563477 1 1.6710318326950073242 2.5352802276611328125 2.4481110572814941406 2.4399321079254150391 2.74761962890625 3.0531938076019287109 2.9237349033355712891 2.7082464694976806641 2.5383627414703369141 2.1917965412139892578 1.9701046943664550781 1.6126194000244140625 1.4543992280960083008 1.2489011287689208984 1.2688100337982177734 1.1945335865020751953 1.0838791131973266602 
4.0243983268737792969 4.8527216911315917969 4.8674893379211425781 3.5420835018157958984 3.6184527873992919922 2.2890589237213134766 1.4782016277313232422 1.4561470746994018555 1 1.1147563457489013672 1.1587256193161010742 1 1 1 1 1 1 1 1.0131167173385620117 1.0489249229431152344 1.0766946077346801758 1.1688083410263061523 1.2004889249801635742 2.2802305221557617188 2.5210382938385009766 3.0909659862518310547 3.1885929107666015625 3.1873648166656494141 3.24575042724609375 3.0424661636352539063 3.0375845432281494141 3.3111164569854736328 2.8792750835418701172 2.8124561309814453125 2.4429461956024169922 1.8958711624145507813 1.6785167455673217773 1.4063761234283447266 1.1091417074203491211 1 
3.9292085170745849609 4.1597685813903808594 3.9878094196319580078 3.4580104351043701172 2.9946563243865966797 2.5679113864898681641 1.8727619647979736328 1.6600447893142700195 1 1.2621020078659057617 1.0771123170852661133 1 1 1 1 1 1 1 1 1 1.2252010107040405273 1.284054875373840332 1.6286420822143554688 2.3523399829864501953 2.8091249465942382813 3.0044584274291992188 3.2237515449523925781 3.3678760528564453125 3.3053205013275146484 2.7091958522796630859 3.0675818920135498047 3.5617091655731201172 3.7464385032653808594 3.4323761463165283203 3.0847353935241699219 2.7125935554504394531 1.9155782461166381836 1.1659371852874755859 1.0325816869735717773 1 
4.0908374786376953125 4.3799037933349609375 3.4227879047393798828 3.1511950492858886719 3.4253649711608886719 4.103008270263671875 2.2383711338043212891 2.0936272144317626953 1.4568535089492797852 1.6826928853988647461 1.5347906351089477539 1.0092397928237915039 1 1 1 1 1 1.4115883111953735352 1.5827381610870361328 1.4208974838256835938 1.4214522838592529297 1.8665751218795776367 2.0031239986419677734 2.1780762672424316406 2.5606110095977783203 2.9147341251373291016 2.6181704998016357422 2.7700679302215576172 2.6049635410308837891 2.2305774688720703125 2.7893795967102050781 3.4736852645874023438 3.8178474903106689453 3.4824755191802978516 3.2489159107208251953 2.8166422843933105469 1.8528859615325927734 1.1641727685928344727 1 1 
3.1881022453308105469 3.3587284088134765625 3.3962743282318115234 2.726329803466796875 2.2774686813354492188 3.6871886253356933594 2.3822023868560791016 2.8052113056182861328 1.7219536304473876953 1.6189720630645751953 1.6730761528015136719 1.2096794843673706055 1.2490975856781005859 1 1 1 1.273822784423828125 1.4068034887313842773 1.2509483098983764648 1.4018080234527587891 1.4817667007446289063 1.5748870372772216797 1.3141990900039672852 1.7277835607528686523 2.5411438941955566406 2.6139578819274902344 2.0354254245758056641 2.2908115386962890625 2.2136862277984619141 2.0194408893585205078 2.2649953365325927734 3.2129354476928710938 3.7006659507751464844 3.6631433963775634766 3.0843672752380371094 2.399631500244140625 1.6469322443008422852 1.5482761859893798828 1 1 
2.9024562835693359375 2.5383791923522949219 2.6700375080108642578 3.4146502017974853516 1.9325472116470336914 1.5547995567321777344 2.0310032367706298828 2.6244766712188720703 1.5750411748886108398 1.4455472230911254883 1.5804349184036254883 1.3557770252227783203 1 1 1.1586130857467651367 1.4547934532165527344 1.6159703731536865234 1.3401426076889038086 1 1.2137595415115356445 1.5101294517517089844 1.2405322790145874023 1.0401244163513183594 1.2084817886352539063 1.8565024137496948242 2.3315157890319824219 2.0574357509613037109 2.3138818740844726563 2.5372288227081298828 2.2154557704925537109 2.3342013359069824219 2.7675385475158691406 3.6450331211090087891 3.6716251373291015625 3.3188836574554443359 2.9051773548126220703 1.9049590826034545898 1.6918933391571044922 1 1 
3.0589389801025390625 3.1908750534057617188 2.5583908557891845703 2.4095110893249511719 2.7849624156951904297 2.5768401622772216797 2.1328513622283935547 2.4307773113250732422 2.3562636375427246094 2.0739538669586181641 1.6880099773406982422 1.2575316429138183594 1.2696350812911987305 1.1939569711685180664 1.2194195985794067383 1.2715420722961425781 1.4517308473587036133 1.3526917695999145508 1.0414177179336547852 1.0750283002853393555 1.5283509492874145508 1.6850534677505493164 1.7355315685272216797 1.6504533290863037109 1.841736912727355957 2.1657049655914306641 2.9198846817016601563 2.9075551033020019531 2.5206480026245117188 2.4082682132720947266 2.5373737812042236328 2.6754827499389648438 3.2393810749053955078 3.1349387168884277344 2.6877737045288085938 3.2872142791748046875 1.7767183780670166016 1.030614018440246582 1 1 
2.7658736705780029297 3.4286980628967285156 3.3482930660247802734 2.7673976421356201172 2.9189920425415039063 2.3558263778686523438 1.8639520406723022461 1.9723756313323974609 2.6810717582702636719 2.0721149444580078125 1.7824876308441162109 2.1262705326080322266 2.1312685012817382813 1.5511189699172973633 1.4229768514633178711 1.2292422056198120117 1.1891142129898071289 1.3934016227722167969 1.6923650503158569336 1.8012953996658325195 1.9777278900146484375 2.0939857959747314453 2.1970832347869873047 1.9834046363830566406 1.5543309450149536133 1.766669154167175293 2.5255048274993896484 3.0280547142028808594 2.7976772785186767578 2.791538238525390625 2.4641692638397216797 2.2946808338165283203 2.7986817359924316406 3.2347989082336425781 3.1592459678649902344 3.6071302890777587891 2.448024749755859375 1.2557350397109985352 1.0094519853591918945 1 
2.3435208797454833984 3.0551197528839111328 3.3542401790618896484 2.6632046699523925781 2.0621747970581054688 2.0249531269073486328 1.4432795047760009766 1.4497773647308349609 2.0897500514984130859 2.4077985286712646484 2.7883274555206298828 2.6356384754180908203 2.4436097145080566406 2.5956211090087890625 2.8850576877593994141 2.8779687881469726563 2.8382716178894042969 2.7982330322265625 3.4006905555725097656 3.5676989555358886719 3.2211005687713623047 3.1911299228668212891 2.8102171421051025391 1.6801131963729858398 1.5232015848159790039 1.3339409828186035156 2.0248339176177978516 2.7181799411773681641 1.9950368404388427734 2.1445226669311523438 2.0368447303771972656 2.1617324352264404297 2.6395325660705566406 2.8276352882385253906 3.2594618797302246094 3.5582711696624755859 2.8957307338714599609 1.9476703405380249023 1.1825404167175292969 1 
