ncols        40
nrows        40
xllcorner    -0.000000000000
yllcorner    0.000000000000
cellsize     5.000000000000
NODATA_value nan
2.9645240306854248047 3.0258820056915283203 2.49090576171875 2.4304699897766113281 2.3057084083557128906 2.8615398406982421875 2.31134033203125 1.7104033231735229492 1.5611844062805175781 2.0440495014190673828 1.7018995285034179688 1.1058480739593505859 1.0140515565872192383 1.0359911918640136719 1.0158395767211914063 1.1494618654251098633 1.3328294754028320313 1.8148518800735473633 2.7548859119415283203 1.8753529787063598633 1.7496782541275024414 2.7172286510467529297 2.4642713069915771484 2.0328850746154785156 2.3667478561401367188 2.6843085289001464844 2.7462885379791259766 2.2267720699310302734 1.0769186019897460938 1.4406441450119018555 1.8365595340728759766 1.0402975082397460938 1.3631227016448974609 1.5671476125717163086 1.0414431095123291016 1.0446717739105224609 1.8256191015243530273 2.58802032470703125 4.6764879226684570313 4.866939544677734375 
3.1848897933959960938 2.9525392055511474609 2.5128524303436279297 1.7728734016418457031 1.7396924495697021484 2.3643717765808105469 2.5047886371612548828 2.3063814640045166016 2.2149326801300048828 1.6617895364761352539 1.0574920177459716797 1.0874724388122558594 1.0179477930068969727 1.1965711116790771484 1.3417364358901977539 2.3043010234832763672 1.352095484733581543 1.1332110166549682617 1.599692225456237793 1.5653194189071655273 1.9006408452987670898 3.1654155254364013672 2.7633881568908691406 2.5707607269287109375 3.0637350082397460938 3.0553977489471435547 2.7457013130187988281 2.1411566734313964844 1.1497331857681274414 1.0267871618270874023 1.0196779966354370117 1.0859314203262329102 1.0018573999404907227 1.011668086051940918 1.1664581298828125 1.2415647506713867188 1.8783864974975585938 3.0235230922698974609 5.0942492485046386719 4.2846570014953613281 
3.8857333660125732422 3.3631756305694580078 2.0950903892517089844 1.7234007120132446289 1.9860833883285522461 2.6656632423400878906 2.708038330078125 2.0363335609436035156 1.7605559825897216797 1.0687911510467529297 1.0098059177398681641 1.0154970884323120117 1.2262411117553710938 1.0318777561187744141 1.4930938482284545898 2.0600805282592773438 1.9921412467956542969 1.3684641122817993164 1.9982239007949829102 2.1327259540557861328 1.9378653764724731445 3.0024220943450927734 3.3902032375335693359 3.4784493446350097656 3.0349287986755371094 2.9807691574096679688 2.3067417144775390625 1.9100193977355957031 1.0101418495178222656 1.037381291389465332 1.0003247261047363281 1.3198632001876831055 1.800736546516418457 1.6351630687713623047 1.9037268161773681641 2.7043406963348388672 2.8347299098968505859 3.6391255855560302734 4.2754569053649902344 4.9839277267456054688 
2.7003190517425537109 2.7793035507202148438 2.0858526229858398438 2.0873825550079345703 2.7037482261657714844 2.9019329547882080078 2.6448998451232910156 1.6575832366943359375 1.2552794218063354492 1.0248007774353027344 1.033022761344909668 1.0063815116882324219 1.1748625040054321289 1.144089818000793457 1.1901843547821044922 1.4857710599899291992 1.045584559440612793 1.7124761343002319336 1.9206889867782592773 1.5628635883331298828 1.7431485652923583984 1.9092420339584350586 2.8190693855285644531 3.2349102497100830078 3.1493654251098632813 3.1387813091278076172 2.5668101310729980469 1.8947123289108276367 1.4625257253646850586 1.5023615360260009766 1.6146576404571533203 1.2447952032089233398 1.6313374042510986328 2.0164361000061035156 2.8086466789245605469 3.9082326889038085938 3.5267574787139892578 4.1629643440246582031 5.2846527099609375 5.2098250389099121094 
2.5890607833862304688 2.5916714668273925781 2.1560776233673095703 2.1169555187225341797 3.1711947917938232422 2.9795711040496826172 2.5562074184417724609 1.9854848384857177734 2.5224316120147705078 1.717394709587097168 1.2617809772491455078 1.2691025733947753906 1.3141157627105712891 1.2167649269104003906 1.0033779144287109375 1.2751239538192749023 1.043240666389465332 1.9447154998779296875 1.9347097873687744141 1.3242495059967041016 1.9345521926879882813 1.5030440092086791992 2.4700336456298828125 2.7483446598052978516 2.1165502071380615234 2.4923539161682128906 2.1139116287231445313 1.5213131904602050781 1.8805840015411376953 2.4577775001525878906 3.1170835494995117188 3.3624753952026367188 2.9522485733032226563 4.5993490219116210938 4.1674022674560546875 4.2458558082580566406 3.480770111083984375 4.1611323356628417969 4.8417139053344726563 4.5083894729614257813 
2.9538512229919433594 3.4234991073608398438 2.7734990119934082031 1.9892716407775878906 3.0326559543609619141 3.0118722915649414063 2.5172567367553710938 3.1402957439422607422 3.4431464672088623047 2.988742828369140625 2.3948595523834228516 1.629960179328918457 1.525137782096862793 1.0061875581741333008 1.0254095792770385742 1.0130994319915771484 1.1972420215606689453 1.0003941059112548828 1.3830413818359375 1.520897984504699707 1.458334803581237793 1.7378417253494262695 1.6204904317855834961 1.7859253883361816406 1.7355500459671020508 1.6485781669616699219 1.3256915807723999023 1.5285277366638183594 2.1606478691101074219 2.5388274192810058594 3.1156127452850341797 2.8774731159210205078 3.0092253684997558594 3.9034612178802490234 3.8737230300903320313 3.6612007617950439453 3.4496092796325683594 3.6832404136657714844 2.9286191463470458984 2.5991668701171875 
3.1018135547637939453 3.9367237091064453125 3.3206260204315185547 3.1186132431030273438 3.2855865955352783203 2.8130936622619628906 2.6133341789245605469 3.4223172664642333984 3.0761327743530273438 2.6879382133483886719 1.7977830171585083008 1.9399896860122680664 1.8591922521591186523 1.0095580816268920898 1.025221705436706543 1.0658533573150634766 1.4149639606475830078 1.1592581272125244141 1.3325291872024536133 1.1866123676300048828 1.4743142127990722656 1.9429327249526977539 1.45211029052734375 1.3979967832565307617 1.8434451818466186523 2.2386486530303955078 2.0113232135772705078 2.0078666210174560547 2.6264488697052001953 2.8403398990631103516 3.8199431896209716797 4.3621568679809570313 3.8775382041931152344 4.4605541229248046875 5.1632633209228515625 4.048404693603515625 3.6779375076293945313 4.2584371566772460938 2.3196749687194824219 1.9067310094833374023 
1.998736262321472168 2.9929296970367431641 3.0481364727020263672 2.2682020664215087891 2.2462873458862304688 2.5021724700927734375 2.9115579128265380859 3.3163745403289794922 2.9167180061340332031 2.5202510356903076172 1.8912909030914306641 1.5132018327713012695 1.3916995525360107422 1.149586796760559082 1.0053873062133789063 1.0683343410491943359 1.5089864730834960938 1.178265690803527832 1.8798096179962158203 2.0320949554443359375 1.6421399116516113281 2.207763671875 2.0526332855224609375 1.0064033269882202148 1.6433426141738891602 2.1427471637725830078 1.8120923042297363281 2.3365406990051269531 2.7380838394165039063 3.4039080142974853516 4.0239500999450683594 4.0960969924926757813 4.7161502838134765625 4.4487195014953613281 4.7661356925964355469 2.8351633548736572266 3.4912703037261962891 4.9364833831787109375 2.5453221797943115234 1.1059027910232543945 
1.4450130462646484375 1.7747006416320800781 2.1370794773101806641 1.6176455020904541016 1.8896410465240478516 2.2716367244720458984 2.3435056209564208984 2.8646562099456787109 2.66716766357421875 2.5069108009338378906 2.5525109767913818359 2.05641937255859375 2.1240792274475097656 1.0339261293411254883 1.0174757242202758789 1.2812068462371826172 2.1119101047515869141 1.9918485879898071289 2.1358168125152587891 2.4627146720886230469 2.0530548095703125 1.5157670974731445313 1.2586650848388671875 1.2794842720031738281 1.736769556999206543 1.8257271051406860352 1.1667413711547851563 1.3300057649612426758 1.7434659004211425781 2.6681191921234130859 3.3303449153900146484 3.4939594268798828125 3.8816487789154052734 3.1384782791137695313 2.6495087146759033203 2.3287143707275390625 4.0089387893676757813 5.5215430259704589844 3.0282104015350341797 1.1435549259185791016 
1.024158477783203125 1.0171616077423095703 1.4293761253356933594 1.2171661853790283203 1.8445430994033813477 1.9424117803573608398 3.2953455448150634766 3.6834642887115478516 3.2615742683410644531 2.5797076225280761719 2.1358761787414550781 2.2847418785095214844 2.1444146633148193359 1.4209274053573608398 1.0322471857070922852 1.0157146453857421875 1.8240582942962646484 2.1547522544860839844 1.9343607425689697266 2.8732912540435791016 1.99974822998046875 1.3544669151306152344 1.3099472522735595703 1.7440607547760009766 1.7698180675506591797 1.002698063850402832 1.0238096714019775391 1.3510988950729370117 1.397086024284362793 1.7952810525894165039 2.620426177978515625 2.6784353256225585938 3.51163482666015625 2.8262584209442138672 1.4225783348083496094 1.6425443887710571289 2.8201377391815185547 3.4760127067565917969 2.9828734397888183594 2.3334715366363525391 
1.7189509868621826172 1.3560121059417724609 1.3636717796325683594 1.4419399499893188477 1.3883423805236816406 2.0541841983795166016 4.7363171577453613281 4.6378231048583984375 2.9224507808685302734 2.3075966835021972656 1.6044766902923583984 1.027935028076171875 1.1408916711807250977 1.2014936208724975586 1.0279252529144287109 1.1985813379287719727 1.0463653802871704102 2.3672277927398681641 2.6167833805084228516 1.9667109251022338867 1.4405467510223388672 1.3226137161254882813 1.3487316370010375977 1.6075761318206787109 1.4613144397735595703 1.0873891115188598633 2.1736447811126708984 1.4870283603668212891 1.4514660835266113281 1.5114816427230834961 1.9012426137924194336 2.7880737781524658203 3.1346399784088134766 2.7744169235229492188 2.1613550186157226563 1.953955531120300293 2.4497768878936767578 2.8511178493499755859 2.7699286937713623047 2.2349565029144287109 
2.2651770114898681641 1.7743507623672485352 1.0071437358856201172 1.4749981164932250977 1.1941570043563842773 1.6561275720596313477 3.2562699317932128906 3.7232081890106201172 2.2963685989379882813 1.4890432357788085938 1.2990638017654418945 1.3730609416961669922 1.3151279687881469727 1.4618093967437744141 1.1843761205673217773 1.1430785655975341797 1.0829602479934692383 2.1339678764343261719 1.1820811033248901367 1.3693947792053222656 2.1367802619934082031 2.4085295200347900391 1.8789788484573364258 1.6178694963455200195 1.2994252443313598633 1.0719395875930786133 1.404056549072265625 1.16571807861328125 1.4866110086441040039 1.7806184291839599609 1.4709185361862182617 1.2860002517700195313 1.5671447515487670898 2.2212138175964355469 2.7266483306884765625 2.4182000160217285156 3.1078290939331054688 2.8518357276916503906 2.6450963020324707031 2.4672486782073974609 
2.5620329380035400391 1.8997857570648193359 1.8210055828094482422 1.1007187366485595703 1.3734139204025268555 1.3762049674987792969 2.5459995269775390625 2.9819111824035644531 1.6041594743728637695 1.1037678718566894531 1.2791717052459716797 1.9473816156387329102 3.1074950695037841797 2.2564673423767089844 1.6797010898590087891 1.4867985248565673828 1.8723752498626708984 1.6190024614334106445 1.3201845884323120117 1.1634458303451538086 1.8873742818832397461 2.4391722679138183594 2.2144677639007568359 2.0744080543518066406 1.7057077884674072266 1.259638667106628418 1.0261367559432983398 1.0050321817398071289 1.2622534036636352539 1.3090097904205322266 1.070950627326965332 1.8148328065872192383 1.287709355354309082 2.0158066749572753906 2.8014433383941650391 3.4662554264068603516 3.6239745616912841797 3.8795824050903320313 3.839374542236328125 2.9848186969757080078 
1.7428919076919555664 1.7384585142135620117 1.4661569595336914063 1.0059504508972167969 1.3294520378112792969 1.7762379646301269531 2.2201726436614990234 2.1242442131042480469 1.6120405197143554688 1.001932978630065918 1.9967637062072753906 2.6662099361419677734 4.9714136123657226563 2.8643937110900878906 1.8113310337066650391 2.3875353336334228516 1.1128920316696166992 1.9906116724014282227 1.6438928842544555664 1.8288033008575439453 2.9728007316589355469 3.8079137802124023438 3.9079539775848388672 2.6937134265899658203 2.0411396026611328125 2.1161220073699951172 1.1003391742706298828 1.19309234619140625 1.0408285856246948242 1.0155631303787231445 1.0671565532684326172 1.6914958953857421875 1.2732508182525634766 1.9901787042617797852 3.0705456733703613281 3.298786163330078125 3.3325819969177246094 3.4811396598815917969 3.9680459499359130859 3.6729519367218017578 
1.1071563959121704102 1.0004912614822387695 1.1855616569519042969 1.6835280656814575195 1.66631317138671875 1.5522714853286743164 1.8876994848251342773 1.6509351730346679688 1.3261492252349853516 1.1351610422134399414 1.4234601259231567383 1.9975123405456542969 4.8783802986145019531 3.7032287120819091797 2.394733428955078125 2.5927107334136962891 1.1486918926239013672 1.1059561967849731445 1.0900163650512695313 2.1821503639221191406 4.2143635749816894531 5.9747967720031738281 4.9878449440002441406 3.6000897884368896484 1.5298931598663330078 1.8143558502197265625 1.0226559638977050781 1 1.001023411750793457 1.180977940559387207 1.1034528017044067383 1.0227853059768676758 1.9814723730087280273 2.8136217594146728516 3.2078466415405273438 3.1340036392211914063 3.1855027675628662109 3.5144236087799072266 3.1074726581573486328 3.6187238693237304688 
1.7519811391830444336 1.1840401887893676758 1.0686153173446655273 2.6740224361419677734 2.2696397304534912109 1.3871088027954101563 1.7810521125793457031 1.2731744050979614258 1 1.0423961877822875977 1.80365753173828125 2.1611826419830322266 5.2439141273498535156 3.60378265380859375 2.7075662612915039063 1.9300975799560546875 1.4453819990158081055 1.0022828578948974609 1.6707599163055419922 2.7006533145904541016 3.8807575702667236328 5.8614292144775390625 5.1957354545593261719 3.6996824741363525391 1.1300957202911376953 1.1079653501510620117 1.0112206935882568359 1.0357900857925415039 1.0597772598266601563 1.0228488445281982422 1.0678218603134155273 1.1079183816909790039 1.2382445335388183594 2.1302020549774169922 2.8748779296875 3.1664433479309082031 2.7476491928100585938 3.5163130760192871094 3.9395940303802490234 3.2848882675170898438 
3.0192356109619140625 2.2994954586029052734 1.5924791097640991211 1.6848597526550292969 1.4058245420455932617 1.1376774311065673828 1.3760974407196044922 1.7185323238372802734 1.3507170677185058594 1.0081197023391723633 1.9977103471755981445 2.3399040699005126953 4.5008692741394042969 2.5624685287475585938 1.135552525520324707 1.0139756202697753906 1.0123959779739379883 1.1211467981338500977 1.7726780176162719727 2.5707449913024902344 2.5432803630828857422 4.6083192825317382813 4.4945917129516601563 3.1322615146636962891 1.0876053571701049805 1.0147265195846557617 1.0339992046356201172 1.0039795637130737305 1.0086066722869873047 1.2071489095687866211 1.1173038482666015625 1.2170391082763671875 2.2609934806823730469 2.1613664627075195313 2.8438920974731445313 2.8783245086669921875 2.5310132503509521484 2.9894652366638183594 4.0355095863342285156 2.9814274311065673828 
3.9876680374145507813 2.8471601009368896484 2.0774066448211669922 1.5026429891586303711 1.0454173088073730469 1.170271754264831543 1.195593714714050293 2.0228476524353027344 1.7584737539291381836 1.0262175798416137695 1.5257315635681152344 1.9369131326675415039 2.2387552261352539063 1.7247159481048583984 1.001453399658203125 1.2120953798294067383 1.0241903066635131836 1.1331477165222167969 2.0125057697296142578 1.8901325464248657227 1.9262535572052001953 4.0186595916748046875 3.7995641231536865234 2.0980648994445800781 1.2864180803298950195 1.1546455621719360352 1.0416699647903442383 1.1545512676239013672 1.1316472291946411133 1.0163828134536743164 1.1763761043548583984 1.3738371133804321289 2.7442154884338378906 3.8669726848602294922 4.6635546684265136719 2.7814438343048095703 2.7666611671447753906 3.2886517047882080078 3.7715079784393310547 2.8929731845855712891 
4.0054841041564941406 2.9000225067138671875 2.2822833061218261719 1.6115767955780029297 1.4230698347091674805 1.4675092697143554688 1.2976641654968261719 1.8976056575775146484 1.5816315412521362305 1.5174883604049682617 1.6768530607223510742 1.6297980546951293945 1.3849093914031982422 1.0909147262573242188 1.0079476833343505859 1.0713697671890258789 1.0917696952819824219 1.131556391716003418 1.822714686393737793 1.539067387580871582 1.779372096061706543 3.0553925037384033203 2.4916522502899169922 1.3858846426010131836 1.2182847261428833008 1.004122614860534668 1.0013436079025268555 1.1546418666839599609 1.014841914176940918 1.2033305168151855469 1.2179667949676513672 1.0011385679244995117 1.8350380659103393555 3.8745741844177246094 6.0745100975036621094 3.8635582923889160156 2.8425204753875732422 4.1459140777587890625 3.3162796497344970703 2.9692378044128417969 
2.7649204730987548828 2.7433245182037353516 3.4057180881500244141 2.0556769371032714844 2.0186448097229003906 1.9792284965515136719 1.7679488658905029297 2.6728360652923583984 2.0287523269653320313 1.1064100265502929688 1.2161945104598999023 1.0018846988677978516 1.0278422832489013672 1 1.0185477733612060547 1 1.0377517938613891602 1.0406593084335327148 1.8331819772720336914 1.8609775304794311523 2.2558484077453613281 2.4958739280700683594 2.1206753253936767578 2.0113048553466796875 1.2282683849334716797 1.0582405328750610352 1.0030298233032226563 1.0065510272979736328 1.1239209175109863281 1.0299808979034423828 1.289759516716003418 1.0338373184204101563 1.3908442258834838867 2.3839089870452880859 3.3718488216400146484 3.3849847316741943359 3.6075332164764404297 4.7561769485473632813 4.6486997604370117188 4.3988547325134277344 
1.9079262018203735352 2.5433690547943115234 1.9620254039764404297 1.7505441904067993164 2.4495756626129150391 3.1418046951293945313 2.5475356578826904297 3.3854084014892578125 3.0000379085540771484 1.7119739055633544922 1.7509205341339111328 1.2076489925384521484 1.0772849321365356445 1.0992277860641479492 1.76033782958984375 1.2314820289611816406 1.1736383438110351563 1.4660699367523193359 2.0621306896209716797 2.4084041118621826172 3.5724875926971435547 4.2566561698913574219 3.5765974521636962891 2.7337431907653808594 1.834625244140625 1.0191340446472167969 1.0094455480575561523 1.1271269321441650391 1.0172526836395263672 1.1858663558959960938 1.2906235456466674805 1.9748747348785400391 1.2487912178039550781 1.638867497444152832 1.9459577798843383789 2.7554149627685546875 3.0340046882629394531 2.7007155418395996094 3.4209430217742919922 4.7889819145202636719 
1.2183218002319335938 1.5834404230117797852 2.0738871097564697266 1.9606481790542602539 2.3255999088287353516 2.5668256282806396484 2.1729836463928222656 2.6629505157470703125 2.4360737800598144531 2.1923260688781738281 2.4696011543273925781 1.0253566503524780273 1.153424382209777832 1.0312877893447875977 1.321766972541809082 2.3947622776031494141 3.3767430782318115234 3.2735438346862792969 3.1951689720153808594 2.7439234256744384766 3.8336381912231445313 4.1051454544067382813 4.4857602119445800781 3.6322820186614990234 3.2560570240020751953 1.9789495468139648438 1.1244581937789916992 1.0007878541946411133 1.0221474170684814453 1.0054956674575805664 1.2818043231964111328 2.2358584403991699219 1.0158507823944091797 1.0032221078872680664 1.467132568359375 2.5308597087860107422 2.3439557552337646484 2.5907528400421142578 2.4015672206878662109 2.4907283782958984375 
1.2105175256729125977 2.0737340450286865234 2.4458918571472167969 2.1171584129333496094 1.4682123661041259766 1.9808175563812255859 2.0059437751770019531 2.2504518032073974609 2.3353624343872070313 2.2148346900939941406 2.1929028034210205078 1.3824703693389892578 1.0104753971099853516 1.0095229148864746094 1.2034307718276977539 1.5943748950958251953 1.9586588144302368164 3.7509257793426513672 3.9916455745697021484 3.5235781669616699219 3.3441038131713867188 3.3600337505340576172 3.0449876785278320313 4.1651148796081542969 3.4494781494140625 2.2402181625366210938 2.1391017436981201172 2.0346758365631103516 1.4592431783676147461 1.0031431913375854492 1.0586522817611694336 1.1449056863784790039 1.0363619327545166016 1.1829532384872436523 1.582190394401550293 2.2319324016571044922 2.1217067241668701172 2.4004638195037841797 2.3768410682678222656 2.2120690345764160156 
2.1497740745544433594 3.2687485218048095703 3.5151259899139404297 4.377532958984375 2.4613103866577148438 2.2032961845397949219 1.949091792106628418 2.1187014579772949219 1.0675979852676391602 1.2536101341247558594 1.1718385219573974609 1.2175248861312866211 1.7072232961654663086 1.0321502685546875 1.0025448799133300781 1.1405203342437744141 1.1776170730590820313 2.0117719173431396484 2.6761555671691894531 2.6162574291229248047 3.1401286125183105469 3.8400244712829589844 3.9058237075805664063 3.0678970813751220703 2.3433094024658203125 1.8813339471817016602 2.2903058528900146484 2.0961556434631347656 2.0466907024383544922 1.4298036098480224609 1.9069702625274658203 1.3908960819244384766 1.0035938024520874023 1.46396636962890625 1.6694772243499755859 2.1330738067626953125 1.1801868677139282227 1.4796451330184936523 1.6245990991592407227 2.2092013359069824219 
3.6777517795562744141 4.0696043968200683594 5.2094044685363769531 4.8758254051208496094 2.9987311363220214844 2.1376216411590576172 1.501925349235534668 1.0081485509872436523 1.3140486478805541992 1.5614718198776245117 1.8229917287826538086 1.1454654932022094727 1.1005861759185791016 1.1006066799163818359 1.1323910951614379883 1.0143642425537109375 1.0824999809265136719 1.129317164421081543 1.5600693225860595703 1.786288142204284668 2.7070474624633789063 3.8411190509796142578 3.2180676460266113281 2.1760880947113037109 1.7652403116226196289 2.0635995864868164063 2.1730725765228271484 2.1595838069915771484 2.9175045490264892578 2.5086355209350585938 2.4186887741088867188 1.1703664064407348633 1.0027343034744262695 1.4437432289123535156 1.3412476778030395508 1.4553699493408203125 1.0817296504974365234 1.2317836284637451172 1.6274465322494506836 1.9777008295059204102 
3.4737563133239746094 4.8613181114196777344 5.6604766845703125 4.1192507743835449219 2.4426164627075195313 1.3691008090972900391 1.1108945608139038086 1.0158361196517944336 1.3727712631225585938 1.6655389070510864258 1.3526710271835327148 1.0086863040924072266 1.1265023946762084961 1.2094578742980957031 1.2613979578018188477 1.277988433837890625 1.3817920684814453125 1.3730504512786865234 1.8272894620895385742 1.9275865554809570313 1.9429090023040771484 2.2505037784576416016 1.3633339405059814453 1.0082163810729980469 1.1385729312896728516 1.7300426959991455078 2.0984489917755126953 1.904361724853515625 3.0825400352478027344 2.8422322273254394531 2.3948268890380859375 1.1853048801422119141 1.0612447261810302734 1.1383336782455444336 1.4653050899505615234 1.16881561279296875 1.3726972341537475586 1.9956502914428710938 1.6264312267303466797 1.3844913244247436523 
3.6550366878509521484 4.9166250228881835938 5.016693115234375 3.6718492507934570313 2.0846188068389892578 1.2545577287673950195 1.02400970458984375 1.041224360466003418 1.0172666311264038086 1.0251314640045166016 1.0237975120544433594 1.1265358924865722656 1.2827687263488769531 1.2909930944442749023 1.7402702569961547852 1.5633753538131713867 1.4161834716796875 1.5844228267669677734 2.2801456451416015625 2.8701174259185791016 2.2191400527954101563 2.2487876415252685547 1.3992767333984375 1.0549123287200927734 1.019812464714050293 1.2011148929595947266 1.7313158512115478516 1.7000826597213745117 2.1628127098083496094 2.1751241683959960938 1.9259316921234130859 1.4585056304931640625 1.4203141927719116211 1.6862889528274536133 2.1130547523498535156 2.1255245208740234375 1.8762987852096557617 2.3265020847320556641 1.886098027229309082 1.1248086690902709961 
3.3310174942016601563 4.5064258575439453125 3.3606998920440673828 2.7616229057312011719 2.1471829414367675781 1.8144661188125610352 2.2600016593933105469 2.2896056175231933594 1.8274112939834594727 1.3443485498428344727 1.5073605775833129883 1.2721242904663085938 1.0376049280166625977 1.1432703733444213867 1.0070927143096923828 1.3142330646514892578 1.433705449104309082 1.4997167587280273438 2.6069538593292236328 3.0250239372253417969 2.582088470458984375 1.8415552377700805664 1.4052728414535522461 1.0522047281265258789 1.0626837015151977539 1.1112501621246337891 1.2020059823989868164 1.2491070032119750977 1.2319390773773193359 1.517416834831237793 1.299353480339050293 1.3386647701263427734 1.4214606285095214844 1.6540648937225341797 1.7675722837448120117 2.5555665493011474609 3.1984739303588867188 2.7541530132293701172 2.1493327617645263672 1.5246014595031738281 
2.7552840709686279297 3.0664007663726806641 2.6977155208587646484 3.0302498340606689453 2.6281831264495849609 2.4870400428771972656 3.7854294776916503906 3.6573948860168457031 2.7204437255859375 2.89063262939453125 2.1089208126068115234 1.6060605049133300781 1.2740304470062255859 1.0023876428604125977 1.3232316970825195313 1.0013328790664672852 1.1005637645721435547 1.4691507816314697266 1.4560285806655883789 2.6734271049499511719 2.3123619556427001953 1.6102151870727539063 1.224894404411315918 1.0203739404678344727 1.0010612010955810547 1.8301527500152587891 1.6607298851013183594 1.2527533769607543945 1.5067681074142456055 1.2804493904113769531 1.0188895463943481445 1.0733788013458251953 1.3044801950454711914 1.748292088508605957 1.8986707925796508789 2.898052215576171875 4.2089748382568359375 4.2199201583862304688 3.6245214939117431641 2.3993496894836425781 
1.6409044265747070313 1.7956638336181640625 1.5594451427459716797 2.6697549819946289063 1.9356081485748291016 1.9356397390365600586 3.4811704158782958984 4.225826263427734375 3.7666766643524169922 3.1120190620422363281 2.8445553779602050781 2.9438986778259277344 2.8581972122192382813 1.8969463109970092773 1.735852360725402832 1.3826493024826049805 1.1850465536117553711 1.5139253139495849609 1.7818464040756225586 2.2467389106750488281 2.6005349159240722656 1.6639531850814819336 1.0219264030456542969 1.3222841024398803711 2.1285500526428222656 2.3180935382843017578 1.4537460803985595703 1.2876833677291870117 1.5548648834228515625 1.437607884407043457 1.6362626552581787109 1.22212982177734375 1.2930572032928466797 2.1408812999725341797 2.9984047412872314453 3.5425860881805419922 4.5856604576110839844 4.8015923500061035156 3.9913847446441650391 3.52303314208984375 
1.0171631574630737305 1.1203289031982421875 1.1661272048950195313 1.5351536273956298828 1.5211545228958129883 1.359452366828918457 2.3891596794128417969 3.0849606990814208984 4.0471034049987792969 4.4217753410339355469 3.0968759059906005859 3.3209197521209716797 3.740039825439453125 3.2329163551330566406 2.9850192070007324219 2.47283172607421875 1.8046773672103881836 1.9542791843414306641 1.9359968900680541992 2.5128512382507324219 2.7282390594482421875 2.0203533172607421875 1.2878171205520629883 1.2842329740524291992 1.5460982322692871094 1.2529022693634033203 1.0519675016403198242 1.2415853738784790039 1.3794206380844116211 1.1419197320938110352 1.4806734323501586914 1.3196530342102050781 1.1585160493850708008 2.0848052501678466797 3.3740916252136230469 4.0702948570251464844 4.6081709861755371094 4.3879003524780273438 3.8455893993377685547 4.1982202529907226563 
1.0090957880020141602 1.2673611640930175781 1.6479525566101074219 1.3660542964935302734 1.1591246128082275391 1.2335455417633056641 1.7612444162368774414 2.2421426773071289063 3.9483654499053955078 4.621891021728515625 3.1793909072875976563 3.9622964859008789063 4.2934312820434570313 3.6437666416168212891 3.2943241596221923828 2.5476131439208984375 2.36582183837890625 2.8034610748291015625 1.9303132295608520508 2.1808323860168457031 2.3836698532104492188 2.3578975200653076172 1.8508816957473754883 1.3921462297439575195 1.5976825952529907227 1.1006836891174316406 1.1344037055969238281 1.1717256307601928711 1.1538068056106567383 1.1559970378875732422 1.5952304601669311523 1.3432775735855102539 1.0764547586441040039 1.6681085824966430664 2.5827665328979492188 2.8533928394317626953 3.2233998775482177734 3.5106625556945800781 3.9144809246063232422 3.5742597579956054688 
2.2459673881530761719 2.7709441184997558594 3.0590901374816894531 1.6404792070388793945 1.874714970588684082 1.4111566543579101563 1.8812199831008911133 2.4327726364135742188 4.4199290275573730469 3.7401280403137207031 3.5517995357513427734 4.445835113525390625 5.7965188026428222656 5.560878753662109375 4.1467585563659667969 3.0228340625762939453 2.4824171066284179688 2.4290335178375244141 1.7509562969207763672 1.9128974676132202148 2.6735641956329345703 2.6896126270294189453 2.3660728931427001953 1.773749232292175293 1.131605982780456543 1.126739501953125 1.1718055009841918945 1.24842071533203125 1.2208808660507202148 1.6306509971618652344 1.6621679067611694336 1.7239989042282104492 1.6280237436294555664 1.7950985431671142578 2.094501495361328125 2.7708921432495117188 3.2850184440612792969 3.9191749095916748047 4.1401243209838867188 3.97274017333984375 
2.1376492977142333984 2.4253439903259277344 2.4842870235443115234 1.9969456195831298828 1.2038381099700927734 1.2550210952758789063 1.2876064777374267578 1.5386801958084106445 2.3298485279083251953 3.2326712608337402344 3.2110230922698974609 3.4563047885894775391 4.82567596435546875 5.1916627883911132813 4.2137298583984375 3.6972277164459228516 2.7673690319061279297 2.0441126823425292969 1.6969836950302124023 1.6096769571304321289 1.8920781612396240234 2.4210026264190673828 2.8823809623718261719 2.686321258544921875 1.6976364850997924805 1.4113726615905761719 1.3633188009262084961 1.265944361686706543 1.60204315185546875 2.2543578147888183594 2.4638433456420898438 2.2901620864868164063 1.806351780891418457 2.2562541961669921875 2.2599050998687744141 2.5515246391296386719 3.5564236640930175781 4.348621368408203125 5.1977739334106445313 3.4400165081024169922 
2.2265977859497070313 2.5965027809143066406 2.1325562000274658203 1.6379050016403198242 1.3274846076965332031 2.5966715812683105469 1.5264257192611694336 1.2292274236679077148 1.5169489383697509766 2.1837551593780517578 3.0834629535675048828 3.3468954563140869141 3.5125474929809570313 5.2678885459899902344 4.8223123550415039063 3.9233641624450683594 2.7381117343902587891 1.8735202550888061523 1.8317227363586425781 1.3073530197143554688 1.5911480188369750977 2.1336340904235839844 3.4961860179901123047 2.7480232715606689453 2.5095319747924804688 2.4184613227844238281 1.6495511531829833984 1.4132692813873291016 1.7450134754180908203 2.2195351123809814453 2.1031267642974853516 1.980389714241027832 1.8477520942687988281 1.9890382289886474609 2.2105169296264648438 2.4607629776000976563 3.1600472927093505859 3.5657250881195068359 4.0092062950134277344 4.7283730506896972656 
1.9290813207626342773 2.0594439506530761719 2.2603025436401367188 1.3365639448165893555 1.4915887117385864258 2.6150596141815185547 1.8923643827438354492 1.9341263771057128906 1.7637668848037719727 2.5333888530731201172 3.0759992599487304688 3.2889361381530761719 3.198436737060546875 4.2310924530029296875 4.5951838493347167969 3.6199042797088623047 2.8854022026062011719 1.7678351402282714844 2.0745694637298583984 1.6881347894668579102 1.6001435518264770508 1.975600123405456543 2.9340376853942871094 3.1003718376159667969 2.66127777099609375 2.5747408866882324219 2.1092469692230224609 1.809788823127746582 2.0125324726104736328 2.34265899658203125 2.4758484363555908203 1.9896360635757446289 1.9188380241394042969 1.9686291217803955078 1.8220113515853881836 1.7919068336486816406 2.3633625507354736328 3.0091903209686279297 2.9224958419799804688 3.8642871379852294922 
1.7719348669052124023 1.3677637577056884766 1.7058995962142944336 2.1531736850738525391 1.5258851051330566406 1.3606618642807006836 1.7354664802551269531 2.0982038974761962891 1.7734360694885253906 2.2298123836517333984 4.2870492935180664063 4.2512965202331542969 4.7903771400451660156 5.2445874214172363281 5.3740062713623046875 3.8102946281433105469 3.1225366592407226563 2.1642472743988037109 3.0218818187713623047 2.5698652267456054688 1.9711694717407226563 2.403564453125 3.2564253807067871094 3.6912078857421875 2.7198588848114013672 2.6183054447174072266 2.6988790035247802734 2.388019561767578125 1.9615321159362792969 2.0841379165649414063 2.6070189476013183594 2.1298556327819824219 1.5543177127838134766 1.5964897871017456055 1.3260359764099121094 1.7748131752014160156 2.6686356067657470703 2.6379752159118652344 2.0404033660888671875 2.5963022708892822266 
1.5843019485473632813 1.5160485506057739258 1.4707047939300537109 1.4486324787139892578 1.5872495174407958984 1.6548503637313842773 1.4116340875625610352 1.9105494022369384766 1.9087121486663818359 2.0144867897033691406 3.7815973758697509766 4.0119915008544921875 4.915557861328125 5.1504721641540527344 5.0294146537780761719 4.8693671226501464844 4.4257292747497558594 3.1328039169311523438 2.8352282047271728516 2.8574168682098388672 2.2582895755767822266 2.496944427490234375 3.0236923694610595703 2.9460332393646240234 4.1287188529968261719 3.8479156494140625 4.7989096641540527344 3.7224953174591064453 2.6427810192108154297 2.4874193668365478516 2.5756599903106689453 1.8724006414413452148 1.4501399993896484375 1.44287109375 1.5617269277572631836 1.6996121406555175781 1.9406603574752807617 1.9916039705276489258 1.8085004091262817383 2.2337279319763183594 
1.5991351604461669922 2.1234467029571533203 1.9445053339004516602 1.7705786228179931641 1.7883732318878173828 1.9790941476821899414 1.7891789674758911133 1.5897831916809082031 2.0221588611602783203 2.3047814369201660156 3.1142385005950927734 3.3184363842010498047 3.9468092918395996094 4.2620577812194824219 5.2698144912719726563 6.5378537178039550781 4.6784520149230957031 3.5519468784332275391 2.6196875572204589844 2.3286066055297851563 2.2529780864715576172 2.5468809604644775391 2.3779780864715576172 2.5667786598205566406 3.6859455108642578125 5.2599844932556152344 7.0777120590209960938 5.2409634590148925781 3.2270352840423583984 3.10391998291015625 2.9530999660491943359 2.1453957557678222656 1.6545312404632568359 1.621761322021484375 1.5074189901351928711 1.6647301912307739258 1.8718054294586181641 1.9602568149566650391 2.2258284091949462891 2.4924979209899902344 
1.6412054300308227539 2.2038159370422363281 2.5499277114868164063 2.2230997085571289063 2.2199053764343261719 1.9913905858993530273 1.7943555116653442383 1.5938513278961181641 1.9887299537658691406 2.6917278766632080078 2.8386559486389160156 3.3084435462951660156 3.5168077945709228516 4.4734549522399902344 5.6312670707702636719 6.1275105476379394531 5.4658865928649902344 4.8198571205139160156 3.4098374843597412109 2.9636132717132568359 2.2595627307891845703 2.3934209346771240234 2.6450159549713134766 2.491748809814453125 3.6172001361846923828 5.8769044876098632813 6.9634275436401367188 6.7112202644348144531 3.6459708213806152344 3.8070683479309082031 4.694507598876953125 3.0813422203063964844 1.9393097162246704102 1.8243780136108398438 1.9178025722503662109 2.1431574821472167969 2.4018547534942626953 2.0662362575531005859 2.1489326953887939453 2.2831614017486572266 
