ncols        40
nrows        40
xllcorner    -0.000000000000
yllcorner    0.000000000000
cellsize     5.000000000000
NODATA_value nan
2.0960478782653808594 1.9444096088409423828 1.9657636880874633789 1.9617407321929931641 1.9517978429794311523 1.9309172630310058594 1.7852872610092163086 2.1566114425659179688 2.5130541324615478516 2.4993431568145751953 2.3420021533966064453 2.7241370677947998047 2.9169361591339111328 2.7752177715301513672 3.1050777435302734375 3.0134229660034179688 2.8106186389923095703 2.5424857139587402344 2.3599498271942138672 2.0320196151733398438 1.9902405738830566406 1.9114001989364624023 2.0025594234466552734 1.7177634239196777344 1.8582569360733032227 2.4751133918762207031 2.2665410041809082031 2.0989835262298583984 2.2203490734100341797 3.9373199939727783203 5.2372393608093261719 4.9264154434204101563 4.8309612274169921875 3.9154098033905029297 2.9542403221130371094 2.8623764514923095703 1.8188091516494750977 1.9850068092346191406 1.963939666748046875 1.9839479923248291016 
1.8330104351043701172 1.711428523063659668 1.9395862817764282227 2.1343064308166503906 2.1111645698547363281 1.7100678682327270508 1.5768322944641113281 1.8369067907333374023 2.2599694728851318359 2.7886898517608642578 2.7535240650177001953 3.3208529949188232422 3.2421641349792480469 3.1395475864410400391 4.2399396896362304688 5.3778581619262695313 3.6814441680908203125 2.5126204490661621094 2.2919230461120605469 1.7406136989593505859 1.7719931602478027344 1.8165799379348754883 1.9001946449279785156 1.4804259538650512695 2.080768585205078125 2.6264510154724121094 2.6801145076751708984 2.6444766521453857422 2.6903274059295654297 3.9971520900726318359 3.9537487030029296875 4.5573019981384277344 3.8908307552337646484 2.4510409832000732422 1.9395918846130371094 1.7729841470718383789 1.6765575408935546875 1.7741525173187255859 1.8185219764709472656 1.9705106019973754883 
1.7294535636901855469 1.8139092922210693359 1.9853891134262084961 2.132183074951171875 2.0719935894012451172 1.7345625162124633789 1.3774057626724243164 1.5865981578826904297 1.7614226341247558594 2.1334617137908935547 2.8091285228729248047 3.0078186988830566406 3.7296764850616455078 3.7398176193237304688 5.13384246826171875 5.2683811187744140625 4.9499402046203613281 3.1360881328582763672 3.5232198238372802734 2.8621368408203125 1.4594668149948120117 1.565495610237121582 1.6289678812026977539 1.3425502777099609375 1.6152126789093017578 2.2729558944702148438 2.2498552799224853516 2.6345798969268798828 3.0233464241027832031 3.9698786735534667969 4.0234351158142089844 4.1408548355102539063 3.6008782386779785156 2.6671912670135498047 2.0208802223205566406 1.8393932580947875977 1.8066381216049194336 1.6384053230285644531 1.7332030534744262695 1.8552262783050537109 
1.7148545980453491211 1.8440929651260375977 1.9418228864669799805 1.9826309680938720703 1.9061242341995239258 1.6421555280685424805 1.4192639589309692383 1.5211436748504638672 2.0564246177673339844 2.8264849185943603516 3.2742688655853271484 3.0520853996276855469 3.3710925579071044922 3.1312110424041748047 4.4177446365356445313 4.5857005119323730469 3.3114898204803466797 4.0252203941345214844 3.8704266548156738281 2.4212706089019775391 2.2095284461975097656 1.7116632461547851563 1.5350153446197509766 1.3976895809173583984 1.3226763010025024414 1.3173602819442749023 1.509070277214050293 2.0589091777801513672 2.5727727413177490234 3.0503828525543212891 3.5253438949584960938 3.2559685707092285156 2.7360424995422363281 2.1387896537780761719 1.9641547203063964844 1.5990444421768188477 1.7066967487335205078 1.6211245059967041016 1.5513408184051513672 1.5587611198425292969 
1.7252771854400634766 1.7124629020690917969 1.8479721546173095703 1.8730726242065429688 1.7774268388748168945 1.6216015815734863281 1.2979284524917602539 1.6116904020309448242 2.3741700649261474609 2.3799040317535400391 2.7261681556701660156 2.79077911376953125 3.03502655029296875 3.2620110511779785156 3.8467757701873779297 4.1377425193786621094 2.9225680828094482422 3.8838031291961669922 3.9934718608856201172 2.4763786792755126953 2.4192116260528564453 1.483235478401184082 1.5154231786727905273 1.3454161882400512695 1.3511910438537597656 1.3280538320541381836 1.4079244136810302734 1.9413065910339355469 2.0671050548553466797 2.3666894435882568359 2.5816633701324462891 2.8303728103637695313 2.0640952587127685547 1.5853101015090942383 1.4897198677062988281 1.3807834386825561523 1.5574803352355957031 1.5779743194580078125 1.4681907892227172852 1.2752177715301513672 
1.7429213523864746094 1.4173765182495117188 1.6005877256393432617 1.7933596372604370117 1.9068921804428100586 1.6064537763595581055 1.5212529897689819336 1.44786834716796875 2.2462251186370849609 2.5066151618957519531 2.2860209941864013672 2.4073171615600585938 2.9345805644989013672 3.0885829925537109375 3.6099152565002441406 2.9813065528869628906 2.3202764987945556641 2.2577042579650878906 2.778728485107421875 2.5234167575836181641 1.505462646484375 1.3765676021575927734 1.5661997795104980469 1.4995018243789672852 1.7129026651382446289 1.731852412223815918 2.0267527103424072266 2.1897695064544677734 2.0699779987335205078 2.7819521427154541016 2.4717566967010498047 2.4814217090606689453 2.0600347518920898438 2.0039827823638916016 1.8942327499389648438 1.5138093233108520508 1.6020544767379760742 1.6037667989730834961 1.683173060417175293 1.747298121452331543 
1.5350159406661987305 1.3859388828277587891 1.5312831401824951172 1.8007334470748901367 1.6897958517074584961 1.7537184953689575195 1.4514358043670654297 1.2597864866256713867 1.5790646076202392578 2.2306878566741943359 2.5064761638641357422 2.7592952251434326172 2.6157970428466796875 2.4522833824157714844 2.6563425064086914063 2.1763539314270019531 2.0071513652801513672 2.0475392341613769531 2.1548254489898681641 1.797576904296875 1.3560595512390136719 1.2393532991409301758 1.257580876350402832 1.7621204853057861328 2.1065497398376464844 2.1051054000854492188 2.4514853954315185547 2.6785707473754882813 2.71599578857421875 2.7636215686798095703 2.3717868328094482422 2.5047893524169921875 2.5939362049102783203 2.5673329830169677734 2.4459979534149169922 1.7992835044860839844 1.6909081935882568359 1.5401972532272338867 1.6474882364273071289 1.8012610673904418945 
1.6768630743026733398 1.521006464958190918 1.4591492414474487305 1.6226505041122436523 1.6328588724136352539 1.6816852092742919922 1.4192185401916503906 1.2578768730163574219 1.3848053216934204102 1.7857980728149414063 1.8053916692733764648 2.4862005710601806641 2.6878006458282470703 2.8612909317016601563 2.6965045928955078125 1.9719839096069335938 2.1662027835845947266 1.9724761247634887695 3.3252027034759521484 3.1903553009033203125 1.9079685211181640625 1.747732996940612793 2.0761773586273193359 1.6239273548126220703 1.4391118288040161133 1.6509914398193359375 1.9488348960876464844 2.0300333499908447266 2.5742082595825195313 2.9084322452545166016 2.4650385379791259766 2.0722291469573974609 1.7475717067718505859 1.9546639919281005859 2.3073832988739013672 2.0942423343658447266 1.4969146251678466797 1.5250002145767211914 1.664895176887512207 2.0507733821868896484 
1.7293469905853271484 1.5867228507995605469 1.59604644775390625 1.5901837348937988281 1.599595189094543457 1.4544632434844970703 1.42208099365234375 1.2960002422332763672 1.4883506298065185547 1.5562014579772949219 1.6714081764221191406 1.8892949819564819336 2.2997710704803466797 2.5788388252258300781 2.5755670070648193359 2.182498931884765625 2.4102442264556884766 2.8052258491516113281 3.7051758766174316406 4.0624480247497558594 2.9152576923370361328 1.2211694717407226563 1.3332575559616088867 1.5546501874923706055 1.5367598533630371094 1.4553709030151367188 1.5894130468368530273 1.3085050582885742188 2.0434868335723876953 2.6190731525421142578 2.6888132095336914063 1.9057561159133911133 1.3043706417083740234 1.3278619050979614258 1.8232660293579101563 2.0405218601226806641 1.7829356193542480469 1.2597701549530029297 1.3484057188034057617 1.7233812808990478516 
1.6238958835601806641 1.8195672035217285156 1.7624101638793945313 1.7320606708526611328 1.4244283437728881836 1.4641270637512207031 1.3413814306259155273 1.200801849365234375 1.1729310750961303711 1.4157053232192993164 1.7016547918319702148 1.7789961099624633789 1.704345703125 1.9751518964767456055 2.3144233226776123047 1.9877469539642333984 2.7299916744232177734 2.8972904682159423828 3.5799643993377685547 4.2354550361633300781 2.5979151725769042969 1.3261332511901855469 1.5479782819747924805 1.7003394365310668945 1.7106939554214477539 1.4954115152359008789 2.1691811084747314453 1.8228584527969360352 1.6265571117401123047 1.9755462408065795898 2.4570581912994384766 2.3091900348663330078 1.4802702665328979492 1.5137872695922851563 1.8848791122436523438 1.8638162612915039063 1.8534070253372192383 1.3170878887176513672 1.2026984691619873047 1.321430206298828125 
2.4326395988464355469 2.2069876194000244141 1.7493615150451660156 1.719922184944152832 1.5005748271942138672 1.4621751308441162109 1.686201930046081543 1.2114787101745605469 1.1935621500015258789 1.2616527080535888672 1.5354566574096679688 1.6332956552505493164 1.5797224044799804688 1.5483078956604003906 1.7156063318252563477 1.8485239744186401367 1.655124664306640625 3.0207922458648681641 3.5332636833190917969 2.6272556781768798828 1.4644330739974975586 1.2112460136413574219 1.3277502059936523438 1.4692561626434326172 1.7243397235870361328 2.1772558689117431641 3.8848176002502441406 2.3427736759185791016 1.6398947238922119141 1.6645320653915405273 1.7511252164840698242 2.2772285938262939453 2.2242290973663330078 1.6885535717010498047 1.4768764972686767578 1.6852935552597045898 1.8956940174102783203 1.159496307373046875 1.1437071561813354492 1.2531993389129638672 
2.6993479728698730469 2.7196705341339111328 1.8612082004547119141 1.4956650733947753906 1.8338314294815063477 1.6978906393051147461 1.3718506097793579102 1.1169263124465942383 1.1802644729614257813 1.2532122135162353516 1.5527768135070800781 1.8052352666854858398 2.2075092792510986328 2.3681454658508300781 1.6033976078033447266 1.6748502254486083984 1.818207859992980957 2.7676067352294921875 1.6625498533248901367 1.3265621662139892578 1.0964372158050537109 1.0817459821701049805 1.2688924074172973633 1.3442419767379760742 1.7347166538238525391 2.7269890308380126953 3.0286235809326171875 2.2167828083038330078 1.6019856929779052734 1.3690226078033447266 1.9906715154647827148 2.0946071147918701172 2.1770560741424560547 2.0176286697387695313 2.038341522216796875 2.0231912136077880859 2.2373971939086914063 1.4056336879730224609 1.1284339427947998047 1.1621725559234619141 
3.1615729331970214844 2.6368823051452636719 2.8217146396636962891 1.4427498579025268555 1.4296661615371704102 1.4879052639007568359 1.3381937742233276367 1.3949189186096191406 1.1688255071640014648 2.2193255424499511719 2.3135077953338623047 2.9533603191375732422 4.4658122062683105469 3.59523773193359375 2.3952147960662841797 2.3087186813354492188 2.6204864978790283203 1.4432575702667236328 1.143772125244140625 1.2323044538497924805 1.0919035673141479492 1.0835130214691162109 1.5717177391052246094 1.3558577299118041992 1.9151048660278320313 2.4172959327697753906 2.5797238349914550781 2.1986913681030273438 1.8456121683120727539 1.4630638360977172852 2.2184655666351318359 2.9124784469604492188 2.2928106784820556641 2.3557133674621582031 1.9879111051559448242 1.9687497615814208984 1.8521474599838256836 1.0892351865768432617 1.0372169017791748047 1.1160945892333984375 
2.5808339118957519531 2.3663880825042724609 2.1213705539703369141 1.6096693277359008789 1.4244036674499511719 1.3234151601791381836 1.2178926467895507813 1.4745209217071533203 1.7327932119369506836 1.6545474529266357422 3.5188367366790771484 4.2930111885070800781 7.1071505546569824219 5.0444569587707519531 3.0534250736236572266 3.7687349319458007813 2.111724853515625 1.7185438871383666992 1.2527511119842529297 1.3627471923828125 1.7057735919952392578 1.5106455087661743164 1.9527927637100219727 1.5981706380844116211 1.8422902822494506836 2.8986718654632568359 3.1605448722839355469 3.2560086250305175781 2.5457460880279541016 2.6009659767150878906 2.8874337673187255859 3.3571975231170654297 2.47496795654296875 2.0835621356964111328 1.956177830696105957 1.7037954330444335938 1.3116585016250610352 1.0189690589904785156 1.0568792819976806641 1.0602778196334838867 
2.1524679660797119141 1.8265471458435058594 1.6917253732681274414 1.6935838460922241211 1.9357725381851196289 1.7377753257751464844 1.3327916860580444336 1.4145596027374267578 1.5548484325408935547 1.535477757453918457 2.2724883556365966797 3.2696044445037841797 6.7245535850524902344 5.7070035934448242188 3.7720639705657958984 4.2483015060424804688 2.3832635879516601563 1.5837022066116333008 1.1966829299926757813 1.6604264974594116211 1.8572100400924682617 2.3516304492950439453 2.6844189167022705078 2.8539078235626220703 2.4575490951538085938 3.0309183597564697266 3.8124356269836425781 3.6260480880737304688 2.4241421222686767578 2.6325573921203613281 3.1028792858123779297 2.7006497383117675781 2.0908799171447753906 1.7349526882171630859 1.1824300289154052734 1.4530355930328369141 1.4854009151458740234 1.1173388957977294922 1.0027414560317993164 1 
2.6742432117462158203 2.5170905590057373047 1.670874476432800293 1.7777988910675048828 1.6667239665985107422 1.3311007022857666016 1.1329319477081298828 1.1882663965225219727 1.2287732362747192383 1.9020283222198486328 2.6512923240661621094 3.2452676296234130859 7.2642378807067871094 5.43647003173828125 3.9612030982971191406 3.470195770263671875 2.1926541328430175781 1.2121316194534301758 1.16060638427734375 1.3449066877365112305 1.7778040170669555664 2.4174110889434814453 2.6647281646728515625 3.2760283946990966797 2.6057407855987548828 3.9274749755859375 4.0445370674133300781 4.2056698799133300781 3.2301838397979736328 2.3858025074005126953 1.8282454013824462891 1.6796792745590209961 1.2694940567016601563 1.0855081081390380859 1.003252863883972168 1 1 1 1.3979191780090332031 1.0330866575241088867 
2.3956136703491210938 2.83147430419921875 2.3846232891082763672 2.2401716709136962891 1.5989316701889038086 1.6116988658905029297 1.0702648162841796875 1.1639312505722045898 1.1419299840927124023 1.2068582773208618164 2.6102590560913085938 3.8621640205383300781 6.3170247077941894531 4.0700068473815917969 2.6400763988494873047 2.4399869441986083984 2.0288643836975097656 1.438353419303894043 1.4984062910079956055 1.2441279888153076172 1.4918630123138427734 2.1567933559417724609 2.4376082420349121094 2.5433187484741210938 2.5180280208587646484 3.3529603481292724609 3.7947485446929931641 3.363128662109375 2.3887677192687988281 1.9156142473220825195 1.2610441446304321289 1.1068397760391235352 1.0634266138076782227 1.138497471809387207 1.0024431943893432617 1.0068529844284057617 1.0140973329544067383 1.0067020654678344727 1.83472442626953125 1.4130500555038452148 
2.3868718147277832031 2.8343043327331542969 3.2686870098114013672 2.8103575706481933594 1.8563542366027832031 1.2852674722671508789 1.0228170156478881836 1.0067511796951293945 1.14129638671875 1.5230357646942138672 2.3478062152862548828 3.6965913772583007813 4.1633090972900390625 3.6107282638549804688 2.8482875823974609375 2.8527951240539550781 2.4271628856658935547 2.2989156246185302734 1.892978668212890625 1.6638714075088500977 1.5654579401016235352 1.2948268651962280273 2.2960221767425537109 2.6468226909637451172 2.3865189552307128906 2.6165177822113037109 3.3448927402496337891 3.3376936912536621094 2.1947536468505859375 1.6196351051330566406 1 1 1.0226244926452636719 1.2044131755828857422 1.1983981132507324219 1.0332463979721069336 1.0458126068115234375 1.0237542390823364258 1.3993345499038696289 1.7005140781402587891 
2.5905513763427734375 3.1458940505981445313 3.4994242191314697266 2.9325220584869384766 2.2999958992004394531 1.3290678262710571289 1.3573994636535644531 1.1399846076965332031 1.3393040895462036133 2.0180280208587646484 2.6268098354339599609 3.48342132568359375 3.2925133705139160156 2.7024629116058349609 3.2111537456512451172 3.1914384365081787109 2.8270089626312255859 3.0854594707489013672 2.7324717044830322266 2.1241581439971923828 2.0369572639465332031 2.1539075374603271484 2.4082775115966796875 2.8418927192687988281 2.7687604427337646484 2.3700754642486572266 2.3646898269653320313 2.8655350208282470703 2.0015635490417480469 1.5863668918609619141 1 1.1675262451171875 1.0843044519424438477 1 1.2254394292831420898 1.4189211130142211914 1.2675567865371704102 1.2575575113296508789 1.7012308835983276367 2.0267801284790039063 
2.5248515605926513672 3.1488800048828125 3.1332554817199707031 3.0036838054656982422 2.0226488113403320313 1.5225416421890258789 1.342862248420715332 1.2334395647048950195 1.2412317991256713867 1.4873409271240234375 1.3496514558792114258 1.2180962562561035156 2.4354398250579833984 2.5623154640197753906 3.4367957115173339844 3.5422976016998291016 3.0672969818115234375 3.0817546844482421875 2.6425309181213378906 2.6360690593719482422 2.7649080753326416016 2.9797956943511962891 2.6277761459350585938 2.285564422607421875 1.9615501165390014648 2.3016707897186279297 2.0245220661163330078 2.1961200237274169922 2.6099400520324707031 1.217190861701965332 1 1.1294471025466918945 1 1 1.6749746799468994141 1.4579150676727294922 1.8795849084854125977 2.3775174617767333984 1.8346805572509765625 1.3761023283004760742 
2.5608611106872558594 2.9214532375335693359 2.5085444450378417969 2.2216997146606445313 1.2888000011444091797 1.198473811149597168 1.0810855627059936523 1.2064722776412963867 1.1750534772872924805 1.2668110132217407227 1.2425863742828369141 1.1265702247619628906 1.5622429847717285156 1.1691882610321044922 2.3263871669769287109 2.8242397308349609375 3.3245923519134521484 2.9257230758666992188 2.5646512508392333984 2.7666008472442626953 3.0470020771026611328 3.1439645290374755859 2.7275588512420654297 2.2554416656494140625 1.641076207160949707 1.5508025884628295898 1.7284445762634277344 2.3486521244049072266 2.0261933803558349609 2.2488861083984375 1.3350141048431396484 1.8994942903518676758 1 1 1.2618405818939208984 1.8314535617828369141 2.3295133113861083984 2.9917814731597900391 2.3174269199371337891 1.6207091808319091797 
2.6575942039489746094 2.4428966045379638672 2.3020038604736328125 1.8944010734558105469 1.3034573793411254883 1.1151736974716186523 1.0811581611633300781 1.2232760190963745117 1.4477945566177368164 1.3330408334732055664 1.1376655101776123047 1.4131877422332763672 1.3672468662261962891 1.3480992317199707031 2.2237780094146728516 2.4574611186981201172 3.1393289566040039063 2.7501389980316162109 3.028961181640625 3.0197732448577880859 3.6174137592315673828 2.8329691886901855469 2.7736165523529052734 2.4375710487365722656 1.7491104602813720703 1.0017948150634765625 1.0869764089584350586 1.1462062597274780273 1.2921682596206665039 2.0819897651672363281 1.9610472917556762695 3.2749891281127929688 1.3803322315216064453 1.4811131954193115234 1.2360299825668334961 1.8823194503784179688 2.6809003353118896484 2.8910439014434814453 3.0306055545806884766 2.3533077239990234375 
3.2060511112213134766 2.8477566242218017578 2.9280393123626708984 2.3511340618133544922 1.4767274856567382813 1.1203658580780029297 1.1045492887496948242 1.0298063755035400391 1.2014355659484863281 1.3585717678070068359 1.2340580224990844727 1.1205908060073852539 1.5034091472625732422 1.7828972339630126953 2.3622577190399169922 2.4229578971862792969 2.9204187393188476563 2.8676297664642333984 3.1857187747955322266 3.1320517063140869141 3.3555095195770263672 3.1325285434722900391 2.7073085308074951172 2.622539520263671875 1.6834950447082519531 1.0225619077682495117 1.0191822052001953125 1.0273787975311279297 1.0483326911926269531 1.8810750246047973633 1.8750481605529785156 1.8929800987243652344 1.331435084342956543 1.4879943132400512695 1.6616533994674682617 2.3244693279266357422 2.8507113456726074219 2.2804193496704101563 2.1054913997650146484 2.2790279388427734375 
2.8344583511352539063 2.8066384792327880859 3.3019704818725585938 2.8817336559295654297 2.0258364677429199219 1.1085883378982543945 1.4701402187347412109 1.0804369449615478516 1.298132777214050293 1.633196711540222168 1.3514848947525024414 1.7289078235626220703 1.9274224042892456055 1.7720056772232055664 2.0286486148834228516 2.8525030612945556641 2.6760718822479248047 2.6408674716949462891 2.8350915908813476563 2.9632723331451416016 3.2571263313293457031 3.1329972743988037109 3.0469791889190673828 2.2305152416229248047 1.319964289665222168 1.0718986988067626953 1.0477977991104125977 1.0627880096435546875 1.072980046272277832 1.0935580730438232422 1.0825136899948120117 1.1153062582015991211 1.4067391157150268555 1.0948808193206787109 1.3592321872711181641 2.2852911949157714844 2.4084351062774658203 1.6870543956756591797 1.6038053035736083984 1.1032797098159790039 
2.6856760978698730469 2.6369349956512451172 3.1514399051666259766 2.7043664455413818359 1.8055461645126342773 1.440951228141784668 2.1777331829071044922 1.5400538444519042969 2.0681893825531005859 2.6444106101989746094 2.9222736358642578125 1.9294480085372924805 1.4660683870315551758 1.5820995569229125977 2.2331972122192382813 3.1223626136779785156 3.0887908935546875 2.7269382476806640625 2.7433342933654785156 2.6191725730895996094 2.9734597206115722656 3.1761534214019775391 3.0915503501892089844 1.95255279541015625 1.1474562883377075195 1.1108773946762084961 1.1224741935729980469 1.1295980215072631836 1.1016715764999389648 1.0582835674285888672 1.0652338266372680664 1.1346337795257568359 1.4167487621307373047 1.1380062103271484375 1.4444867372512817383 2.0673184394836425781 2.3352780342102050781 1.9576987028121948242 1.9179601669311523438 1.666464686393737793 
2.3470108509063720703 2.6264879703521728516 2.7336726188659667969 2.4089560508728027344 2.1462759971618652344 1.4837214946746826172 2.3163990974426269531 2.1171085834503173828 2.2884562015533447266 2.8509285449981689453 2.4272212982177734375 1.6418972015380859375 1.5091028213500976563 1.9825638532638549805 1.8429390192031860352 2.5065035820007324219 3.4758310317993164063 2.7994949817657470703 2.5158553123474121094 2.4973781108856201172 2.4700770378112792969 2.0410480499267578125 1.8619148731231689453 1.6461859941482543945 1.356389164924621582 1.1612018346786499023 1.1528162956237792969 1.1265457868576049805 1.1348471641540527344 1.1332955360412597656 1.1425583362579345703 1.1565866470336914063 1.3323296308517456055 1.1877404451370239258 1.6195890903472900391 1.7779668569564819336 1.8106096982955932617 2.4384870529174804688 2.2800641059875488281 1.9563248157501220703 
2.1846027374267578125 2.0406258106231689453 2.1637082099914550781 1.7931025028228759766 2.07544708251953125 1.9144890308380126953 2.2675421237945556641 2.700817108154296875 1.8433271646499633789 2.0027904510498046875 2.1589577198028564453 1.1904746294021606445 1.2110973596572875977 1.1792784929275512695 1.2533222436904907227 2.0340507030487060547 2.8962857723236083984 2.6536824703216552734 1.6756101846694946289 1.6929290294647216797 1.7859069108963012695 1.6255224943161010742 1.6574201583862304688 1.7585564851760864258 1.4893033504486083984 1.2076046466827392578 1.1912366151809692383 1.1939827203750610352 1.1547901630401611328 1.1545894145965576172 1.1650129556655883789 1.5784326791763305664 1.913979649543762207 2.1404504776000976563 1.9911313056945800781 1.8990691900253295898 2.0721540451049804688 2.6378896236419677734 1.9864736795425415039 2.032680511474609375 
2.0114445686340332031 2.254734039306640625 2.8287572860717773438 2.3263776302337646484 1.9521964788436889648 2.6618773937225341797 2.6479763984680175781 2.709186553955078125 1.6768301725387573242 1.3228079080581665039 1.413859248161315918 1.2662684917449951172 1.3637305498123168945 1.6771856546401977539 1.4185159206390380859 2.3869385719299316406 2.8187015056610107422 2.383190155029296875 1.5996980667114257813 1.2040435075759887695 1.2042429447174072266 1.2136757373809814453 1.2657510042190551758 1.7142894268035888672 1.6820811033248901367 1.5847556591033935547 1.1929616928100585938 1.1992658376693725586 1.3304538726806640625 1.5137643814086914063 1.7095266580581665039 2.4377763271331787109 2.5698206424713134766 2.5254685878753662109 2.4477443695068359375 2.1851794719696044922 2.0190892219543457031 2.2307045459747314453 2.0846054553985595703 2.1257493495941162109 
3.2792606353759765625 3.0625550746917724609 2.6584103107452392578 2.6121644973754882813 2.9771261215209960938 3.1115694046020507813 3.8821005821228027344 3.0981898307800292969 2.3949179649353027344 1.6757729053497314453 1.2912795543670654297 1.2392432689666748047 1.4400730133056640625 1.787830352783203125 2.2115676403045654297 1.7994515895843505859 1.9179662466049194336 1.7913959026336669922 1.321547389030456543 1.2165765762329101563 1.1991288661956787109 1.2274351119995117188 1.2526886463165283203 1.630747675895690918 2.1004946231842041016 2.6708824634552001953 2.5719459056854248047 1.8145233392715454102 1.8668822050094604492 2.5841174125671386719 2.9364161491394042969 3.3225827217102050781 2.9682931900024414063 2.4334318637847900391 2.6912713050842285156 3.0820355415344238281 2.5364956855773925781 2.3122720718383789063 2.0018932819366455078 2.2251851558685302734 
3.5550255775451660156 3.0402824878692626953 2.705387115478515625 2.5342366695404052734 2.9388811588287353516 3.5820128917694091797 4.039058685302734375 3.321880340576171875 2.6322550773620605469 1.9131987094879150391 1.5888333320617675781 1.4256523847579956055 1.3340082168579101563 1.3462423086166381836 1.3114472627639770508 1.2862906455993652344 1.6130857467651367188 1.3288922309875488281 1.2881510257720947266 1.2755391597747802734 1.2367283105850219727 1.2499383687973022461 1.286532282829284668 1.861920475959777832 3.3649249076843261719 2.7955884933471679688 2.3428480625152587891 2.0089111328125 2.523532867431640625 2.9346289634704589844 3.4669406414031982422 3.2717685699462890625 2.5518677234649658203 2.4425668716430664063 2.5426070690155029297 2.6500959396362304688 2.6762669086456298828 2.3450748920440673828 2.0371651649475097656 2.1928000450134277344 
3.0600063800811767578 2.2797369956970214844 2.2713534832000732422 1.8761461973190307617 2.3739213943481445313 2.9711055755615234375 3.3097321987152099609 3.1722288131713867188 2.8913156986236572266 1.713779449462890625 1.401447296142578125 1.410125732421875 1.316727757453918457 1.3048034906387329102 1.3031048774719238281 1.2394837141036987305 1.4094504117965698242 1.4502165317535400391 1.4294968843460083008 1.2683205604553222656 1.2580895423889160156 1.2813975811004638672 1.2896547317504882813 1.5149434804916381836 2.5504724979400634766 2.0585856437683105469 2.1283063888549804688 2.1036062240600585938 2.6786112785339355469 2.9804608821868896484 3.5463473796844482422 3.1648669242858886719 2.1674840450286865234 2.2410898208618164063 2.3951709270477294922 2.4393157958984375 2.2066130638122558594 2.2923405170440673828 1.8543533086776733398 1.7875906229019165039 
2.6393728256225585938 2.8201155662536621094 3.3101544380187988281 2.1717600822448730469 2.6699919700622558594 2.6530413627624511719 2.6540403366088867188 2.6253759860992431641 2.3970470428466796875 1.6500555276870727539 1.4757182598114013672 1.4045221805572509766 1.3790766000747680664 1.3469107151031494141 1.5091954469680786133 1.429087519645690918 1.4711056947708129883 1.4636132717132568359 1.3990224599838256836 1.2821381092071533203 1.2791736125946044922 1.2937554121017456055 1.3830744028091430664 2.2440078258514404297 3.0995464324951171875 3.0166769027709960938 2.8922708034515380859 3.3097207546234130859 3.7718694210052490234 3.5912027359008789063 3.2696402072906494141 3.0481679439544677734 2.8576834201812744141 2.5910444259643554688 2.1926889419555664063 2.1143248081207275391 1.8334871530532836914 1.8976824283599853516 1.8247643709182739258 1.6858390569686889648 
4.3332719802856445313 5.1868147850036621094 5.1164798736572265625 3.7160763740539550781 3.8651301860809326172 2.6646254062652587891 1.9235643148422241211 2.0407834053039550781 1.5156888961791992188 1.5803952217102050781 1.7147077322006225586 1.4860298633575439453 1.3556787967681884766 1.3597574234008789063 1.5144420862197875977 1.4528758525848388672 1.459941864013671875 1.394878387451171875 1.3509527444839477539 1.3493839502334594727 1.3196725845336914063 1.3261085748672485352 1.566943049430847168 2.8938405513763427734 3.1396660804748535156 3.8025162220001220703 3.8287415504455566406 3.8723545074462890625 4.0592970848083496094 3.8291144371032714844 3.7354836463928222656 3.9864203929901123047 3.5662531852722167969 3.4984607696533203125 3.1175081729888916016 2.5991454124450683594 2.3645927906036376953 2.0905702114105224609 1.7743231058120727539 1.5222984552383422852 
4.2905993461608886719 4.5665874481201171875 4.3323116302490234375 3.6081368923187255859 3.2139179706573486328 2.9351167678833007813 2.3816571235656738281 2.2479710578918457031 1.478758692741394043 1.8341482877731323242 1.6064335107803344727 1.4936050176620483398 1.4516369104385375977 1.4608205556869506836 1.445824742317199707 1.4030587673187255859 1.3759377002716064453 1.4322816133499145508 1.4011454582214355469 1.3502864837646484375 1.5940079689025878906 1.5630381107330322266 2.0053827762603759766 2.9932286739349365234 3.5678129196166992188 3.7928111553192138672 4.02386474609375 4.1539592742919921875 4.1194972991943359375 3.5677816867828369141 3.8627521991729736328 4.3023867607116699219 4.5508241653442382813 4.2932238578796386719 3.8934795856475830078 3.4708428382873535156 2.5109164714813232422 1.7642151117324829102 1.6231917142868041992 1.5487157106399536133 
4.4744005203247070313 4.8165564537048339844 3.9689986705780029297 3.5237066745758056641 3.7498300075531005859 4.536281585693359375 2.7948796749114990234 2.7184700965881347656 2.0464792251586914063 2.4066753387451171875 2.1993002891540527344 1.5489795207977294922 1.4799550771713256836 1.4385880231857299805 1.5465756654739379883 1.5510503053665161133 1.6049637794494628906 2.0208175182342529297 2.0281188488006591797 1.8921588659286499023 1.8489967584609985352 2.3605287075042724609 2.5375218391418457031 2.8710885047912597656 3.3204576969146728516 3.8232927322387695313 3.534923553466796875 3.8292250633239746094 3.5466029644012451172 2.9340186119079589844 3.4477198123931884766 4.1788001060485839844 4.5585408210754394531 4.3471512794494628906 4.1060509681701660156 3.5889151096343994141 2.4143099784851074219 1.6916766166687011719 1.5407356023788452148 1.5925047397613525391 
3.7012784481048583984 3.9582738876342773438 4.0162200927734375 3.3114459514617919922 2.7230813503265380859 4.1846604347229003906 3.0230324268341064453 3.5706343650817871094 2.4702775478363037109 2.3853521347045898438 2.4054687023162841797 1.8263093233108520508 1.8628281354904174805 1.6794160604476928711 1.6289528608322143555 1.6549063920974731445 1.9231783151626586914 1.916240692138671875 1.878662109375 2.0768554210662841797 2.1019327640533447266 2.1458852291107177734 1.7979357242584228516 2.3318529129028320313 3.1977016925811767578 3.3207542896270751953 2.7700765132904052734 3.2101619243621826172 3.1166245937347412109 2.8182280063629150391 3.1037116050720214844 4.104640960693359375 4.421466827392578125 4.3961596488952636719 3.9330158233642578125 3.0808734893798828125 2.2253715991973876953 1.9730302095413208008 1.5308359861373901367 1.5976605415344238281 
3.5036363601684570313 3.3594069480895996094 3.4178941249847412109 4.1172776222229003906 2.5443432331085205078 2.1375398635864257813 2.7379496097564697266 3.2938477993011474609 2.318080902099609375 2.1411614418029785156 2.4228382110595703125 2.1288785934448242188 1.7148995399475097656 1.7456288337707519531 1.9174199104309082031 2.2671034336090087891 2.4387478828430175781 1.9854345321655273438 1.6845225095748901367 1.9471076726913452148 2.1609470844268798828 1.798796534538269043 1.5859378576278686523 1.7110663652420043945 2.3877484798431396484 2.888835906982421875 2.8239915370941162109 3.0402586460113525391 3.3546674251556396484 3.0454108715057373047 3.1337056159973144531 3.4993879795074462891 4.2314653396606445313 4.2619700431823730469 3.8978271484375 3.4365460872650146484 2.3690657615661621094 2.1456022262573242188 1.5656945705413818359 1.6671903133392333984 
3.8372693061828613281 3.9561324119567871094 3.4106817245483398438 3.2386991977691650391 3.614360809326171875 3.3664791584014892578 2.8934199810028076172 3.0684428215026855469 3.0760228633880615234 2.8238077163696289063 2.5173833370208740234 2.082027435302734375 2.0654735565185546875 2.0039536952972412109 1.9879006147384643555 2.0882380008697509766 2.2499701976776123047 2.0750682353973388672 1.7164071798324584961 1.7113171815872192383 2.2196562290191650391 2.3472752571105957031 2.3294723033905029297 2.1919984817504882813 2.4488625526428222656 2.9141178131103515625 3.7919447422027587891 3.7344667911529541016 3.2689292430877685547 3.1454815864562988281 3.2756438255310058594 3.3746323585510253906 3.7887318134307861328 3.6909883022308349609 3.1911618709564208984 3.7399652004241943359 2.3178193569183349609 1.4769709110260009766 1.5514914989471435547 1.5763796567916870117 
3.6335165500640869141 4.2719869613647460938 4.1722817420959472656 3.5618801116943359375 3.7992396354675292969 3.2408885955810546875 2.6637580394744873047 2.5879743099212646484 3.4092891216278076172 2.8702213764190673828 2.6041791439056396484 2.9430489540100097656 2.8497784137725830078 2.2876443862915039063 2.2358789443969726563 2.0079784393310546875 1.945357203483581543 2.1997716426849365234 2.3661315441131591797 2.6189475059509277344 2.7696301937103271484 2.7595617771148681641 2.7730665206909179688 2.5696430206298828125 2.291202545166015625 2.6262774467468261719 3.405300140380859375 3.9362454414367675781 3.5489404201507568359 3.5302662849426269531 3.2658488750457763672 2.9550595283508300781 3.3883674144744873047 3.8516509532928466797 3.733798980712890625 4.2346868515014648438 3.1944842338562011719 1.8420739173889160156 1.5351071357727050781 1.5926285982131958008 
3.3109531402587890625 4.0111064910888671875 4.3246660232543945313 3.5733926296234130859 2.9499077796936035156 2.8327388763427734375 2.1908082962036132813 2.0388858318328857422 2.7292888164520263672 3.1617980003356933594 3.5623455047607421875 3.3196990489959716797 3.0600636005401611328 3.4016621112823486328 3.7796585559844970703 3.7101852893829345703 3.7288789749145507813 3.6232197284698486328 4.2155551910400390625 4.39253997802734375 4.1510148048400878906 3.9494102001190185547 3.5985782146453857422 2.4122335910797119141 2.3708035945892333984 2.1517043113708496094 2.8114292621612548828 3.4432523250579833984 2.6737318038940429688 2.7894842624664306641 2.6895258426666259766 2.7741842269897460938 3.2441260814666748047 3.4744715690612792969 3.9071822166442871094 4.3119678497314453125 3.7462649345397949219 2.6708536148071289063 1.7525136470794677734 1.6401629447937011719 
