ncols        40
nrows        40
xllcorner    -0.000000000000
yllcorner    0.000000000000
cellsize     5.000000000000
NODATA_value nan
1.6579667329788208008 1.5047489404678344727 1.5044341087341308594 1.4416891336441040039 1.4587863683700561523 1.4281337261199951172 1.3079583644866943359 1.6198496818542480469 1.8850204944610595703 1.8474305868148803711 1.6799701452255249023 2.0524222850799560547 2.2458653450012207031 2.1658105850219726563 2.4536974430084228516 2.3377902507781982422 2.1704659461975097656 1.9634865522384643555 1.8500187397003173828 1.4969860315322875977 1.4369716644287109375 1.406190037727355957 1.4871673583984375 1.242506861686706543 1.3731211423873901367 1.9605085849761962891 1.7686598300933837891 1.5942324399948120117 1.6470586061477661133 3.2590274810791015625 4.5068736076354980469 4.14510345458984375 4.0524573326110839844 3.2446589469909667969 2.3073086738586425781 2.2384073734283447266 1.301920771598815918 1.4346749782562255859 1.4494391679763793945 1.4832491874694824219 
1.452060699462890625 1.3463103771209716797 1.4948334693908691406 1.6216976642608642578 1.6171861886978149414 1.2986290454864501953 1.1429008245468139648 1.3717801570892333984 1.6766074895858764648 2.1186165809631347656 2.0932812690734863281 2.6605172157287597656 2.5944015979766845703 2.5367262363433837891 3.5359463691711425781 4.6839032173156738281 3.0381760597229003906 1.9336709976196289063 1.7771323919296264648 1.30657958984375 1.3131545782089233398 1.3708041906356811523 1.4116258621215820313 1.0530244112014770508 1.6066774129867553711 2.1352279186248779297 2.1915075778961181641 2.0811884403228759766 2.0692203044891357422 3.3185753822326660156 3.2684454917907714844 3.8177227973937988281 3.1615221500396728516 1.8457199335098266602 1.42023468017578125 1.2698636054992675781 1.2505577802658081055 1.3182692527770996094 1.3825048208236694336 1.4995455741882324219 
1.3753962516784667969 1.4469262361526489258 1.5901771783828735352 1.6529865264892578125 1.614682316780090332 1.3480383157730102539 1.0335433483123779297 1.1962161064147949219 1.2989555597305297852 1.5655355453491210938 2.2016205787658691406 2.3918192386627197266 3.0648257732391357422 3.0681295394897460938 4.4260668754577636719 4.5992441177368164063 4.3088140487670898438 2.5833477973937988281 3.0138092041015625 2.4092767238616943359 1.0837081670761108398 1.1688861846923828125 1.2081931829452514648 1 1.2161478996276855469 1.8363146781921386719 1.8063553571701049805 2.0940685272216796875 2.4001777172088623047 3.2564840316772460938 3.3286767005920410156 3.4647817611694335938 2.9373326301574707031 2.0545303821563720703 1.4759534597396850586 1.3816384077072143555 1.3665367364883422852 1.2645422220230102539 1.3438068628311157227 1.4472253322601318359 
1.3535810708999633789 1.4855879545211791992 1.5478986501693725586 1.6085592508316040039 1.5528891086578369141 1.3089988231658935547 1.1068843603134155273 1.1078009605407714844 1.5665391683578491211 2.2740240097045898438 2.6828105449676513672 2.4296042919158935547 2.6966044902801513672 2.5206298828125 3.7745168209075927734 3.9497232437133789063 2.7279496192932128906 3.4661669731140136719 3.3190283775329589844 1.9692901372909545898 1.7997525930404663086 1.3121759891510009766 1.1459828615188598633 1.0571762323379516602 1.0134778022766113281 1.00342559814453125 1.1643658876419067383 1.5591307878494262695 2.0336322784423828125 2.4291200637817382813 2.8774478435516357422 2.60610198974609375 2.1591105461120605469 1.5971421003341674805 1.4646489620208740234 1.2026312351226806641 1.3005547523498535156 1.2373279333114624023 1.2111711502075195313 1.2070965766906738281 
1.37096405029296875 1.3754819631576538086 1.5126110315322875977 1.5297348499298095703 1.4497278928756713867 1.3128935098648071289 1.0319572687149047852 1.2254738807678222656 1.9371641874313354492 1.8841267824172973633 2.1699404716491699219 2.2204492092132568359 2.4609482288360595703 2.6765651702880859375 3.2088563442230224609 3.5295321941375732422 2.4135234355926513672 3.3858959674835205078 3.4645044803619384766 2.0379440784454345703 2.0170328617095947266 1.1174082756042480469 1.1326209306716918945 1.0333766937255859375 1.0147538185119628906 1 1.0367007255554199219 1.4959981441497802734 1.6257488727569580078 1.9188835620880126953 2.0868122577667236328 2.3365557193756103516 1.6330569982528686523 1.1864416599273681641 1.1416633129119873047 1.0363872051239013672 1.1581940650939941406 1.2012643814086914063 1.1088125705718994141 1 
1.4416334629058837891 1.1943992376327514648 1.2794442176818847656 1.4196070432662963867 1.5513578653335571289 1.2966116666793823242 1.2024126052856445313 1.1140472888946533203 1.8285460472106933594 2.0547640323638916016 1.7834137678146362305 1.8931714296340942383 2.3824231624603271484 2.5320942401885986328 3.052806854248046875 2.4684531688690185547 1.8862493038177490234 1.8232527971267700195 2.3351428508758544922 2.1353664398193359375 1.1481827497482299805 1.05353546142578125 1.1742597818374633789 1.1382137537002563477 1.3347988128662109375 1.3734129667282104492 1.5878322124481201172 1.7478563785552978516 1.6357469558715820313 2.3120474815368652344 2.0211768150329589844 2.0949275493621826172 1.6587948799133300781 1.6440999507904052734 1.4936490058898925781 1.1619037389755249023 1.2136886119842529297 1.216660618782043457 1.3031947612762451172 1.3638530969619750977 
1.2865571975708007813 1.1920273303985595703 1.2402614355087280273 1.5010204315185546875 1.4047253131866455078 1.4340269565582275391 1.1719950437545776367 1.0037912130355834961 1.2392523288726806641 1.8085722923278808594 2.0141131877899169922 2.2587954998016357422 2.1240823268890380859 1.986507415771484375 2.2287962436676025391 1.772204279899597168 1.6412352323532104492 1.6352349519729614258 1.7765877246856689453 1.4756019115447998047 1.0873160362243652344 1.0030602216720581055 1.0000529289245605469 1.4244248867034912109 1.7571984529495239258 1.7574859857559204102 2.0155031681060791016 2.2255871295928955078 2.2829294204711914063 2.3690824508666992188 1.9933027029037475586 2.1561954021453857422 2.2272641658782958984 2.2096588611602783203 2.0713591575622558594 1.4563821554183959961 1.3057579994201660156 1.1866141557693481445 1.2862685918807983398 1.4485589265823364258 
1.3779833316802978516 1.2701575756072998047 1.2154899835586547852 1.3322588205337524414 1.3486734628677368164 1.4069263935089111328 1.1770490407943725586 1 1.095475316047668457 1.4131990671157836914 1.3835649490356445313 2.0326049327850341797 2.2098124027252197266 2.4170670509338378906 2.2555394172668457031 1.6575330495834350586 1.823412775993347168 1.6140594482421875 2.9308524131774902344 2.8683035373687744141 1.641510009765625 1.5650037527084350586 1.839129328727722168 1.2884628772735595703 1.1233092546463012695 1.3566346168518066406 1.5924713611602783203 1.6932282447814941406 2.2033367156982421875 2.4911041259765625 2.0845563411712646484 1.7525042295455932617 1.4493150711059570313 1.607255101203918457 1.9615255594253540039 1.6987440586090087891 1.142802119255065918 1.2131869792938232422 1.3756929636001586914 1.6931107044219970703 
1.4318563938140869141 1.2991567850112915039 1.3556427955627441406 1.3042533397674560547 1.3217852115631103516 1.2153131961822509766 1.1837480068206787109 1.0895750522613525391 1.1863976716995239258 1.2542438507080078125 1.3128056526184082031 1.5364620685577392578 1.9082050323486328125 2.1448960304260253906 2.1917710304260253906 1.8591945171356201172 2.1778428554534912109 2.4882795810699462891 3.3643550872802734375 3.7237985134124755859 2.6091320514678955078 1 1.0712149143218994141 1.2730776071548461914 1.2569557428359985352 1.1850937604904174805 1.3064396381378173828 1.0593364238739013672 1.7486387491226196289 2.2429935932159423828 2.2963614463806152344 1.5905939340591430664 1.0514889955520629883 1.0770857334136962891 1.4942333698272705078 1.6398032903671264648 1.4565924406051635742 1.004708409309387207 1.1004849672317504883 1.3984891176223754883 
1.35767364501953125 1.5104086399078369141 1.4732984304428100586 1.4491962194442749023 1.1794054508209228516 1.1787267923355102539 1.0859997272491455078 1 1 1.1845756769180297852 1.4056048393249511719 1.4834408760070800781 1.3767277002334594727 1.6423587799072265625 1.9306776523590087891 1.6864275932312011719 2.4448494911193847656 2.6492636203765869141 3.2562375068664550781 3.9210035800933837891 2.3747296333312988281 1.1087936162948608398 1.2637265920639038086 1.4081695079803466797 1.4191423654556274414 1.2178846597671508789 1.8686887025833129883 1.5683881044387817383 1.3744462728500366211 1.6685287952423095703 2.1530613899230957031 2.0356202125549316406 1.2780420780181884766 1.3034731149673461914 1.565779566764831543 1.5396965742111206055 1.5619192123413085938 1.0908097028732299805 1.0025691986083984375 1.0896666049957275391 
2.2056303024291992188 1.9330110549926757813 1.5227532386779785156 1.4821515083312988281 1.2723881006240844727 1.2060686349868774414 1.4138492345809936523 1 1 1.0523961782455444336 1.2654222249984741211 1.370318293571472168 1.2995239496231079102 1.2916090488433837891 1.4241605997085571289 1.5580296516418457031 1.4225784540176391602 2.7914030551910400391 3.3167502880096435547 2.4073958396911621094 1.2631155252456665039 1 1.1076772212982177734 1.2064547538757324219 1.4184209108352661133 1.8693482875823974609 3.5723221302032470703 2.0778687000274658203 1.4415936470031738281 1.4227631092071533203 1.4834939241409301758 2.0575354099273681641 2.0256671905517578125 1.5055720806121826172 1.2620246410369873047 1.4775972366333007813 1.7002232074737548828 1 1 1.08353424072265625 
2.5246703624725341797 2.4845883846282958984 1.6016118526458740234 1.3000345230102539063 1.5934766530990600586 1.4375549554824829102 1.1333593130111694336 1.0072327852249145508 1.0003834962844848633 1.077271580696105957 1.3202161788940429688 1.583691716194152832 1.9876281023025512695 2.160602569580078125 1.40293121337890625 1.4503450393676757813 1.5670951604843139648 2.5915884971618652344 1.4739016294479370117 1.1816142797470092773 1 1.0083413124084472656 1.1027256250381469727 1.1400521993637084961 1.4496911764144897461 2.4004333019256591797 2.7144017219543457031 1.9535877704620361328 1.4096753597259521484 1.1896744966506958008 1.7260268926620483398 1.8380473852157592773 1.9579628705978393555 1.8264403343200683594 1.8693658113479614258 1.8617393970489501953 2.0645618438720703125 1.2884888648986816406 1.0114802122116088867 1.0709636211395263672 
3.0161187648773193359 2.4543232917785644531 2.6423785686492919922 1.2598969936370849609 1.2410719394683837891 1.264704585075378418 1.1566183567047119141 1.2755035161972045898 1.0246728658676147461 1.9628839492797851563 2.096637725830078125 2.7450890541076660156 4.2430572509765625 3.3840029239654541016 2.2279405593872070313 2.1241190433502197266 2.4420592784881591797 1.3251386880874633789 1 1.1091569662094116211 1 1.0021091699600219727 1.3863124847412109375 1.1704068183898925781 1.6557160615921020508 2.1018230915069580078 2.2664427757263183594 1.9099816083908081055 1.647322535514831543 1.2602317333221435547 1.9845371246337890625 2.710895538330078125 2.0887236595153808594 2.1763484477996826172 1.9252299070358276367 1.8638057708740234375 1.8048958778381347656 1.0614615678787231445 1 1.0008929967880249023 
2.4422395229339599609 2.22780609130859375 1.975215911865234375 1.4094737768173217773 1.2383168935775756836 1.1665037870407104492 1.0554995536804199219 1.3425478935241699219 1.531163334846496582 1.4556277990341186523 3.2838718891143798828 4.0883479118347167969 6.875476837158203125 4.8141045570373535156 2.8759775161743164063 3.5771956443786621094 1.9141390323638916016 1.6413308382034301758 1.1771912574768066406 1.2506148815155029297 1.600643157958984375 1.4258961677551269531 1.8288129568099975586 1.3895982503890991211 1.5983518362045288086 2.5493731498718261719 2.7907280921936035156 2.9299509525299072266 2.257007598876953125 2.2823827266693115234 2.6232144832611083984 3.1424508094787597656 2.2651412487030029297 1.9583454132080078125 1.9158065319061279297 1.6556940078735351563 1.3148227930068969727 1 1 1.0038393735885620117 
1.9727762937545776367 1.6725243330001831055 1.5323789119720458984 1.545132756233215332 1.7947133779525756836 1.5713748931884765625 1.2234009504318237305 1.2666152715682983398 1.4021376371383666992 1.3733278512954711914 2.142948150634765625 3.1462180614471435547 6.5403184890747070313 5.4767751693725585938 3.61666107177734375 4.0829610824584960938 2.2029547691345214844 1.4812585115432739258 1.0962450504302978516 1.5263617038726806641 1.8066228628158569336 2.2454197406768798828 2.4954798221588134766 2.6068174839019775391 2.1858234405517578125 2.7280979156494140625 3.4404704570770263672 3.2478609085083007813 2.1648089885711669922 2.4065747261047363281 2.8497228622436523438 2.4634068012237548828 1.9376063346862792969 1.6988564729690551758 1.2151522636413574219 1.4244147539138793945 1.4782465696334838867 1.1334329843521118164 1 1.0264633893966674805 
2.4827835559844970703 2.3237597942352294922 1.5256744623184204102 1.6599230766296386719 1.5751917362213134766 1.2304416894912719727 1.0319561958312988281 1.0681527853012084961 1.1138144731521606445 1.7504458427429199219 2.5329141616821289063 3.1470963954925537109 7.0839610099792480469 5.2730169296264648438 3.8400566577911376953 3.3030781745910644531 2.0908410549163818359 1.1397211551666259766 1.1274783611297607422 1.2874587774276733398 1.6870437860488891602 2.2666153907775878906 2.5180437564849853516 3.0588030815124511719 2.3761911392211914063 3.5905604362487792969 3.6759438514709472656 3.9081294536590576172 2.995616912841796875 2.2310504913330078125 1.7451688051223754883 1.5554950237274169922 1.1813827753067016602 1.0458284616470336914 1 1.0113406181335449219 1.0268512964248657227 1.0286883115768432617 1.4008079767227172852 1 
2.2988543510437011719 2.6592783927917480469 2.2165625095367431641 2.0936002731323242188 1.4907276630401611328 1.4681702852249145508 1 1.1247935295104980469 1.1052346229553222656 1.1562106609344482422 2.5704832077026367188 3.7603595256805419922 6.2009186744689941406 3.9590301513671875 2.51586151123046875 2.2926127910614013672 1.9157927036285400391 1.3466489315032958984 1.4432775974273681641 1.1839517354965209961 1.4047623872756958008 2.0610172748565673828 2.3175606727600097656 2.36798095703125 2.3015127182006835938 3.0984401702880859375 3.4927167892456054688 3.1242969036102294922 2.2612257003784179688 1.8175462484359741211 1.2083160877227783203 1.0297040939331054688 1.0501446723937988281 1.0925246477127075195 1 1 1.0021800994873046875 1 1.8023896217346191406 1.3728363513946533203 
2.318531036376953125 2.6707060337066650391 3.0333051681518554688 2.5966832637786865234 1.7369047403335571289 1.2042777538299560547 1.0000422000885009766 1.0384095907211303711 1.1258560419082641602 1.4922896623611450195 2.2964138984680175781 3.5682492256164550781 4.0460772514343261719 3.480072021484375 2.7244112491607666016 2.6973512172698974609 2.2870726585388183594 2.1716165542602539063 1.8380140066146850586 1.6216875314712524414 1.4681607484817504883 1.2755652666091918945 2.2195074558258056641 2.4663269519805908203 2.2021172046661376953 2.46697998046875 3.1201176643371582031 3.1324529647827148438 2.1042628288269042969 1.5798687934875488281 1.0090723037719726563 1.0210452079772949219 1.0473108291625976563 1.1558823585510253906 1.1248894929885864258 1.0183265209197998047 1.0140631198883056641 1 1.3910737037658691406 1.6387549638748168945 
2.4597215652465820313 2.9524242877960205078 3.2588818073272705078 2.7700524330139160156 2.1584327220916748047 1.3061968088150024414 1.323675990104675293 1.1778845787048339844 1.3394391536712646484 2.0365014076232910156 2.6192591190338134766 3.3908469676971435547 3.1892600059509277344 2.5758368968963623047 3.0317003726959228516 2.9843194484710693359 2.6597454547882080078 2.8852581977844238281 2.5901696681976318359 2.0533499717712402344 1.9756675958633422852 2.0930135250091552734 2.2775623798370361328 2.6276221275329589844 2.6123380661010742188 2.2556560039520263672 2.2900602817535400391 2.7655689716339111328 1.9740896224975585938 1.61344146728515625 1.0677726268768310547 1.1692538261413574219 1.0896735191345214844 1.028411865234375 1.1597846746444702148 1.3895661830902099609 1.2456659078598022461 1.2381535768508911133 1.6383987665176391602 1.942974090576171875 
2.3968963623046875 2.9417729377746582031 2.9236836433410644531 2.8420844078063964844 1.9603537321090698242 1.5240474939346313477 1.3630414009094238281 1.2999216318130493164 1.3257348537445068359 1.5045917034149169922 1.3818632364273071289 1.237262725830078125 2.3596749305725097656 2.4616444110870361328 3.2521808147430419922 3.3449003696441650391 2.8970315456390380859 2.9225671291351318359 2.5464005470275878906 2.5695867538452148438 2.7070827484130859375 2.8864099979400634766 2.4985020160675048828 2.2125868797302246094 1.8914747238159179688 2.2036800384521484375 1.9358747005462646484 2.1427323818206787109 2.5488474369049072266 1.2598977088928222656 1.0995507240295410156 1.170197606086730957 1.0578557252883911133 1.0073533058166503906 1.6429878473281860352 1.4492816925048828125 1.8508981466293334961 2.3464758396148681641 1.8168194293975830078 1.3583701848983764648 
2.4772162437438964844 2.7848668098449707031 2.4165489673614501953 2.1591260433197021484 1.2952108383178710938 1.2806577682495117188 1.1592987775802612305 1.3126069307327270508 1.3035548925399780273 1.3895416259765625 1.3456186056137084961 1.1954046487808227539 1.581813812255859375 1.2049801349639892578 2.2578535079956054688 2.6761510372161865234 3.1358466148376464844 2.79170989990234375 2.5130178928375244141 2.7373199462890625 3.1027708053588867188 3.1739435195922851563 2.7285063266754150391 2.260089874267578125 1.6570869684219360352 1.5406473875045776367 1.7242388725280761719 2.3351893424987792969 2.0085384845733642578 2.2809088230133056641 1.4372993707656860352 1.9987049102783203125 1.0936789512634277344 1.0672430992126464844 1.2886633872985839844 1.8335303068161010742 2.3336312770843505859 2.8928732872009277344 2.2930247783660888672 1.6122764348983764648 
2.5691189765930175781 2.3808870315551757813 2.2701675891876220703 1.8624117374420166016 1.3620140552520751953 1.2028090953826904297 1.1413701772689819336 1.3221584558486938477 1.5523165464401245117 1.4808511734008789063 1.2938306331634521484 1.4433969259262084961 1.4368405342102050781 1.3960509300231933594 2.1940782070159912109 2.3770310878753662109 3.0071740150451660156 2.6377389430999755859 2.9445185661315917969 3.0070664882659912109 3.6278767585754394531 2.8674054145812988281 2.8316707611083984375 2.4974009990692138672 1.8173462152481079102 1.1166492700576782227 1.1905211210250854492 1.2166872024536132813 1.3446406126022338867 2.1055653095245361328 2.0516436100006103516 3.3328919410705566406 1.4550616741180419922 1.5478080511093139648 1.3165240287780761719 1.9800021648406982422 2.6743168830871582031 2.8928532600402832031 2.9557976722717285156 2.3077044486999511719 
3.0948951244354248047 2.78403472900390625 2.8495931625366210938 2.3108799457550048828 1.5276962518692016602 1.2384866476058959961 1.1801645755767822266 1.1695058345794677734 1.3740307092666625977 1.5546588897705078125 1.4403042793273925781 1.2593820095062255859 1.616086125373840332 1.8624203205108642578 2.3690218925476074219 2.4171464443206787109 2.8542234897613525391 2.8043079376220703125 3.1086175441741943359 3.08173370361328125 3.2904767990112304688 3.1134564876556396484 2.7230360507965087891 2.7183077335357666016 1.8262460231781005859 1.1953424215316772461 1.2350043058395385742 1.2032318115234375 1.1870278120040893555 1.9586640596389770508 1.9705283641815185547 1.9714503288269042969 1.4254838228225708008 1.5532233715057373047 1.7217437028884887695 2.3856601715087890625 2.846073150634765625 2.2993350028991699219 2.1251666545867919922 2.2564966678619384766 
2.8263349533081054688 2.7691097259521484375 3.2132270336151123047 2.8454153537750244141 2.0859458446502685547 1.233184814453125 1.5605716705322265625 1.2053228616714477539 1.4264875650405883789 1.8051916360855102539 1.523812413215637207 1.8709480762481689453 2.1188623905181884766 1.8997122049331665039 2.0711355209350585938 2.8336606025695800781 2.6364419460296630859 2.6440970897674560547 2.8353106975555419922 2.9309535026550292969 3.2155134677886962891 3.0671360492706298828 3.0199034214019775391 2.3387362957000732422 1.5191489458084106445 1.2412111759185791016 1.2556172609329223633 1.3012307882308959961 1.2681720256805419922 1.2833703756332397461 1.2651728391647338867 1.3090636730194091797 1.5306034088134765625 1.2471632957458496094 1.4856257438659667969 2.3523733615875244141 2.4152014255523681641 1.770285487174987793 1.6646381616592407227 1.2408368587493896484 
2.6792647838592529297 2.6613342761993408203 3.13739776611328125 2.7080059051513671875 1.912745356559753418 1.5578477382659912109 2.2698111534118652344 1.6577471494674682617 2.2311599254608154297 2.7681291103363037109 3.0608818531036376953 2.0550405979156494141 1.6222074031829833984 1.6988542079925537109 2.3025717735290527344 3.1027245521545410156 3.0588030815124511719 2.7216479778289794922 2.7533750534057617188 2.6647448539733886719 2.9454951286315917969 3.1773068904876708984 3.1149401664733886719 2.0767884254455566406 1.3325097560882568359 1.2764048576354980469 1.3399757146835327148 1.3857651948928833008 1.3654688596725463867 1.3157849311828613281 1.3028277158737182617 1.3227064609527587891 1.5364935398101806641 1.3330136537551879883 1.5769494771957397461 2.1523489952087402344 2.4114184379577636719 2.0510430335998535156 1.9982742071151733398 1.775000452995300293 
2.4062283039093017578 2.7053654193878173828 2.8041722774505615234 2.4950048923492431641 2.2589120864868164063 1.6474643945693969727 2.4351797103881835938 2.2579720020294189453 2.4512293338775634766 3.0130903720855712891 2.564483642578125 1.8231025934219360352 1.7118599414825439453 2.1438181400299072266 1.9541541337966918945 2.58617401123046875 3.4851553440093994141 2.86077117919921875 2.6255955696105957031 2.5718195438385009766 2.56374359130859375 2.1807065010070800781 1.9815783500671386719 1.7916511297225952148 1.5328791141510009766 1.3467721939086914063 1.3927580118179321289 1.3523712158203125 1.3963316679000854492 1.4209831953048706055 1.4065096378326416016 1.3430461883544921875 1.5283679962158203125 1.3827178478240966797 1.770977020263671875 1.9341832399368286133 1.9730417728424072266 2.5895936489105224609 2.4173479080200195313 2.0876691341400146484 
2.3297700881958007813 2.1881096363067626953 2.3012993335723876953 1.9570063352584838867 2.233196258544921875 2.0904712677001953125 2.3875036239624023438 2.7963352203369140625 2.0460429191589355469 2.155399322509765625 2.3171415328979492188 1.4155051708221435547 1.4693578481674194336 1.3833258152008056641 1.4535161256790161133 2.1897368431091308594 2.9666173458099365234 2.7560610771179199219 1.8500629663467407227 1.8900561332702636719 1.986845850944519043 1.8145163059234619141 1.8297185897827148438 1.9196165800094604492 1.6927397251129150391 1.4361320734024047852 1.4583182334899902344 1.4746239185333251953 1.4078041315078735352 1.4228329658508300781 1.4194153547286987305 1.7609723806381225586 2.0854003429412841797 2.2935745716094970703 2.1688034534454345703 2.0860798358917236328 2.2921872138977050781 2.8634688854217529297 2.22196197509765625 2.2376961708068847656 
2.189945220947265625 2.4078731536865234375 2.9744603633880615234 2.4894433021545410156 2.1325106620788574219 2.7905256748199462891 2.7821471691131591797 2.8166849613189697266 1.8714988231658935547 1.5394949913024902344 1.6383417844772338867 1.5350323915481567383 1.6271431446075439453 1.9414469003677368164 1.6372553110122680664 2.5538461208343505859 2.9299194812774658203 2.5350437164306640625 1.8434122800827026367 1.5188312530517578125 1.5137896537780761719 1.4855129718780517578 1.50699615478515625 1.9560414552688598633 1.9261884689331054688 1.8136348724365234375 1.461706995964050293 1.4920657873153686523 1.5859973430633544922 1.7932754755020141602 1.9608395099639892578 2.5897955894470214844 2.7194268703460693359 2.6682689189910888672 2.6061201095581054688 2.3622708320617675781 2.2648966312408447266 2.4849069118499755859 2.3208158016204833984 2.3339724540710449219 
3.4375593662261962891 3.1660518646240234375 2.8412640094757080078 2.7551946640014648438 3.1357753276824951172 3.2230718135833740234 3.9350581169128417969 3.2185752391815185547 2.5974612236022949219 1.9552278518676757813 1.5797917842864990234 1.5486434698104858398 1.7088423967361450195 2.0486419200897216797 2.4748129844665527344 2.0193498134613037109 2.11147308349609375 2.02685546875 1.6288599967956542969 1.628411412239074707 1.5551531314849853516 1.5384473800659179688 1.5450634956359863281 1.8868992328643798828 2.3421757221221923828 2.9443957805633544922 2.8398683071136474609 2.0587050914764404297 2.1067860126495361328 2.7557427883148193359 3.0783941745758056641 3.4474217891693115234 3.0988833904266357422 2.6340630054473876953 2.9018938541412353516 3.2959794998168945313 2.8319523334503173828 2.6198675632476806641 2.3216989040374755859 2.5518317222595214844 
3.6656794548034667969 3.1993422508239746094 2.8898899555206298828 2.7352793216705322266 3.1188571453094482422 3.7444028854370117188 4.1263914108276367188 3.4371612071990966797 2.8389883041381835938 2.2341299057006835938 1.9353743791580200195 1.8183501958847045898 1.6974769830703735352 1.6686294078826904297 1.6772760152816772461 1.62579345703125 1.9491984844207763672 1.6514353752136230469 1.6332752704620361328 1.6688722372055053711 1.7017729282379150391 1.6460971832275390625 1.5865257978439331055 2.1516766548156738281 3.6488320827484130859 3.1429097652435302734 2.6382803916931152344 2.2600767612457275391 2.7385880947113037109 3.1106672286987304688 3.6182439327239990234 3.4083123207092285156 2.8058681488037109375 2.6712553501129150391 2.8033576011657714844 2.9459371566772460938 3.0044200420379638672 2.7147274017333984375 2.4195854663848876953 2.5488574504852294922 
3.2468013763427734375 2.5398828983306884766 2.5228431224822998047 2.1696350574493408203 2.6286504268646240234 3.1607513427734375 3.5270738601684570313 3.3485608100891113281 3.1016745567321777344 2.0487387180328369141 1.8005603551864624023 1.8007886409759521484 1.7958295345306396484 1.7567107677459716797 1.7634435892105102539 1.6873189210891723633 1.8221418857574462891 1.8581116199493408203 1.8542259931564331055 1.6983503103256225586 1.7458744049072265625 1.7450847625732421875 1.6839520931243896484 1.8846286535263061523 2.84699249267578125 2.3662192821502685547 2.4154722690582275391 2.3998882770538330078 2.9231848716735839844 3.1722328662872314453 3.6916828155517578125 3.3627526760101318359 2.4528417587280273438 2.5311441421508789063 2.6879849433898925781 2.7906484603881835938 2.6171822547912597656 2.6970028877258300781 2.2793686389923095703 2.2703027725219726563 
2.9184651374816894531 3.1019496917724609375 3.5831897258758544922 2.5292818546295166016 2.96509552001953125 2.9264125823974609375 2.9288942813873291016 2.9243521690368652344 2.7331731319427490234 2.0665888786315917969 1.8392326831817626953 1.8203310966491699219 1.8522611856460571289 1.8706221580505371094 2.0290069580078125 1.9062288999557495117 1.9363129138946533203 2.0015852451324462891 1.8608707189559936523 1.7695093154907226563 1.7546154260635375977 1.7644613981246948242 1.8073421716690063477 2.5525114536285400391 3.3733878135681152344 3.2435886859893798828 3.1129624843597412109 3.53369140625 3.9326145648956298828 3.7748942375183105469 3.4674808979034423828 3.2940175533294677734 3.1007053852081298828 2.867267608642578125 2.5126013755798339844 2.4937121868133544922 2.2580335140228271484 2.3149065971374511719 2.27693939208984375 2.1757369041442871094 
4.6120228767395019531 5.4679775238037109375 5.3951849937438964844 4.0115785598754882813 4.13108062744140625 2.9658625125885009766 2.2857348918914794922 2.4167025089263916016 1.9748331308364868164 1.9691798686981201172 2.1385622024536132813 1.9575715065002441406 1.8518533706665039063 1.9359462261199951172 2.0459685325622558594 1.9550682306289672852 1.9422868490219116211 1.9164637327194213867 1.858004450798034668 1.8607642650604248047 1.8061666488647460938 1.7967200279235839844 1.9760925769805908203 3.1601741313934326172 3.398662567138671875 4.0147008895874023438 4.0360317230224609375 4.0874948501586914063 4.2155632972717285156 4.0478773117065429688 3.9601206779479980469 4.1894240379333496094 3.7881343364715576172 3.7132580280303955078 3.4053006172180175781 2.9242105484008789063 2.7166512012481689453 2.5267038345336914063 2.2971293926239013672 2.0974946022033691406 
4.5860619544982910156 4.9036264419555664063 4.6976246833801269531 3.9744021892547607422 3.5222072601318359375 3.2727820873260498047 2.7623209953308105469 2.6342966556549072266 1.9497524499893188477 2.273593902587890625 2.0386273860931396484 1.9928300380706787109 1.9762003421783447266 2.0157060623168945313 1.9686895608901977539 1.9736423492431640625 1.9326779842376708984 1.9394204616546630859 1.8501420021057128906 1.7992835044860839844 2.0069627761840820313 2.0099077224731445313 2.3899195194244384766 3.3142282962799072266 3.8432710170745849609 4.0235652923583984375 4.2523794174194335938 4.3661899566650390625 4.3412251472473144531 3.8508238792419433594 4.1195774078369140625 4.5481171607971191406 4.7338657379150390625 4.4984555244445800781 4.1431984901428222656 3.7349450588226318359 2.8442869186401367188 2.2158801555633544922 2.147266387939453125 2.088603973388671875 
4.8035845756530761719 5.1500639915466308594 4.3291525840759277344 3.869022369384765625 4.03858184814453125 4.8869781494140625 3.1943576335906982422 3.0915248394012451172 2.452434539794921875 2.8133404254913330078 2.6199996471405029297 2.0435581207275390625 1.9763494729995727539 2.013729095458984375 2.1554818153381347656 2.1335225105285644531 2.1208243370056152344 2.4592411518096923828 2.4497556686401367188 2.3614609241485595703 2.2884690761566162109 2.7640023231506347656 2.931850433349609375 3.2367103099822998047 3.6640088558197021484 4.1430149078369140625 3.8588974475860595703 4.1415348052978515625 3.8456783294677734375 3.2797405719757080078 3.7686569690704345703 4.4143095016479492188 4.7690539360046386719 4.5869946479797363281 4.3686490058898925781 3.9102873802185058594 2.7933185100555419922 2.1734228134155273438 2.0858197212219238281 2.1600811481475830078 
4.1057796478271484375 4.3407955169677734375 4.4069242477416992188 3.6657652854919433594 3.1301324367523193359 4.5788226127624511719 3.4910111427307128906 3.9716038703918457031 2.9281232357025146484 2.8194315433502197266 2.8454043865203857422 2.3364415168762207031 2.3682544231414794922 2.2548270225524902344 2.2453441619873046875 2.1945137977600097656 2.4184110164642333984 2.3704409599304199219 2.3785326480865478516 2.5828216075897216797 2.5799443721771240234 2.6117045879364013672 2.2949740886688232422 2.8169095516204833984 3.5557765960693359375 3.6816246509552001953 3.1639170646667480469 3.5813481807708740234 3.4927840232849121094 3.214611053466796875 3.4755737781524658203 4.4083857536315917969 4.6717939376831054688 4.67205047607421875 4.2288236618041992188 3.4629609584808349609 2.7102704048156738281 2.4527707099914550781 2.1056549549102783203 2.1998732089996337891 
3.960727691650390625 3.7623529434204101563 3.83056640625 4.5306615829467773438 3.0026493072509765625 2.6380105018615722656 3.2259781360626220703 3.7540018558502197266 2.8031594753265380859 2.6244130134582519531 2.9315125942230224609 2.6627163887023925781 2.3442893028259277344 2.3676404953002929688 2.511249542236328125 2.7740399837493896484 2.9422183036804199219 2.4802560806274414063 2.2848827838897705078 2.4853873252868652344 2.6558556556701660156 2.3010566234588623047 2.1126103401184082031 2.2504358291625976563 2.8604588508605957031 3.3439660072326660156 3.2592456340789794922 3.4083373546600341797 3.7607483863830566406 3.4632015228271484375 3.5536954402923583984 3.8868417739868164063 4.5169024467468261719 4.5907354354858398438 4.2067818641662597656 3.8110759258270263672 2.8465301990509033203 2.6106019020080566406 2.1232459545135498047 2.2969336509704589844 
4.238803863525390625 4.3146834373474121094 3.8283922672271728516 3.6676435470581054688 4.0201854705810546875 3.7909979820251464844 3.3710544109344482422 3.5542328357696533203 3.5513694286346435547 3.3008034229278564453 3.0632257461547851563 2.6636354923248291016 2.6400084495544433594 2.6084713935852050781 2.54471588134765625 2.6581041812896728516 2.79148101806640625 2.6389670372009277344 2.2955377101898193359 2.256496429443359375 2.7172937393188476563 2.8579530715942382813 2.8603689670562744141 2.7023079395294189453 2.9450235366821289063 3.3731842041015625 4.1784262657165527344 4.1048245429992675781 3.7016763687133789063 3.5701425075531005859 3.7209379673004150391 3.8006672859191894531 4.1641154289245605469 4.0852608680725097656 3.6274952888488769531 4.1292018890380859375 2.8474237918853759766 2.0500099658966064453 2.1338078975677490234 2.2223255634307861328 
4.0775303840637207031 4.662868499755859375 4.5817785263061523438 3.9864308834075927734 4.2397813796997070313 3.7385795116424560547 3.1887078285217285156 3.1020257472991943359 3.8878934383392333984 3.3816938400268554688 3.1715452671051025391 3.4153194427490234375 3.3629920482635498047 2.8217682838439941406 2.8314466476440429688 2.6174190044403076172 2.5686492919921875 2.7946736812591552734 2.9015800952911376953 3.1362471580505371094 3.2790596485137939453 3.2779099941253662109 3.2741701602935791016 3.0932271480560302734 2.8724222183227539063 3.1751990318298339844 3.8194284439086914063 4.3577146530151367188 4.0089044570922851563 3.9949131011962890625 3.7498285770416259766 3.4372887611389160156 3.8526575565338134766 4.3068866729736328125 4.1599326133728027344 4.6384587287902832031 3.6772859096527099609 2.4398581981658935547 2.1872708797454833984 2.3058834075927734375 
3.8147497177124023438 4.4804220199584960938 4.7458329200744628906 4.0076088905334472656 3.4795620441436767578 3.3650233745574951172 2.8073034286499023438 2.6366207599639892578 3.2730994224548339844 3.7228090763092041016 4.0599641799926757813 3.8385336399078369141 3.5377585887908935547 3.9094235897064208984 4.250518798828125 4.1983814239501953125 4.1849184036254882813 4.0952596664428710938 4.65402984619140625 4.8162012100219726563 4.5604486465454101563 4.3937902450561523438 4.0694317817687988281 2.9640486240386962891 2.9711749553680419922 2.7626051902770996094 3.3378353118896484375 3.9363725185394287109 3.2137999534606933594 3.320018768310546875 3.2260408401489257813 3.3042323589324951172 3.7305376529693603516 3.9562566280364990234 4.3435740470886230469 4.7109694480895996094 4.2275609970092773438 3.2219965457916259766 2.4023318290710449219 2.3308396339416503906 
