ncols        40
nrows        40
xllcorner    -0.000000000000
yllcorner    0.000000000000
cellsize     5.000000000000
NODATA_value nan
1.6490001678466796875 1.4971752166748046875 1.5056526660919189453 1.4329258203506469727 1.4518864154815673828 1.4323401451110839844 1.3073503971099853516 1.6116135120391845703 1.8812513351440429688 1.8472390174865722656 1.6804233789443969727 2.0399768352508544922 2.2395510673522949219 2.165729522705078125 2.4474079608917236328 2.3418567180633544922 2.1683096885681152344 1.9587395191192626953 1.846197962760925293 1.4977794885635375977 1.4231177568435668945 1.4012666940689086914 1.4840227365493774414 1.2441521883010864258 1.3779900074005126953 1.9603800773620605469 1.771487116813659668 1.5900197029113769531 1.6341154575347900391 3.2636640071868896484 4.509540557861328125 4.1410021781921386719 4.0570111274719238281 3.238128662109375 2.3109531402587890625 2.2368011474609375 1.2962301969528198242 1.4349274635314941406 1.451405644416809082 1.4840739965438842773 
1.4482518434524536133 1.3487023115158081055 1.4958813190460205078 1.6200220584869384766 1.620600581169128418 1.2924892902374267578 1.1350426673889160156 1.3790640830993652344 1.6784871816635131836 2.1261301040649414063 2.0874037742614746094 2.6631085872650146484 2.5819163322448730469 2.5361738204956054688 3.5318753719329833984 4.6855745315551757813 3.0421354770660400391 1.9360401630401611328 1.7739267349243164063 1.3085340261459350586 1.3081449270248413086 1.3787332773208618164 1.4111604690551757813 1.0499372482299804688 1.6061071157455444336 2.1256983280181884766 2.1859335899353027344 2.0865352153778076172 2.0663743019104003906 3.3155078887939453125 3.2663784027099609375 3.818096160888671875 3.1540875434875488281 1.8493103981018066406 1.4070751667022705078 1.2702184915542602539 1.238768458366394043 1.314083099365234375 1.3655794858932495117 1.4973556995391845703 
1.3797509670257568359 1.4481897354125976563 1.5826921463012695313 1.6515901088714599609 1.6215953826904296875 1.3471435308456420898 1.0434331893920898438 1.1828248500823974609 1.3102079629898071289 1.5687475204467773438 2.1949155330657958984 2.3884758949279785156 3.0630557537078857422 3.0647566318511962891 4.4154982566833496094 4.5974516868591308594 4.3113565444946289063 2.5774235725402832031 3.0066144466400146484 2.4029223918914794922 1.0811600685119628906 1.1664092540740966797 1.2165607213973999023 1.0043379068374633789 1.2212839126586914063 1.8424304723739624023 1.8014818429946899414 2.0874350070953369141 2.4024713039398193359 3.2557568550109863281 3.3266384601593017578 3.4598453044891357422 2.9387776851654052734 2.0506420135498046875 1.4741057157516479492 1.3796914815902709961 1.3690295219421386719 1.2615033388137817383 1.3461413383483886719 1.4445950984954833984 
1.3416514396667480469 1.4899511337280273438 1.5452997684478759766 1.5999162197113037109 1.5401726961135864258 1.3145263195037841797 1.1144306659698486328 1.1084945201873779297 1.5728548765182495117 2.2775809764862060547 2.6722893714904785156 2.4294991493225097656 2.6987967491149902344 2.5242173671722412109 3.7651815414428710938 3.9543013572692871094 2.7369964122772216797 3.4738721847534179688 3.3281726837158203125 1.9733513593673706055 1.795566558837890625 1.3102838993072509766 1.1436749696731567383 1.0516910552978515625 1 1 1.1675322055816650391 1.5611609220504760742 2.0371346473693847656 2.4317314624786376953 2.8804037570953369141 2.5987308025360107422 2.1588108539581298828 1.5882543325424194336 1.469470977783203125 1.2054468393325805664 1.3011988401412963867 1.2385861873626708984 1.2115751504898071289 1.2080631256103515625 
1.3784765005111694336 1.3708928823471069336 1.4987378120422363281 1.5346039533615112305 1.4512907266616821289 1.3159959316253662109 1.0283350944519042969 1.2183315753936767578 1.9252001047134399414 1.8863729238510131836 2.1595854759216308594 2.2198469638824462891 2.4678180217742919922 2.6697258949279785156 3.2091753482818603516 3.5290312767028808594 2.4217576980590820313 3.3851234912872314453 3.4670593738555908203 2.0474970340728759766 2.0194416046142578125 1.1244242191314697266 1.1358792781829833984 1.0328081846237182617 1.0066215991973876953 1.0053201913833618164 1.0364764928817749023 1.5040994882583618164 1.6215535402297973633 1.9221456050872802734 2.0788006782531738281 2.3275463581085205078 1.6293283700942993164 1.1884349584579467773 1.1426336765289306641 1.0437637567520141602 1.1551616191864013672 1.2029376029968261719 1.1103578805923461914 1.0077412128448486328 
1.4444121122360229492 1.1984611749649047852 1.2828270196914672852 1.4206826686859130859 1.5534753799438476563 1.2994580268859863281 1.2022948265075683594 1.1172884702682495117 1.8311215639114379883 2.0514113903045654297 1.7768725156784057617 1.900187373161315918 2.3829786777496337891 2.5334887504577636719 3.0490043163299560547 2.4663555622100830078 1.8901847600936889648 1.8181092739105224609 2.34470367431640625 2.1364026069641113281 1.1457449197769165039 1.0435334444046020508 1.1850949525833129883 1.1430521011352539063 1.331509709358215332 1.3752759695053100586 1.5912514925003051758 1.7506822347640991211 1.6411477327346801758 2.3148410320281982422 2.0233223438262939453 2.08541107177734375 1.6546782255172729492 1.6446455717086791992 1.4946591854095458984 1.1650755405426025391 1.2058985233306884766 1.2144678831100463867 1.2899682521820068359 1.3639701604843139648 
1.2750527858734130859 1.1938425302505493164 1.2443001270294189453 1.4953329563140869141 1.4051538705825805664 1.4326024055480957031 1.1749495267868041992 1 1.2320668697357177734 1.807041168212890625 2.0149097442626953125 2.2634253501892089844 2.1281788349151611328 1.9877327680587768555 2.22760009765625 1.766445159912109375 1.6487222909927368164 1.6332961320877075195 1.7743074893951416016 1.4696544408798217773 1.0925449132919311523 1 1 1.4216392040252685547 1.7474738359451293945 1.7503437995910644531 2.0153400897979736328 2.2206888198852539063 2.2843902111053466797 2.3665649890899658203 1.9902219772338867188 2.1557788848876953125 2.2289507389068603516 2.2088572978973388672 2.0766844749450683594 1.4573403596878051758 1.3080517053604125977 1.1849614381790161133 1.2869408130645751953 1.4451572895050048828 
1.3736672401428222656 1.267228245735168457 1.225287318229675293 1.3352662324905395508 1.3474886417388916016 1.399720311164855957 1.1715996265411376953 1.0050960779190063477 1.0893532037734985352 1.4158718585968017578 1.3810268640518188477 2.0273969173431396484 2.2058799266815185547 2.4193427562713623047 2.2539618015289306641 1.6503043174743652344 1.8221967220306396484 1.6200847625732421875 2.93163299560546875 2.8652009963989257813 1.6364231109619140625 1.5564281940460205078 1.8325448036193847656 1.2897886037826538086 1.131244659423828125 1.3563982248306274414 1.5905188322067260742 1.6978620290756225586 2.1933116912841796875 2.4936554431915283203 2.0833101272583007813 1.7504330873489379883 1.4392085075378417969 1.6090028285980224609 1.9658572673797607422 1.6998598575592041016 1.1480373144149780273 1.2165911197662353516 1.3695238828659057617 1.694134831428527832 
1.4351543188095092773 1.2882676124572753906 1.3612573146820068359 1.3129822015762329102 1.32384490966796875 1.2075301408767700195 1.190188288688659668 1.0808576345443725586 1.1821333169937133789 1.265929102897644043 1.3155391216278076172 1.5365501642227172852 1.9053665399551391602 2.1480746269226074219 2.1952517032623291016 1.8578011989593505859 2.1731374263763427734 2.4886085987091064453 3.3602738380432128906 3.7261385917663574219 2.6083126068115234375 1.0000605583190917969 1.0779535770416259766 1.2723678350448608398 1.2579827308654785156 1.1830254793167114258 1.3114982843399047852 1.0620529651641845703 1.7480298280715942383 2.2412493228912353516 2.3029193878173828125 1.5943922996520996094 1.0436201095581054688 1.0756700038909912109 1.4969832897186279297 1.6391674280166625977 1.4557933807373046875 1.0069097280502319336 1.0967035293579101563 1.3981987237930297852 
1.3545005321502685547 1.4973028898239135742 1.4738287925720214844 1.4462687969207763672 1.1771986484527587891 1.1845067739486694336 1.0815300941467285156 1.0044113397598266602 1.0061359405517578125 1.1884367465972900391 1.4070531129837036133 1.4824975728988647461 1.367401123046875 1.6351213455200195313 1.9290641546249389648 1.6816908121109008789 2.4417636394500732422 2.6445024013519287109 3.2529971599578857422 3.9265820980072021484 2.3815553188323974609 1.1069300174713134766 1.2730997800827026367 1.4012748003005981445 1.4176111221313476563 1.2160042524337768555 1.8688422441482543945 1.5725820064544677734 1.3746448755264282227 1.6712170839309692383 2.150722503662109375 2.0337910652160644531 1.2795228958129882813 1.3025565147399902344 1.5666373968124389648 1.5425801277160644531 1.5697396993637084961 1.0872962474822998047 1 1.0901458263397216797 
2.2089924812316894531 1.9415998458862304688 1.52684783935546875 1.4682918787002563477 1.2675282955169677734 1.2007250785827636719 1.4213494062423706055 1.0020772218704223633 1.0099321603775024414 1.059102177619934082 1.2700906991958618164 1.3678189516067504883 1.2995302677154541016 1.2852400541305541992 1.4288867712020874023 1.5614243745803833008 1.4291044473648071289 2.7843458652496337891 3.3103876113891601563 2.4078266620635986328 1.2683359384536743164 1.0036344528198242188 1.1124056577682495117 1.2152240276336669922 1.4184776544570922852 1.8634307384490966797 3.5709369182586669922 2.0844640731811523438 1.437903285026550293 1.4246877431869506836 1.4898495674133300781 2.0615503787994384766 2.0246763229370117188 1.4915323257446289063 1.2632752656936645508 1.4806751012802124023 1.7024575471878051758 1.0007089376449584961 1.0021202564239501953 1.0901354551315307617 
2.5232665538787841797 2.4838285446166992188 1.6027241945266723633 1.3018910884857177734 1.5956363677978515625 1.4401326179504394531 1.1369594335556030273 1 1 1.0759280920028686523 1.3202495574951171875 1.587398529052734375 1.9907743930816650391 2.1540551185607910156 1.4014807939529418945 1.4529459476470947266 1.5766226053237915039 2.5838775634765625 1.4691087007522583008 1.1870431900024414063 1.0044826269149780273 1 1.1011655330657958984 1.1393182277679443359 1.4509575366973876953 2.402984619140625 2.7132818698883056641 1.9619123935699462891 1.4161999225616455078 1.1846903562545776367 1.7200695276260375977 1.8383300304412841797 1.9600142240524291992 1.8297296762466430664 1.8699071407318115234 1.8635118007659912109 2.0639464855194091797 1.2911946773529052734 1 1.0660954713821411133 
3.0231244564056396484 2.4498705863952636719 2.6410744190216064453 1.2552889585494995117 1.2361558675765991211 1.2672592401504516602 1.1587623357772827148 1.2651660442352294922 1.027423858642578125 1.9629392623901367188 2.0926980972290039063 2.7481191158294677734 4.2401065826416015625 3.3844296932220458984 2.2273259162902832031 2.1205530166625976563 2.4380524158477783203 1.323001861572265625 1.003405451774597168 1.1056035757064819336 1.000962376594543457 1 1.3911243677139282227 1.172787785530090332 1.6539161205291748047 2.0937747955322265625 2.2722961902618408203 1.9105150699615478516 1.642210841178894043 1.2607660293579101563 1.9848048686981201172 2.7152018547058105469 2.1010243892669677734 2.1817576885223388672 1.9243824481964111328 1.8679900169372558594 1.8026556968688964844 1.0549389123916625977 1.0010665655136108398 1 
2.4350805282592773438 2.2252037525177001953 1.9693980216979980469 1.4053415060043334961 1.243630528450012207 1.1710005998611450195 1.0615699291229248047 1.3359102010726928711 1.5279952287673950195 1.462380528450012207 3.2810227870941162109 4.0800604820251464844 6.8725347518920898438 4.8178606033325195313 2.8704421520233154297 3.5821063518524169922 1.9218931198120117188 1.6270574331283569336 1.1748154163360595703 1.2484052181243896484 1.6000437736511230469 1.4272515773773193359 1.8269243240356445313 1.3893598318099975586 1.6017299890518188477 2.548969268798828125 2.7862722873687744141 2.9313540458679199219 2.2573206424713134766 2.2840657234191894531 2.6263597011566162109 3.1463935375213623047 2.2605369091033935547 1.9659886360168457031 1.9161479473114013672 1.6575070619583129883 1.3186511993408203125 1.0005917549133300781 1.0080323219299316406 1 
1.9792026281356811523 1.677003026008605957 1.5291064977645874023 1.5523411035537719727 1.7930400371551513672 1.569743037223815918 1.2235709428787231445 1.2545068264007568359 1.4055485725402832031 1.3745952844619750977 2.1428306102752685547 3.1408255100250244141 6.5427212715148925781 5.4841012954711914063 3.6131141185760498047 4.0833344459533691406 2.2098433971405029297 1.4781806468963623047 1.1025063991546630859 1.5272256135940551758 1.7995693683624267578 2.23764801025390625 2.4960253238677978516 2.6007542610168457031 2.1920614242553710938 2.7255675792694091797 3.4480221271514892578 3.250823974609375 2.1690900325775146484 2.4043214321136474609 2.8450796604156494141 2.4631640911102294922 1.9401235580444335938 1.695937037467956543 1.209669947624206543 1.4280080795288085938 1.4833775758743286133 1.1359368562698364258 1.0068818330764770508 1.0269434452056884766 
2.4846706390380859375 2.3236360549926757813 1.5262441635131835938 1.6687207221984863281 1.5820658206939697266 1.2315198183059692383 1.0344659090042114258 1.0690829753875732422 1.1234151124954223633 1.7547525167465209961 2.5338251590728759766 3.1431601047515869141 7.0901546478271484375 5.2640008926391601563 3.8478150367736816406 3.3069772720336914063 2.0936548709869384766 1.1413621902465820313 1.1337789297103881836 1.2846682071685791016 1.6807216405868530273 2.26638031005859375 2.5232191085815429688 3.0628609657287597656 2.3817121982574462891 3.5886380672454833984 3.665805816650390625 3.8994293212890625 2.99224853515625 2.2213351726531982422 1.7389578819274902344 1.5556112527847290039 1.1794195175170898438 1.049958348274230957 1.0021054744720458984 1.0134335756301879883 1.019976496696472168 1.0290411710739135742 1.4039633274078369141 1.0017768144607543945 
2.2938866615295410156 2.6572458744049072266 2.2080359458923339844 2.0949411392211914063 1.4971785545349121094 1.4685657024383544922 1.0013152360916137695 1.1185159683227539063 1.1065833568572998047 1.1637146472930908203 2.5758223533630371094 3.754840850830078125 6.1995882987976074219 3.9566445350646972656 2.5187706947326660156 2.2931768894195556641 1.9178453683853149414 1.3481781482696533203 1.4470839500427246094 1.1913101673126220703 1.3987040519714355469 2.0682048797607421875 2.3212561607360839844 2.3687469959259033203 2.2980840206146240234 3.0922377109527587891 3.5001699924468994141 3.1196868419647216797 2.259593963623046875 1.813376307487487793 1.2142387628555297852 1.0221289396286010742 1.0444676876068115234 1.089099884033203125 1.0021291971206665039 1.0034302473068237305 1 1.0013711452484130859 1.803088068962097168 1.3685269355773925781 
2.3234694004058837891 2.6683814525604248047 3.0308630466461181641 2.5961823463439941406 1.7384352684020996094 1.205489039421081543 1.0012630224227905273 1.0383418798446655273 1.1297817230224609375 1.48798370361328125 2.297565460205078125 3.5754354000091552734 4.0458388328552246094 3.4822375774383544922 2.7316155433654785156 2.6955876350402832031 2.2916176319122314453 2.1739678382873535156 1.8338232040405273438 1.6155549287796020508 1.473791956901550293 1.2796112298965454102 2.2070639133453369141 2.4676625728607177734 2.2077853679656982422 2.4684071540832519531 3.1279919147491455078 3.1322257518768310547 2.1018567085266113281 1.5781587362289428711 1.0046834945678710938 1.0166658163070678711 1.0500895977020263672 1.1590840816497802734 1.1227775812149047852 1.0049815177917480469 1.0178266763687133789 1.0046378374099731445 1.396367192268371582 1.6398546695709228516 
2.4681153297424316406 2.9531342983245849609 3.25923919677734375 2.7666819095611572266 2.1622304916381835938 1.300875544548034668 1.316875457763671875 1.1749211549758911133 1.340169072151184082 2.0307283401489257813 2.6169309616088867188 3.3839533329010009766 3.184658050537109375 2.5873026847839355469 3.0306067466735839844 2.9683520793914794922 2.662555694580078125 2.8806283473968505859 2.5945112705230712891 2.0492622852325439453 1.9757120609283447266 2.0952131748199462891 2.2845051288604736328 2.6381587982177734375 2.6033232212066650391 2.2582228183746337891 2.2834918498992919922 2.7658619880676269531 1.9763293266296386719 1.6055153608322143555 1.0634055137634277344 1.1757754087448120117 1.0965214967727661133 1.030968785285949707 1.1554442644119262695 1.3877319097518920898 1.242558598518371582 1.2452167272567749023 1.6372296810150146484 1.9353903532028198242 
2.4012618064880371094 2.9398245811462402344 2.9189443588256835938 2.8432154655456542969 1.9626966714859008789 1.5292553901672363281 1.3666111230850219727 1.2964862585067749023 1.3311052322387695313 1.5079550743103027344 1.3831082582473754883 1.2426626682281494141 2.3632678985595703125 2.4528350830078125 3.2476074695587158203 3.3474195003509521484 2.8965401649475097656 2.9218807220458984375 2.5428555011749267578 2.5681581497192382813 2.7015261650085449219 2.8911986351013183594 2.4975697994232177734 2.2060444355010986328 1.8884603977203369141 2.2011563777923583984 1.9383881092071533203 2.1422340869903564453 2.5509133338928222656 1.2506431341171264648 1.0949465036392211914 1.1692523956298828125 1.0588972568511962891 1.0104808807373046875 1.64154052734375 1.4471319913864135742 1.8534934520721435547 2.3442080020904541016 1.8144032955169677734 1.3492454290390014648 
2.4687671661376953125 2.7892432212829589844 2.4170279502868652344 2.1539220809936523438 1.3034498691558837891 1.2772687673568725586 1.1549537181854248047 1.3070414066314697266 1.3092927932739257813 1.3853204250335693359 1.3470002412796020508 1.1977624893188476563 1.5855852365493774414 1.2001585960388183594 2.2483935356140136719 2.6705303192138671875 3.1390228271484375 2.7913420200347900391 2.5198614597320556641 2.7401068210601806641 3.1031806468963623047 3.1756391525268554688 2.7160134315490722656 2.2671520709991455078 1.6536746025085449219 1.5329672098159790039 1.7287687063217163086 2.3344976902008056641 2.0164942741394042969 2.2823643684387207031 1.4366154670715332031 2.0025494098663330078 1.0869498252868652344 1.0552765130996704102 1.2940515279769897461 1.8387722969055175781 2.3272385597229003906 2.8941035270690917969 2.2885711193084716797 1.6106703281402587891 
2.5681185722351074219 2.3818075656890869141 2.2588078975677490234 1.8615651130676269531 1.3676590919494628906 1.2072541713714599609 1.1426804065704345703 1.318715214729309082 1.55866241455078125 1.4672725200653076172 1.2957758903503417969 1.4516991376876831055 1.4353039264678955078 1.3907654285430908203 2.1938955783843994141 2.3830161094665527344 3.0071206092834472656 2.6391360759735107422 2.9474213123321533203 3.0113554000854492188 3.6286804676055908203 2.8745179176330566406 2.8240211009979248047 2.4999470710754394531 1.8244990110397338867 1.1112372875213623047 1.1903327703475952148 1.212407231330871582 1.3520829677581787109 2.1098377704620361328 2.0479948520660400391 3.3365268707275390625 1.4520626068115234375 1.5456109046936035156 1.3093281984329223633 1.9863953590393066406 2.6727595329284667969 2.881916046142578125 2.9597556591033935547 2.3017239570617675781 
3.1019496917724609375 2.7881500720977783203 2.8461575508117675781 2.3094615936279296875 1.517242431640625 1.2387975454330444336 1.1854479312896728516 1.174427032470703125 1.3766609430313110352 1.5548596382141113281 1.433842778205871582 1.259003758430480957 1.6189947128295898438 1.8633549213409423828 2.3656713962554931641 2.4112026691436767578 2.8557789325714111328 2.8063271045684814453 3.1064705848693847656 3.0795016288757324219 3.2951896190643310547 3.1158964633941650391 2.7315530776977539063 2.717594146728515625 1.8322002887725830078 1.1991231441497802734 1.2368271350860595703 1.1972533464431762695 1.1825691461563110352 1.9693266153335571289 1.9649505615234375 1.9684016704559326172 1.4323621988296508789 1.5503242015838623047 1.7256925106048583984 2.3898587226867675781 2.8517878055572509766 2.3021464347839355469 2.1228091716766357422 2.2586259841918945313 
2.8217878341674804688 2.7679319381713867188 3.2121057510375976563 2.8554339408874511719 2.0912444591522216797 1.2282621860504150391 1.5628943443298339844 1.2085816860198974609 1.417742609977722168 1.8008176088333129883 1.5256232023239135742 1.8740224838256835938 2.121417999267578125 1.9030382633209228516 2.0687451362609863281 2.8403508663177490234 2.6338469982147216797 2.6433489322662353516 2.83911895751953125 2.9249117374420166016 3.2183315753936767578 3.0654456615447998047 3.0315320491790771484 2.3399572372436523438 1.522327423095703125 1.2344231605529785156 1.250645756721496582 1.295899510383605957 1.2750608921051025391 1.2903999090194702148 1.2779083251953125 1.3175598382949829102 1.5286045074462890625 1.2503875494003295898 1.4858052730560302734 2.3497297763824462891 2.4210460186004638672 1.7698771953582763672 1.667345881462097168 1.2470121383666992188 
2.6716330051422119141 2.6628634929656982422 3.1340148448944091797 2.7094135284423828125 1.9119765758514404297 1.5577607154846191406 2.2707676887512207031 1.6541620492935180664 2.2301123142242431641 2.7654860019683837891 3.0583951473236083984 2.0602390766143798828 1.6221446990966796875 1.6989157199859619141 2.3034052848815917969 3.1038482189178466797 3.0647079944610595703 2.7283480167388916016 2.7485744953155517578 2.6612932682037353516 2.9475934505462646484 3.1713960170745849609 3.1201179027557373047 2.07495880126953125 1.332253575325012207 1.2766327857971191406 1.3427194356918334961 1.3882534503936767578 1.3710124492645263672 1.3160637617111206055 1.2933356761932373047 1.3250571489334106445 1.5444762706756591797 1.3332033157348632813 1.5668134689331054688 2.1472699642181396484 2.4069304466247558594 2.0571424961090087891 1.994258880615234375 1.775664210319519043 
2.4018738269805908203 2.7104055881500244141 2.8028533458709716797 2.5003004074096679688 2.2534687519073486328 1.6523313522338867188 2.4367895126342773438 2.2557508945465087891 2.4456067085266113281 3.0116152763366699219 2.5646564960479736328 1.8290181159973144531 1.7142636775970458984 2.1469197273254394531 1.9601532220840454102 2.5869538784027099609 3.485675811767578125 2.8648498058319091797 2.6242411136627197266 2.5696594715118408203 2.5649859905242919922 2.1767816543579101563 1.9778540134429931641 1.7849081754684448242 1.53340911865234375 1.3477447032928466797 1.3933533430099487305 1.3609132766723632813 1.3974107503890991211 1.4134948253631591797 1.4080355167388916016 1.352627873420715332 1.5297706127166748047 1.3828781843185424805 1.7757337093353271484 1.9326865673065185547 1.977154850959777832 2.5881464481353759766 2.4271214008331298828 2.0855565071105957031 
2.3270204067230224609 2.1844217777252197266 2.3013174533843994141 1.9566456079483032227 2.2357051372528076172 2.0810353755950927734 2.3858339786529541016 2.8032944202423095703 2.0460417270660400391 2.1473011970520019531 2.3228952884674072266 1.4211518764495849609 1.4646943807601928711 1.3786799907684326172 1.450711369514465332 2.1893441677093505859 2.9688913822174072266 2.7594015598297119141 1.8490654230117797852 1.8932487964630126953 1.9864493608474731445 1.8215951919555664063 1.8288123607635498047 1.9178388118743896484 1.6890197992324829102 1.441036224365234375 1.4587284326553344727 1.4700483083724975586 1.4128921031951904297 1.425029754638671875 1.4213634729385375977 1.760517120361328125 2.0849478244781494141 2.285755157470703125 2.1747348308563232422 2.0904777050018310547 2.2941212654113769531 2.8681309223175048828 2.220355987548828125 2.2278652191162109375 
2.1932327747344970703 2.40662384033203125 2.9774298667907714844 2.4877479076385498047 2.134906768798828125 2.7891614437103271484 2.7757022380828857422 2.8118085861206054688 1.8710628747940063477 1.5376904010772705078 1.6424739360809326172 1.5352877378463745117 1.6232358217239379883 1.9485832452774047852 1.6340031623840332031 2.5541839599609375 2.9281675815582275391 2.5401556491851806641 1.8457267284393310547 1.5197714567184448242 1.5137914419174194336 1.481784820556640625 1.5089657306671142578 1.94844818115234375 1.9244909286499023438 1.8144599199295043945 1.4582246541976928711 1.4974859952926635742 1.5823292732238769531 1.7900702953338623047 1.965264439582824707 2.5783984661102294922 2.7245044708251953125 2.6692709922790527344 2.6090824604034423828 2.3696420192718505859 2.2671580314636230469 2.4872391223907470703 2.3247292041778564453 2.3369061946868896484 
3.4371654987335205078 3.1689686775207519531 2.8326539993286132813 2.7479658126831054688 3.1329097747802734375 3.2176976203918457031 3.9376289844512939453 3.2130534648895263672 2.5962882041931152344 1.9553159475326538086 1.5812180042266845703 1.5546933412551879883 1.7073583602905273438 2.0551638603210449219 2.4810922145843505859 2.0188031196594238281 2.1178874969482421875 2.0264492034912109375 1.6292729377746582031 1.6300836801528930664 1.5568577051162719727 1.5312808752059936523 1.542469024658203125 1.8885340690612792969 2.3471570014953613281 2.9430222511291503906 2.8429579734802246094 2.0602250099182128906 2.1038162708282470703 2.7580776214599609375 3.0854041576385498047 3.4432299137115478516 3.1010241508483886719 2.6434702873229980469 2.9050176143646240234 3.2992982864379882813 2.8313908576965332031 2.6255974769592285156 2.322628021240234375 2.5465798377990722656 
3.6649265289306640625 3.1989979743957519531 2.8800585269927978516 2.7406902313232421875 3.1177053451538085938 3.7401981353759765625 4.121395111083984375 3.4384098052978515625 2.8407268524169921875 2.2276589870452880859 1.9436140060424804688 1.8181993961334228516 1.7010924816131591797 1.669834136962890625 1.6725305318832397461 1.6268085241317749023 1.9530735015869140625 1.6542268991470336914 1.6418530941009521484 1.6709623336791992188 1.6913748979568481445 1.6482577323913574219 1.5914565324783325195 2.1571714878082275391 3.6498384475708007813 3.1378741264343261719 2.6464345455169677734 2.2648720741271972656 2.7430634498596191406 3.1057231426239013672 3.6190738677978515625 3.41654205322265625 2.8062405586242675781 2.6683306694030761719 2.7956774234771728516 2.9413950443267822266 3.0119686126708984375 2.7173373699188232422 2.41600799560546875 2.5435135364532470703 
3.2545166015625 2.5344564914703369141 2.52338409423828125 2.1706702709197998047 2.6255998611450195313 3.1657941341400146484 3.5295441150665283203 3.3532149791717529297 3.1071012020111083984 2.0484445095062255859 1.8043913841247558594 1.8082489967346191406 1.7925117015838623047 1.762074589729309082 1.77057647705078125 1.6821144819259643555 1.824717402458190918 1.8536913394927978516 1.8578133583068847656 1.702780604362487793 1.7430398464202880859 1.7432771921157836914 1.6873729228973388672 1.8799924850463867188 2.8463218212127685547 2.3652932643890380859 2.4177236557006835938 2.392879486083984375 2.917041778564453125 3.17653656005859375 3.6908609867095947266 3.3590223789215087891 2.4499962329864501953 2.5267791748046875 2.6923038959503173828 2.7901074886322021484 2.63051605224609375 2.7020330429077148438 2.2795071601867675781 2.2618384361267089844 
2.9156277179718017578 3.1082284450531005859 3.5844964981079101563 2.534759521484375 2.9652252197265625 2.9306337833404541016 2.9288692474365234375 2.9164535999298095703 2.7401158809661865234 2.0731558799743652344 1.8460481166839599609 1.8200365304946899414 1.8481895923614501953 1.8685381412506103516 2.0245213508605957031 1.9007749557495117188 1.9440630674362182617 1.9994338750839233398 1.8629150390625 1.7639120817184448242 1.7528966665267944336 1.7667614221572875977 1.8060429096221923828 2.5450932979583740234 3.3791105747222900391 3.2449514865875244141 3.1088917255401611328 3.5373194217681884766 3.9336736202239990234 3.7772119045257568359 3.4725048542022705078 3.2935516834259033203 3.1030035018920898438 2.8735306262969970703 2.5194144248962402344 2.4933152198791503906 2.2581312656402587891 2.3164086341857910156 2.2752676010131835938 2.1764299869537353516 
4.6157464981079101563 5.4631500244140625 5.3936781883239746094 4.0158553123474121094 4.12908172607421875 2.9604337215423583984 2.2872750759124755859 2.4181568622589111328 1.9725544452667236328 1.9668650627136230469 2.1368372440338134766 1.9515613317489624023 1.8498302698135375977 1.9372142553329467773 2.0398347377777099609 1.952962040901184082 1.9470629692077636719 1.9197924137115478516 1.8544259071350097656 1.8553149700164794922 1.8077837228775024414 1.8055789470672607422 1.9668169021606445313 3.1587946414947509766 3.4022281169891357422 4.0097289085388183594 4.032779693603515625 4.082187652587890625 4.2199301719665527344 4.0339903831481933594 3.9553856849670410156 4.1902651786804199219 3.7936122417449951172 3.7140171527862548828 3.4003584384918212891 2.9230644702911376953 2.7235536575317382813 2.5242457389831542969 2.2934994697570800781 2.1022746562957763672 
4.5875110626220703125 4.8956298828125 4.6989951133728027344 3.9683644771575927734 3.5246233940124511719 3.2664287090301513672 2.7704408168792724609 2.6375358104705810547 1.9532094001770019531 2.2784931659698486328 2.0380873680114746094 1.9907374382019042969 1.9758927822113037109 2.0159292221069335938 1.9724830389022827148 1.9751695394515991211 1.929141998291015625 1.9410725831985473633 1.855444788932800293 1.8054746389389038086 2.0054988861083984375 2.0131449699401855469 2.3948850631713867188 3.3145062923431396484 3.8373990058898925781 4.0281414985656738281 4.2487430572509765625 4.3725590705871582031 4.3370990753173828125 3.8559749126434326172 4.1212100982666015625 4.53874969482421875 4.734683990478515625 4.5041627883911132813 4.1407895088195800781 3.7344231605529785156 2.8534204959869384766 2.2184009552001953125 2.1439340114593505859 2.0891468524932861328 
4.7959761619567871094 5.1502404212951660156 4.3304820060729980469 3.8687555789947509766 4.0444812774658203125 4.88574981689453125 3.19316864013671875 3.0910027027130126953 2.4512491226196289063 2.8162009716033935547 2.6230869293212890625 2.0419228076934814453 1.9793812036514282227 2.0173561573028564453 2.1551525592803955078 2.1313188076019287109 2.1262314319610595703 2.4580438137054443359 2.4501938819885253906 2.3566417694091796875 2.2923245429992675781 2.7621264457702636719 2.9320676326751708984 3.2383873462677001953 3.6625337600708007813 4.1375837326049804688 3.8495006561279296875 4.1393246650695800781 3.8400034904479980469 3.2855880260467529297 3.7721190452575683594 4.414524078369140625 4.7766652107238769531 4.5875000953674316406 4.3698077201843261719 3.9056150913238525391 2.7954485416412353516 2.1658782958984375 2.0866129398345947266 2.1630659103393554688 
4.1037735939025878906 4.3293972015380859375 4.4050893783569335938 3.6638016700744628906 3.1320459842681884766 4.5880517959594726563 3.4884197711944580078 3.9720969200134277344 2.9228663444519042969 2.8229343891143798828 2.8455047607421875 2.3322968482971191406 2.3675951957702636719 2.2588086128234863281 2.2497289180755615234 2.2043490409851074219 2.4131424427032470703 2.3692793846130371094 2.3763275146484375 2.5798554420471191406 2.5762834548950195313 2.6157026290893554688 2.2974953651428222656 2.8193540573120117188 3.5587508678436279297 3.6871826648712158203 3.1696183681488037109 3.5807461738586425781 3.4938690662384033203 3.2117125988006591797 3.4795508384704589844 4.4032864570617675781 4.674732208251953125 4.6756758689880371094 4.2306847572326660156 3.4666221141815185547 2.7079064846038818359 2.4563851356506347656 2.1099500656127929688 2.1995487213134765625 
3.9613759517669677734 3.7548828125 3.8304219245910644531 4.5308098793029785156 2.9968166351318359375 2.6412854194641113281 3.22162628173828125 3.7594487667083740234 2.8030970096588134766 2.6202287673950195313 2.9363753795623779297 2.6622037887573242188 2.3349106311798095703 2.3659164905548095703 2.510593414306640625 2.7688996791839599609 2.9491591453552246094 2.47032928466796875 2.2872064113616943359 2.4839792251586914063 2.6561281681060791016 2.3015584945678710938 2.1096789836883544922 2.2532052993774414063 2.8629457950592041016 3.3441805839538574219 3.2591536045074462891 3.4141340255737304688 3.7682180404663085938 3.46930694580078125 3.5524284839630126953 3.8768286705017089844 4.5143046379089355469 4.5914201736450195313 4.2104387283325195313 3.8243989944458007813 2.8510925769805908203 2.6155562400817871094 2.1293613910675048828 2.2953267097473144531 
4.2343468666076660156 4.3173379898071289063 3.8307111263275146484 3.6693060398101806641 4.0238933563232421875 3.7939591407775878906 3.3732321262359619141 3.5569436550140380859 3.5405547618865966797 3.3068943023681640625 3.0715761184692382813 2.6679410934448242188 2.6382734775543212891 2.6123349666595458984 2.5447456836700439453 2.6609599590301513672 2.7902262210845947266 2.6368174552917480469 2.293758392333984375 2.2582259178161621094 2.7216522693634033203 2.8549692630767822266 2.8629386425018310547 2.7135944366455078125 2.94864654541015625 3.3756563663482666016 4.1769700050354003906 4.104488372802734375 3.7038505077362060547 3.5811519622802734375 3.722934722900390625 3.7959485054016113281 4.170726776123046875 4.0841379165649414063 3.6338124275207519531 4.1248250007629394531 2.8499338626861572266 2.0471968650817871094 2.1358804702758789063 2.2276337146759033203 
4.0828876495361328125 4.6582736968994140625 4.5816249847412109375 3.9836263656616210938 4.2413887977600097656 3.7384600639343261719 3.1865766048431396484 3.0971055030822753906 3.8843796253204345703 3.3831565380096435547 3.1658971309661865234 3.4099266529083251953 3.3714556694030761719 2.8252940177917480469 2.8302180767059326172 2.624462127685546875 2.5679099559783935547 2.7923963069915771484 2.8947823047637939453 3.1429953575134277344 3.2697021961212158203 3.2669744491577148438 3.2774941921234130859 3.0936031341552734375 2.8821187019348144531 3.1791756153106689453 3.8261649608612060547 4.3627986907958984375 4.0122880935668945313 3.9906017780303955078 3.7473313808441162109 3.4387018680572509766 3.8571171760559082031 4.3074517250061035156 4.1530070304870605469 4.6406650543212890625 3.6802649497985839844 2.4412786960601806641 2.1827311515808105469 2.3156752586364746094 
3.8162281513214111328 4.4809417724609375 4.7465906143188476563 4.014339447021484375 3.4719290733337402344 3.3692204952239990234 2.8021337985992431641 2.6435019969940185547 3.2748038768768310547 3.7215406894683837891 4.0564732551574707031 3.8446302413940429688 3.5439803600311279297 3.9052143096923828125 4.2461681365966796875 4.1991305351257324219 4.1813249588012695313 4.0907578468322753906 4.6455631256103515625 4.8077573776245117188 4.5595269203186035156 4.3913712501525878906 4.0709934234619140625 2.9721293449401855469 2.9739413261413574219 2.7663166522979736328 3.3346223831176757813 3.9363837242126464844 3.2198631763458251953 3.3206205368041992188 3.2189302444458007813 3.3078472614288330078 3.7314836978912353516 3.9562017917633056641 4.3474979400634765625 4.7111058235168457031 4.2250962257385253906 3.2152879238128662109 2.4041714668273925781 2.3243055343627929688 
