ncols        40
nrows        40
xllcorner    -0.000000000000
yllcorner    0.000000000000
cellsize     5.000000000000
NODATA_value nan
2.7138860225677490234 2.5868053436279296875 2.55091094970703125 2.5733056068420410156 2.5628597736358642578 2.5648787021636962891 2.3897082805633544922 2.7448718547821044922 3.0617206096649169922 3.0509831905364990234 2.9077603816986083984 3.2638504505157470703 3.4853239059448242188 3.3312137126922607422 3.6541888713836669922 3.5917193889617919922 3.3934245109558105469 3.1261184215545654297 2.9663593769073486328 2.6261696815490722656 2.5751402378082275391 2.5491352081298828125 2.6145787239074707031 2.3112511634826660156 2.4798753261566162109 3.0783362388610839844 2.8759009838104248047 2.6873025894165039063 2.7732477188110351563 4.4954156875610351563 5.7510762214660644531 5.4313821792602539063 5.3674402236938476563 4.4559969902038574219 3.5351500511169433594 3.4234573841094970703 2.4153287410736083984 2.5821745395660400391 2.5729391574859619141 2.6032001972198486328 
2.4299292564392089844 2.2937185764312744141 2.5594310760498046875 2.7180573940277099609 2.6864614486694335938 2.2894294261932373047 2.1803364753723144531 2.4374859333038330078 2.8476591110229492188 3.2905011177062988281 3.2905156612396240234 3.82073974609375 3.7764208316802978516 3.6583149433135986328 4.7612972259521484375 5.9136447906494140625 4.2051444053649902344 3.0569543838500976563 2.8542399406433105469 2.3073155879974365234 2.3260147571563720703 2.3887176513671875 2.455600738525390625 2.076313018798828125 2.7164678573608398438 3.2188196182250976563 3.2662768363952636719 3.2131290435791015625 3.2210221290588378906 4.5045294761657714844 4.4556279182434082031 5.0235757827758789063 4.3791828155517578125 2.9781153202056884766 2.4777646064758300781 2.3439774513244628906 2.2546293735504150391 2.3606731891632080078 2.4036386013031005859 2.5780313014984130859 
2.3004491329193115234 2.4029603004455566406 2.5070521831512451172 2.6872005462646484375 2.6268212795257568359 2.3170411586761474609 1.959074854850769043 2.1277055740356445313 2.278301239013671875 2.6335835456848144531 3.2929818630218505859 3.500736236572265625 4.2224559783935546875 4.2289576530456542969 5.5956926345825195313 5.7497806549072265625 5.4011769294738769531 3.6503243446350097656 4.0266237258911132813 3.4299368858337402344 2.0153670310974121094 2.1324372291564941406 2.1854910850524902344 1.912499547004699707 2.1752915382385253906 2.8265373706817626953 2.7862851619720458984 3.1535532474517822266 3.5016734600067138672 4.4443249702453613281 4.4757137298583984375 4.5969038009643554688 4.0345201492309570313 3.1664934158325195313 2.5781548023223876953 2.3715384006500244141 2.3858127593994140625 2.2271244525909423828 2.2966978549957275391 2.4418046474456787109 
2.2670278549194335938 2.3606083393096923828 2.4697289466857910156 2.5111331939697265625 2.4573848247528076172 2.2125160694122314453 1.962338566780090332 2.0566349029541015625 2.5604262351989746094 3.2966175079345703125 3.7393710613250732422 3.5060477256774902344 3.8289744853973388672 3.5829083919525146484 4.8466463088989257813 5.0063414573669433594 3.7676901817321777344 4.498294830322265625 4.3541307449340820313 2.9474079608917236328 2.7437138557434082031 2.2474019527435302734 2.0579183101654052734 1.9415278434753417969 1.8309047222137451172 1.846322178840637207 2.0428664684295654297 2.5788512229919433594 3.0387732982635498047 3.48140716552734375 3.9276065826416015625 3.6770727634429931641 3.1727073192596435547 2.6253256797790527344 2.4506089687347412109 2.1308588981628417969 2.2267410755157470703 2.1681740283966064453 2.1047577857971191406 2.1198754310607910156 
2.2285196781158447266 2.2061071395874023438 2.3160026073455810547 2.3714275360107421875 2.2828204631805419922 2.1398468017578125 1.8005348443984985352 2.0959951877593994141 2.84117889404296875 2.8264791965484619141 3.163562774658203125 3.2117569446563720703 3.4299986362457275391 3.6895987987518310547 4.273189544677734375 4.5651516914367675781 3.3446257114410400391 4.3068356513977050781 4.4440455436706542969 2.9290645122528076172 2.9147646427154541016 1.9718351364135742188 2.0298902988433837891 1.8276324272155761719 1.8349326848983764648 1.8487533330917358398 1.9156059026718139648 2.3898179531097412109 2.5247087478637695313 2.8260703086853027344 3.0610761642456054688 3.2976517677307128906 2.5052363872528076172 2.0584847927093505859 1.9649580717086791992 1.876468658447265625 2.0637664794921875 2.0708599090576171875 2.0158665180206298828 1.7486979961395263672 
2.2364220619201660156 1.9174911975860595703 2.0901432037353515625 2.2589707374572753906 2.3843050003051757813 2.1116278171539306641 2.0114257335662841797 1.8956911563873291016 2.6930932998657226563 2.9119985103607177734 2.7197251319885253906 2.8149726390838623047 3.3211634159088134766 3.4578580856323242188 3.9775366783142089844 3.3904287815093994141 2.7374486923217773438 2.6878604888916015625 3.1860315799713134766 2.95734405517578125 1.9899904727935791016 1.8406647443771362305 2.0259830951690673828 1.9581056833267211914 2.1694662570953369141 2.1797204017639160156 2.4802184104919433594 2.6196520328521728516 2.5039858818054199219 3.2296557426452636719 2.9144330024719238281 2.9170520305633544922 2.5141308307647705078 2.4466824531555175781 2.3384931087493896484 1.9571335315704345703 2.0488860607147216797 2.0534420013427734375 2.1495261192321777344 2.1836314201354980469 
1.9922972917556762695 1.8683885335922241211 1.9985780715942382813 2.2243638038635253906 2.0995805263519287109 2.1929595470428466797 1.8902807235717773438 1.6895558834075927734 2.0085346698760986328 2.6165323257446289063 2.8755176067352294922 3.1141138076782226563 2.96775054931640625 2.8206968307495117188 3.0262315273284912109 2.5932104587554931641 2.4258990287780761719 2.4631638526916503906 2.5880463123321533203 2.2003350257873535156 1.7848181724548339844 1.7175143957138061523 1.686902165412902832 2.2122945785522460938 2.5422043800354003906 2.5259790420532226563 2.8645856380462646484 3.1066992282867431641 3.1050825119018554688 3.1476051807403564453 2.8054609298706054688 2.9332594871520996094 3.0116906166076660156 2.9603095054626464844 2.8187668323516845703 2.2123239040374755859 2.1090300083160400391 1.9418929815292358398 2.0705251693725585938 2.2315070629119873047 
2.101345062255859375 1.9415725469589233398 1.8873404264450073242 2.0295047760009765625 2.0260953903198242188 2.0679225921630859375 1.8170437812805175781 1.6783061027526855469 1.7731405496597290039 2.1680243015289306641 2.1866133213043212891 2.8191444873809814453 3.0276830196380615234 3.162143707275390625 3.0504121780395507813 2.3376765251159667969 2.5742669105529785156 2.3562388420104980469 3.7265040874481201172 3.5429332256317138672 2.3354322910308837891 2.1589181423187255859 2.5038096904754638672 2.0340323448181152344 1.8144512176513671875 2.03908538818359375 2.3301780223846435547 2.4221196174621582031 2.9225962162017822266 3.2698910236358642578 2.8729703426361083984 2.4511940479278564453 2.1525566577911376953 2.3711643218994140625 2.6563169956207275391 2.4497466087341308594 1.9152213335037231445 1.9283713102340698242 2.053127288818359375 2.4294259548187255859 
2.0712935924530029297 1.9418199062347412109 1.9757026433944702148 1.9663962125778198242 1.9574091434478759766 1.81581878662109375 1.7936036586761474609 1.6857985258102416992 1.8641912937164306641 1.8753370046615600586 2.0345516204833984375 2.2205209732055664063 2.6060616970062255859 2.8895709514617919922 2.8996021747589111328 2.5598199367523193359 2.7765891551971435547 3.1892607212066650391 4.0497865676879882813 4.3976092338562011719 3.2978613376617431641 1.6282917261123657227 1.704813838005065918 1.920804142951965332 1.9223432540893554688 1.8442167043685913086 1.9254801273345947266 1.6814740896224975586 2.3907141685485839844 2.9688427448272705078 3.0402743816375732422 2.2663531303405761719 1.6795239448547363281 1.6973816156387329102 2.1372008323669433594 2.3796918392181396484 2.1251618862152099609 1.6356525421142578125 1.722191929817199707 2.0836746692657470703 
1.9535332918167114258 2.1367914676666259766 2.10997772216796875 2.0470399856567382813 1.7838413715362548828 1.8030303716659545898 1.6611520051956176758 1.5693209171295166016 1.5166858434677124023 1.749079585075378418 2.0348727703094482422 2.0971901416778564453 2.01984405517578125 2.2544085979461669922 2.62436676025390625 2.3074011802673339844 3.0895628929138183594 3.2199156284332275391 3.8906977176666259766 4.5721416473388671875 2.9146597385406494141 1.663000941276550293 1.8993228673934936523 2.0233607292175292969 2.0375902652740478516 1.8038096427917480469 2.4889771938323974609 2.1684269905090332031 1.9628930091857910156 2.2932214736938476563 2.7807991504669189453 2.6162707805633544922 1.8323940038681030273 1.8307229280471801758 2.1988663673400878906 2.1582996845245361328 2.1810002326965332031 1.672951817512512207 1.5428950786590576172 1.6794867515563964844 
2.7408516407012939453 2.5210096836090087891 2.0478403568267822266 1.9864877462387084961 1.7810192108154296875 1.7359957695007324219 1.9678797721862792969 1.5408662557601928711 1.5029768943786621094 1.5824375152587890625 1.841176152229309082 1.9377204179763793945 1.8803009986877441406 1.8499441146850585938 2.0149984359741210938 2.1671113967895507813 1.9539961814880371094 3.3449590206146240234 3.8302597999572753906 2.9545681476593017578 1.7779927253723144531 1.5445287227630615234 1.632170557975769043 1.7632027864456176758 2.022891998291015625 2.4902231693267822266 4.1479687690734863281 2.6557374000549316406 1.942864537239074707 1.9394476413726806641 2.0566396713256835938 2.5844652652740478516 2.5335583686828613281 1.9913665056228637695 1.8072921037673950195 1.978749394416809082 2.1997036933898925781 1.488089442253112793 1.4802173376083374023 1.5701727867126464844 
2.9897851943969726563 3.0033297538757324219 2.1289815902709960938 1.8017743825912475586 2.0913794040679931641 1.935161590576171875 1.6487972736358642578 1.3744591474533081055 1.4664659500122070313 1.5343863964080810547 1.8347772359848022461 2.0918893814086914063 2.4561750888824462891 2.638763427734375 1.8976930379867553711 1.9393811225891113281 2.085552215576171875 3.0247523784637451172 1.9393906593322753906 1.6110199689865112305 1.4083064794540405273 1.3958830833435058594 1.5404169559478759766 1.5840623378753662109 1.9826695919036865234 2.941913604736328125 3.2840275764465332031 2.4747776985168457031 1.8886125087738037109 1.6299670934677124023 2.2531905174255371094 2.3576250076293945313 2.4369504451751708984 2.3139970302581787109 2.3532507419586181641 2.3194587230682373047 2.5442340373992919922 1.700581669807434082 1.4616558551788330078 1.4709972143173217773 
3.3931763172149658203 2.9005334377288818359 3.0639336109161376953 1.696886897087097168 1.6754786968231201172 1.6983730792999267578 1.5832058191299438477 1.648110508918762207 1.3886474370956420898 2.4695522785186767578 2.5571606159210205078 3.2090518474578857422 4.7238850593566894531 3.8059830665588378906 2.6292643547058105469 2.5352597236633300781 2.8555543422698974609 1.7182910442352294922 1.3980615139007568359 1.4882143735885620117 1.3732116222381591797 1.3661025762557983398 1.8068499565124511719 1.5510239601135253906 2.1152842044830322266 2.6205148696899414063 2.7742474079132080078 2.419643402099609375 2.0681567192077636719 1.6743600368499755859 2.4280686378479003906 3.1321742534637451172 2.5191004276275634766 2.6151266098022460938 2.2572908401489257813 2.2528228759765625 2.1179654598236083984 1.3946987390518188477 1.3198540210723876953 1.382694244384765625 
2.7735745906829833984 2.6018824577331542969 2.3264300823211669922 1.8118557929992675781 1.6130816936492919922 1.518777012825012207 1.469527125358581543 1.6781802177429199219 1.9712145328521728516 1.8757588863372802734 3.7343621253967285156 4.4781308174133300781 7.2732872962951660156 5.2059750556945800781 3.26111602783203125 3.9729871749877929688 2.2949068546295166016 1.9678968191146850586 1.4985291957855224609 1.608183741569519043 1.9696286916732788086 1.7581080198287963867 2.1605179309844970703 1.800757288932800293 2.0312654972076416016 3.0627679824829101563 3.3160028457641601563 3.3932235240936279297 2.7308144569396972656 2.7553706169128417969 3.0448021888732910156 3.5226831436157226563 2.6791629791259765625 2.2815675735473632813 2.2014501094818115234 1.9623292684555053711 1.540194392204284668 1.3148691654205322266 1.3334126472473144531 1.3103173971176147461 
2.3236279487609863281 1.9859279394149780273 1.8616161346435546875 1.8717775344848632813 2.0834674835205078125 1.8865488767623901367 1.5090088844299316406 1.6102683544158935547 1.6791068315505981445 1.7114568948745727539 2.4425232410430908203 3.4195578098297119141 6.9009160995483398438 5.8661141395568847656 3.9542155265808105469 4.3808994293212890625 2.5425753593444824219 1.7641295194625854492 1.3852910995483398438 1.8634736537933349609 2.0630407333374023438 2.5246794223785400391 2.8213241100311279297 3.0054876804351806641 2.6120765209197998047 3.1384842395782470703 3.9115891456604003906 3.7451081275939941406 2.5621252059936523438 2.7786600589752197266 3.2310669422149658203 2.8536176681518554688 2.2713179588317871094 1.9657903909683227539 1.3528970479965209961 1.7019551992416381836 1.7143844366073608398 1.3334547281265258789 1.2368233203887939453 1.2229005098342895508 
2.8177397251129150391 2.6366374492645263672 1.7759261131286621094 1.9290835857391357422 1.808691859245300293 1.4397169351577758789 1.2936583757400512695 1.3560432195663452148 1.3606389760971069336 2.0525183677673339844 2.8206348419189453125 3.3790464401245117188 7.3890690803527832031 5.5582280158996582031 4.0945277214050292969 3.6091077327728271484 2.3506531715393066406 1.3879793882369995117 1.3299779891967773438 1.5033140182495117188 1.8896429538726806641 2.5261175632476806641 2.7870070934295654297 3.3972954750061035156 2.6941084861755371094 3.98685455322265625 4.1003890037536621094 4.2622189521789550781 3.3436191082000732422 2.4993064403533935547 1.9456243515014648438 1.8341888189315795898 1.4045907258987426758 1.2674595117568969727 1.2011049985885620117 1.1912648677825927734 1.1684540510177612305 1.2068532705307006836 1.5804169178009033203 1.2430833578109741211 
2.47261810302734375 2.8817837238311767578 2.4532487392425537109 2.3345742225646972656 1.7240185737609863281 1.7180703878402709961 1.18796539306640625 1.2938796281814575195 1.2591758966445922852 1.3280482292175292969 2.7308499813079833984 3.9444048404693603516 6.4049582481384277344 4.1685214042663574219 2.7415478229522705078 2.538909912109375 2.1192302703857421875 1.5533232688903808594 1.6044552326202392578 1.3563569784164428711 1.5747673511505126953 2.3013122081756591797 2.5207338333129882813 2.6093142032623291016 2.5956392288208007813 3.4060943126678466797 3.8435785770416259766 3.4433104991912841797 2.4900250434875488281 2.0481460094451904297 1.3632292747497558594 1.2348591089248657227 1.2107598781585693359 1.2599974870681762695 1.1232696771621704102 1.1294683218002319336 1.1643835306167602539 1.1380834579467773438 1.9827494621276855469 1.5608873367309570313 
2.4827015399932861328 2.8773245811462402344 3.2612807750701904297 2.8581931591033935547 1.9224369525909423828 1.3741832971572875977 1.1201727390289306641 1.1110968589782714844 1.2497704029083251953 1.607878565788269043 2.4614398479461669922 3.7451155185699462891 4.2110276222229003906 3.6578829288482666016 2.8593726158142089844 2.8951086997985839844 2.4755320549011230469 2.3642449378967285156 1.9511362314224243164 1.7358739376068115234 1.6443809270858764648 1.389535069465637207 2.3523802757263183594 2.6598067283630371094 2.44150543212890625 2.6829776763916015625 3.4070966243743896484 3.3994963169097900391 2.25951385498046875 1.7078090906143188477 1.1098171472549438477 1.0722776651382446289 1.1324760913848876953 1.3040975332260131836 1.3090360164642333984 1.1135116815567016602 1.1452703475952148438 1.1227778196334838867 1.4540640115737915039 1.7802273035049438477 
2.6185252666473388672 3.1278121471405029297 3.4534430503845214844 2.8838727474212646484 2.324153900146484375 1.3621779680252075195 1.4061646461486816406 1.2234089374542236328 1.4012427330017089844 2.0716848373413085938 2.668254852294921875 3.5005402565002441406 3.2866864204406738281 2.7282247543334960938 3.2091677188873291016 3.1956992149353027344 2.8075222969055175781 3.0888905525207519531 2.7382512092590332031 2.1656985282897949219 2.0593388080596923828 2.1885726451873779297 2.4216678142547607422 2.8523631095886230469 2.7754235267639160156 2.3512330055236816406 2.3737695217132568359 2.8765618801116943359 2.0182392597198486328 1.6497110128402709961 1.0829761028289794922 1.2527873516082763672 1.1589713096618652344 1.062577366828918457 1.278092503547668457 1.4637945890426635742 1.3077622652053833008 1.2786408662796020508 1.732901453971862793 2.0467283725738525391 
2.4856114387512207031 3.1090233325958251953 3.0958201885223388672 2.9771521091461181641 2.0034120082855224609 1.5374795198440551758 1.362482905387878418 1.3107277154922485352 1.2571016550064086914 1.5255403518676757813 1.383189082145690918 1.2363086938858032227 2.4135622978210449219 2.5375795364379882813 3.3979902267456054688 3.4704389572143554688 3.0238080024719238281 3.0340855121612548828 2.6482050418853759766 2.6341066360473632813 2.7610099315643310547 2.9647381305694580078 2.6155798435211181641 2.2793755531311035156 1.9454944133758544922 2.2920703887939453125 2.0310595035552978516 2.1961050033569335938 2.6094384193420410156 1.2643795013427734375 1.0344768762588500977 1.1734822988510131836 1.0603456497192382813 1.0538316965103149414 1.6603983640670776367 1.4719337224960327148 1.8929867744445800781 2.3860404491424560547 1.8466076850891113281 1.3992979526519775391 
2.4685308933258056641 2.8721606731414794922 2.44611358642578125 2.1669449806213378906 1.2627893686294555664 1.2009077072143554688 1.0745052099227905273 1.2318654060363769531 1.1873936653137207031 1.2640209197998046875 1.2450536489486694336 1.1295441389083862305 1.5539063215255737305 1.1545841693878173828 2.2763500213623046875 2.7785899639129638672 3.2726712226867675781 2.8704667091369628906 2.4920892715454101563 2.7126438617706298828 3.0139791965484619141 3.1356871128082275391 2.7361021041870117188 2.2391183376312255859 1.5994882583618164063 1.5493223667144775391 1.7229214906692504883 2.3209249973297119141 2.0064518451690673828 2.2035932540893554688 1.3550876379013061523 1.9411333799362182617 1.0421222448348999023 1.007866978645324707 1.2400872707366943359 1.8005845546722412109 2.2901544570922851563 2.9621815681457519531 2.2748394012451171875 1.6206063032150268555 
2.5611770153045654297 2.3706073760986328125 2.1956992149353027344 1.8427368402481079102 1.2411695718765258789 1.0720468759536743164 1.0541307926177978516 1.2228429317474365234 1.4326345920562744141 1.3068422079086303711 1.1605757474899291992 1.3870820999145507813 1.3273234367370605469 1.3003042936325073242 2.1346752643585205078 2.3718457221984863281 3.0323114395141601563 2.6821391582489013672 2.9467530250549316406 2.9502727985382080078 3.5397379398345947266 2.7950124740600585938 2.7555849552154541016 2.3706903457641601563 1.7185640335083007813 1.0038827657699584961 1.0450675487518310547 1.1336272954940795898 1.2681839466094970703 2.0245835781097412109 1.9013593196868896484 3.2219746112823486328 1.356543421745300293 1.4179672002792358398 1.231587529182434082 1.833426356315612793 2.6353363990783691406 2.8083450794219970703 2.9189500808715820313 2.2785439491271972656 
3.0865437984466552734 2.7330722808837890625 2.8196377754211425781 2.2517926692962646484 1.395203709602355957 1.0557751655578613281 1.0257027149200439453 1.0039439201354980469 1.1939706802368164063 1.3367885351181030273 1.2200027704238891602 1.0750578641891479492 1.4230524301528930664 1.6910152435302734375 2.2492632865905761719 2.3000655174255371094 2.7972660064697265625 2.7518267631530761719 3.0738446712493896484 3.0281765460968017578 3.2535123825073242188 3.0114824771881103516 2.6118526458740234375 2.5576996803283691406 1.6545690298080444336 1.0198709964752197266 1 1 1 1.7839837074279785156 1.7737344503402709961 1.8331496715545654297 1.2820010185241699219 1.4409347772598266602 1.6189713478088378906 2.2653255462646484375 2.7684905529022216797 2.2215611934661865234 2.0208446979522705078 2.1711587905883789063 
2.6696131229400634766 2.6433506011962890625 3.1530427932739257813 2.7134258747100830078 1.8744581937789916992 1 1.3728845119476318359 1.0046553611755371094 1.2158210277557373047 1.5294106006622314453 1.2559375762939453125 1.6496014595031738281 1.8239494562149047852 1.6479381322860717773 1.8976755142211914063 2.6906578540802001953 2.5563859939575195313 2.4743082523345947266 2.7034769058227539063 2.8152418136596679688 3.07785797119140625 2.9955377578735351563 2.8921093940734863281 2.1321322917938232422 1.2540856599807739258 1 1 1 1.0204427242279052734 1 1.0033392906188964844 1.007245182991027832 1.3091225624084472656 1.0043890476226806641 1.2778393030166625977 2.1979756355285644531 2.2833058834075927734 1.5799065828323364258 1.4929884672164916992 1 
2.5394394397735595703 2.4623570442199707031 2.9514839649200439453 2.5334246158599853516 1.6440185308456420898 1.3002306222915649414 1.9932000637054443359 1.3969960212707519531 1.9151607751846313477 2.5221233367919921875 2.7867588996887207031 1.8184175491333007813 1.3334059715270996094 1.4581308364868164063 2.0771083831787109375 2.9458661079406738281 2.9157314300537109375 2.5650923252105712891 2.5715250968933105469 2.4328572750091552734 2.7938063144683837891 2.9854578971862792969 2.9076879024505615234 1.815846562385559082 1.0347751379013061523 1 1.0060155391693115234 1.0052872896194458008 1.0004526376724243164 1.0013447999954223633 1.0106071233749389648 1 1.2804155349731445313 1.0058181285858154297 1.3024444580078125 1.9173426628112792969 2.1843919754028320313 1.8147623538970947266 1.7722539901733398438 1.5311979055404663086 
2.1683840751647949219 2.3844051361083984375 2.5085759162902832031 2.1966097354888916016 1.965557098388671875 1.3145824670791625977 2.0925638675689697266 1.9248346090316772461 2.1655547618865966797 2.6754393577575683594 2.2650156021118164063 1.4764251708984375 1.3177132606506347656 1.7709690332412719727 1.6804418563842773438 2.3100473880767822266 3.2194917201995849609 2.5727717876434326172 2.2922482490539550781 2.2871994972229003906 2.26139068603515625 1.8606941699981689453 1.6847091913223266602 1.4834853410720825195 1.191630244255065918 1.0101605653762817383 1.0199476480484008789 1 1 1.0017782449722290039 1 1 1.1560841798782348633 1.0221836566925048828 1.4296523332595825195 1.5957765579223632813 1.654141545295715332 2.2763037681579589844 2.0974791049957275391 1.7762863636016845703 
1.9693968296051025391 1.8352806568145751953 1.9524722099304199219 1.5915275812149047852 1.8448963165283203125 1.6992653608322143555 2.0580086708068847656 2.4805228710174560547 1.6308130025863647461 1.825962066650390625 1.9524660110473632813 1 1 1.0019878149032592773 1.064519047737121582 1.8079832792282104492 2.6607315540313720703 2.4196572303771972656 1.4891824722290039063 1.4993416070938110352 1.5893492698669433594 1.4403899908065795898 1.4557068347930908203 1.5874143838882446289 1.3135217428207397461 1.0197999477386474609 1 1.0058090686798095703 1.0052428245544433594 1 1.0009710788726806641 1.3920001983642578125 1.7072689533233642578 1.9172992706298828125 1.7627648115158081055 1.7163443565368652344 1.8671138286590576172 2.4438023567199707031 1.8264104127883911133 1.8213124275207519531 
1.7768659591674804688 2.0039489269256591797 2.5516180992126464844 2.0792222023010253906 1.7158871889114379883 2.4194951057434082031 2.3781769275665283203 2.4661543369293212891 1.4493114948272705078 1.1176724433898925781 1.2115997076034545898 1.0394309759140014648 1.1371543407440185547 1.4256700277328491211 1.2248904705047607422 2.14542388916015625 2.5573363304138183594 2.1275501251220703125 1.3589218854904174805 1.0016819238662719727 1 1.0002562999725341797 1.0611530542373657227 1.5007050037384033203 1.4339066743850708008 1.3670748472213745117 1.0067343711853027344 1 1.1024053096771240234 1.2755727767944335938 1.4742871522903442383 2.1941921710968017578 2.2930991649627685547 2.2601613998413085938 2.1949377059936523438 1.9624348878860473633 1.8027417659759521484 2.0156955718994140625 1.8523002862930297852 1.9111444950103759766 
2.9476592540740966797 2.7726061344146728516 2.3657405376434326172 2.3603348731994628906 2.6548981666564941406 2.8193635940551757813 3.5488448143005371094 2.804595947265625 2.1100616455078125 1.4279778003692626953 1.0571997165679931641 1 1.1904618740081787109 1.5063934326171875 1.9481496810913085938 1.5598032474517822266 1.6853088140487670898 1.5318777561187744141 1.0724021196365356445 1.0002217292785644531 1.0015119314193725586 1 1.0001020431518554688 1.3713688850402832031 1.8106100559234619141 2.4281828403472900391 2.3119938373565673828 1.5469014644622802734 1.5857350826263427734 2.2875783443450927734 2.6582438945770263672 3.0230147838592529297 2.6800432205200195313 2.1654009819030761719 2.4133903980255126953 2.8011538982391357422 2.2596185207366943359 2.0679190158843994141 1.7625166177749633789 1.9585237503051757813 
3.2175173759460449219 2.7322764396667480469 2.4169237613677978516 2.2327864170074462891 2.6250751018524169922 3.2120976448059082031 3.6744997501373291016 3.0067458152770996094 2.3106317520141601563 1.6020394563674926758 1.3287576436996459961 1.1655724048614501953 1.0955853462219238281 1.1036558151245117188 1.0398187637329101563 1.0235605239868164063 1.3112522363662719727 1.1046231985092163086 1.0486569404602050781 1.0080274343490600586 1.0077958106994628906 1 1.0239166021347045898 1.5644671916961669922 3.0649170875549316406 2.5356884002685546875 2.0420217514038085938 1.7031624317169189453 2.2012910842895507813 2.6142971515655517578 3.0923247337341308594 2.9477355480194091797 2.2155203819274902344 2.1732187271118164063 2.2635650634765625 2.3699626922607421875 2.3915731906890869141 2.1256723403930664063 1.7695468664169311523 1.9430357217788696289 
2.7208032608032226563 1.9661797285079956055 1.9753506183624267578 1.5661668777465820313 2.0527379512786865234 2.6243557929992675781 2.9213824272155761719 2.8246819972991943359 2.53214263916015625 1.4044003486633300781 1.1104960441589355469 1.1324638128280639648 1.0464419126510620117 1.0500102043151855469 1.0194585323333740234 1 1.1415584087371826172 1.191310882568359375 1.1171451807022094727 1 1.0031594038009643555 1 1 1.207445979118347168 2.2506194114685058594 1.7633260488510131836 1.8081351518630981445 1.7695553302764892578 2.3383238315582275391 2.6443271636962890625 3.1878595352172851563 2.7967836856842041016 1.8381150960922241211 1.9111120700836181641 2.0748059749603271484 2.1630001068115234375 1.9364178180694580078 2.0289132595062255859 1.5871901512145996094 1.5403596162796020508 
2.2639958858489990234 2.4594397544860839844 2.9406533241271972656 1.8133972883224487305 2.3040313720703125 2.2838840484619140625 2.2686412334442138672 2.254611968994140625 2.0430359840393066406 1.3444716930389404297 1.1571671962738037109 1.0796424150466918945 1.0764983892440795898 1.0479373931884765625 1.1862807273864746094 1.1120610237121582031 1.1690480709075927734 1.1847681999206542969 1.0859683752059936523 1.0015913248062133789 1.0001494884490966797 1 1.0717179775238037109 1.9039896726608276367 2.7430765628814697266 2.6457092761993408203 2.5521445274353027344 2.9052083492279052734 3.3653409481048583984 3.1978893280029296875 2.8914060592651367188 2.6586699485778808594 2.4737384319305419922 2.2065396308898925781 1.8445783853530883789 1.7622828483581542969 1.5182803869247436523 1.6331539154052734375 1.5423113107681274414 1.4041715860366821289 
3.9309468269348144531 4.7732367515563964844 4.7328686714172363281 3.3128950595855712891 3.4817407131195068359 2.2767355442047119141 1.5577287673950195313 1.6475318670272827148 1.1641395092010498047 1.250244140625 1.3451544046401977539 1.1462038755416870117 1.0625030994415283203 1.0458221435546875 1.1847749948501586914 1.1185263395309448242 1.1435639858245849609 1.093043208122253418 1.0013425350189208984 1.0007895231246948242 1.0003981590270996094 1.0011954307556152344 1.1959221363067626953 2.4923102855682373047 2.7320308685302734375 3.3566226959228515625 3.3898096084594726563 3.4438865184783935547 3.6367928981781005859 3.3945336341857910156 3.3209187984466552734 3.5530819892883300781 3.1541693210601806641 3.0917479991912841797 2.7064244747161865234 2.2083899974822998047 1.9600954055786132813 1.7295558452606201172 1.4442061185836791992 1.1958072185516357422 
3.8800449371337890625 4.123870849609375 3.8794596195220947266 3.2014958858489990234 2.7737228870391845703 2.4834055900573730469 1.971642613410949707 1.825222015380859375 1.0832639932632446289 1.4304283857345581055 1.2525045871734619141 1.1049698591232299805 1.0655391216278076172 1.1356424093246459961 1.1437193155288696289 1.058574676513671875 1.0191980600357055664 1.0582659244537353516 1.0464110374450683594 1.0003455877304077148 1.2242071628570556641 1.1773467063903808594 1.6095261573791503906 2.5623810291290283203 3.1215813159942626953 3.3281266689300537109 3.5463621616363525391 3.6688125133514404297 3.6568601131439208984 3.0943806171417236328 3.3923180103302001953 3.8057744503021240234 4.0532159805297851563 3.8139319419860839844 3.4356670379638671875 3.0295140743255615234 2.1031215190887451172 1.3695321083068847656 1.2813762426376342773 1.1803549528121948242 
4.0118436813354492188 4.3564000129699707031 3.5138616561889648438 3.0696125030517578125 3.2725222110748291016 4.0686593055725097656 2.35385894775390625 2.2676455974578857422 1.6398777961730957031 1.9600768089294433594 1.7678605318069458008 1.1225496530532836914 1.0956152677536010742 1.0732462406158447266 1.1565561294555664063 1.1775084733963012695 1.198183894157409668 1.5964193344116210938 1.5989347696304321289 1.4528940916061401367 1.4381159543991088867 1.9295134544372558594 2.0835902690887451172 2.4052426815032958984 2.8291406631469726563 3.3245761394500732422 3.0441758632659912109 3.3315610885620117188 3.0708746910095214844 2.4899306297302246094 2.9787623882293701172 3.6840806007385253906 4.0486044883728027344 3.8379063606262207031 3.6141741275787353516 3.0877733230590820313 1.9947412014007568359 1.2643682956695556641 1.1363785266876220703 1.2032400369644165039 
3.1981837749481201172 3.4841959476470947266 3.5480530261993408203 2.8171198368072509766 2.2329339981079101563 3.7210898399353027344 2.53800201416015625 3.0880904197692871094 1.9889472723007202148 1.9372292757034301758 1.9357935190200805664 1.3953015804290771484 1.4016805887222290039 1.2346996068954467773 1.2188332080841064453 1.2342512607574462891 1.4780994653701782227 1.4784088134765625 1.429753422737121582 1.5937575101852416992 1.6449115276336669922 1.6703726053237915039 1.3429491519927978516 1.8352905511856079102 2.7047178745269775391 2.8248686790466308594 2.2944517135620117188 2.7297039031982421875 2.6326541900634765625 2.3350875377655029297 2.6053416728973388672 3.5806758403778076172 3.8835847377777099609 3.8517093658447265625 3.4216179847717285156 2.5956931114196777344 1.7461702823638916016 1.5008491277694702148 1.0807853937149047852 1.1793776750564575195 
2.9562826156616210938 2.8282220363616943359 2.9128551483154296875 3.5747148990631103516 2.0408301353454589844 1.639983057975769043 2.2411553859710693359 2.7995898723602294922 1.8219486474990844727 1.6697715520858764648 1.9426168203353881836 1.6963703632354736328 1.2282185554504394531 1.2993264198303222656 1.4403477907180786133 1.7876241207122802734 1.9517841339111328125 1.5285067558288574219 1.2186205387115478516 1.4767007827758789063 1.6584912538528442383 1.3311649560928344727 1.1228835582733154297 1.2305539846420288086 1.8823398351669311523 2.3671741485595703125 2.3202702999114990234 2.5569894313812255859 2.8239915370941162109 2.5280811786651611328 2.6122372150421142578 2.970104217529296875 3.6997821331024169922 3.6920957565307617188 3.3749361038208007813 2.8984572887420654297 1.8828933238983154297 1.6835772991180419922 1.0858659744262695313 1.186664581298828125 
3.2761559486389160156 3.4015457630157470703 2.8623421192169189453 2.6948652267456054688 3.0591557025909423828 2.8069250583648681641 2.3420021533966064453 2.5378069877624511719 2.5143873691558837891 2.2876975536346435547 1.9608542919158935547 1.557621002197265625 1.5610752105712890625 1.5397524833679199219 1.5165300369262695313 1.5869770050048828125 1.7602068185806274414 1.5579597949981689453 1.2173966169357299805 1.244415283203125 1.7028068304061889648 1.8310327529907226563 1.7874678373336791992 1.6823687553405761719 1.9297853708267211914 2.3784415721893310547 3.2387254238128662109 3.1837055683135986328 2.7177290916442871094 2.5913014411926269531 2.7110457420349121094 2.8407502174377441406 3.2251665592193603516 3.1279032230377197266 2.6276860237121582031 3.1908991336822509766 1.7885003089904785156 1 1.0631632804870605469 1.0926812887191772461 
3.0431499481201171875 3.6612982749938964844 3.5479037761688232422 2.9858798980712890625 3.1882216930389404297 2.6488182544708251953 2.1098692417144775391 2.0395529270172119141 2.8248569965362548828 2.2831318378448486328 2.0154049396514892578 2.3837800025939941406 2.2844219207763671875 1.7472692728042602539 1.6747553348541259766 1.4814965724945068359 1.4007171392440795898 1.6410822868347167969 1.8189444541931152344 2.0526080131530761719 2.2246508598327636719 2.1959052085876464844 2.2174651622772216797 2.0048608779907226563 1.7168515920639038086 2.0683019161224365234 2.8510799407958984375 3.3064415454864501953 2.9541072845458984375 2.9245641231536865234 2.6832032203674316406 2.3890805244445800781 2.7933089733123779297 3.2395069599151611328 3.1551945209503173828 3.612895965576171875 2.6143064498901367188 1.3129466772079467773 1 1.0531746149063110352 
2.6988294124603271484 3.356903076171875 3.6800122261047363281 2.9799976348876953125 2.3603904247283935547 2.2502107620239257813 1.6142294406890869141 1.4803969860076904297 2.13333892822265625 2.5377202033996582031 2.9261233806610107422 2.6938946247100830078 2.4917078018188476563 2.7665040493011474609 3.1476168632507324219 3.0724661350250244141 3.1211202144622802734 3.0092310905456542969 3.5802187919616699219 3.7376999855041503906 3.541912078857421875 3.3116414546966552734 2.9638872146606445313 1.8430685997009277344 1.7949119806289672852 1.5985181331634521484 2.2294814586639404297 2.8254084587097167969 2.0985019207000732422 2.1991865634918212891 2.1163332462310791016 2.1782398223876953125 2.6451857089996337891 2.8685550689697265625 3.2847397327423095703 3.6824231147766113281 3.1189916133880615234 2.0830438137054443359 1.1619944572448730469 1.0796363353729248047 
