ncols        40
nrows        40
xllcorner    -0.000000000000
yllcorner    0.000000000000
cellsize     5.000000000000
NODATA_value nan
1.0 1 1 1 1 1 1 1 1 1 1 1.456309199333190918 1.6532542705535888672 1.6268758773803710938 1.7757438421249389648 1.8066729307174682617 1.877097010612487793 1.8201071023941040039 1.9058660268783569336 1.3002320528030395508 1 1 1 1 1.4140346050262451172 2.0199272632598876953 1.8909170627593994141 1.5045523643493652344 1.1944099664688110352 2.6764962673187255859 3.6104793548583984375 3.0638256072998046875 3.1134271621704101563 2.4974639415740966797 1.8919199705123901367 1.884324193000793457 1 1 1 1 
1 1 1 1 1 1 1 1 1 1.2406868934631347656 1.3388017416000366211 1.9611589908599853516 1.9711588621139526367 1.9805153608322143555 2.6592698097229003906 3.8920209407806396484 2.4293420314788818359 1.6165457963943481445 1.7205758094787597656 1.3039761781692504883 1 1 1 1 1.740523219108581543 2.3036041259765625 2.3643429279327392578 1.9441916942596435547 1.7134530544281005859 2.6732246875762939453 2.5468266010284423828 2.9167082309722900391 2.2451219558715820313 1.1384768486022949219 1 1 1 1 1 1 
1 1 1 1 1 1 1 1 1 1 1.5263646841049194336 1.8125603199005126953 2.250640869140625 2.1513495445251464844 3.4547803401947021484 3.7424435615539550781 3.5559372901916503906 2.1568048000335693359 2.7338716983795166016 2.3175947666168212891 1 1 1 1.0997682809829711914 1.3669142723083496094 2.0254232883453369141 1.9658489227294921875 1.9454174041748046875 1.940535426139831543 2.57697296142578125 2.6226754188537597656 2.6440687179565429688 2.1788303852081298828 1.421786189079284668 1 1 1 1 1 1 
1 1 1 1 1 1 1 1.0445573329925537109 1.3804025650024414063 1.8695664405822753906 2.1629736423492431641 1.7742062807083129883 1.7989236116409301758 1.4838546514511108398 2.8791887760162353516 3.0620374679565429688 2.0011892318725585938 2.9257955551147460938 2.8261170387268066406 1.66565704345703125 1.6133997440338134766 1 1 1 1.0428754091262817383 1.1618533134460449219 1.2492086887359619141 1.4514919519424438477 1.7437173128128051758 1.9540112018585205078 2.3897037506103515625 2.0645337104797363281 1.6323518753051757813 1 1 1 1 1 1 1 
1 1 1 1 1 1 1 1.1773623228073120117 1.9113032817840576172 1.6685034036636352539 1.6964799165725708008 1.5462566614151000977 1.5539281368255615234 1.7637841701507568359 2.3137319087982177734 2.6045694351196289063 1.8567408323287963867 2.8166127204895019531 2.8769023418426513672 1.6169495582580566406 1.906449437141418457 1 1 1 1.0295293331146240234 1.0551077127456665039 1 1.3535952568054199219 1.4514532089233398438 1.841340184211730957 1.9412381649017333984 2.3230071067810058594 1.440616607666015625 1 1 1 1 1 1 1.0508546829223632813 
1 1 1 1 1 1 1 1 1.8772691488265991211 1.9292747974395751953 1.4193665981292724609 1.3092859983444213867 1.6125673055648803711 1.7866969108581542969 2.2114007472991943359 1.7370631694793701172 1.282269597053527832 1.2732999324798583984 1.640674591064453125 1.6256625652313232422 1 1 1.1044319868087768555 1.0927944183349609375 1.291188359260559082 1.3908886909484863281 1.4589141607284545898 1.6045023202896118164 1.50325775146484375 2.2112407684326171875 2.0342378616333007813 2.1683611869812011719 1.6140588521957397461 1.7368869781494140625 1.412493586540222168 1 1.0385644435882568359 1 1 1 
1 1 1 1 1 1 1 1.0571209192276000977 1.1795723438262939453 1.6015117168426513672 1.6835584640502929688 1.6171532869338989258 1.2838519811630249023 1.1226127147674560547 1.4530123472213745117 1.1512653827667236328 1 1 1.1106543540954589844 1 1.0153032541275024414 1.1722249984741210938 1.1224837303161621094 1.4714906215667724609 1.7921767234802246094 1.8042833805084228516 1.9094625711441040039 2.1672580242156982422 2.2969198226928710938 2.4503929615020751953 2.0743496417999267578 2.4030539989471435547 2.4053945541381835938 2.3817319869995117188 2.1060454845428466797 1.4020479917526245117 1.1369931697845458984 1 1 1 
1 1 1 1 1 1 1 1.1127306222915649414 1.0661320686340332031 1.2575678825378417969 1.0722414255142211914 1.3440538644790649414 1.3539735078811645508 1.5288414955139160156 1.4196342229843139648 1 1.1886246204376220703 1 2.3463423252105712891 2.4704303741455078125 1.4934859275817871094 1.714766383171081543 1.8976444005966186523 1.1980371475219726563 1 1.4153218269348144531 1.5821288824081420898 1.7959238290786743164 2.2392668724060058594 2.5348429679870605469 2.2042567729949951172 1.8395420312881469727 1.5158393383026123047 1.5934621095657348633 2.0277068614959716797 1.4829173088073730469 1 1 1 1.1405572891235351563 
1 1 1 1 1 1 1 1 1 1 1 1 1.2791311740875244141 1.3662350177764892578 1.4548609256744384766 1.0700533390045166016 1.4742609262466430664 1.9163470268249511719 2.7148022651672363281 3.2828989028930664063 2.3291513919830322266 1.0108697414398193359 1 1 1 1 1.2538422346115112305 1.1486741304397583008 1.8518351316452026367 2.2931795120239257813 2.3629403114318847656 1.5911523103713989258 1 1 1.2654057741165161133 1.3227487802505493164 1.3042395114898681641 1 1 1 
1 1.0606107711791992188 1 1 1 1 1 1.1367677450180053711 1.0707072019577026367 1 1 1 1 1.0251773595809936523 1.2154238224029541016 1.0133522748947143555 1.7713265419006347656 2.1121804714202880859 2.6462094783782958984 3.3008189201354980469 1.9751933813095092773 1 1 1 1 1.0730438232421875 1.8201515674591064453 1.6724126338958740234 1.4337711334228515625 1.589722752571105957 2.288097381591796875 2.2020351886749267578 1.5093057155609130859 1.47052764892578125 1.4225404262542724609 1.3843039274215698242 1.5828307867050170898 1 1.0030353069305419922 1 
1.8169295787811279297 1.3704633712768554688 1 1 1 1 1.3468252420425415039 1.0048758983612060547 1.0059276819229125977 1 1 1.1365309953689575195 1.0834003686904907227 1 1.0407152175903320313 1.107907414436340332 1 2.3787722587585449219 2.9153826236724853516 2.0481979846954345703 1 1.0617986917495727539 1.1817401647567749023 1 1 1.5468018054962158203 3.4096889495849609375 2.1490159034729003906 1.5711725950241088867 1.4437258243560791016 1.5566402673721313477 2.4067950248718261719 2.4102969169616699219 1.7067029476165771484 1.416478276252746582 1.6202824115753173828 1.9744926691055297852 1.0720096826553344727 1.1329560279846191406 1 
2.2690453529357910156 1.8763957023620605469 1 1 1.3157923221588134766 1.1752798557281494141 1 1.1084909439086914063 1.060791015625 1.1226767301559448242 1.3658751249313354492 1.7406514883041381836 1.9485752582550048828 2.0934147834777832031 1.4214423894882202148 1.3278033733367919922 1.1377017498016357422 2.3885526657104492188 1.3695775270462036133 1 1.0120619535446166992 1.2655022144317626953 1.2647840976715087891 1 1.0583702325820922852 1.9456453323364257813 2.4573886394500732422 1.9394959211349487305 1.5505974292755126953 1.2932639122009277344 1.6863046884536743164 1.9347602128982543945 2.1825735569000244141 2.1779782772064208984 2.2635648250579833984 2.2519681453704833984 2.5144646167755126953 1.686542510986328125 1.1806998252868652344 1 
3.0234808921813964844 2.1786262989044189453 2.3058943748474121094 1 1 1 1.1928175687789916992 1.5522201061248779297 1.1211777925491333008 1.9439998865127563477 2.0835211277008056641 2.9595305919647216797 4.3367462158203125 3.3880887031555175781 2.4975361824035644531 2.3098807334899902344 2.4958219528198242188 1.5932255983352661133 1.0265706777572631836 1.0213704109191894531 1.0592626333236694336 1.2352242469787597656 1.5155328512191772461 1.1219689846038818359 1.1681482791900634766 1.5887795686721801758 2.0652124881744384766 1.7892806529998779297 1.7059423923492431641 1.229648590087890625 1.8085695505142211914 2.7609000205993652344 2.2794842720031738281 2.6023967266082763672 2.5021836757659912109 2.4089636802673339844 2.3738167285919189453 1.6279767751693725586 1.3263654708862304688 1.0564347505569458008 
2.2626476287841796875 2.0760936737060546875 1.7799490690231323242 1.2454438209533691406 1.1370843648910522461 1.1593172550201416016 1.1256111860275268555 1.4969993829727172852 1.5705701112747192383 1.4526872634887695313 3.274505615234375 4.2016534805297851563 6.8531756401062011719 4.8503937721252441406 3.1563251018524169922 3.7779183387756347656 2.10662841796875 2.0765945911407470703 1.4574235677719116211 1.4805370569229125977 1.9559373855590820313 1.8652077913284301758 2.1403295993804931641 1.3401675224304199219 1.2763516902923583984 1.9984618425369262695 2.4546356201171875 2.7574751377105712891 2.0582170486450195313 2.0346579551696777344 2.4356601238250732422 3.1510176658630371094 2.4099078178405761719 2.3418874740600585938 2.5082612037658691406 2.2274205684661865234 1.8859348297119140625 1.402749180793762207 1.3214752674102783203 1.0749135017395019531 
2.0420656204223632813 1.5697889328002929688 1.3807375431060791016 1.6555446386337280273 1.9331201314926147461 1.5655908584594726563 1.3075860738754272461 1.2803807258605957031 1.3961579799652099609 1.2595463991165161133 2.1745684146881103516 3.1916208267211914063 6.5579967498779296875 5.5743966102600097656 3.8154928684234619141 4.18743896484375 2.3595647811889648438 1.702392578125 1.239626765251159668 1.7103606462478637695 2.2499144077301025391 2.7134950160980224609 2.7431421279907226563 2.7146615982055664063 2.2021086215972900391 2.2278265953063964844 3.0051453113555908203 2.9830267429351806641 2.1306791305541992188 2.3631808757781982422 2.6884720325469970703 2.4175286293029785156 2.2037351131439208984 2.2550470829010009766 1.711899876594543457 1.9101283550262451172 1.997100830078125 1.6403053998947143555 1.4057779312133789063 1.222981572151184082 
2.6940066814422607422 2.4040100574493408203 1.4488625526428222656 1.9035435914993286133 1.7691968679428100586 1.1989576816558837891 1.0577625036239624023 1 1.0454399585723876953 1.6304960250854492188 2.5198967456817626953 3.227924346923828125 6.9589681625366210938 5.2583017349243164063 3.9473958015441894531 3.3720805644989013672 2.1830291748046875 1.2746847867965698242 1.4272247552871704102 1.5431182384490966797 1.8669644594192504883 2.4957165718078613281 2.8286278247833251953 3.3498346805572509766 2.4650928974151611328 3.1018946170806884766 3.0698113441467285156 3.5993442535400390625 2.9624357223510742188 2.3446717262268066406 1.8926074504852294922 1.6855335235595703125 1.2162685394287109375 1.3342615365982055664 1.2738187313079833984 1.2113147974014282227 1.2343353033065795898 1.4409689903259277344 1.9375576972961425781 1.2458183765411376953 
2.5772373676300048828 2.8445188999176025391 2.2547478675842285156 2.2227025032043457031 1.5858637094497680664 1.3753609657287597656 1.0045737028121948242 1 1 1 2.4123320579528808594 3.6446115970611572266 6.0372867584228515625 4.0339956283569335938 2.5445799827575683594 2.3885858058929443359 1.9379408359527587891 1.452769160270690918 1.6455633640289306641 1.3755334615707397461 1.4949599504470825195 2.4739191532135009766 2.5624396800994873047 2.5196766853332519531 2.2478694915771484375 2.8769516944885253906 3.0777614116668701172 2.6739890575408935547 2.1910891532897949219 1.9756206274032592773 1.3188642263412475586 1.039750218391418457 1 1 1.0273900032043457031 1.0363961458206176758 1.1341500282287597656 1.2096837759017944336 2.2580821514129638672 1.6760092973709106445 
2.7436616420745849609 2.826206207275390625 2.8261430263519287109 2.3943789005279541016 1.6221977472305297852 1.1715035438537597656 1 1 1 1.1578620672225952148 1.9712953567504882813 3.4199361801147460938 3.9982526302337646484 3.5395281314849853516 2.6307971477508544922 2.5807087421417236328 2.2555141448974609375 2.1853024959564208984 2.0615892410278320313 1.8575537204742431641 1.5348879098892211914 1.5470839738845825195 2.4677214622497558594 2.4098672866821289063 2.1216711997985839844 2.4234869480133056641 2.9385731220245361328 2.7874684333801269531 1.8829807043075561523 1.6102377176284790039 1.1898369789123535156 1.0963920354843139648 1 1 1 1.0954672098159790039 1.1672852039337158203 1.0230925083160400391 1.6828905344009399414 1.8514244556427001953 
2.6784839630126953125 3.0518553256988525391 2.9546935558319091797 2.4152724742889404297 1.8191738128662109375 1 1 1 1 1.6055247783660888672 2.2721841335296630859 3.0527780055999755859 2.9917435646057128906 2.6046934127807617188 2.7473642826080322266 2.7198233604431152344 2.5273604393005371094 2.7361066341400146484 2.6806151866912841797 2.2684824466705322266 2.1595909595489501953 2.3671691417694091797 2.3921589851379394531 2.6258409023284912109 2.3978865146636962891 2.1798162460327148438 2.2302966117858886719 2.6355443000793457031 1.7809946537017822266 1.5579257011413574219 1.2506566047668457031 1.195885777473449707 1 1.070044398307800293 1.1655375957489013672 1.5382102727890014648 1.3218876123428344727 1.345276951789855957 1.7092194557189941406 2.0122854709625244141 
2.3419692516326904297 2.9091989994049072266 2.7628293037414550781 2.4676241874694824219 1.4098792076110839844 1 1 1 1 1.0771121978759765625 1 1.000426173210144043 2.1249916553497314453 2.3478066921234130859 3.0290389060974121094 3.0326976776123046875 2.6037890911102294922 2.7672371864318847656 2.8090825080871582031 2.8571069240570068359 3.0230567455291748047 3.2295005321502685547 2.5954978466033935547 2.3285334110260009766 1.8387266397476196289 2.0922026634216308594 1.8635082244873046875 1.9298404455184936523 2.2338068485260009766 1.0752458572387695313 1.0526149272918701172 1.0465897321701049805 1.0627543926239013672 1.0468194484710693359 1.6673430204391479492 1.6159824132919311523 2.0639402866363525391 2.6752834320068359375 2.0785496234893798828 1.4576232433319091797 
2.3649098873138427734 2.7180700302124023438 2.3336839675903320313 1.9114532470703125 1 1 1 1 1 1 1 1 1.5824068784713745117 1.3409029245376586914 2.0666649341583251953 2.3962807655334472656 2.8565680980682373047 2.7161536216735839844 2.7233617305755615234 3.1140203475952148438 3.7476503849029541016 3.9200453758239746094 3.2494783401489257813 2.6186935901641845703 1.8142347335815429688 1.5522567033767700195 1.6508147716522216797 2.0422308444976806641 1.6755501031875610352 2.0115091800689697266 1.296017765998840332 1.916889190673828125 1.0377091169357299805 1.1346601247787475586 1.3928085565567016602 2.0326795578002929688 2.7054455280303955078 3.1931359767913818359 2.5490119457244873047 1.7135591506958007813 
2.3997144699096679688 2.0745120048522949219 2.0355379581451416016 1.7525879144668579102 1.201771855354309082 1 1 1 1 1 1 1.1864162683486938477 1.4343445301055908203 1.4464125633239746094 1.8927953243255615234 2.1052167415618896484 2.8409578800201416016 2.6689074039459228516 3.1634151935577392578 3.4972319602966308594 4.324916839599609375 3.4727313518524169922 3.4471671581268310547 3.0023579597473144531 2.2193825244903564453 1.2967405319213867188 1.2041885852813720703 1.0083736181259155273 1.0660239458084106445 1.8019407987594604492 1.7477263212203979492 2.8986558914184570313 1.3570297956466674805 1.5815641880035400391 1.5781736373901367188 2.4619472026824951172 3.0739710330963134766 3.2757005691528320313 3.1453461647033691406 2.1326766014099121094 
2.9461629390716552734 2.5494709014892578125 2.5211277008056640625 2.1623399257659912109 1.3473426103591918945 1 1.0208247900009155273 1.0355913639068603516 1 1 1 1 1.5568959712982177734 1.8151252269744873047 1.9971072673797607422 2.2239999771118164063 2.7535595893859863281 2.9719338417053222656 3.3253238201141357422 3.3651812076568603516 3.6215693950653076172 3.3829479217529296875 3.0866761207580566406 3.3149573802947998047 2.4430675506591796875 1.5081199407577514648 1.5624352693557739258 1.3226525783538818359 1.1160544157028198242 1.7065194845199584961 1.6351597309112548828 1.5623110532760620117 1.3012174367904663086 1.5660141706466674805 2.0369999408721923828 2.8783056735992431641 3.2572891712188720703 2.6987142562866210938 2.2946169376373291016 2.1065182685852050781 
2.4447596073150634766 2.5021326541900634766 2.8955886363983154297 2.5421550273895263672 1.9079629182815551758 1.1821575164794921875 1.4026407003402709961 1.0412747859954833984 1.2639893293380737305 1.3411846160888671875 1 1.4661446809768676758 1.9949392080307006836 1.5953795909881591797 1.6929738521575927734 2.685176849365234375 2.6685531139373779297 2.7473819255828857422 3.0948925018310546875 3.1047599315643310547 3.2827470302581787109 3.1673617362976074219 3.2416455745697021484 2.7909648418426513672 2.0365824699401855469 1.4568337202072143555 1.4579328298568725586 1.506581425666809082 1.3218545913696289063 1.2639086246490478516 1.1440334320068359375 1.1267597675323486328 1.3384048938751220703 1.1674866676330566406 1.7633919715881347656 2.7178766727447509766 2.5575881004333496094 1.9565204381942749023 1.7098245620727539063 1.3692305088043212891 
2.3276712894439697266 2.4238026142120361328 2.8030426502227783203 2.3607797622680664063 1.7705891132354736328 1.4303015470504760742 1.929595947265625 1.4953417778015136719 2.0986757278442382813 2.4292623996734619141 2.5460276603698730469 1.5157065391540527344 1.1662003993988037109 1.3065418004989624023 1.9364364147186279297 2.8069694042205810547 3.0158102512359619141 2.7760109901428222656 2.8129296302795410156 2.6653487682342529297 2.9409806728363037109 3.2331659793853759766 3.3990049362182617188 2.4655194282531738281 1.5653362274169921875 1.4129014015197753906 1.5197076797485351563 1.50591278076171875 1.5110688209533691406 1.3366999626159667969 1.2118374109268188477 1.1874459981918334961 1.4351259469985961914 1.3431768417358398438 1.6791741847991943359 2.1322956085205078125 2.4736931324005126953 2.2906870841979980469 2.1727306842803955078 1.8215465545654296875 
2.1450800895690917969 2.3925948143005371094 2.4624936580657958984 2.3395485877990722656 2.0854516029357910156 1.5310424566268920898 2.0568993091583251953 2.1226968765258789063 2.2871272563934326172 2.8012406826019287109 2.2126128673553466797 1.3982996940612792969 1.3686335086822509766 1.7816010713577270508 1.651190638542175293 2.4639980792999267578 3.3905668258666992188 2.9447481632232666016 2.7940034866333007813 2.7102251052856445313 2.6895558834075927734 2.415264129638671875 2.1315140724182128906 1.8136157989501953125 1.6231635808944702148 1.4918723106384277344 1.6780884265899658203 1.5010550022125244141 1.5681139230728149414 1.4235277175903320313 1.3634297847747802734 1.3824142217636108398 1.582729339599609375 1.5210678577423095703 1.9524593353271484375 2.0645661354064941406 2.2993535995483398438 3.1047792434692382813 2.8087651729583740234 2.3190736770629882813 
2.0882780551910400391 1.7075223922729492188 1.850087285041809082 1.715290069580078125 2.1378507614135742188 1.9880083799362182617 2.2030751705169677734 2.5316970348358154297 1.9275751113891601563 2.0801587104797363281 2.1013181209564208984 1.2718998193740844727 1.3709256649017333984 1.3276000022888183594 1.486687779426574707 2.2515733242034912109 3.0265536308288574219 2.9594492912292480469 2.0350024700164794922 2.1907324790954589844 2.3198778629302978516 2.1066102981567382813 1.978388667106628418 1.9014023542404174805 1.7335683107376098633 1.4258133172988891602 1.6149181127548217773 1.7360414266586303711 1.6133264303207397461 1.7581604719161987305 1.6882685422897338867 1.9362699985504150391 2.2287702560424804688 2.4065415859222412109 2.4094610214233398438 2.4985010623931884766 2.7539050579071044922 3.5462779998779296875 2.83438873291015625 2.5353019237518310547 
1.9577641487121582031 1.8532340526580810547 2.2769713401794433594 1.9688880443572998047 1.9341375827789306641 2.7339003086090087891 2.7778143882751464844 2.8137266635894775391 1.9524637460708618164 1.6482962369918823242 1.622898101806640625 1.5667524337768554688 1.5942751169204711914 2.0466215610504150391 1.6978746652603149414 2.57763671875 2.8973023891448974609 2.7218225002288818359 2.1163408756256103516 1.745205998420715332 1.8019025325775146484 1.6554334163665771484 1.6762974262237548828 2.0223989486694335938 1.9374183416366577148 1.7830034494400024414 1.6051142215728759766 1.6773341894149780273 1.6926711797714233398 2.1470997333526611328 2.2908027172088623047 2.781589508056640625 2.9210181236267089844 2.8406291007995605469 2.851287841796875 2.746734619140625 2.8063547611236572266 3.0978815555572509766 2.8109600543975830078 2.7832345962524414063 
2.8921036720275878906 2.4633538722991943359 2.2201676368713378906 2.2036116123199462891 2.7796180248260498047 3.0430324077606201172 3.8869886398315429688 3.3566255569458007813 2.7380986213684082031 2.359683990478515625 1.823102116584777832 1.7860482931137084961 1.8173792362213134766 2.1636896133422851563 2.7321283817291259766 2.2234225273132324219 2.1999673843383789063 2.2732367515563964844 1.9298601150512695313 1.9064315557479858398 1.7351360321044921875 1.6297607421875 1.6343541145324707031 1.9806114435195922852 2.5516283512115478516 3.1941194534301757813 2.9073665142059326172 2.0476980209350585938 2.1184213161468505859 2.7594628334045410156 3.1561288833618164063 3.5254530906677246094 3.2720794677734375 2.9919657707214355469 3.3579466342926025391 3.8752532005310058594 3.4650032520294189453 3.3079311847686767578 3.0251889228820800781 3.1946008205413818359 
3.0146393775939941406 2.5550251007080078125 2.4303309917449951172 2.4742076396942138672 2.8692626953125 3.6005990505218505859 4.0047926902770996094 3.5566418170928955078 2.9841935634613037109 2.6154742240905761719 2.4593966007232666016 2.4027945995330810547 2.1802005767822265625 2.0595490932464599609 2.0062596797943115234 1.956143498420715332 2.1826331615447998047 2.0687277317047119141 2.0508258342742919922 1.9820853471755981445 1.8964016437530517578 1.7311116456985473633 1.7255233526229858398 2.3098845481872558594 3.8594739437103271484 3.4744107723236083984 2.8846731185913085938 2.3738620281219482422 2.6311581134796142578 2.9854547977447509766 3.4735763072967529297 3.4948811531066894531 3.1435043811798095703 3.0996863842010498047 3.3296771049499511719 3.6351301670074462891 3.8524134159088134766 3.6350045204162597656 3.2060060501098632813 3.2999274730682373047 
2.7577021121978759766 2.2186114788055419922 2.4179017543792724609 2.1846990585327148438 2.5082714557647705078 3.0441701412200927734 3.6561183929443359375 3.4780161380767822266 3.3068654537200927734 2.3625559806823730469 2.2707777023315429688 2.3093435764312744141 2.3874430656433105469 2.3493680953979492188 2.2693352699279785156 2.1934833526611328125 2.3630964756011962891 2.5076587200164794922 2.3370642662048339844 2.0865886211395263672 2.0209674835205078125 1.9554724693298339844 1.9266723394393920898 2.1779425144195556641 3.0920891761779785156 2.6566240787506103516 2.6719396114349365234 2.6335132122039794922 3.0539963245391845703 3.0887231826782226563 3.5561261177062988281 3.2663378715515136719 2.7280335426330566406 2.9000704288482666016 3.1499676704406738281 3.6057155132293701172 3.5729112625122070313 3.694614410400390625 3.13927459716796875 3.2651565074920654297 
2.5442001819610595703 2.8343245983123779297 3.3817389011383056641 2.579166412353515625 2.8389503955841064453 2.9586114883422851563 3.0777177810668945313 3.28108978271484375 3.267398834228515625 2.6579236984252929688 2.1794950962066650391 2.2535822391510009766 2.4276728630065917969 2.5148842334747314453 2.7411818504333496094 2.5234282016754150391 2.6156454086303710938 2.8632283210754394531 2.4408481121063232422 2.235263824462890625 2.0858755111694335938 2.1242840290069580078 2.1936135292053222656 2.8479759693145751953 3.6292226314544677734 3.3174836635589599609 3.0982990264892578125 3.5125372409820556641 3.9093821048736572266 3.8268072605133056641 3.4536256790161132813 3.2827754020690917969 3.3025848865509033203 3.0891509056091308594 2.8924617767333984375 3.0228798389434814453 2.9631578922271728516 3.1383073329925537109 3.1998615264892578125 3.0781731605529785156 
4.4085183143615722656 5.2215089797973632813 5.1239385604858398438 3.6460468769073486328 3.8229455947875976563 2.8817532062530517578 2.5173668861389160156 2.7337574958801269531 2.5014054775238037109 2.3290011882781982422 2.6282815933227539063 2.5767705440521240234 2.4385023117065429688 2.6855113506317138672 2.7816300392150878906 2.5943312644958496094 2.6142697334289550781 2.6469335556030273438 2.3566873073577880859 2.2730884552001953125 2.1907134056091308594 2.0412642955780029297 2.2142009735107421875 3.2806041240692138672 3.49156951904296875 4.0124998092651367188 3.9580428600311279297 4.0720834732055664063 4.2420802116394042969 4.1712503433227539063 3.9946804046630859375 4.0997552871704101563 3.8329091072082519531 3.7896416187286376953 3.6069715023040771484 3.271945953369140625 3.0969626903533935547 3.2287311553955078125 3.1900687217712402344 3.0020885467529296875 
4.4100069999694824219 4.7969226837158203125 4.5771055221557617188 3.6881394386291503906 3.1080048084259033203 3.1089043617248535156 2.9787971973419189453 2.8981719017028808594 2.3494620323181152344 2.7128918170928955078 2.5143001079559326172 2.5175220966339111328 2.5233838558197021484 2.7586693763732910156 2.7431740760803222656 2.6614503860473632813 2.5168561935424804688 2.4689946174621582031 2.2046573162078857422 2.1518678665161132813 2.2337253093719482422 2.1512851715087890625 2.5279767513275146484 3.4914398193359375 3.9927637577056884766 4.1288666725158691406 4.284999847412109375 4.374729156494140625 4.3966879844665527344 4.0865888595581054688 4.191577911376953125 4.4579844474792480469 4.6220107078552246094 4.5453095436096191406 4.2428689002990722656 3.9289290904998779297 3.09999847412109375 2.7594683170318603516 2.9918775558471679688 2.8219854831695556641 
4.6258435249328613281 5.0521101951599121094 4.3846111297607421875 3.7181835174560546875 3.6857054233551025391 4.7801518440246582031 3.4066307544708251953 3.3260302543640136719 2.7869791984558105469 3.2238049507141113281 3.0291914939880371094 2.4821622371673583984 2.4618868827819824219 2.7080254554748535156 2.9918649196624755859 2.9565393924713134766 2.7675559520721435547 2.8715627193450927734 2.6504623889923095703 2.6222436428070068359 2.4906585216522216797 2.9764766693115234375 3.0925908088684082031 3.5000109672546386719 3.8490512371063232422 4.3551993370056152344 4.1836457252502441406 4.5697460174560546875 4.1842932701110839844 3.5304627418518066406 3.8506283760070800781 4.3008532524108886719 4.6279821395874023438 4.6468482017517089844 4.5133466720581054688 4.0309200286865234375 3.0182297229766845703 2.5508146286010742188 2.6894083023071289063 2.9275465011596679688 
4.1238436698913574219 4.4496631622314453125 4.5807976722717285156 3.6296014785766601563 3.1115987300872802734 4.6570048332214355469 3.8081378936767578125 4.2666006088256835938 3.3198688030242919922 3.3185207843780517578 3.2791521549224853516 2.8531730175018310547 2.8774280548095703125 3.0018804073333740234 3.1320230960845947266 2.908786773681640625 2.9430978298187255859 2.6312036514282226563 2.8633890151977539063 3.0637526512145996094 2.9098422527313232422 2.9134845733642578125 2.6295552253723144531 3.1382167339324951172 3.6550769805908203125 3.8118729591369628906 3.4380393028259277344 4.0303854942321777344 3.9537761211395263672 3.6387360095977783203 3.7769494056701660156 4.5424699783325195313 4.4484815597534179688 4.5255603790283203125 4.3531856536865234375 3.6208903789520263672 2.9550042152404785156 2.6152608394622802734 2.6197874546051025391 2.9777255058288574219 
4.0158100128173828125 3.9881992340087890625 4.0821022987365722656 4.6559100151062011719 3.2075045108795166016 2.9439790248870849609 3.6452605724334716797 4.1074137687683105469 3.2742328643798828125 3.0906174182891845703 3.638301849365234375 3.478885650634765625 3.0823743343353271484 3.2734959125518798828 3.2616717815399169922 3.3994357585906982422 3.5905175209045410156 2.8830542564392089844 3.014057159423828125 3.0724775791168212891 3.0417618751525878906 2.6750195026397705078 2.5076041221618652344 2.5715167522430419922 3.0641565322875976563 3.4671676158905029297 3.6000230312347412109 3.6121339797973632813 3.9471158981323242188 3.7964224815368652344 3.8019490242004394531 3.9818758964538574219 4.2729101181030273438 4.2840991020202636719 4.01255035400390625 3.6847004890441894531 2.9919023513793945313 2.8269956111907958984 2.5249979496002197266 3.0148186683654785156 
4.3214511871337890625 4.3355536460876464844 4.0923991203308105469 3.9601130485534667969 4.2211689949035644531 4.0098876953125 3.6561384201049804688 3.7797122001647949219 3.7661008834838867188 3.6387140750885009766 3.6087169647216796875 3.3697474002838134766 3.3503925800323486328 3.472606658935546875 3.3006243705749511719 3.3166725635528564453 3.4885928630828857422 3.1697230339050292969 2.8360121250152587891 2.8561494350433349609 3.1433703899383544922 3.1610777378082275391 3.1258609294891357422 2.9203953742980957031 3.1593368053436279297 3.6424353122711181641 4.4030914306640625 4.2828826904296875 3.8996334075927734375 3.7787148952484130859 3.91165924072265625 3.9374449253082275391 3.9927396774291992188 3.8764107227325439453 3.5078518390655517578 3.8778009414672851563 3.0730829238891601563 2.4080653190612792969 2.5761640071868896484 2.8830752372741699219 
4.3088817596435546875 4.6559696197509765625 4.6118865013122558594 4.1078624725341796875 4.4520692825317382813 4.0479373931884765625 3.571807861328125 3.2918758392333984375 3.9883904457092285156 3.7073352336883544922 3.5804157257080078125 3.7400853633880615234 3.6426634788513183594 3.2662808895111083984 3.4051115512847900391 3.2815368175506591797 3.1991200447082519531 3.3553254604339599609 3.2386252880096435547 3.580120086669921875 3.6409597396850585938 3.477291107177734375 3.3965914249420166016 3.3205835819244384766 3.2776713371276855469 3.7269539833068847656 4.1116194725036621094 4.4943389892578125 4.1239190101623535156 4.0467815399169921875 4.0182929039001464844 3.5761914253234863281 3.7933983802795410156 4.1836552619934082031 3.9779818058013916016 4.408359527587890625 3.8915228843688964844 2.8614220619201660156 2.6245267391204833984 2.9794476032257080078 
4.2179417610168457031 4.7114043235778808594 4.859375 4.3423933982849121094 3.8790462017059326172 3.7119100093841552734 3.3153135776519775391 3.0194814205169677734 3.4663569927215576172 3.9027657508850097656 4.1578226089477539063 3.8974697589874267578 3.57550811767578125 4.0955395698547363281 4.416599273681640625 4.3394293785095214844 4.3719453811645507813 4.2400574684143066406 4.6135053634643554688 4.7548770904541015625 4.6625833511352539063 4.38666534423828125 4.1781592369079589844 3.3435382843017578125 3.5191209316253662109 3.3950383663177490234 3.6429102420806884766 4.0128521919250488281 3.4792108535766601563 3.519863128662109375 3.4672815799713134766 3.4209418296813964844 3.7537987232208251953 3.9713602066040039063 4.2309679985046386719 4.5383219718933105469 4.3631663322448730469 3.4895949363708496094 2.7361776828765869141 2.8863215446472167969 
