ncols        40
nrows        40
xllcorner    -0.000000000000
yllcorner    0.000000000000
cellsize     5.000000000000
NODATA_value nan
2.9459378719329833984 3.0136647224426269531 2.4857921600341796875 2.4064280986785888672 2.3023533821105957031 2.8797090053558349609 2.3087916374206542969 1.6968302726745605469 1.565090179443359375 2.0665240287780761719 1.7074007987976074219 1.100319981575012207 1 1.0417263507843017578 1.0170532464981079102 1.1550350189208984375 1.3323742151260375977 1.8045364618301391602 2.7630760669708251953 1.8828427791595458984 1.7439608573913574219 2.7166101932525634766 2.4821293354034423828 2.0318982601165771484 2.3663694858551025391 2.6969902515411376953 2.7518761157989501953 2.2295806407928466797 1.0729695558547973633 1.4434486627578735352 1.8372465372085571289 1.038515925407409668 1.3643289804458618164 1.5722974538803100586 1.0535917282104492188 1.047763824462890625 1.8260856866836547852 2.6172392368316650391 4.7005739212036132813 4.8493618965148925781 
3.1812832355499267578 2.9514064788818359375 2.523101806640625 1.7648644447326660156 1.7539997100830078125 2.3695418834686279297 2.5021326541900634766 2.3197758197784423828 2.2151811122894287109 1.6835457086563110352 1.0574747323989868164 1.0823621749877929688 1.0114946365356445313 1.1981397867202758789 1.3438310623168945313 2.3068888187408447266 1.3625020980834960938 1.1368443965911865234 1.5984085798263549805 1.5713503360748291016 1.8861773014068603516 3.1737997531890869141 2.7460916042327880859 2.5640914440155029297 3.0678951740264892578 3.0471394062042236328 2.7387099266052246094 2.1380491256713867188 1.1480985879898071289 1.0318775177001953125 1.0229632854461669922 1.0867328643798828125 1 1.0253790616989135742 1.1576579809188842773 1.2531248331069946289 1.8651283979415893555 3.0220894813537597656 5.040790557861328125 4.2829356193542480469 
3.9014146327972412109 3.3742487430572509766 2.0833275318145751953 1.7171642780303955078 1.9927320480346679688 2.6531238555908203125 2.7265610694885253906 2.0225236415863037109 1.7958967685699462891 1.0717023611068725586 1.0035663843154907227 1.0110427141189575195 1.2188848257064819336 1.0320318937301635742 1.4909685850143432617 2.0615432262420654297 1.9954276084899902344 1.3601721525192260742 1.9966187477111816406 2.1278553009033203125 1.9328620433807373047 2.9901778697967529297 3.4339268207550048828 3.4823322296142578125 3.0389993190765380859 2.9829480648040771484 2.3041491508483886719 1.9090580940246582031 1.0189428329467773438 1.0369898080825805664 1 1.3222107887268066406 1.8027814626693725586 1.5832414627075195313 1.9043481349945068359 2.7167870998382568359 2.8319528102874755859 3.6287393569946289063 4.2696332931518554688 4.9684252738952636719 
2.6640384197235107422 2.7947659492492675781 2.0874154567718505859 2.0798931121826171875 2.6901898384094238281 2.8979694843292236328 2.660602569580078125 1.6672066450119018555 1.2682698965072631836 1.0329554080963134766 1.0223879814147949219 1.0059942007064819336 1.1953099966049194336 1.1439813375473022461 1.1881157159805297852 1.4942061901092529297 1.0576397180557250977 1.7177573442459106445 1.9203722476959228516 1.5603851079940795898 1.7369960546493530273 1.8990110158920288086 2.8208019733428955078 3.2315862178802490234 3.1372637748718261719 3.1193418502807617188 2.5770719051361083984 1.9072692394256591797 1.4665150642395019531 1.5181404352188110352 1.6015088558197021484 1.239815831184387207 1.625422358512878418 2.0121471881866455078 2.8421909809112548828 3.9275963306427001953 3.563861846923828125 4.1674289703369140625 5.306186676025390625 5.2364277839660644531 
2.6125762462615966797 2.5960335731506347656 2.1436812877655029297 2.1207845211029052734 3.1873486042022705078 2.9583508968353271484 2.5469810962677001953 1.9979165792465209961 2.5072054862976074219 1.6970065832138061523 1.2444657087326049805 1.2689731121063232422 1.3265025615692138672 1.2057863473892211914 1 1.2748359441757202148 1.0577752590179443359 1.9372880458831787109 1.9350296258926391602 1.3330253362655639648 1.9347084760665893555 1.5082517862319946289 2.4901742935180664063 2.7390010356903076172 2.1148953437805175781 2.4871499538421630859 2.1310732364654541016 1.5308762788772583008 1.8607354164123535156 2.4590673446655273438 3.0953342914581298828 3.3533036708831787109 2.9111359119415283203 4.59210205078125 4.18202972412109375 4.2901353836059570313 3.4438436031341552734 4.1902689933776855469 4.8430156707763671875 4.5431532859802246094 
2.9612662792205810547 3.4251124858856201172 2.7844727039337158203 1.9968125820159912109 3.026210784912109375 3.0219995975494384766 2.5113461017608642578 3.1588830947875976563 3.4729578495025634766 2.9713826179504394531 2.3888211250305175781 1.6509966850280761719 1.5095080137252807617 1.0156546831130981445 1.0201418399810791016 1.0069905519485473633 1.2034202814102172852 1 1.3953433036804199219 1.5147347450256347656 1.464108586311340332 1.7280075550079345703 1.6397246122360229492 1.7957843542098999023 1.7406936883926391602 1.6478829383850097656 1.3287537097930908203 1.5317177772521972656 2.1623551845550537109 2.5569341182708740234 3.1454036235809326172 2.8585226535797119141 3.0156912803649902344 3.9488861560821533203 3.8761513233184814453 3.6854946613311767578 3.4364993572235107422 3.6802785396575927734 2.9045572280883789063 2.6065969467163085938 
3.1067996025085449219 3.9370756149291992188 3.3192136287689208984 3.1176791191101074219 3.2859108448028564453 2.8188090324401855469 2.6263976097106933594 3.4052042961120605469 3.0314853191375732422 2.6993048191070556641 1.8084046840667724609 1.9502485990524291992 1.8692080974578857422 1.0022437572479248047 1.0336297750473022461 1.0577747821807861328 1.4241678714752197266 1.1573833227157592773 1.3314883708953857422 1.1854846477508544922 1.4841611385345458984 1.9426137208938598633 1.4570343494415283203 1.3885215520858764648 1.8326904773712158203 2.2166345119476318359 2.0108666419982910156 2.0013093948364257813 2.6368567943572998047 2.8324124813079833984 3.7981889247894287109 4.3601355552673339844 3.8730490207672119141 4.4709725379943847656 5.1848573684692382813 4.0601630210876464844 3.6999852657318115234 4.2397584915161132813 2.3491475582122802734 1.9105811119079589844 
1.9887861013412475586 2.9996385574340820313 3.0661377906799316406 2.2704660892486572266 2.2480762004852294922 2.5116219520568847656 2.9074559211730957031 3.3314037322998046875 2.9119637012481689453 2.5336513519287109375 1.8663631677627563477 1.4945619106292724609 1.3849580287933349609 1.1503200531005859375 1 1.0610978603363037109 1.5129486322402954102 1.1885633468627929688 1.8775629997253417969 2.0315668582916259766 1.6390813589096069336 2.2037332057952880859 2.0449683666229248047 1.0102401971817016602 1.6637579202651977539 2.1462383270263671875 1.8145494461059570313 2.3432698249816894531 2.7230250835418701172 3.4184129238128662109 4.0087227821350097656 4.0732431411743164063 4.6694655418395996094 4.449737548828125 4.7945880889892578125 2.8259212970733642578 3.5035221576690673828 4.9060544967651367188 2.5271396636962890625 1.1133233308792114258 
1.459639430046081543 1.7526113986968994141 2.1343111991882324219 1.6339365243911743164 1.886262059211730957 2.2545504570007324219 2.352291107177734375 2.8487379550933837891 2.6630053520202636719 2.5558915138244628906 2.5705204010009765625 2.0638172626495361328 2.1080117225646972656 1.0415323972702026367 1.0166968107223510742 1.2797676324844360352 2.0983011722564697266 1.9916745424270629883 2.1300837993621826172 2.4650769233703613281 2.0543782711029052734 1.5187262296676635742 1.2723048925399780273 1.2791950702667236328 1.7352629899978637695 1.8219965696334838867 1.1717242002487182617 1.336670994758605957 1.7463263273239135742 2.6879503726959228516 3.3633222579956054688 3.492664337158203125 3.8824079036712646484 3.1304192543029785156 2.6365802288055419922 2.3266496658325195313 4.0009136199951171875 5.5257115364074707031 3.0215597152709960938 1.1422343254089355469 
1.0260525941848754883 1.0079804658889770508 1.4240832328796386719 1.2152467966079711914 1.8473193645477294922 1.9638322591781616211 3.2852861881256103516 3.7101316452026367188 3.2928776741027832031 2.5907049179077148438 2.148677825927734375 2.2824385166168212891 2.1238923072814941406 1.4218248128890991211 1.0377351045608520508 1.0130355358123779297 1.8203562498092651367 2.1494436264038085938 1.9355176687240600586 2.87972259521484375 2.0074324607849121094 1.3540390729904174805 1.3312095403671264648 1.7289334535598754883 1.772036433219909668 1 1.0251967906951904297 1.3563792705535888672 1.3913344144821166992 1.7915886640548706055 2.6182420253753662109 2.6847121715545654297 3.501155853271484375 2.8134653568267822266 1.4224913120269775391 1.6473562717437744141 2.8250558376312255859 3.4665417671203613281 2.9810712337493896484 2.353626251220703125 
1.7241190671920776367 1.3611985445022583008 1.3696362972259521484 1.4183421134948730469 1.3994839191436767578 2.0351369380950927734 4.7802190780639648438 4.6214590072631835938 2.9809815883636474609 2.3321046829223632813 1.6251107454299926758 1.0136797428131103516 1.1345195770263671875 1.2003493309020996094 1.0413097143173217773 1.1990296840667724609 1.0559337139129638672 2.3616514205932617188 2.6135325431823730469 1.969328761100769043 1.4427503347396850586 1.3296159505844116211 1.3532899618148803711 1.6222813129425048828 1.4503327608108520508 1.0800038576126098633 2.1773710250854492188 1.4948965311050415039 1.4446890354156494141 1.5068347454071044922 1.9200447797775268555 2.7704141139984130859 3.1245672702789306641 2.7514178752899169922 2.1753664016723632813 1.9521201848983764648 2.4590485095977783203 2.8289022445678710938 2.7643351554870605469 2.2493147850036621094 
2.2727556228637695313 1.7717458009719848633 1.0158300399780273438 1.476548314094543457 1.1890780925750732422 1.6612927913665771484 3.3074893951416015625 3.7176787853240966797 2.2850220203399658203 1.4918737411499023438 1.2982865571975708008 1.3741056919097900391 1.3141045570373535156 1.4580441713333129883 1.1818969249725341797 1.145241856575012207 1.0985741615295410156 2.1320741176605224609 1.182690739631652832 1.3680149316787719727 2.1463036537170410156 2.4036021232604980469 1.8798625469207763672 1.6136373281478881836 1.2989355325698852539 1.0758652687072753906 1.4022991657257080078 1.1700260639190673828 1.5056848526000976563 1.7718353271484375 1.4536218643188476563 1.2901593446731567383 1.5762511491775512695 2.2246065139770507813 2.7197916507720947266 2.4285206794738769531 3.1086149215698242188 2.8498928546905517578 2.6243941783905029297 2.4570643901824951172 
2.5633516311645507813 1.8980988264083862305 1.8216282129287719727 1.0951795578002929688 1.3593660593032836914 1.3817840814590454102 2.5507400035858154297 2.9496371746063232422 1.6190309524536132813 1.1035349369049072266 1.2784681320190429688 1.9498248100280761719 3.1053030490875244141 2.2507781982421875 1.6783325672149658203 1.4855964183807373047 1.859920501708984375 1.618327021598815918 1.3263711929321289063 1.1574885845184326172 1.8839130401611328125 2.4470841884613037109 2.2070648670196533203 2.0867428779602050781 1.7190839052200317383 1.2610723972320556641 1.0471975803375244141 1 1.2476052045822143555 1.2971465587615966797 1.068921208381652832 1.8166915178298950195 1.3056331872940063477 2.0138647556304931641 2.7947318553924560547 3.4440696239471435547 3.6229910850524902344 3.8529322147369384766 3.8032028675079345703 2.9858472347259521484 
1.7380417585372924805 1.7377301454544067383 1.4578213691711425781 1 1.3371999263763427734 1.7919698953628540039 2.2391958236694335938 2.1241300106048583984 1.600200653076171875 1.0109742879867553711 1.9878239631652832031 2.6604793071746826172 4.9691472053527832031 2.8669683933258056641 1.8057914972305297852 2.3868038654327392578 1.1212289333343505859 1.9756453037261962891 1.6352016925811767578 1.8323943614959716797 2.9681909084320068359 3.8048980236053466797 3.8944821357727050781 2.7109620571136474609 2.0342781543731689453 2.1033618450164794922 1.0943415164947509766 1.2003183364868164063 1.026082158088684082 1.012968897819519043 1.0748986005783081055 1.692837834358215332 1.2694047689437866211 2.0119473934173583984 3.0714061260223388672 3.3081481456756591797 3.3456666469573974609 3.4908385276794433594 3.9870197772979736328 3.6598110198974609375 
1.1202330589294433594 1.0009169578552246094 1.1836628913879394531 1.7066730260848999023 1.6684551239013671875 1.5565395355224609375 1.8776246309280395508 1.6113543510437011719 1.3326162099838256836 1.1314493417739868164 1.4117426872253417969 1.9986602067947387695 4.8777818679809570313 3.7080276012420654297 2.3890042304992675781 2.5942986011505126953 1.1565543413162231445 1.0999938249588012695 1.0972933769226074219 2.1839110851287841797 4.2064828872680664063 5.9592800140380859375 5.0388722419738769531 3.5738511085510253906 1.5375645160675048828 1.7881675958633422852 1.0289341211318969727 1.0067030191421508789 1.0098527669906616211 1.1787455081939697266 1.0973078012466430664 1.0234599113464355469 1.9897540807723999023 2.8142733573913574219 3.1976785659790039063 3.1356251239776611328 3.2112886905670166016 3.501750946044921875 3.1253731250762939453 3.6254913806915283203 
1.7521717548370361328 1.1723352670669555664 1.0704140663146972656 2.6981916427612304688 2.2717313766479492188 1.3723369836807250977 1.7822833061218261719 1.2599152326583862305 1.0274447202682495117 1.0434851646423339844 1.8072216510772705078 2.1614804267883300781 5.2441277503967285156 3.5962369441986083984 2.7059786319732666016 1.9300248622894287109 1.4501619338989257813 1 1.6687047481536865234 2.6961112022399902344 3.8682494163513183594 5.8630733489990234375 5.1866106986999511719 3.7220950126647949219 1.144564509391784668 1.1065192222595214844 1 1.0285196304321289063 1.0549315214157104492 1.0257586240768432617 1.0570631027221679688 1.1115398406982421875 1.2355365753173828125 2.1337630748748779297 2.8758618831634521484 3.1939961910247802734 2.7445452213287353516 3.4984180927276611328 3.9379401206970214844 3.2750322818756103516 
3.013561248779296875 2.30231475830078125 1.5874556303024291992 1.6780301332473754883 1.4069461822509765625 1.145157933235168457 1.3954375982284545898 1.7142089605331420898 1.3507784605026245117 1.0220049619674682617 2.0052001476287841797 2.3370580673217773438 4.5008931159973144531 2.5618624687194824219 1.1432083845138549805 1.0133774280548095703 1.0189234018325805664 1.1251827478408813477 1.7628269195556640625 2.6010353565216064453 2.5139420032501220703 4.6331257820129394531 4.5184168815612792969 3.1286308765411376953 1.086565852165222168 1.0150043964385986328 1.046451568603515625 1.0026488304138183594 1.0033013820648193359 1.1966108083724975586 1.130083918571472168 1.2002186775207519531 2.2488796710968017578 2.15240478515625 2.8343944549560546875 2.8912153244018554688 2.5055301189422607422 2.9903328418731689453 4.0324888229370117188 2.9826424121856689453 
4.0129108428955078125 2.8293683528900146484 2.0761270523071289063 1.4952262639999389648 1.0544879436492919922 1.185013890266418457 1.1947304010391235352 2.0273580551147460938 1.7614634037017822266 1.0226771831512451172 1.5313098430633544922 1.9416183233261108398 2.2389276027679443359 1.7312505245208740234 1.0092836618423461914 1.2098768949508666992 1.0155231952667236328 1.1278524398803710938 2.0201556682586669922 1.8670718669891357422 1.9455369710922241211 4.0474467277526855469 3.7729420661926269531 2.0973834991455078125 1.2873109579086303711 1.1561887264251708984 1.0595581531524658203 1.1495485305786132813 1.1279708147048950195 1.0139068365097045898 1.1888157129287719727 1.3674477338790893555 2.74724578857421875 3.88106536865234375 4.6727433204650878906 2.7672746181488037109 2.7881722450256347656 3.2910332679748535156 3.7508614063262939453 2.9150366783142089844 
4.0185031890869140625 2.9100461006164550781 2.27564239501953125 1.6144717931747436523 1.4540417194366455078 1.4809458255767822266 1.2869718074798583984 1.9045088291168212891 1.5672755241394042969 1.5062277317047119141 1.6814229488372802734 1.6242176294326782227 1.3858160972595214844 1.1110713481903076172 1.0028845071792602539 1.0518145561218261719 1.0996557474136352539 1.1169266700744628906 1.8202412128448486328 1.5449542999267578125 1.7729945182800292969 3.0530977249145507813 2.5279688835144042969 1.4168428182601928711 1.193566441535949707 1 1 1.1509501934051513672 1.0152542591094970703 1.1929147243499755859 1.2087177038192749023 1.0123523473739624023 1.8508057594299316406 3.8821167945861816406 6.02875518798828125 3.8493111133575439453 2.8087475299835205078 4.1861066818237304688 3.3162529468536376953 2.9570744037628173828 
2.7837834358215332031 2.7527070045471191406 3.3405573368072509766 2.03992462158203125 2.0226535797119140625 1.9856007099151611328 1.7785291671752929688 2.6837646961212158203 2.0568301677703857422 1.1174383163452148438 1.2187913656234741211 1.017045140266418457 1.0222907066345214844 1.0039283037185668945 1.0082181692123413086 1.0099974870681762695 1.0362182855606079102 1.0365504026412963867 1.8264257907867431641 1.8782135248184204102 2.2477543354034423828 2.5067949295043945313 2.1305828094482421875 1.9711517095565795898 1.2142416238784790039 1.0385373830795288086 1.0229518413543701172 1.0085288286209106445 1.1345010995864868164 1.0121686458587646484 1.2910550832748413086 1.0401787757873535156 1.3933153152465820313 2.3755168914794921875 3.4113020896911621094 3.3597476482391357422 3.6249988079071044922 4.7705564498901367188 4.6384682655334472656 4.3549556732177734375 
1.8901269435882568359 2.5613734722137451172 1.9824655055999755859 1.7443261146545410156 2.4568645954132080078 3.1350386142730712891 2.5433261394500732422 3.3768951892852783203 3.0093047618865966797 1.7124310731887817383 1.7572042942047119141 1.2152321338653564453 1.0948659181594848633 1.0954740047454833984 1.7423332929611206055 1.2215485572814941406 1.1793676614761352539 1.4736375808715820313 2.084529876708984375 2.3948328495025634766 3.5573139190673828125 4.265712738037109375 3.5597071647644042969 2.7504813671112060547 1.8200592994689941406 1 1.0157238245010375977 1.1248509883880615234 1.0342394113540649414 1.1849485635757446289 1.2896628379821777344 1.9837465286254882813 1.2373156547546386719 1.6227746009826660156 1.9515770673751831055 2.7682797908782958984 2.9961569309234619141 2.6900289058685302734 3.3965296745300292969 4.7957844734191894531 
1.2072668075561523438 1.5729453563690185547 2.04988861083984375 1.9658588171005249023 2.3351435661315917969 2.5775239467620849609 2.1875808238983154297 2.6583089828491210938 2.4443583488464355469 2.1720278263092041016 2.4683902263641357422 1.0272506475448608398 1.1466383934020996094 1.0241644382476806641 1.3059103488922119141 2.4653706550598144531 3.3890130519866943359 3.2541050910949707031 3.2017369270324707031 2.7379059791564941406 3.8145351409912109375 4.1111712455749511719 4.4276876449584960938 3.6243774890899658203 3.2978980541229248047 1.9642632007598876953 1.1190507411956787109 1.0073162317276000977 1.0400600433349609375 1.010094761848449707 1.2710757255554199219 2.2419009208679199219 1.0127170085906982422 1 1.4559191465377807617 2.5387752056121826172 2.3387720584869384766 2.5758695602416992188 2.4212849140167236328 2.4743547439575195313 
1.2162344455718994141 2.0887482166290283203 2.4524338245391845703 2.1031284332275390625 1.465998530387878418 1.9795682430267333984 2.0316212177276611328 2.2564408779144287109 2.3516223430633544922 2.2144696712493896484 2.1802546977996826172 1.3696321249008178711 1.0176970958709716797 1 1.2069207429885864258 1.5933288335800170898 1.9741622209548950195 3.7860188484191894531 3.9617877006530761719 3.4915418624877929688 3.3868525028228759766 3.3160495758056640625 3.0450811386108398438 4.127391815185546875 3.4703340530395507813 2.2488725185394287109 2.1364693641662597656 2.0301206111907958984 1.4435503482818603516 1.0251160860061645508 1.061684727668762207 1.1466156244277954102 1.0385206937789916992 1.1862552165985107422 1.5797525644302368164 2.2397086620330810547 2.1502101421356201172 2.4079504013061523438 2.3609213829040527344 2.21429443359375 
2.1314046382904052734 3.2569253444671630859 3.51513671875 4.4183154106140136719 2.4581043720245361328 2.187442779541015625 1.9708311557769775391 2.1247529983520507813 1.0671205520629882813 1.2480094432830810547 1.1667125225067138672 1.2139507532119750977 1.7047793865203857422 1.0411142110824584961 1.0051248073577880859 1.14327239990234375 1.1757141351699829102 2.0100688934326171875 2.6949062347412109375 2.5976152420043945313 3.1165251731872558594 3.8082489967346191406 3.9847583770751953125 3.0742242336273193359 2.3406882286071777344 1.8754434585571289063 2.2660455703735351563 2.0910713672637939453 2.0629210472106933594 1.4357912540435791016 1.9242762327194213867 1.4143465757369995117 1 1.4661208391189575195 1.6788252592086791992 2.1307442188262939453 1.179164886474609375 1.4801054000854492188 1.6163505315780639648 2.2223656177520751953 
3.6504051685333251953 4.0720229148864746094 5.191326141357421875 4.8956394195556640625 3.0405435562133789063 2.1302945613861083984 1.5117578506469726563 1.0054510831832885742 1.3148107528686523438 1.5557399988174438477 1.8219465017318725586 1.1456378698348999023 1.1127401590347290039 1.0952142477035522461 1.140911102294921875 1.0257053375244140625 1.0861086845397949219 1.1357269287109375 1.5556001663208007813 1.7710125446319580078 2.7030472755432128906 3.8046638965606689453 3.2282912731170654297 2.1721060276031494141 1.767293095588684082 2.0730288028717041016 2.1727125644683837891 2.1766915321350097656 2.9248056411743164063 2.5089714527130126953 2.3922097682952880859 1.1645684242248535156 1.0240446329116821289 1.4487954378128051758 1.3270331621170043945 1.4358564615249633789 1.074006199836730957 1.2307313680648803711 1.6160117387771606445 1.9649299383163452148 
3.4617259502410888672 4.8630223274230957031 5.6348428726196289063 4.1733870506286621094 2.4175112247467041016 1.3744320869445800781 1.1080996990203857422 1.0191798210144042969 1.3678374290466308594 1.6637754440307617188 1.3545672893524169922 1.0223106145858764648 1.1170095205307006836 1.2206538915634155273 1.2705568075180053711 1.2765730619430541992 1.3897475004196166992 1.3818545341491699219 1.8436748981475830078 1.9183639287948608398 1.9269098043441772461 2.2054150104522705078 1.3633737564086914063 1 1.1353949308395385742 1.7336981296539306641 2.0805478096008300781 1.922619938850402832 3.0890221595764160156 2.8281705379486083984 2.3777265548706054688 1.1972159147262573242 1.0681049823760986328 1.145617365837097168 1.4838694334030151367 1.1729934215545654297 1.374043583869934082 2.0040178298950195313 1.6439139842987060547 1.3745521306991577148 
3.6491601467132568359 4.8968496322631835938 5.0296387672424316406 3.6652317047119140625 2.1052460670471191406 1.2563357353210449219 1.0335185527801513672 1.054256439208984375 1.0097908973693847656 1.0063489675521850586 1.036866307258605957 1.139761805534362793 1.2800803184509277344 1.2842400074005126953 1.7440313100814819336 1.5703041553497314453 1.4036787748336791992 1.5978761911392211914 2.2532227039337158203 2.855892181396484375 2.2291920185089111328 2.2664396762847900391 1.3863339424133300781 1.0460340976715087891 1.0187090635299682617 1.2122014760971069336 1.7311284542083740234 1.68581390380859375 2.1689550876617431641 2.1609728336334228516 1.9283447265625 1.4620456695556640625 1.4230667352676391602 1.6678220033645629883 2.1345083713531494141 2.1463525295257568359 1.8653535842895507813 2.3196005821228027344 1.8877043724060058594 1.1128072738647460938 
3.3478376865386962891 4.4868111610412597656 3.3544359207153320313 2.7583370208740234375 2.15677642822265625 1.8069452047348022461 2.2619609832763671875 2.2901856899261474609 1.8197233676910400391 1.347537994384765625 1.5269196033477783203 1.2744261026382446289 1.0321521759033203125 1.14813232421875 1.0050361156463623047 1.3052072525024414063 1.4349176883697509766 1.4971742630004882813 2.578830718994140625 3.0364775657653808594 2.5971674919128417969 1.8248066902160644531 1.4052782058715820313 1.0496507883071899414 1.0463297367095947266 1.1115248203277587891 1.1915963888168334961 1.2622073888778686523 1.2340148687362670898 1.5075430870056152344 1.3087877035140991211 1.3260288238525390625 1.4203151464462280273 1.6682084798812866211 1.7688651084899902344 2.5900893211364746094 3.2057209014892578125 2.7487928867340087891 2.148651123046875 1.5365158319473266602 
2.7588868141174316406 3.0694446563720703125 2.6655924320220947266 3.0255229473114013672 2.6238377094268798828 2.4692618846893310547 3.7846689224243164063 3.6329855918884277344 2.6960706710815429688 2.8927388191223144531 2.1141719818115234375 1.6060214042663574219 1.2851487398147583008 1.0079553127288818359 1.3305270671844482422 1.0071616172790527344 1.109516143798828125 1.4615958929061889648 1.4404337406158447266 2.6826734542846679688 2.3081114292144775391 1.6006456613540649414 1.2168438434600830078 1.0199592113494873047 1.0050259828567504883 1.8246370553970336914 1.6616351604461669922 1.2359327077865600586 1.4985920190811157227 1.2768322229385375977 1.0327324867248535156 1.0681684017181396484 1.3042865991592407227 1.7610667943954467773 1.9027338027954101563 2.9276914596557617188 4.1880555152893066406 4.2236084938049316406 3.6258454322814941406 2.3868346214294433594 
1.6397097110748291016 1.7978521585464477539 1.5276299715042114258 2.6814806461334228516 1.931448817253112793 1.9333260059356689453 3.4782695770263671875 4.2017989158630371094 3.7413649559020996094 3.0860180854797363281 2.8786978721618652344 2.9519736766815185547 2.8633697032928466797 1.8982703685760498047 1.7182750701904296875 1.3797936439514160156 1.192882537841796875 1.5111497640609741211 1.8007417917251586914 2.2517926692962646484 2.5905630588531494141 1.6739729642868041992 1.0247800350189208984 1.3300564289093017578 2.1243138313293457031 2.3148107528686523438 1.4564774036407470703 1.2895667552947998047 1.5523666143417358398 1.4358178377151489258 1.6385289430618286133 1.2322472333908081055 1.2910758256912231445 2.1366255283355712891 2.9823756217956542969 3.5329554080963134766 4.590435028076171875 4.7920513153076171875 3.9752690792083740234 3.4939484596252441406 
1.0330814123153686523 1.1210047006607055664 1.1740938425064086914 1.5288978815078735352 1.5048042535781860352 1.3716560602188110352 2.3868250846862792969 3.0721762180328369141 4.0699067115783691406 4.4058132171630859375 3.0930182933807373047 3.3298025131225585938 3.7098624706268310547 3.2476525306701660156 2.9956967830657958984 2.4756505489349365234 1.7979862689971923828 1.9529145956039428711 1.9512823820114135742 2.5115058422088623047 2.7255272865295410156 2.0189752578735351563 1.2808884382247924805 1.2744201421737670898 1.545452117919921875 1.246024012565612793 1.0543816089630126953 1.2319699525833129883 1.3742108345031738281 1.1312611103057861328 1.4800467491149902344 1.311214447021484375 1.1588304042816162109 2.0781130790710449219 3.3860125541687011719 4.0680589675903320313 4.6520681381225585938 4.3939790725708007813 3.8679502010345458984 4.1745820045471191406 
1.0060567855834960938 1.2752879858016967773 1.6462926864624023438 1.3695048093795776367 1.163184046745300293 1.2316774129867553711 1.7558159828186035156 2.2351038455963134766 4.0145254135131835938 4.6512279510498046875 3.2103545665740966797 3.9381783008575439453 4.3009190559387207031 3.6447851657867431641 3.2882442474365234375 2.5359287261962890625 2.3613743782043457031 2.7985110282897949219 1.9272969961166381836 2.1727550029754638672 2.3859181404113769531 2.3639423847198486328 1.8431338071823120117 1.3767416477203369141 1.5994081497192382813 1.0986876487731933594 1.1286768913269042969 1.1782361268997192383 1.1598527431488037109 1.164319157600402832 1.6160253286361694336 1.3429148197174072266 1.074030756950378418 1.6819338798522949219 2.6083359718322753906 2.8700368404388427734 3.2293188571929931641 3.4950258731842041016 3.9114351272583007813 3.5854327678680419922 
2.2485148906707763672 2.7661225795745849609 3.0580580234527587891 1.6455608606338500977 1.8736276626586914063 1.4006280899047851563 1.8723255395889282227 2.4168002605438232422 4.4161767959594726563 3.7505788803100585938 3.5698864459991455078 4.4293255805969238281 5.7828202247619628906 5.5638413429260253906 4.1348705291748046875 3.0278170108795166016 2.4868435859680175781 2.4330904483795166016 1.7486810684204101563 1.9049963951110839844 2.6888320446014404297 2.697723388671875 2.3313567638397216797 1.7852387428283691406 1.145145416259765625 1.1247384548187255859 1.1668149232864379883 1.2420810461044311523 1.2267162799835205078 1.5987745523452758789 1.6500904560089111328 1.7265074253082275391 1.6051285266876220703 1.795220494270324707 2.0836620330810546875 2.7617137432098388672 3.2926166057586669922 3.8994009494781494141 4.1500339508056640625 3.98322296142578125 
2.1377069950103759766 2.4218318462371826172 2.4874160289764404297 1.987477421760559082 1.2061808109283447266 1.2468190193176269531 1.2919833660125732422 1.5436906814575195313 2.3081111907958984375 3.2288298606872558594 3.21102142333984375 3.4685087203979492188 4.8258695602416992188 5.1773877143859863281 4.2056441307067871094 3.6883056163787841797 2.7641315460205078125 2.0534589290618896484 1.6941652297973632813 1.6282049417495727539 1.8889501094818115234 2.4061067104339599609 2.8957140445709228516 2.6591455936431884766 1.6954938173294067383 1.4167435169219970703 1.3591364622116088867 1.2809845209121704102 1.5825952291488647461 2.2684941291809082031 2.4585547447204589844 2.2738933563232421875 1.8174210786819458008 2.2677557468414306641 2.2423095703125 2.5399491786956787109 3.5881230831146240234 4.3517956733703613281 5.1795439720153808594 3.4361560344696044922 
2.2274260520935058594 2.5988283157348632813 2.1354222297668457031 1.6412553787231445313 1.3388564586639404297 2.5915210247039794922 1.5250235795974731445 1.2300645112991333008 1.5151064395904541016 2.1872868537902832031 3.0858876705169677734 3.3283705711364746094 3.5294239521026611328 5.3065176010131835938 4.8108811378479003906 3.9226224422454833984 2.7429909706115722656 1.8719391822814941406 1.8357319831848144531 1.2968715429306030273 1.5877176523208618164 2.1363759040832519531 3.4717540740966796875 2.747486114501953125 2.493099212646484375 2.3854067325592041016 1.6472597122192382813 1.4043231010437011719 1.7302967309951782227 2.2321832180023193359 2.1009757518768310547 1.9715789556503295898 1.8724770545959472656 1.988037109375 2.2048962116241455078 2.4545619487762451172 3.1482117176055908203 3.5317814350128173828 4.0137529373168945313 4.6934933662414550781 
1.9243167638778686523 2.0503115653991699219 2.2507073879241943359 1.3316119909286499023 1.4805046319961547852 2.6210033893585205078 1.8955221176147460938 1.935177922248840332 1.7535043954849243164 2.5377805233001708984 3.0723643302917480469 3.2523291110992431641 3.1885101795196533203 4.2604284286499023438 4.5863642692565917969 3.6473195552825927734 2.8602550029754638672 1.7679637670516967773 2.0691747665405273438 1.6822344064712524414 1.601654052734375 1.9659310579299926758 2.9385671615600585938 3.1025536060333251953 2.6703419685363769531 2.5910360813140869141 2.11710357666015625 1.8132132291793823242 2.0157492160797119141 2.3423018455505371094 2.4919683933258056641 1.9878076314926147461 1.9022811651229858398 1.9803817272186279297 1.829123377799987793 1.7783832550048828125 2.3575122356414794922 3.0093932151794433594 2.9346704483032226563 3.8520162105560302734 
1.7742927074432373047 1.3599795103073120117 1.6979348659515380859 2.1505267620086669922 1.5274623632431030273 1.3628243207931518555 1.7334368228912353516 2.1007511615753173828 1.7747013568878173828 2.2144997119903564453 4.3188128471374511719 4.2228765487670898438 4.7545557022094726563 5.2510228157043457031 5.3386583328247070313 3.7897992134094238281 3.1413648128509521484 2.1403496265411376953 3.0067491531372070313 2.5541522502899169922 1.9791108369827270508 2.3997273445129394531 3.2369184494018554688 3.7227551937103271484 2.7300536632537841797 2.6012639999389648438 2.6839811801910400391 2.3941602706909179688 1.9715446233749389648 2.1007122993469238281 2.5880386829376220703 2.1097750663757324219 1.5571587085723876953 1.5927771329879760742 1.3323732614517211914 1.7929402589797973633 2.6692109107971191406 2.6468744277954101563 2.0516381263732910156 2.5922212600708007813 
1.5786011219024658203 1.5064500570297241211 1.4725574254989624023 1.4487061500549316406 1.5903536081314086914 1.6623467206954956055 1.4162660837173461914 1.9113763570785522461 1.8902437686920166016 2.0198721885681152344 3.8189327716827392578 4.0270967483520507813 4.9321522712707519531 5.1860408782958984375 5.0193362236022949219 4.885547637939453125 4.4269084930419921875 3.1182878017425537109 2.8364856243133544922 2.8503918647766113281 2.2564585208892822266 2.4945037364959716797 2.9759211540222167969 2.9756245613098144531 4.1319060325622558594 3.8519110679626464844 4.8102960586547851563 3.7143447399139404297 2.6575794219970703125 2.5074038505554199219 2.5796549320220947266 1.856802821159362793 1.4551715850830078125 1.4448665380477905273 1.5697280168533325195 1.6892093420028686523 1.9332789182662963867 1.9905432462692260742 1.7990609407424926758 2.2308888435363769531 
1.6000069379806518555 2.1162855625152587891 1.9365227222442626953 1.7713989019393920898 1.7888737916946411133 1.9809206724166870117 1.7766495943069458008 1.5803622007369995117 2.018611907958984375 2.3195908069610595703 3.0710997581481933594 3.3033847808837890625 3.9302680492401123047 4.2978301048278808594 5.2309451103210449219 6.5513482093811035156 4.6633934974670410156 3.5407662391662597656 2.5978298187255859375 2.3356480598449707031 2.2340590953826904297 2.5361094474792480469 2.3974244594573974609 2.5815117359161376953 3.7243609428405761719 5.2869019508361816406 7.1466817855834960938 5.2656683921813964844 3.2199435234069824219 3.0902435779571533203 2.9423508644104003906 2.1361825466156005859 1.6533614397048950195 1.6251113414764404297 1.5015600919723510742 1.6671459674835205078 1.866069793701171875 1.9603860378265380859 2.2168128490447998047 2.5126140117645263672 
1.640955805778503418 2.2032613754272460938 2.5443456172943115234 2.2298078536987304688 2.2142500877380371094 1.9978200197219848633 1.7924898862838745117 1.6026250123977661133 1.985226750373840332 2.667888641357421875 2.8287703990936279297 3.3068623542785644531 3.5380866527557373047 4.4367403984069824219 5.6106820106506347656 6.1009931564331054688 5.4357175827026367188 4.7948331832885742188 3.4003889560699462891 2.9608130455017089844 2.254486083984375 2.3906338214874267578 2.6572747230529785156 2.5162222385406494141 3.6069340705871582031 5.9168062210083007813 6.9291052818298339844 6.7177224159240722656 3.6604745388031005859 3.7997879981994628906 4.6659016609191894531 3.0911693572998046875 1.9470643997192382813 1.8309334516525268555 1.9097940921783447266 2.1345808506011962891 2.3857059478759765625 2.0552518367767333984 2.1710712909698486328 2.2815868854522705078 
