ncols        40
nrows        40
xllcorner    -0.000000000000
yllcorner    0.000000000000
cellsize     5.000000000000
NODATA_value nan
3.1093316078186035156 3.0199596881866455078 2.5282895565032958984 2.0995213985443115234 2.4335300922393798828 2.5867516994476318359 2.3283717632293701172 1.8080791234970092773 1.1731573343276977539 1.0581521987915039063 1.1314661502838134766 1 1.4154827594757080078 1.6943521499633789063 1.6298230886459350586 1.7395734786987304688 1.6877409219741821289 2.0516276359558105469 2.6498029232025146484 1.8349997997283935547 1.679179072380065918 2.4037251472473144531 2.2360029220581054688 2.1212263107299804688 2.4284625053405761719 2.5966703891754150391 2.7711241245269775391 2.20432281494140625 1.3403209447860717773 2.3438458442687988281 2.8406050205230712891 1.833626866340637207 2.2305164337158203125 2.3707296848297119141 1.7726441621780395508 1.7243032455444335938 1.8715721368789672852 1.7782551050186157227 4.54477691650390625 4.3702020645141601563 
3.07598114013671875 3.0659766197204589844 2.8239986896514892578 2.1228880882263183594 2.2584941387176513672 2.7019915580749511719 2.6127171516418457031 2.4695520401000976563 1.7412114143371582031 1 1 1.4599817991256713867 1.6478459835052490234 1.8414658308029174805 2.1538879871368408203 3.3464496135711669922 2.1446597576141357422 1.560962677001953125 2.1513943672180175781 2.2591822147369384766 1.9814836978912353516 2.2162442207336425781 2.0220255851745605469 2.3574888706207275391 2.7935376167297363281 2.9328699111938476563 2.8051207065582275391 2.0536715984344482422 1.4191035032272338867 1.7765042781829833984 1.7204270362854003906 1.6579860448837280273 1.2231776714324951172 1.1984046697616577148 1.5160137414932250977 1.812089085578918457 2.3815796375274658203 2.4740540981292724609 4.2079091072082519531 2.9868013858795166016 
3.0302135944366455078 3.2164697647094726563 2.5612514019012451172 2.214351654052734375 2.4135289192199707031 2.9032042026519775391 2.963024139404296875 2.4310317039489746094 1.8357369899749755859 1.0314984321594238281 1.2240869998931884766 1.4368216991424560547 1.7147437334060668945 1.5063021183013916016 2.39568328857421875 3.0589230060577392578 2.9267129898071289063 2.1738824844360351563 2.9395289421081542969 3.1298851966857910156 2.4689092636108398438 2.4550955295562744141 2.2621452808380126953 2.6347126960754394531 2.5670225620269775391 2.909198760986328125 2.6419129371643066406 1.910370945930480957 1.3460782766342163086 1.2824205160140991211 1.3537060022354125977 1.5912227630615234375 1 1 1.567881464958190918 2.1362028121948242188 2.4257383346557617188 2.9491794109344482422 2.7564191818237304688 3.1794054508209228516 
2.6337985992431640625 2.6648859977722167969 2.6314337253570556641 2.7255442142486572266 2.96883392333984375 3.0856089591979980469 2.9933841228485107422 1.9760745763778686523 1.6940488815307617188 1.4677019119262695313 1.3943613767623901367 1 1 1.2708404064178466797 1.9284245967864990234 2.3833107948303222656 1.8597254753112792969 2.7191228866577148438 2.8410296440124511719 2.4189333915710449219 2.6696100234985351563 2.3320968151092529297 2.1681447029113769531 2.6121423244476318359 2.6081600189208984375 2.6739356517791748047 2.5484926700592041016 1.8494622707366943359 1.4223256111145019531 1.045167088508605957 1 1 1 1.0678769350051879883 1.9017713069915771484 2.2300481796264648438 2.2386348247528076172 2.5309934616088867188 4.28179931640625 3.2873198986053466797 
2.5301914215087890625 2.6601195335388183594 2.5166509151458740234 2.7548110485076904297 2.9239511489868164063 2.8766305446624755859 2.9302470684051513672 1.9533950090408325195 2.0588099956512451172 1.4156740903854370117 1 1.0122183561325073242 1 1.3210207223892211914 1.437403559684753418 2.0178020000457763672 1.8126980066299438477 2.7965006828308105469 2.8709650039672851563 2.20220184326171875 2.8473944664001464844 2.0682125091552734375 2.1487257480621337891 2.2079043388366699219 2.1484251022338867188 2.5230045318603515625 2.1237506866455078125 1.5813447237014770508 1.6797070503234863281 1.9581949710845947266 1.8667582273483276367 2.0931749343872070313 2.0328249931335449219 2.72954559326171875 2.2018363475799560547 2.7940568923950195313 1.864867091178894043 2.6609773635864257813 2.9530272483825683594 2.4819192886352539063 
2.9416546821594238281 3.2513911724090576172 2.5811915397644042969 2.1100542545318603516 2.4270269870758056641 2.9093906879425048828 2.4256398677825927734 1.9954049587249755859 2.1762943267822265625 1.7414780855178833008 1.0868437290191650391 1 1 1.0186281204223632813 1.5322753190994262695 1.6214209794998168945 1.7919443845748901367 1.7599047422409057617 2.1728513240814208984 2.3948717117309570313 2.1824967861175537109 2.2261915206909179688 1.8924622535705566406 1.9106866121292114258 1.9857921600341796875 1.9946141242980957031 1.582819819450378418 1.6243672370910644531 1.6853964328765869141 1.9627321958541870117 1.919152379035949707 2.1613595485687255859 1.9734417200088500977 2.7032361030578613281 3.2197675704956054688 1.6757413148880004883 2.4806663990020751953 1.7389446496963500977 1.6859451532363891602 1.7138073444366455078 
2.7829539775848388672 3.2864110469818115234 2.4805617332458496094 2.2826807498931884766 2.2848458290100097656 2.2518420219421386719 2.3360974788665771484 2.2384049892425537109 1.8002521991729736328 1.4056305885314941406 1.060092926025390625 1 1 1.166301727294921875 1.7184724807739257813 1.7927696704864501953 2.0033922195434570313 1.7276401519775390625 2.1113212108612060547 1.9859097003936767578 2.3241100311279296875 2.7619702816009521484 2.2973153591156005859 2.0614075660705566406 2.2003459930419921875 2.2541496753692626953 1.7660688161849975586 1.9939867258071899414 1.9088051319122314453 2.0884184837341308594 2.6850600242614746094 2.7868053913116455078 3.0096843242645263672 3.7810432910919189453 4.306671142578125 2.7077631950378417969 1.9647710323333740234 2.9323937892913818359 1.8479429483413696289 1.8584204912185668945 
2.2604551315307617188 2.6090342998504638672 2.6350133419036865234 2.1625070571899414063 2.0467877388000488281 2.1289889812469482422 2.4713492393493652344 2.4392783641815185547 1.7514748573303222656 1.4342750310897827148 1.0426572561264038086 1 1 1.3210207223892211914 1.5954989194869995117 1.8691619634628295898 2.3050704002380371094 1.769448399543762207 2.8812534809112548828 3.1030125617980957031 2.6550607681274414063 3.2652149200439453125 3.0553014278411865234 1.7864195108413696289 1.6481319665908813477 1.948603510856628418 1.7275147438049316406 2.1316852569580078125 2.0172264575958251953 2.0360591411590576172 2.2274768352508544922 2.4928028583526611328 3.1045007705688476563 3.4313287734985351563 3.7468166351318359375 1.4010545015335083008 1.5399353504180908203 6.0131516456604003906 2.0189602375030517578 1.8380219936370849609 
1.7807964086532592773 1.7306748628616333008 2.3827309608459472656 2.0391230583190917969 1.7527288198471069336 1.937015533447265625 2.0287778377532958984 2.3584935665130615234 1.6606118679046630859 1.4847463369369506836 1.2702034711837768555 1.3799394369125366211 1 1 1.6606870889663696289 2.0393402576446533203 3.0654571056365966797 2.9183101654052734375 3.1294565200805664063 3.6049420833587646484 3.0730147361755371094 2.3742852210998535156 1.8379118442535400391 1.7883393764495849609 1.8740788698196411133 1.9638016223907470703 1.5825570821762084961 1.938480377197265625 1.9990638494491577148 2.0113794803619384766 2.4262239933013916016 1.7658885717391967773 2.8123211860656738281 1.8171492815017700195 1.2489124536514282227 1.0715028047561645508 2.3801505565643310547 6.1123557090759277344 2.5208845138549804688 1.6138476133346557617 
1.7314875125885009766 1.3653399944305419922 1.7748000621795654297 1.5619779825210571289 1.9432899951934814453 1.6197266578674316406 1.4947407245635986328 2.5299119949340820313 2.3260223865509033203 1.8609925508499145508 1.627877354621887207 1.6480485200881958008 1.084299921989440918 1 1.2901405096054077148 1.7377341985702514648 2.8250432014465332031 3.1687443256378173828 3.0205807685852050781 4.0262303352355957031 2.9762489795684814453 1.9428952932357788086 1.678937077522277832 1.5754722356796264648 1.5730729103088378906 1.4131578207015991211 1.9046695232391357422 2.1823785305023193359 1.800506591796875 1.5743578672409057617 2.1791462898254394531 2.1320269107818603516 2.3180820941925048828 2.1099917888641357422 1.317189335823059082 1.2770121097564697266 2.1985018253326416016 2.7352309226989746094 2.0441079139709472656 2.0334343910217285156 
2.6879537105560302734 2.1825480461120605469 2.0076482295989990234 1.5598150491714477539 1.3635977506637573242 1.55007171630859375 7.5029358863830566406 5.5802273750305175781 1.9031938314437866211 1.7966902256011962891 1.5131660699844360352 1.3557610511779785156 1.2554003000259399414 1.4534189701080322266 1.313975214958190918 1.7533440589904785156 1.821484684944152832 3.4174869060516357422 3.7839539051055908203 3.0942478179931640625 2.1461925506591796875 1.8550347089767456055 1.7441948652267456055 1.3558948040008544922 1.2889002561569213867 1.6950986385345458984 3.1342308521270751953 2.3580946922302246094 1.9740934371948242188 1.6914850473403930664 1.6735862493515014648 2.5186414718627929688 2.8658199310302734375 2.2850871086120605469 1.9411969184875488281 2.0600476264953613281 2.3105692863464355469 2.2493143081665039063 2.4232187271118164063 2.1822080612182617188 
3.3169662952423095703 2.7176451683044433594 1.7166150808334350586 1.925244450569152832 1.5487624406814575195 1 2.28855133056640625 2.4115805625915527344 1.8203519582748413086 1.6592530012130737305 1.5603238344192504883 1.9227738380432128906 2.0839734077453613281 2.3524630069732666016 1.8943066596984863281 1.7693041563034057617 1.7462179660797119141 3.0942480564117431641 1.9960689544677734375 2.1521654129028320313 2.6298737525939941406 2.7788968086242675781 1.8615794181823730469 1.2668746709823608398 1 1.5371824502944946289 2.1542327404022216797 1.924616694450378418 2.0410676002502441406 1.7246565818786621094 1.4622415304183959961 1.8225529193878173828 2.1235907077789306641 2.4939506053924560547 2.9579153060913085938 2.7031788825988769531 2.9999916553497314453 2.6824820041656494141 2.4795682430267333984 2.4822907447814941406 
3.6580464839935302734 2.8439981937408447266 2.8180117607116699219 1.5873850584030151367 1.464968562126159668 1.0835127830505371094 1.4739487171173095703 2.2876801490783691406 1.5648775100708007813 1.756160736083984375 2.0403656959533691406 2.9113342761993408203 4.2388577461242675781 3.3275380134582519531 2.6610987186431884766 2.3434803485870361328 2.7207937240600585938 2.45196533203125 1.8660718202590942383 1.8459848165512084961 2.3399159908294677734 2.2886407375335693359 1.7038673162460327148 1.0866743326187133789 1 1 1.1149369478225708008 1.3181678056716918945 1.6395065784454345703 1.1586312055587768555 1.6840159893035888672 2.7622587680816650391 2.0914444923400878906 2.6960504055023193359 3.2570455074310302734 3.1992716789245605469 3.3439834117889404297 3.1836683750152587891 2.5965473651885986328 2.0050425529479980469 
2.6404316425323486328 2.7630093097686767578 2.2526001930236816406 1.2889400720596313477 1.0970518589019775391 1.3312855958938598633 1.6898319721221923828 1.7853385210037231445 1.609484553337097168 1.4052004814147949219 2.9832110404968261719 3.7903804779052734375 6.218616485595703125 4.0606389045715332031 2.9137718677520751953 3.4725313186645507813 1.8323100805282592773 2.7262504100799560547 2.2532856464385986328 2.1342875957489013672 2.5892114639282226563 3.0182559490203857422 2.7850067615509033203 1.2761313915252685547 1 1 1 1.2747004032135009766 1.2399601936340332031 1 1.7760158777236938477 2.5689892768859863281 2.0050640106201171875 2.4350690841674804688 3.2424387931823730469 3.1078560352325439453 3.1018650531768798828 2.877040863037109375 2.5867307186126708984 2.18910980224609375 
1.7456239461898803711 1.5535707473754882813 1.4599817991256713867 1.5880857706069946289 1.5133332014083862305 1.2788605690002441406 1.5468043088912963867 1.293819427490234375 1.2276463508605957031 1.2476801872253417969 2.2593305110931396484 3.0156359672546386719 6.1800603866577148438 4.9279370307922363281 3.4740672111511230469 3.6368486881256103516 1.9496724605560302734 1.8060930967330932617 1.6406472921371459961 1.9401096105575561523 3.1817014217376708984 7.750301361083984375 5.6110382080078125 1.7009366750717163086 1.282802581787109375 1 1.0764133930206298828 1.1617933511734008789 1.100841522216796875 1.5294623374938964844 1.7765042781829833984 1.623608708381652832 2.0877175331115722656 2.9879631996154785156 2.6127762794494628906 2.8546247482299804688 3.0259425640106201172 2.8318226337432861328 2.6935842037200927734 2.7469835281372070313 
1.8830163478851318359 1.4117875099182128906 1.1125792264938354492 1.8884352445602416992 1.7645483016967773438 1 1.3445160388946533203 1.2054295539855957031 1.1347079277038574219 1.7572234869003295898 2.6375386714935302734 3.1834380626678466797 6.5048890113830566406 4.8018646240234375 3.6973803043365478516 2.9450078010559082031 2.3293025493621826172 1.7021136283874511719 1.9762442111968994141 1.8973152637481689453 2.5520520210266113281 7.3580288887023925781 5.8544306755065917969 2.1338186264038085938 1.2631202936172485352 1.1666195392608642578 1.0345261096954345703 1.6363074779510498047 1.8228075504302978516 1.7630784511566162109 1.6761434078216552734 1.5864744186401367188 1.4052407741546630859 1.98395538330078125 2.4042170047760009766 2.3450484275817871094 2.29183197021484375 2.7371530532836914063 2.7691478729248046875 2.6378500461578369141 
2.3036420345306396484 1.6260758638381958008 1.2117973566055297852 1.4169577360153198242 1.3252257108688354492 1 1.2648935317993164063 1.5517801046371459961 1.3799904584884643555 1.6370997428894042969 3.0563857555389404297 3.4652986526489257813 5.7679653167724609375 3.6927599906921386719 1.9818286895751953125 1.6414253711700439453 1.5386959314346313477 1.376591801643371582 1.6552000045776367188 1.9183509349822998047 1.1618121862411499023 4.1559591293334960938 3.3498837947845458984 1.8451178073883056641 1.0888750553131103516 1.2129399776458740234 1.2978606224060058594 1.5386959314346313477 1.6542665958404541016 1.7622177600860595703 1.5449024438858032227 1.1404188871383666992 1.7121367454528808594 1.5482389926910400391 1.7908165454864501953 1.7768930196762084961 1.9129889011383056641 1.8089195489883422852 2.4913754463195800781 2.0559751987457275391 
4.5848169326782226563 1.5542936325073242188 1 1 1.0508186817169189453 1 1.3156111240386962891 1.8596149682998657227 1.7787185907363891602 1.6414253711700439453 2.464588165283203125 2.8489902019500732422 3.2157151699066162109 2.6426081657409667969 1.6157430410385131836 1.5526225566864013672 1.2240869998931884766 1.3480409383773803711 1.6312119960784912109 1.6119778156280517578 1.2467131614685058594 4.4245877265930175781 2.6968770027160644531 1 1 1.5796427726745605469 1.6607033014297485352 1.802506566047668457 1.6782996654510498047 1.695096135139465332 1.6820175647735595703 1.5275201797485351563 1.8325355052947998047 3.7375571727752685547 5.7551274299621582031 2.0977406501770019531 1.4393640756607055664 1.7770198583602905273 3.3789806365966796875 1.4539674520492553711 
4.2378811836242675781 1.6066049337387084961 1.7499220371246337891 1.2124398946762084961 1 1.0202614068984985352 1.2524142265319824219 1.739422917366027832 1.6008051633834838867 2.2525150775909423828 2.6372861862182617188 2.5359072685241699219 2.1603348255157470703 1.5371824502944946289 1.397442936897277832 1.1125792264938354492 1 1 1.2250429391860961914 1.5974155664443969727 1.4866799116134643555 3.0589873790740966797 1.2595368623733520508 1 1.2167999744415283203 1.00064849853515625 1.3822695016860961914 1.7833158969879150391 1.6927900314331054688 1.893367767333984375 1.8982102870941162109 1.5211645364761352539 1.6040151119232177734 2.8955926895141601563 10.233168601989746094 4.9837779998779296875 1.5232416391372680664 3.4218418598175048828 3.7777562141418457031 2.1022100448608398438 
1.67218017578125 1.6955735683441162109 2.6956629753112792969 1 1 1.3634996414184570313 1.4789292812347412109 2.1108193397521972656 1.8442492485046386719 1.7474790811538696289 1.6229816675186157227 1.3976539373397827148 1.4484016895294189453 1.2878863811492919922 1.204825282096862793 1.0159602165222167969 1 1 1.6404154300689697266 1.7549763917922973633 1.9073020219802856445 1.8209241628646850586 1.147785186767578125 1.2789705991744995117 1 1.0816988945007324219 1.1149369478225708008 1.4167046546936035156 1.8754743337631225586 1.5515371561050415039 1.9300633668899536133 1.5642690658569335938 1.6938800811767578125 1.2243278026580810547 1 1.624533534049987793 3.2627499103546142578 4.6627836227416992188 6.1376795768737792969 5.7528662681579589844 
1.7676161527633666992 1 1 1 1.7966302633285522461 2.1291887760162353516 1.4947661161422729492 2.0460221767425537109 2.2334260940551757813 1.9392621517181396484 1.9039914608001708984 1.4214709997177124023 1.432961583137512207 1.1187075376510620117 1 1 1 1 1.3245935440063476563 1.8162412643432617188 2.8003666400909423828 3.1417584419250488281 2.3822796344757080078 1.8287962675094604492 1.2268537282943725586 1.1411408185958862305 1.4295458793640136719 1.7937512397766113281 1.4792820215225219727 1.8794231414794921875 2.1113443374633789063 2.9004180431365966797 1.7700414657592773438 1.3646913766860961914 1 1.8105891942977905273 2.2789306640625 1.6849783658981323242 3.7336180210113525391 7.1471757888793945313 
1 1 1 1 1.8449612855911254883 1.663010716438293457 1.1918300390243530273 1.8140108585357666016 2.0570752620697021484 2.1467700004577636719 2.2468416690826416016 1 1.2708404064178466797 1.166301727294921875 1 1.3160393238067626953 4.107452392578125 2.7304396629333496094 2.7751891613006591797 2.1274294853210449219 2.8387122154235839844 2.7062323093414306641 3.6761167049407958984 2.7012286186218261719 2.4116160869598388672 1.6453995704650878906 1.5063021183013916016 1.3653399944305419922 1.2901405096054077148 1.5680626630783081055 2.0047421455383300781 3.1575760841369628906 1.6029018163681030273 1.2892721891403198242 1.5449150800704956055 2.0996794700622558594 1.9378716945648193359 1.8132760524749755859 1.2823846340179443359 1 
1 1 1 1.3729491233825683594 1 1.384369969367980957 1 1.8399301767349243164 2.4376289844512939453 2.5472512245178222656 2.5954053401947021484 1.6741824150085449219 1.6221635341644287109 1.5098085403442382813 1.1125792264938354492 1.4480359554290771484 1 4.9118504524230957031 5.9817838668823242188 2.0728504657745361328 2.1402060985565185547 2.8765485286712646484 2.2597675323486328125 3.0013098716735839844 2.4981646537780761719 2.1179964542388916016 2.48253631591796875 2.0596644878387451172 1.5564597845077514648 1.6093224287033081055 1.6259630918502807617 1.8699856996536254883 1.4599817991256713867 1.3905012607574462891 1.5355631113052368164 2.1005289554595947266 1.88349151611328125 1.7463256120681762695 1.2412848472595214844 1 
1.0858337879180908203 2.8857088088989257813 3.7793529033660888672 6.62303924560546875 1.0966751575469970703 1.1176263093948364258 1.0478174686431884766 1.3352566957473754883 1.4792820215225219727 1.9514516592025756836 1.8465732336044311523 2.0572209358215332031 2.5141720771789550781 1.6117031574249267578 1.1406192779541015625 1.2824205160140991211 1 1.0893801450729370117 1.4962220191955566406 1.2398391962051391602 1.5417312383651733398 4.9320878982543945313 4.6025614738464355469 2.11168670654296875 2.1526851654052734375 1.6316419839859008789 2.0846850872039794922 2.4683589935302734375 2.2097082138061523438 1.7968040704727172852 1.8780939579010009766 1.8823063373565673828 1.3855907917022705078 1.3770934343338012695 1.5157321691513061523 1.8045737743377685547 1.2007377147674560547 1.2801455259323120117 1.0128488540649414063 1.2000441551208496094 
3.3720507621765136719 3.4555571079254150391 8.09810638427734375 8.5343065261840820313 1.6284948587417602539 1.1292295455932617188 1.2021939754486083984 1.1984046697616577148 2.0405058860778808594 2.4518194198608398438 2.7655210494995117188 1.814538121223449707 1.5063021183013916016 1.3712011575698852539 1.2631202936172485352 1.2561899423599243164 1.0993783473968505859 1.0782521963119506836 1.1105260848999023438 1.1751500368118286133 1.0945107936859130859 5.3412089347839355469 2.4352037906646728516 1.7695449590682983398 1.5022351741790771484 1.4529205560684204102 1.725977778434753418 2.1271879673004150391 2.3551816940307617188 2.5268909931182861328 2.2254631519317626953 1.3658252954483032227 1.2561899423599243164 1.4826571941375732422 1.1327195167541503906 1.135592341423034668 1.5024421215057373047 1.4456057548522949219 1.2459996938705444336 1.581165313720703125 
3.0191006660461425781 5.937435150146484375 9.151149749755859375 5.4312725067138671875 1.2121844291687011719 1.2332597970962524414 1.2983962297439575195 1.5950828790664672852 2.2303714752197265625 2.5950608253479003906 2.1320750713348388672 1.6114989519119262695 1.3750611543655395508 1.3146318197250366211 1.1722296476364135742 1.231055140495300293 1.2794635295867919922 1.2821989059448242188 1.3298492431640625 1.2590639591217041016 1.2486782073974609375 1.3890160322189331055 1.2584040164947509766 1.2866151332855224609 1.2233945131301879883 1.3391082286834716797 1.8942054510116577148 1.7395988702774047852 2.1401019096374511719 2.2382862567901611328 2.0097074508666992188 1.3347032070159912109 1.367341160774230957 1.2894152402877807617 1.3008483648300170898 1.2550145387649536133 1.7201105356216430664 2.2139101028442382813 1.8332140445709228516 1.3908109664916992188 
3.637176513671875 7.3372530937194824219 8.716796875 3.6100709438323974609 1.3522846698760986328 1.3396854400634765625 1.3789211511611938477 1.4561218023300170898 1.6182429790496826172 1.5463817119598388672 1.4616488218307495117 1.342347264289855957 1.5411211252212524414 1.3748965263366699219 1.2740472555160522461 1.3172029256820678711 1.2967160940170288086 1.3766597509384155273 1.3009814023971557617 2.0034875869750976563 1.6323330402374267578 1.5084961652755737305 1.2966421842575073242 1.4638417959213256836 1.4680694341659545898 1.3251110315322875977 1.74207305908203125 1.7864345312118530273 1.8108997344970703125 2.0769274234771728516 1.7346953153610229492 1.2949669361114501953 1.3127827644348144531 1.3230520486831665039 1.448969721794128418 1.8935834169387817383 2.063953399658203125 2.6713137626647949219 2.4214265346527099609 1.5372576713562011719 
2.7751514911651611328 6.4781088829040527344 4.2344269752502441406 1.3842865228652954102 1.3689410686492919922 1.371502995491027832 1.8698930740356445313 1.3326300382614135742 1.363024592399597168 1.323276519775390625 1.3585122823715209961 1.4232059717178344727 1.4160822629928588867 1.7456239461898803711 1.3866412639617919922 1.3975244760513305664 1.389067530632019043 1.3958579301834106445 1.9891436100006103516 2.1177816390991210938 1.9986479282379150391 1.5477918386459350586 1.3494640588760375977 1.7610640525817871094 1.436570286750793457 1.7070237398147583008 1.7126973867416381836 1.7275100946426391602 1.4246435165405273438 1.7645983695983886719 1.6824216842651367188 1.4117034673690795898 1.4395631551742553711 1.4167679548263549805 1.4862040281295776367 1.8102250099182128906 2.2568008899688720703 2.4787528514862060547 2.0626127719879150391 2.0091254711151123047 
1.5738202333450317383 2.3424515724182128906 1.9709511995315551758 1.3950656652450561523 1.5360860824584960938 1.4356478452682495117 3.793277740478515625 3.3129177093505859375 1.4950615167617797852 1.8202651739120483398 1.6232634782791137695 1.7222522497177124023 1.4678062200546264648 1.5516414642333984375 2.0685110092163085938 1.6059818267822265625 1.452261805534362793 1.5293352603912353516 1.6729111671447753906 2.7098925113677978516 2.4409487247467041016 1.8440835475921630859 1.5987811088562011719 1.4839334487915039063 1.6197885274887084961 2.8309845924377441406 2.510219573974609375 1.4840203523635864258 1.498244166374206543 1.4853960275650024414 1.5256023406982421875 1.5912623405456542969 1.4653553962707519531 1.7979178428649902344 1.9920618534088134766 2.3600602149963378906 3.0642981529235839844 3.2483150959014892578 2.6217913627624511719 2.6229655742645263672 
1.5407183170318603516 1.5135303735733032227 1.4814476966857910156 1.5332807302474975586 1.5428373813629150391 1.6420295238494873047 2.0393183231353759766 4.7471966743469238281 3.4269433021545410156 2.3173112869262695313 2.1855204105377197266 2.3919813632965087891 2.2857744693756103516 1.964017033576965332 1.946766972541809082 1.9274654388427734375 1.869421839714050293 2.0714426040649414063 2.1162524223327636719 2.2700443267822265625 3.0651655197143554688 2.3265988826751708984 1.6478459835052490234 1.8086445331573486328 3.0403211116790771484 3.3570287227630615234 2.3110401630401611328 1.5761818885803222656 1.5868927240371704102 1.5470665693283081055 1.6318705081939697266 1.5796427726745605469 1.7613606452941894531 1.9207233190536499023 2.2480137348175048828 2.6683971881866455078 2.9812343120574951172 3.8273856639862060547 2.9828395843505859375 2.8167130947113037109 
1.667107701301574707 1.6178600788116455078 1.5703129768371582031 1.6268613338470458984 1.6143925189971923828 1.6340254545211791992 1.7411425113677978516 1.6164211034774780273 3.5130276679992675781 5.9347195625305175781 2.6288776397705078125 2.2762606143951416016 2.92767333984375 2.9048752784729003906 2.6695263385772705078 2.7815294265747070313 2.4685471057891845703 2.6842560768127441406 2.2893781661987304688 2.5430426597595214844 3.1466562747955322266 2.8459711074829101563 2.1025700569152832031 1.8775579929351806641 2.3183100223541259766 2.0534238815307617188 1.7687841653823852539 1.6630629301071166992 1.6478726863861083984 1.6048672199249267578 1.6115556955337524414 1.6669132709503173828 1.6875704526901245117 1.8406221866607666016 2.4871094226837158203 2.9553971290588378906 3.3806467056274414063 3.4131739139556884766 3.1007070541381835938 3.5039894580841064453 
1.7762577533721923828 2.0461530685424804688 2.4301111698150634766 2.0746076107025146484 1.9579628705978393555 1.7394931316375732422 1.7594536542892456055 1.8890054225921630859 3.2184484004974365234 4.6877355575561523438 1.7937911748886108398 2.7323844432830810547 3.7609169483184814453 3.1239848136901855469 3.0799810886383056641 2.6757409572601318359 2.8123955726623535156 3.5384879112243652344 2.6991586685180664063 2.7460010051727294922 2.9757707118988037109 2.7066881656646728516 2.2562916278839111328 1.7490470409393310547 2.3284246921539306641 1.7679201364517211914 1.6408103704452514648 1.7956558465957641602 1.7071923017501831055 1.7080053091049194336 1.7046891450881958008 1.7477693557739257813 1.7253280878067016602 1.7599693536758422852 1.8586956262588500977 2.2515892982482910156 2.7065255641937255859 3.0187311172485351563 3.3079335689544677734 3.2529518604278564453 
3.2086958885192871094 3.8571641445159912109 4.1846380233764648438 2.7176706790924072266 2.7534325122833251953 1.784890294075012207 1.8012332916259765625 1.8843749761581420898 4.1994023323059082031 3.7407233715057373047 2.1224346160888671875 3.9712252616882324219 7.1542949676513671875 4.9669094085693359375 3.6833508014678955078 2.7936472892761230469 2.9242470264434814453 3.0973410606384277344 2.5637199878692626953 2.6552693843841552734 2.6413211822509765625 2.3516249656677246094 1.8271628618240356445 1.7838944196701049805 1.7977712154388427734 1.8408017158508300781 1.8274120092391967773 1.9451911449432373047 1.7630954980850219727 1.8222843408584594727 1.8104950189590454102 1.8297849893569946289 1.7824718952178955078 1.7749446630477905273 1.8405247926712036133 2.3653280735015869141 1.9806751012802124023 3.5779423713684082031 3.2393093109130859375 3.6517384052276611328 
3.1802570819854736328 3.5078914165496826172 3.6116709709167480469 2.9934928417205810547 1.9175941944122314453 1.950261235237121582 1.9190349578857421875 1.9385812282562255859 2.5334787368774414063 2.5501313209533691406 2.1186199188232421875 2.3531899452209472656 4.0907702445983886719 4.1876773834228515625 3.1421382427215576172 3.2960405349731445313 3.0769851207733154297 2.5509784221649169922 2.0445499420166015625 2.1841800212860107422 1.8457570075988769531 1.9145339727401733398 2.3432259559631347656 1.9108338356018066406 1.9067146778106689453 1.8830425739288330078 1.9217541217803955078 1.9359352588653564453 1.8894704580307006836 1.9625837802886962891 1.9420720338821411133 1.9849219322204589844 1.9402946233749389648 1.9077076911926269531 1.9098284244537353516 1.8696887493133544922 2.7943711280822753906 4.0974898338317871094 4.0297451019287109375 2.9638469219207763672 
3.3108284473419189453 3.7157762050628662109 3.1324698925018310547 2.5210602283477783203 2.1671807765960693359 3.5639908313751220703 2.3951966762542724609 1.985983729362487793 1.9349069595336914063 2.0982594490051269531 2.0795085430145263672 2.1522715091705322266 3.3687179088592529297 4.5710859298706054688 4.3559050559997558594 3.3287527561187744141 2.5978329181671142578 2.0682141780853271484 1.9705623388290405273 2.0644154548645019531 1.9673299789428710938 1.9736149311065673828 2.4609222412109375 2.0068135261535644531 2.0347397327423095703 2.0549185276031494141 2.0318541526794433594 2.1542639732360839844 1.9710775613784790039 1.9608147144317626953 1.9946773052215576172 1.9695703983306884766 1.9890400171279907227 1.9976531267166137695 1.9966329336166381836 2.0373871326446533203 2.3881404399871826172 2.9698584079742431641 2.7991266250610351563 5.4464120864868164063 
2.9386355876922607422 3.1124575138092041016 3.2563905715942382813 2.0579714775085449219 2.06670379638671875 3.6080873012542724609 2.8420858383178710938 2.7877478599548339844 2.1460700035095214844 2.2624263763427734375 2.1626360416412353516 2.2811563014984130859 2.2595181465148925781 3.7695822715759277344 3.4464673995971679688 3.1805217266082763672 2.2946164608001708984 2.0223619937896728516 2.2438611984252929688 2.2647800445556640625 2.0878810882568359375 2.1054112911224365234 2.1002476215362548828 2.1772148609161376953 2.0548834800720214844 2.0705676078796386719 2.0490005016326904297 2.1815330982208251953 2.1957495212554931641 2.1137783527374267578 2.0867502689361572266 2.0917494297027587891 2.0573716163635253906 2.1062445640563964844 2.0569508075714111328 2.0663268566131591797 2.1346349716186523438 2.1073038578033447266 2.5835900306701660156 3.6937701702117919922 
2.7115566730499267578 2.175018310546875 2.5873715877532958984 3.0618844032287597656 2.1511926651000976563 2.1778631210327148438 2.6271913051605224609 3.0317046642303466797 2.2698960304260253906 2.24072265625 3.0970766544342041016 3.3933892250061035156 4.8662610054016113281 5.1305665969848632813 5.6965360641479492188 2.9938573837280273438 2.5282313823699951172 2.1609261035919189453 2.8124356269836425781 2.4880421161651611328 2.1846854686737060547 2.1044452190399169922 2.1415276527404785156 2.1759953498840332031 2.1684007644653320313 2.1993672847747802734 2.1495633125305175781 2.0517151355743408203 2.203357696533203125 2.1671233177185058594 2.1718602180480957031 2.1499474048614501953 2.0849025249481201172 2.2078719139099121094 2.0786604881286621094 2.1688992977142333984 2.154056549072265625 2.0822322368621826172 2.2113783359527587891 2.9060714244842529297 
2.4275176525115966797 2.2062387466430664063 2.2311336994171142578 2.2182428836822509766 2.2453043460845947266 2.2555208206176757813 2.2778036594390869141 2.7317292690277099609 2.2937695980072021484 2.2579958438873291016 2.9276688098907470703 3.1889741420745849609 4.5868425369262695313 4.5382924079895019531 6.5722908973693847656 4.5143308639526367188 4.5273213386535644531 2.4231176376342773438 2.4568417072296142578 2.4378666877746582031 2.2006444931030273438 2.2321028709411621094 2.2794222831726074219 2.2156882286071777344 5.018207550048828125 2.2214539051055908203 6.8721408843994140625 3.1182119846343994141 2.2497041225433349609 2.2264034748077392578 2.2684304714202880859 2.2081840038299560547 2.2336757183074951172 2.2386488914489746094 2.2539064884185791016 2.2063248157501220703 2.2677211761474609375 2.2542412281036376953 2.3194978237152099609 2.9595732688903808594 
2.3359980583190917969 2.3387989997863769531 2.3818974494934082031 2.2878501415252685547 2.3717517852783203125 2.3734862804412841797 2.3286390304565429688 2.2954289913177490234 2.3626859188079833984 2.3597631454467773438 2.4091427326202392578 2.28571319580078125 2.8111608028411865234 3.2300684452056884766 7.6759366989135742188 11.491571426391601563 4.0309233665466308594 2.5556437969207763672 2.2962372303009033203 2.3402822017669677734 2.2808742523193359375 2.3271820545196533203 2.3083970546722412109 2.3284103870391845703 2.8719565868377685547 4.8086037635803222656 11.98732757568359375 6.5670633316040039063 2.8262150287628173828 2.3668420314788818359 2.3395135402679443359 2.3068830966949462891 2.3607890605926513672 2.4172329902648925781 2.3680796623229980469 2.3659381866455078125 2.3393437862396240234 2.3316950798034667969 2.6402666568756103516 3.1964604854583740234 
2.4204564094543457031 2.4838979244232177734 2.4310724735260009766 2.3380672931671142578 2.3922576904296875 2.3980245590209960938 2.4600615501403808594 2.3997287750244140625 2.4066879749298095703 2.5084488391876220703 2.4624118804931640625 2.4625642299652099609 2.7869830131530761719 3.8501043319702148438 10.329310417175292969 7.5741629600524902344 6.0909161567687988281 5.1849274635314941406 2.4165949821472167969 2.4360270500183105469 2.3491282463073730469 2.4151959419250488281 2.4337334632873535156 2.3670785427093505859 3.9579100608825683594 7.3037562370300292969 12.1360931396484375 11.250085830688476563 2.3814141750335693359 2.3908634185791015625 5.15032196044921875 2.4036381244659423828 2.3771610260009765625 2.393218994140625 2.3847286701202392578 2.3790152072906494141 2.4381673336029052734 2.4082937240600585938 2.4842569828033447266 2.7525358200073242188 
