ncols        40
nrows        40
xllcorner    -0.000000000000
yllcorner    0.000000000000
cellsize     5.000000000000
NODATA_value nan
5.2267026901245117188 4.604473114013671875 4.2470684051513671875 3.5722301006317138672 4.0047454833984375 4.049442291259765625 3.5163695812225341797 3.8157048225402832031 3.9753262996673583984 3.7428483963012695313 3.3134877681732177734 2.928905487060546875 3.3020160198211669922 3.5359597206115722656 3.7171938419342041016 3.4652578830718994141 2.7829303741455078125 2.7304632663726806641 2.7265272140502929688 2.7090671062469482422 3.1581943035125732422 3.7940969467163085938 3.8819129467010498047 3.1544027328491210938 2.6580579280853271484 2.7107198238372802734 2.6637117862701416016 2.6996333599090576172 2.8355481624603271484 4.2979483604431152344 5.642101287841796875 5.2375240325927734375 5.08642578125 4.7065510749816894531 3.1648588180541992188 2.9755816459655761719 3.0119631290435791016 3.2876610755920410156 3.7601766586303710938 4.153064727783203125 
4.6801862716674804688 4.3920373916625976563 4.4664583206176757813 4.1918063163757324219 4.2571301460266113281 3.7793443202972412109 3.3081815242767333984 3.7431848049163818359 3.8876492977142333984 3.6385533809661865234 3.3598871231079101563 3.6856985092163085938 3.5827932357788085938 3.6970269680023193359 4.9330730438232421875 5.8822979927062988281 4.1305084228515625 2.684108734130859375 2.6134598255157470703 2.5626597404479980469 3.0684719085693359375 3.5608658790588378906 3.2975552082061767578 2.8098421096801757813 2.7178819179534912109 2.7310183048248291016 2.6251275539398193359 2.6877756118774414063 2.6885135173797607422 3.8609158992767333984 3.9626128673553466797 4.4824776649475097656 4.0712785720825195313 3.3692083358764648438 2.9585137367248535156 2.8342969417572021484 3.3362686634063720703 3.5271508693695068359 3.5796406269073486328 4.1933679580688476563 
4.4045901298522949219 4.827983856201171875 4.4753894805908203125 4.4012088775634765625 4.4650888442993164063 4.1843404769897460938 3.4782891273498535156 3.1906220912933349609 2.9834113121032714844 2.9330606460571289063 3.3063914775848388672 3.3614072799682617188 4.3151464462280273438 4.3545660972595214844 5.4198546409606933594 5.6516485214233398438 5.3576955795288085938 3.597583770751953125 4.0011539459228515625 3.628688812255859375 2.9523975849151611328 3.2345037460327148438 3.1014235019683837891 2.6957395076751708984 2.4812884330749511719 2.6179537773132324219 2.5322320461273193359 2.5651981830596923828 2.9200561046600341797 3.3783488273620605469 3.5710866451263427734 4.1189274787902832031 3.4208078384399414063 3.0802912712097167969 3.1737806797027587891 3.4665217399597167969 3.7520890235900878906 3.9515442848205566406 3.9109344482421875 4.2634291648864746094 
3.8544595241546630859 4.3325223922729492188 4.4249396324157714844 4.6645054817199707031 4.7310400009155273438 4.3025879859924316406 3.5299322605133056641 2.4802815914154052734 2.5689220428466796875 2.8609406948089599609 3.1149938106536865234 3.0824573040008544922 3.8297994136810302734 4.4112563133239746094 4.8604516983032226563 5.13098907470703125 4.1776056289672851563 4.5316033363342285156 4.5650000572204589844 3.5873093605041503906 3.4970142841339111328 3.4263608455657958984 2.9139657020568847656 3.1074030399322509766 2.8450465202331542969 2.5604457855224609375 2.5154430866241455078 2.4721024036407470703 2.4693808555603027344 2.5983994007110595703 2.6633603572845458984 2.7891829013824462891 2.7299478054046630859 3.0307002067565917969 2.9862430095672607422 3.112579345703125 3.3166048526763916016 3.5389046669006347656 3.7930402755737304688 3.6278550624847412109 
3.9041180610656738281 3.9639542102813720703 4.1532154083251953125 4.5257697105407714844 4.4990735054016113281 4.1299786567687988281 3.3466374874114990234 2.3759262561798095703 2.3921356201171875 2.3615975379943847656 2.5335457324981689453 3.1392233371734619141 3.7937221527099609375 4.1235594749450683594 4.14220428466796875 4.8266820907592773438 3.7663140296936035156 4.65038299560546875 4.7680668830871582031 3.725315093994140625 3.4651815891265869141 2.7185354232788085938 2.8150496482849121094 2.6074037551879882813 2.3521146774291992188 2.6574699878692626953 2.4986166954040527344 2.3017423152923583984 2.3876044750213623047 2.4237487316131591797 2.4946560859680175781 2.4112160205841064453 2.3665206432342529297 2.6000528335571289063 2.8768486976623535156 2.7290558815002441406 2.6331303119659423828 3.0885286331176757813 3.0982110500335693359 2.7825629711151123047 
4.4807801246643066406 4.0822110176086425781 3.7457540035247802734 3.6451125144958496094 4.1807427406311035156 4.000370025634765625 3.3161156177520751953 2.5835709571838378906 2.3517677783966064453 2.3268423080444335938 2.41289520263671875 2.9345695972442626953 3.4897058010101318359 3.448486328125 4.1384935379028320313 3.9116864204406738281 3.7256870269775390625 3.5404119491577148438 4.3693552017211914063 4.1032247543334960938 2.9289839267730712891 2.5879943370819091797 2.3226735591888427734 2.3047814369201660156 2.3230607509613037109 2.2496345043182373047 2.2926967144012451172 2.3060367107391357422 2.3164486885070800781 2.3996548652648925781 2.2685184478759765625 2.2483603954315185547 2.3527822494506835938 2.283538818359375 2.2835228443145751953 2.4384152889251708984 2.3317396640777587891 2.6534035205841064453 2.7848482131958007813 3.0139822959899902344 
3.8702919483184814453 4.0760555267333984375 3.4582030773162841797 3.9084064960479736328 3.6938159465789794922 3.7049231529235839844 3.1044077873229980469 2.3589117527008056641 2.2435488700866699219 2.2317891120910644531 2.2506697177886962891 3.0323758125305175781 3.6142852306365966797 3.864727020263671875 4.0933632850646972656 3.7488074302673339844 4.0237784385681152344 3.8276972770690917969 4.2387247085571289063 3.5587737560272216797 2.7861263751983642578 2.5290660858154296875 2.2307760715484619141 2.2804262638092041016 2.3121874332427978516 2.2895472049713134766 2.2991375923156738281 2.3465268611907958984 2.1649796962738037109 2.1551160812377929688 2.2634956836700439453 2.3194146156311035156 2.3034431934356689453 2.1853482723236083984 2.1450984477996826172 2.1809341907501220703 2.2240953445434570313 2.3598172664642333984 2.9647953510284423828 3.4570705890655517578 
3.57144927978515625 3.6546189785003662109 3.6179425716400146484 3.3813884258270263672 3.3848073482513427734 3.5834646224975585938 3.2079446315765380859 2.3252909183502197266 2.1108922958374023438 2.1311168670654296875 2.2302298545837402344 3.1213529109954833984 3.6770172119140625 4.0635161399841308594 4.2051644325256347656 3.9587497711181640625 4.3309588432312011719 3.7845289707183837891 4.8464002609252929688 4.448223114013671875 3.3552725315093994141 3.1110999584197998047 3.1075398921966552734 2.3648722171783447266 2.2637965679168701172 2.0591211318969726563 2.1046388149261474609 2.1775288581848144531 2.1509375572204589844 2.1376271247863769531 2.2369806766510009766 2.0872128009796142578 2.1632404327392578125 2.2714123725891113281 2.0481312274932861328 2.2055993080139160156 2.2559983730316162109 2.6022286415100097656 3.3348414897918701172 3.6352274417877197266 
3.2654602527618408203 2.7882106304168701172 3.6871461868286132813 3.1405344009399414063 2.9060299396514892578 2.8535187244415283203 2.8952934741973876953 2.8793230056762695313 2.4859995841979980469 2.4932079315185546875 2.4229931831359863281 3.1255927085876464844 3.0459516048431396484 3.5222148895263671875 3.9907305240631103516 4.4525666236877441406 5.2367653846740722656 4.8543443679809570313 5.1801371574401855469 5.1477723121643066406 4.110996246337890625 2.6258938312530517578 2.3168101310729980469 2.8594415187835693359 2.9264357089996337891 2.7682225704193115234 2.0130102634429931641 2.0431725978851318359 2.0259811878204345703 2.1124720573425292969 2.1059615612030029297 2.0504279136657714844 2.3362841606140136719 2.2523972988128662109 2.0447201728820800781 2.1767375469207763672 2.0908377170562744141 2.1570305824279785156 2.5790464878082275391 2.9877102375030517578 
3.0941882133483886719 2.7938983440399169922 3.35691070556640625 3.0608952045440673828 2.7426419258117675781 2.3744029998779296875 2.0084290504455566406 2.0631425380706787109 2.4590864181518554688 2.6896228790283203125 3.0364894866943359375 3.2522475719451904297 2.4064192771911621094 3.0540690422058105469 3.4736101627349853516 3.8760206699371337891 4.9672551155090332031 4.9800577163696289063 4.9607210159301757813 6.1093044281005859375 4.3542032241821289063 2.5930674076080322266 2.792766571044921875 3.0077021121978759766 3.0317671298980712891 2.1166789531707763672 2.3901643753051757813 2.1931004524230957031 1.9560836553573608398 2.0146670341491699219 2.0275430679321289063 1.9502173662185668945 1.9658972024917602539 1.944502711296081543 2.0254662036895751953 1.9574798345565795898 1.9815694093704223633 2.2948703765869140625 2.271442413330078125 2.5371656417846679688 
4.0423836708068847656 4.035854339599609375 3.8541078567504882813 3.1656939983367919922 2.4555945396423339844 1.9343156814575195313 1.938873291015625 2.180591583251953125 2.2309346199035644531 2.2044315338134765625 2.5292148590087890625 2.3100273609161376953 2.0858769416809082031 2.6349561214447021484 2.7623770236968994141 3.2706036567687988281 3.3326430320739746094 4.8670783042907714844 5.1923403739929199219 4.4119992256164550781 3.1658544540405273438 2.0065562725067138672 1.834530949592590332 2.1448481082916259766 2.7036402225494384766 2.8941247463226318359 3.9051108360290527344 2.4664702415466308594 1.8965648412704467773 1.8249123096466064453 1.8285918235778808594 1.9153189659118652344 2.0245847702026367188 1.9308580160140991211 1.8989319801330566406 1.9265640974044799805 1.8594819307327270508 2.2415015697479248047 2.3515477180480957031 2.7307364940643310547 
4.2289533615112304688 4.7240271568298339844 3.7145967483520507813 3.1370730400085449219 2.6454143524169921875 1.9475287199020385742 1.9897438287734985352 2.0015692710876464844 1.9121133089065551758 1.8084902763366699219 1.7649252414703369141 1.8236088752746582031 2.4814054965972900391 2.8276553153991699219 2.1562664508819580078 2.4878294467926025391 3.1547057628631591797 3.8522601127624511719 2.5989143848419189453 2.8753228187561035156 2.9151277542114257813 2.2338285446166992188 1.7210144996643066406 1.8453295230865478516 2.3855969905853271484 3.0875132083892822266 3.1362187862396240234 2.2323937416076660156 1.8687293529510498047 1.7339673042297363281 1.8565164804458618164 1.8462450504302978516 1.7901211977005004883 1.8501700162887573242 2.055789947509765625 1.9217846393585205078 2.0046682357788085938 1.8622505664825439453 2.2739210128784179688 2.9783442020416259766 
3.9321348667144775391 3.9947521686553955078 4.1308655738830566406 2.6027355194091796875 2.3970313072204589844 2.0858013629913330078 1.6835874319076538086 1.7433255910873413086 1.6305097341537475586 2.131099700927734375 2.4588630199432373047 2.6034872531890869141 4.2909445762634277344 3.60611724853515625 2.134552001953125 2.0923960208892822266 2.7647237777709960938 1.9777605533599853516 2.0816516876220703125 2.3759958744049072266 2.4461715221405029297 1.902825474739074707 1.6764130592346191406 1.5660744905471801758 2.5886416435241699219 2.7119586467742919922 1.9968677759170532227 1.8448163270950317383 1.6892805099487304688 1.5981791019439697266 2.4683029651641845703 2.9428310394287109375 1.8608688116073608398 1.8473711013793945313 1.9164099693298339844 1.9725720882415771484 1.951186060905456543 1.9447904825210571289 1.9696668386459350586 2.2173349857330322266 
3.3625235557556152344 3.4564969539642333984 3.0819551944732666016 1.9744187593460083008 1.6431311368942260742 1.620589137077331543 1.751010894775390625 1.6523163318634033203 1.7044904232025146484 1.6881755590438842773 3.2038502693176269531 3.8034906387329101563 6.4955134391784667969 4.2365612983703613281 2.3887374401092529297 3.1832988262176513672 1.6071351766586303711 1.7724062204360961914 1.7178285121917724609 1.7317789793014526367 1.8412270545959472656 1.6901428699493408203 1.6724323034286499023 1.6588008403778076172 2.1036310195922851563 2.7607812881469726563 2.1488976478576660156 1.9921679496765136719 1.9692065715789794922 1.9317737817764282227 2.5531976222991943359 2.8085827827453613281 1.8604966402053833008 1.6564911603927612305 1.8768756389617919922 1.8415706157684326172 1.8065247535705566406 2.0333495140075683594 1.9993966817855834961 2.2054302692413330078 
1.8781379461288452148 2.1154692173004150391 2.0533680915832519531 1.5678312778472900391 1.4234702587127685547 1.5271984338760375977 1.5617095232009887695 1.5552873611450195313 1.4694919586181640625 1.8017705678939819336 2.4654397964477539063 3.1763021945953369141 6.377918243408203125 4.9536824226379394531 3.1738922595977783203 3.6535322666168212891 1.7967376708984375 1.523295283317565918 1.5141121149063110352 1.6720921993255615234 1.7214603424072265625 1.6556047201156616211 1.4942631721496582031 1.6101272106170654297 1.5626922845840454102 2.6290569305419921875 2.6071486473083496094 2.1827833652496337891 1.5073003768920898438 1.8522725105285644531 2.2985980510711669922 1.973202824592590332 1.6108832359313964844 1.7836638689041137695 1.5456258058547973633 1.7623293399810791016 1.8235013484954833984 1.6971035003662109375 1.8650014400482177734 2.5147416591644287109 
1.5555231571197509766 1.4511224031448364258 1.4734029769897460938 1.5014669895172119141 1.4633464813232421875 1.4687833786010742188 1.4971932172775268555 1.6402277946472167969 1.5611476898193359375 2.4438054561614990234 2.9754428863525390625 3.2914223670959472656 7.1595935821533203125 5.1067547798156738281 3.706958770751953125 3.0394389629364013672 2.3340814113616943359 1.5917440652847290039 1.4873723983764648438 1.4847431182861328125 1.3837752342224121094 1.4227795600891113281 1.4907352924346923828 1.5375676155090332031 1.4126715660095214844 2.7576701641082763672 3.0183160305023193359 2.7005641460418701172 2.1133122444152832031 1.7355812788009643555 1.4870411157608032227 1.4856939315795898438 1.4730486869812011719 1.5097182989120483398 1.9979252815246582031 2.1282331943511962891 2.0640053749084472656 1.9286329746246337891 1.59572601318359375 1.8302558660507202148 
1.3152097463607788086 1.3277448415756225586 1.3021410703659057617 1.3676513433456420898 1.3643281459808349609 1.4505188465118408203 1.5688710212707519531 2.1161973476409912109 2.0078794956207275391 2.4093310832977294922 3.7909879684448242188 4.01570892333984375 6.4479923248291015625 3.7147259712219238281 2.1266369819641113281 1.6544594764709472656 1.7762659788131713867 1.3529585599899291992 1.3624502420425415039 1.2875277996063232422 1.2343056201934814453 1.4742184877395629883 1.4539773464202880859 1.2985972166061401367 1.4204859733581542969 2.0863261222839355469 2.6674551963806152344 2.9432191848754882813 2.1446311473846435547 1.5794135332107543945 1.4353129863739013672 1.3588249683380126953 2.1001639366149902344 2.0639824867248535156 2.0387196540832519531 1.8641437292098999023 1.862479090690612793 1.507744908332824707 1.5225712060928344727 1.4658670425415039063 
1.3832346200942993164 1.3164889812469482422 1.7934099435806274414 1.8521027565002441406 1.6273736953735351563 1.3641158342361450195 1.6743334531784057617 2.2897040843963623047 2.4617407321929931641 2.7904841899871826172 3.6482350826263427734 3.5265407562255859375 3.6207370758056640625 2.7562873363494873047 2.1544017791748046875 2.1008741855621337891 1.6285960674285888672 1.5292056798934936523 1.2390952110290527344 1.2640117406845092773 1.3073666095733642578 1.2440690994262695313 1.2858887910842895508 1.4233834743499755859 1.5406906604766845703 1.9041751623153686523 2.4284551143646240234 2.9743316173553466797 2.5134100914001464844 1.8068834543228149414 1.446909785270690918 1.5716458559036254883 2.2194945812225341797 2.13751220703125 1.8217489719390869141 1.2274200916290283203 1.3255512714385986328 1.5229636430740356445 1.0852439403533935547 1.2007688283920288086 
1.1769469976425170898 1.1158846616744995117 1.9589736461639404297 2.0860288143157958984 2.251800537109375 2.1304678916931152344 2.4356045722961425781 2.5295693874359130859 2.7992351055145263672 3.7156081199645996094 3.8386132717132568359 3.7396235466003417969 2.9148461818695068359 1.8190631866455078125 2.3634696006774902344 2.0566120147705078125 1.6323087215423583984 1.6222006082534790039 1.2001107931137084961 1.2368570566177368164 1.1796708106994628906 1.2021719217300415039 1.1813569068908691406 1.3825114965438842773 2.0093967914581298828 1.4669175148010253906 1.885272979736328125 2.5190572738647460938 2.5341930389404296875 2.3787739276885986328 1.7543338537216186523 1.8052247762680053711 2.1110475063323974609 1.6652463674545288086 1.2184531688690185547 1.1585628986358642578 1.1064163446426391602 1.0674921274185180664 1.0929279327392578125 1.2135041952133178711 
1.1528586149215698242 1.0686696767807006836 1.510295867919921875 2.2653367519378662109 2.7727246284484863281 3.2061698436737060547 2.8367116451263427734 3.1994378566741943359 3.0683264732360839844 3.2472491264343261719 2.9949653148651123047 2.2769200801849365234 2.4327280521392822266 1.8564685583114624023 2.2320859432220458984 2.1481902599334716797 2.0413458347320556641 1.7524346113204956055 1.1704509258270263672 1.1666915416717529297 1.2161732912063598633 1.1566356420516967773 1.0998095273971557617 1.1347980499267578125 1.3629919290542602539 1.639975428581237793 1.6355589628219604492 2.2465522289276123047 2.9852249622344970703 2.3115949630737304688 2.262664794921875 2.1741290092468261719 2.0121092796325683594 1.4061883687973022461 1.2546328306198120117 1.009375452995300293 1.0849807262420654297 1.1917300224304199219 1.0777677297592163086 1.0612366199493408203 
1.379588007926940918 1.4510730504989624023 1.4539412260055541992 1.9690389633178710938 2.0401713848114013672 2.7127611637115478516 2.2773358821868896484 3.1672599315643310547 3.4036810398101806641 3.2680838108062744141 3.180385589599609375 2.2776980400085449219 1.7593861818313598633 1 1.8437626361846923828 2.0037496089935302734 2.0036411285400390625 1.3929097652435302734 1 1.0433810949325561523 1.236861109733581543 1.3909528255462646484 1.2098824977874755859 1.0706926584243774414 1 1.3217322826385498047 1.8746097087860107422 2.8514499664306640625 2.7279448509216308594 2.9591724872589111328 2.7645196914672851563 3.4368827342987060547 2.1378424167633056641 1.4404683113098144531 1.0472042560577392578 1.012682795524597168 1.0188611745834350586 1.0787969827651977539 1 1.0556970834732055664 
1.67024993896484375 2.0913438796997070313 1.878428339958190918 1.584817051887512207 1.6016166210174560547 2.0726761817932128906 1.9126193523406982422 2.8872394561767578125 3.8707878589630126953 3.7141871452331542969 3.3430650234222412109 2.0104229450225830078 1.4337880611419677734 1.2708349227905273438 2.0865502357482910156 1.864464879035949707 1.6224569082260131836 1 1 1 1.1694628000259399414 1.228949427604675293 1.2585690021514892578 1.034389495849609375 1.041392207145690918 1.3293051719665527344 1.6872266530990600586 2.2336812019348144531 2.4055743217468261719 2.7371146678924560547 3.0993165969848632813 4.5994215011596679688 2.2130205631256103516 1.4262953996658325195 1.0429861545562744141 1.0220663547515869141 1.0813596248626708984 1 1 1.7699246406555175781 
1.6831308603286743164 1.9816789627075195313 2.1972241401672363281 1.6029108762741088867 1.7784932851791381836 2.2056834697723388672 1.695196986198425293 2.5461511611938476563 3.7742609977722167969 4.3447885513305664063 4.1065492630004882813 2.598270416259765625 2.0067236423492431641 1.9105042219161987305 2.5162572860717773438 1.8965514898300170898 1.4724485874176025391 1 1 1 1 1 1 1.0680444240570068359 1.0926761627197265625 1.4954226016998291016 1.8575804233551025391 2.0367000102996826172 1.9972046613693237305 2.68608856201171875 2.8729810714721679688 3.3030397891998291016 2.1803967952728271484 1.6520878076553344727 1 1 1 1 1 1.6197783946990966797 
2.4064266681671142578 2.0371847152709960938 2.1234819889068603516 2.1634948253631591797 1.9267866611480712891 1.4991774559020996094 1.7865307331085205078 2.0703530311584472656 2.1827843189239501953 3.5118873119354248047 3.5840890407562255859 3.4802064895629882813 3.1056406497955322266 2.7267749309539794922 2.4741685390472412109 1.9302247762680053711 1.1569422483444213867 1.0447325706481933594 1 1 1.1126251220703125 1 1 1 1 1.2967381477355957031 1.7731059789657592773 2.0958652496337890625 2.381168365478515625 2.08222198486328125 2.5922477245330810547 2.6890652179718017578 2.18357086181640625 1.8417191505432128906 1 1 1 1 1.173184514045715332 1.2324030399322509766 
2.2913422584533691406 2.0236804485321044922 2.3861901760101318359 2.3622372150421142578 1.8300155401229858398 1.767666935920715332 2.5095243453979492188 1.9595502614974975586 2.6598334312438964844 3.6063058376312255859 4.56017303466796875 3.5778379440307617188 2.9960563182830810547 2.6831116676330566406 2.5256183147430419922 2.3032770156860351563 1.4262874126434326172 1.0801560878753662109 1.2060621976852416992 1.360487818717956543 1.2253875732421875 1.2310186624526977539 1 1 1.1659537553787231445 1.3641405105590820313 1.5653884410858154297 2.0895884037017822266 2.2626140117645263672 2.7187204360961914063 2.6712079048156738281 2.0285005569458007813 1.8367229700088500977 1.7843244075775146484 1.0432313680648803711 1.4744696617126464844 1.5586137771606445313 1 1 1.2002550363540649414 
2.0594103336334228516 2.3685407638549804688 2.3701255321502685547 1.955631256103515625 1.9768245220184326172 1.8802224397659301758 2.7238757610321044922 2.2949681282043457031 2.9373369216918945313 3.4049477577209472656 3.3771014213562011719 3.0664150714874267578 2.6669976711273193359 2.6331441402435302734 2.2686319351196289063 1.8350036144256591797 1.8319897651672363281 1.3099769353866577148 1.0435887575149536133 1.1069080829620361328 1.1328835487365722656 1.0240695476531982422 1.009281158447265625 1.4099861383438110352 1.2488530874252319336 1.1644389629364013672 1.2959885597229003906 1.5712324380874633789 1.9689894914627075195 2.4692065715789794922 2.3668248653411865234 1.4661638736724853516 1.5389915704727172852 1.1661063432693481445 1.0205305814743041992 1.2151907682418823242 1 1 1 1.009306788444519043 
2.3063941001892089844 2.9004027843475341797 2.8418343067169189453 2.1885914802551269531 1.9155830144882202148 1.8612844944000244141 2.0656180381774902344 2.4714949131011962891 2.1619226932525634766 1.9116880893707275391 2.3215618133544921875 1.9515252113342285156 2.0238950252532958984 1.801121830940246582 1.425597071647644043 1.3302454948425292969 1.3734833002090454102 1.0839444398880004883 1.0645965337753295898 1 1 1.0044797658920288086 1.0698744058609008789 1.7461544275283813477 1.542111515998840332 1.570235133171081543 1.575825810432434082 1.3572442531585693359 1.5064588785171508789 1.4472436904907226563 1.2782710790634155273 1.0708639621734619141 1.210734248161315918 1.2892333269119262695 1.0649503469467163086 1 1 1 1 1.0129605531692504883 
2.2522103786468505859 3.1749851703643798828 3.6286652088165283203 3.0986497402191162109 2.1312491893768310547 1.9003583192825317383 1.6456716060638427734 1.5408326387405395508 1.4029875993728637695 1.3402001857757568359 1.6769006252288818359 1.6436586380004882813 1.8524500131607055664 1.7963675260543823242 1.4341455698013305664 1.6407349109649658203 1.6851803064346313477 1.1196960210800170898 1.0632833242416381836 1.7346609830856323242 1.4854943752288818359 1.2943768501281738281 1.2053818702697753906 1.8747371435165405273 1.6434385776519775391 1.9867898225784301758 1.6178666353225708008 1.520843505859375 1.392706751823425293 1 1 1.0032050609588623047 1.0980497598648071289 1.1117787361145019531 1.0524528026580810547 1 1 1 1 1 
3.3550240993499755859 3.6113812923431396484 3.4719045162200927734 3.1460886001586914063 2.8360311985015869141 2.1626617908477783203 1.8759986162185668945 1.3664999008178710938 1.3943488597869873047 1 1.2006577253341674805 1.3334151506423950195 1.4554171562194824219 1.4886238574981689453 1.6876491308212280273 1.2650893926620483398 1.4732787609100341797 1.0848459005355834961 1.1418842077255249023 2.2462661266326904297 2.1997058391571044922 1.9026925563812255859 1.5956099033355712891 1.5035321712493896484 1.2458646297454833984 2.2967669963836669922 2.5288796424865722656 1.724692225456237793 1.7160848379135131836 1.6797082424163818359 1.5092883110046386719 1.6238747835159301758 1.2353050708770751953 1 1 1 1 1 1 1 
3.5920956134796142578 3.5665109157562255859 2.9714169502258300781 2.4954586029052734375 2.4631638526916503906 2.3051345348358154297 2.077327728271484375 1.4446303844451904297 1.3199776411056518555 1.0430819988250732422 1 1.0293315649032592773 1.2003381252288818359 1.1254153251647949219 1.2620836496353149414 1.266277313232421875 1.3778679370880126953 1.1631562709808349609 1.2977887392044067383 1.7647421360015869141 2.8103966712951660156 2.3509266376495361328 1.6304204463958740234 1.6145250797271728516 2.7749421596527099609 2.5835566520690917969 1.8896257877349853516 1.5138505697250366211 2.1351141929626464844 2.1476330757141113281 2.2924394607543945313 1.6754829883575439453 1.0817022323608398438 1 1 1 1 1 1 1 
3.2613801956176757813 2.7301900386810302734 2.1175897121429443359 1.839476466178894043 2.2647964954376220703 2.2185738086700439453 1.6787850856781005859 1.4683461189270019531 1.2913355827331542969 1.095585942268371582 1.1599980592727661133 1.1592539548873901367 1.5468683242797851563 1.5364569425582885742 1.5778316259384155273 1.6542592048645019531 1.1770116090774536133 1.1034135818481445313 1.2069008350372314453 1.7203562259674072266 2.7334532737731933594 2.4798057079315185547 1.7071298360824584961 1.3356302976608276367 1.8895400762557983398 1.4700858592987060547 1.3114533424377441406 1.2283551692962646484 1.5238180160522460938 2.0638124942779541016 2.2632570266723632813 2.0754981040954589844 1.1835227012634277344 1.0965030193328857422 1 1 1 1 1 1 
3.0081908702850341797 3.0637333393096923828 3.1408915519714355469 2.2473537921905517578 2.6130006313323974609 1.9443261623382568359 1.5682867765426635742 1.1246886253356933594 1 1 1.1252461671829223633 1.3194128274917602539 1.4857952594757080078 1.5771694183349609375 1.2494837045669555664 1.2119919061660766602 1.2126945257186889648 1.452931523323059082 1.343558192253112793 1.7203235626220703125 2.3425612449645996094 2.0735948085784912109 1.3538991212844848633 1.1637136936187744141 1.8967816829681396484 1.7553505897521972656 1.9021162986755371094 2.1067280769348144531 1.940485835075378418 1.8576877117156982422 2.0208711624145507813 2.0288510322570800781 1.4081044197082519531 1.3587224483489990234 1.1547058820724487305 1 1 1 1 1 
4.1092581748962402344 4.8277873992919921875 5.1365509033203125 3.9667105674743652344 3.8708386421203613281 2.3184249401092529297 1.4099088907241821289 1.2387748956680297852 1.0473520755767822266 1.0779267549514770508 1.0580726861953735352 1.1827813386917114258 1.5441510677337646484 1.7887935638427734375 1.3816955089569091797 1.2911130189895629883 1.3073292970657348633 1.3865513801574707031 1.5332137346267700195 1.7349944114685058594 1.8110240697860717773 2.0032215118408203125 1.413804173469543457 1.6399871110916137695 1.7948877811431884766 2.0252444744110107422 2.2689995765686035156 2.2032346725463867188 1.9283812046051025391 1.717182159423828125 1.9438023567199707031 2.3099727630615234375 1.8886231184005737305 1.804229736328125 1.5422316789627075195 1.1830434799194335938 1.121571660041809082 1 1 1.4100607633590698242 
3.8944365978240966797 4.0923900604248046875 4.2390356063842773438 4.0970139503479003906 3.3179619312286376953 2.6942057609558105469 1.6609380245208740234 1.392293095588684082 1.2184745073318481445 1.1701228618621826172 1 1.2256765365600585938 1.389189600944519043 1.4747767448425292969 1.3182151317596435547 1.6412559747695922852 1.6850256919860839844 1.4363511800765991211 1.2817221879959106445 1.487172245979309082 1.4610952138900756836 1.7611194849014282227 1.7991837263107299805 1.6740616559982299805 1.7596871852874755859 1.8615195751190185547 2.0223767757415771484 2.1578915119171142578 1.9441117048263549805 1.5299768447875976563 2.0086464881896972656 2.4766397476196289063 2.549869537353515625 2.0032505989074707031 1.8585914373397827148 1.617037653923034668 1.3806145191192626953 1.0036232471466064453 1 1.1368930339813232422 
4.0849704742431640625 4.3000879287719726563 3.1797919273376464844 3.2083275318145751953 3.4464924335479736328 4.1092991828918457031 2.0087997913360595703 1.6335062980651855469 1.2423508167266845703 1.2013711929321289063 1.2312672138214111328 1.1357558965682983398 1.3337799310684204102 1.5349831581115722656 1.3932747840881347656 1.341321110725402832 1.0626561641693115234 1.1890358924865722656 1.667224884033203125 1.6356970071792602539 1.619429469108581543 1.7574517726898193359 1.8656482696533203125 1.5698517560958862305 1.7932418584823608398 1.6949000358581542969 1.3585152626037597656 1.1694426536560058594 1.2638365030288696289 1.5573015213012695313 2.0492184162139892578 2.5005736351013183594 2.6673648357391357422 2.0904192924499511719 1.9131026268005371094 1.9452537298202514648 1.5223859548568725586 1.2034740447998046875 1.3697322607040405273 1.2766128778457641602 
3.1441111564636230469 3.0597770214080810547 3.0503284931182861328 2.3658137321472167969 2.3931114673614501953 3.5637886524200439453 2.1896889209747314453 2.2130856513977050781 1.3121939897537231445 1.1105922460556030273 1.2147881984710693359 1.1074159145355224609 1.2070715427398681641 1.0058801174163818359 1.2622090578079223633 1.0490727424621582031 1.0696237087249755859 1.4985853433609008789 1.2048711776733398438 1.2519073486328125 1.3680045604705810547 1.5567125082015991211 1.4780545234680175781 1.6146063804626464844 2.0359716415405273438 1.932284235954284668 1.4633669853210449219 1.162739872932434082 1.1763937473297119141 1.2691063880920410156 1.4748574495315551758 2.0385389328002929688 2.8300213813781738281 2.7896211147308349609 1.8951754570007324219 1.8024154901504516602 1.6810755729675292969 1.9388861656188964844 1.4173862934112548828 1.2646583318710327148 
2.8163723945617675781 1.7930719852447509766 2.0488588809967041016 2.9296507835388183594 1.8010584115982055664 1.5912382602691650391 1.72312164306640625 2.3842723369598388672 1.247301936149597168 1.1589990854263305664 1 1 1.1248177289962768555 1.0046255588531494141 1 1 1.0305830240249633789 1.2163130044937133789 1.0669242143630981445 1.0712734460830688477 1.3569227457046508789 1.2800970077514648438 1.332004547119140625 1.5450683832168579102 1.9166628122329711914 2.1646173000335693359 1.4276317358016967773 1.6905313730239868164 1.8599631786346435547 1.498787999153137207 1.678234100341796875 2.0377619266510009766 3.0994503498077392578 3.2841391563415527344 2.8820252418518066406 2.6820950508117675781 2.0360419750213623047 1.8261901140213012695 1.2579486370086669922 1.1586220264434814453 
2.3855435848236083984 2.4142835140228271484 1.7317918539047241211 1.7016669511795043945 1.9578559398651123047 1.8897151947021484375 1.7087459564208984375 2.3353602886199951172 1.9572827816009521484 1.6443804502487182617 1.2184920310974121094 1.000216364860534668 1 1 1 1.0018900632858276367 1 1.1931209564208984375 1.152697443962097168 1.0595219135284423828 1.2664419412612915039 1.555216670036315918 1.8611203432083129883 1.9242118597030639648 1.8382815122604370117 1.6806532144546508789 1.8477643728256225586 1.9977988004684448242 2.032596588134765625 1.9229278564453125 2.0481040477752685547 2.1576418876647949219 2.9974319934844970703 2.9801387786865234375 2.8523235321044921875 3.1491968631744384766 1.8994801044464111328 1.5358065366744995117 1.3027899265289306641 1.4013856649398803711 
1.9504041671752929688 2.5160188674926757813 2.546173095703125 2.1075849533081054688 2.0520470142364501953 1.7607337236404418945 1.4847459793090820313 1.9404790401458740234 2.3196544647216796875 1.6981818675994873047 1.4952654838562011719 1.6170341968536376953 1.8540495634078979492 1.3096719980239868164 1.2308876514434814453 1.0908095836639404297 1.120440363883972168 1.249937891960144043 1.6068531274795532227 1.4267386198043823242 1.5644729137420654297 1.9496747255325317383 2.2537355422973632813 2.0356252193450927734 1.5770651102066040039 1.2136472463607788086 1.6625901460647583008 2.2332246303558349609 2.2827978134155273438 2.4039468765258789063 1.9114499092102050781 2.1786098480224609375 2.7902274131774902344 3.0173673629760742188 3.0075011253356933594 3.2588772773742675781 2.0583012104034423828 1.4751354455947875977 1.5988914966583251953 1.6288636922836303711 
1.5811427831649780273 2.1133885383605957031 2.3091633319854736328 1.7310695648193359375 1.4853894710540771484 1.6064385175704956055 1.3313575983047485352 1.6408720016479492188 2.1738727092742919922 2.1783607006072998047 2.4169237613677978516 2.5154826641082763672 2.4007852077484130859 2.2019848823547363281 2.1398129463195800781 2.3025157451629638672 2.0498764514923095703 2.2395069599151611328 2.7875494956970214844 2.7790606021881103516 2.2486479282379150391 2.6867570877075195313 2.3899648189544677734 1.5409303903579711914 1.2648015022277832031 1.1013501882553100586 1.7014557123184204102 2.3870077133178710938 1.8930537700653076172 2.1631639003753662109 1.9483642578125 2.3300833702087402344 2.6126906871795654297 2.6317057609558105469 2.9705636501312255859 3.0396661758422851563 2.2800371646881103516 1.838360905647277832 1.7670757770538330078 1.4218847751617431641 
