ncols        40
nrows        40
xllcorner    -0.000000000000
yllcorner    0.000000000000
cellsize     5.000000000000
NODATA_value nan
5.3619413375854492188 4.9809741973876953125 4.490215301513671875 3.9966030120849609375 4.3752613067626953125 4.5038347244262695313 4.00390625 3.9769330024719238281 3.8071539402008056641 3.6175446510314941406 3.4419541358947753906 3.1159815788269042969 3.5425522327423095703 3.7431116104125976563 3.8790388107299804688 3.8160955905914306641 3.3614046573638916016 3.4811732769012451172 3.7276563644409179688 3.3488311767578125 3.5346856117248535156 4.2607312202453613281 4.2259106636047363281 3.7070276737213134766 3.5537738800048828125 3.6858508586883544922 3.6954300403594970703 3.5060338973999023438 3.1998944282531738281 4.4890575408935546875 5.4837441444396972656 4.8099346160888671875 4.9526486396789550781 4.7404084205627441406 3.6311094760894775391 3.4463689327239990234 3.5355594158172607422 3.6980853080749511719 4.1367545127868652344 4.5033979415893554688 
4.9622645378112792969 4.7530536651611328125 4.77416229248046875 4.3055906295776367188 4.4023718833923339844 4.2980456352233886719 4.0077600479125976563 4.1989912986755371094 4.0324001312255859375 3.5287308692932128906 3.390933990478515625 3.7182719707489013672 3.7970860004425048828 3.8640298843383789063 4.7611436843872070313 5.82160186767578125 4.2646479606628417969 3.1929385662078857422 3.3852677345275878906 3.3717105388641357422 3.5889437198638916016 3.9463808536529541016 3.7447481155395507813 3.59601593017578125 3.7723591327667236328 3.8356306552886962891 3.6607146263122558594 3.4289500713348388672 3.1291277408599853516 3.9343695640563964844 3.9958331584930419922 4.2446045875549316406 3.795745849609375 3.4570939540863037109 3.2925345897674560547 3.3746614456176757813 3.8994460105895996094 4.10141754150390625 4.0361905097961425781 4.5049700736999511719 
4.7254896163940429688 5.0817341804504394531 4.5480699539184570313 4.4055933952331542969 4.5296883583068847656 4.6162204742431640625 4.1681032180786132813 3.7877430915832519531 3.3808720111846923828 3.045940399169921875 3.3688516616821289063 3.4826297760009765625 4.1580686569213867188 4.1111478805541992188 5.0818462371826171875 5.5306706428527832031 5.2297964096069335938 3.9305620193481445313 4.4709935188293457031 4.3527121543884277344 3.6709134578704833984 3.8155443668365478516 3.6871807575225830078 3.5740842819213867188 3.3964622020721435547 3.6897745132446289063 3.4849791526794433594 3.2211129665374755859 3.1574501991271972656 3.4710648059844970703 3.5418713092803955078 3.9725093841552734375 3.2691299915313720703 3.1077067852020263672 3.5050663948059082031 3.8141548633575439453 4.1496520042419433594 4.5005645751953125 4.3897948265075683594 4.5517849922180175781 
4.2387847900390625 4.4517836570739746094 4.5558352470397949219 4.733264923095703125 4.8742113113403320313 4.6836709976196289063 4.2093248367309570313 3.1559731960296630859 3.1285264492034912109 3.1615183353424072266 3.2717826366424560547 3.0891194343566894531 3.577426910400390625 4.0105671882629394531 4.4699373245239257813 4.827274322509765625 4.074436187744140625 4.6486620903015136719 4.7046675682067871094 3.9977591037750244141 4.0173482894897460938 3.885700225830078125 3.4614253044128417969 3.7451562881469726563 3.5513782501220703125 3.4348518848419189453 3.4314000606536865234 3.0879163742065429688 2.8888266086578369141 2.8406760692596435547 2.7978155612945556641 2.9014720916748046875 2.865116119384765625 3.0884721279144287109 3.2239387035369873047 3.6168565750122070313 3.7290773391723632813 4.0182366371154785156 4.2874693870544433594 4.1943750381469726563 
4.1696481704711914063 4.2405838966369628906 4.2812137603759765625 4.6049823760986328125 4.6437325477600097656 4.4192752838134765625 3.961883544921875 3.0253021717071533203 3.0855162143707275391 2.7659475803375244141 2.7435579299926757813 3.0629801750183105469 3.4638626575469970703 3.7586715221405029297 3.8821358680725097656 4.5350503921508789063 3.7295353412628173828 4.6943106651306152344 4.8316235542297363281 3.8930513858795166016 4.0566725730895996094 3.2830522060394287109 3.3836286067962646484 3.2404003143310546875 3.0793666839599609375 3.4616489410400390625 3.1868388652801513672 2.7783081531524658203 2.9191439151763916016 3.0823321342468261719 3.1229844093322753906 3.1216962337493896484 2.8388886451721191406 3.0753583908081054688 3.4049079418182373047 3.3942925930023193359 3.1509919166564941406 3.5468680858612060547 3.7225606441497802734 3.3654155731201171875 
4.637546539306640625 4.49761962890625 4.0534734725952148438 3.7777650356292724609 4.2772698402404785156 4.3624053001403808594 3.7611083984375 3.1133084297180175781 3.0886528491973876953 2.875820159912109375 2.6639664173126220703 2.9155139923095703125 3.2284276485443115234 3.1916911602020263672 3.8389041423797607422 3.7536134719848632813 3.7185926437377929688 3.5746340751647949219 4.2192664146423339844 4.150608062744140625 3.4489185810089111328 3.2294228076934814453 2.9374537467956542969 2.9251353740692138672 2.9776470661163330078 2.8964841365814208984 2.7655434608459472656 2.8011944293975830078 2.8397910594940185547 3.0572795867919921875 2.8881673812866210938 2.9626755714416503906 3.0080044269561767578 3.0291206836700439453 2.8648304939270019531 2.8774001598358154297 2.7993667125701904297 3.0392172336578369141 3.1434392929077148438 3.2329459190368652344 
4.1256489753723144531 4.5064954757690429688 3.8030574321746826172 3.9329006671905517578 3.818889617919921875 3.8465027809143066406 3.5263407230377197266 3.0117928981781005859 2.8066146373748779297 2.6197936534881591797 2.4742953777313232422 2.9008951187133789063 3.2440421581268310547 3.4693341255187988281 3.8268778324127197266 3.7181911468505859375 3.9322781562805175781 3.7204444408416748047 4.1023378372192382813 3.6112527847290039063 3.3197982311248779297 3.3866302967071533203 2.9665327072143554688 2.9602408409118652344 3.0553240776062011719 3.0465748310089111328 2.85706329345703125 3.0093138217926025391 2.7639126777648925781 2.8254818916320800781 3.0011603832244873047 3.2795953750610351563 3.1727199554443359375 2.9736104011535644531 2.7723119258880615234 2.7287573814392089844 2.6543028354644775391 2.7382194995880126953 3.259037017822265625 3.5157620906829833984 
3.7548215389251708984 3.9133422374725341797 3.8915941715240478516 3.5565142631530761719 3.4917113780975341797 3.6184444427490234375 3.5805034637451171875 3.1174335479736328125 2.6366045475006103516 2.5199666023254394531 2.4415278434753417969 2.9331099987030029297 3.2379405498504638672 3.5532715320587158203 3.8214795589447021484 3.7374455928802490234 4.2294096946716308594 3.6157009601593017578 4.7357487678527832031 4.56441497802734375 3.7726275920867919922 3.8584711551666259766 3.8117082118988037109 2.8370265960693359375 2.6904141902923583984 2.6559967994689941406 2.6196548938751220703 2.8693716526031494141 2.7901599407196044922 2.7810409069061279297 2.9726176261901855469 2.7182986736297607422 2.8660821914672851563 2.9410560131072998047 2.6206195354461669922 2.5874550342559814453 2.6588764190673828125 3.0009815692901611328 3.4793496131896972656 3.5854475498199462891 
3.2653825283050537109 3.0092322826385498047 3.7878849506378173828 3.3295414447784423828 3.0703084468841552734 3.095882415771484375 3.1514127254486083984 3.2851893901824951172 2.8256056308746337891 2.6831820011138916016 2.6134870052337646484 3.0236330032348632813 2.8068606853485107422 3.0922987461090087891 3.6846559047698974609 4.1478056907653808594 4.9957733154296875 4.7018260955810546875 4.9979872703552246094 5.1276826858520507813 4.3625736236572265625 3.1680388450622558594 2.7546343803405761719 3.0485551357269287109 3.1400475502014160156 3.0940883159637451172 2.4528715610504150391 2.6341726779937744141 2.6387391090393066406 2.7464947700500488281 2.7160770893096923828 2.5738706588745117188 2.7809331417083740234 2.7191255092620849609 2.3430149555206298828 2.4012205600738525391 2.4799799919128417969 2.7556915283203125 3.0075578689575195313 3.1019117832183837891 
3.117679595947265625 2.8271007537841796875 3.3324520587921142578 3.0485196113586425781 3.0290672779083251953 2.6902060508728027344 2.3580844402313232422 2.6442458629608154297 2.9496343135833740234 2.93186187744140625 3.0671854019165039063 3.1932430267333984375 2.4350829124450683594 2.7154450416564941406 3.2073080539703369141 3.6077013015747070313 4.7111201286315917969 4.7955160140991210938 4.7722887992858886719 5.8501081466674804688 4.356403350830078125 2.8783612251281738281 2.9308037757873535156 3.0038273334503173828 3.0405058860778808594 2.4264905452728271484 2.7827637195587158203 2.7844164371490478516 2.4811480045318603516 2.4522006511688232422 2.7063300609588623047 2.6020212173461914063 2.6832253932952880859 2.5844175815582275391 2.3475422859191894531 2.2580504417419433594 2.4822494983673095703 2.6939063072204589844 2.7575099468231201172 2.9614956378936767578 
4.0395426750183105469 3.8503248691558837891 3.6057789325714111328 3.0116739273071289063 2.4937911033630371094 2.0951180458068847656 2.3201346397399902344 2.6338508129119873047 2.6313867568969726563 2.5981857776641845703 2.6793169975280761719 2.4705960750579833984 2.3365013599395751953 2.6642031669616699219 2.7128555774688720703 3.2575044631958007813 3.2610790729522705078 4.8391175270080566406 5.1357717514038085938 4.4230799674987792969 3.2954530715942382813 2.5287272930145263672 2.3161375522613525391 2.3942561149597167969 2.7086365222930908203 2.9883716106414794922 4.1273045539855957031 2.9840521812438964844 2.4797258377075195313 2.2881400585174560547 2.2801067829132080078 2.6889386177062988281 2.9362361431121826172 2.6354553699493408203 2.4678397178649902344 2.5433001518249511719 2.5564444065093994141 2.8017578125 2.9368202686309814453 3.0393376350402832031 
4.3830442428588867188 4.4042377471923828125 3.4274096488952636719 3.1640839576721191406 2.7046353816986083984 2.0470235347747802734 2.2310652732849121094 2.4138572216033935547 2.3760156631469726563 2.2539954185485839844 2.16658782958984375 2.3716645240783691406 2.7799398899078369141 3.1494047641754150391 2.5919458866119384766 2.6865580081939697266 3.1222226619720458984 4.0426487922668457031 2.8516674041748046875 3.0750896930694580078 3.3068258762359619141 2.9771583080291748047 2.2298955917358398438 2.0871071815490722656 2.3211073875427246094 2.94202423095703125 3.2538511753082275391 2.6411228179931640625 2.4698362350463867188 2.1926746368408203125 2.2249119281768798828 2.3601930141448974609 2.4114089012145996094 2.6066884994506835938 3.0052459239959716797 2.7627606391906738281 2.9501452445983886719 2.6783154010772705078 2.9123461246490478516 3.2868092060089111328 
4.2514672279357910156 3.9462573528289794922 4.0181226730346679688 2.6450340747833251953 2.4602525234222412109 2.1082880496978759766 2.038532257080078125 2.4106845855712890625 2.0175471305847167969 2.4776761531829833984 2.7300419807434082031 3.2219696044921875 4.7624659538269042969 3.9471561908721923828 2.7996518611907958984 2.6750535964965820313 3.2386050224304199219 2.6314101219177246094 2.4535918235778808594 2.6202325820922851563 2.9001836776733398438 2.5188751220703125 2.1203286647796630859 1.7457662820816040039 2.4158437252044677734 2.4564571380615234375 2.0785732269287109375 2.1100628376007080078 2.1053297519683837891 1.8138742446899414063 2.5851378440856933594 3.2960147857666015625 2.3821315765380859375 2.6653814315795898438 2.9028403759002685547 2.9621920585632324219 2.9703726768493652344 2.9208550453186035156 2.6773529052734375 2.5637032985687255859 
3.4729561805725097656 3.6033797264099121094 3.1514229774475097656 2.1189348697662353516 1.8361753225326538086 1.9084764719009399414 2.2031805515289306641 2.1251356601715087891 2.1186544895172119141 2.0170216560363769531 3.5627794265747070313 4.197025299072265625 6.7915291786193847656 4.5439739227294921875 3.0243158340454101563 3.7163729667663574219 2.0908792018890380859 2.5842535495758056641 2.3640954494476318359 2.3421027660369873047 2.6232099533081054688 2.4267756938934326172 2.3349158763885498047 1.9246389865875244141 2.0775523185729980469 2.4948296546936035156 2.1331682205200195313 2.1173403263092041016 2.1551816463470458984 1.9723716974258422852 2.6322262287139892578 3.0954596996307373047 2.3559870719909667969 2.354129791259765625 2.8498556613922119141 2.7749793529510498047 2.7288358211517333984 2.8420188426971435547 2.6793966293334960938 2.6217226982116699219 
2.2074418067932128906 2.2327923774719238281 2.1961896419525146484 1.9527623653411865234 1.7661154270172119141 1.7858831882476806641 1.9332906007766723633 1.8247381448745727539 1.7045600414276123047 1.9726935625076293945 2.7284390926361083984 3.4281353950500488281 6.7047839164733886719 5.3308801651000976563 3.6597690582275390625 3.9608261585235595703 2.2105638980865478516 1.9862601757049560547 1.9178944826126098633 2.2078154087066650391 2.5093996524810791016 2.4134461879730224609 1.9885120391845703125 2.0465967655181884766 1.8257797956466674805 2.3184196949005126953 2.3272442817687988281 2.1191017627716064453 1.6804308891296386719 2.0986328125 2.5063107013702392578 2.2164118289947509766 2.1861033439636230469 2.6689503192901611328 2.2756288051605224609 2.6086409091949462891 2.7300550937652587891 2.5211968421936035156 2.5888650417327880859 2.9589955806732177734 
2.0540726184844970703 1.7554565668106079102 1.6561807394027709961 1.9913542270660400391 1.9024187326431274414 1.495892643928527832 1.7810708284378051758 1.8283572196960449219 1.7138296365737915039 2.4935297966003417969 3.1957399845123291016 3.5196778774261474609 7.1868796348571777344 5.2998304367065429688 3.9893839359283447266 3.3341588973999023438 2.6630051136016845703 1.9932985305786132813 2.0054953098297119141 1.9767386913299560547 1.7653429508209228516 1.8672547340393066406 2.0666940212249755859 2.1181886196136474609 1.6020294427871704102 2.4223415851593017578 2.5023791790008544922 2.5352680683135986328 2.3425133228302001953 2.0437638759613037109 1.8481885194778442383 1.8646061420440673828 1.7749917507171630859 2.0302014350891113281 2.47930908203125 2.5474331378936767578 2.439815521240234375 2.6168015003204345703 2.3777914047241210938 2.3410253524780273438 
1.7625069618225097656 1.6983382701873779297 1.5123647451400756836 1.6684422492980957031 1.6279048919677734375 1.5772267580032348633 1.7103180885314941406 2.1690611839294433594 1.9946290254592895508 2.3399322032928466797 3.7709403038024902344 4.0414342880249023438 6.4408693313598632813 3.9777386188507080078 2.3716206550598144531 1.927592158317565918 1.9298334121704101563 1.6358850002288818359 1.751068115234375 1.5917872190475463867 1.4204119443893432617 2.0958299636840820313 1.9661612510681152344 1.5755946636199951172 1.589129328727722168 1.9964418411254882813 2.3837430477142333984 2.7165067195892333984 2.2085120677947998047 1.9629964828491210938 1.7384731769561767578 1.5454170703887939453 2.2437827587127685547 2.1201157569885253906 2.1944575309753417969 2.1135725975036621094 2.1712832450866699219 1.8913695812225341797 2.2133309841156005859 2.0103342533111572266 
1.9776263236999511719 1.6577666997909545898 1.6791119575500488281 1.749195098876953125 1.6355226039886474609 1.4658490419387817383 1.738047480583190918 2.3224489688873291016 2.4369547367095947266 2.5576534271240234375 3.3878412246704101563 3.490978240966796875 3.6510467529296875 2.9105091094970703125 2.1005370616912841797 2.0996942520141601563 1.6667734384536743164 1.6981536149978637695 1.6031868457794189453 1.6216175556182861328 1.5328503847122192383 1.6105954647064208984 1.7026984691619873047 1.4243756532669067383 1.5467488765716552734 2.0568292140960693359 2.3769075870513916016 2.7939100265502929688 2.4087495803833007813 2.0220627784729003906 1.7704823017120361328 1.7270413637161254883 2.2782235145568847656 2.0833673477172851563 1.7528442144393920898 1.4127907752990722656 1.6306650638580322266 1.6760463714599609375 1.3895975351333618164 1.4940909147262573242 
1.4633634090423583984 1.28337860107421875 1.6371303796768188477 1.6007788181304931641 1.9199235439300537109 1.8063770532608032227 2.1108114719390869141 2.4031994342803955078 2.4915421009063720703 3.2733011245727539063 3.5159130096435546875 3.3964841365814208984 2.7657313346862792969 1.8867841958999633789 2.1647193431854248047 1.8724385499954223633 1.5226548910140991211 1.5746208429336547852 1.40412139892578125 1.5851807594299316406 1.4857865571975708008 1.5757899284362792969 1.3976827859878540039 1.4019093513488769531 1.8707717657089233398 1.3846919536590576172 1.834536433219909668 2.3192882537841796875 2.3193831443786621094 2.3196904659271240234 1.9319974184036254883 1.8822114467620849609 2.1160116195678710938 1.7421522140502929688 1.3137649297714233398 1.3811986446380615234 1.2390913963317871094 1.2146334648132324219 1.2007898092269897461 1.400114893913269043 
1.1059933900833129883 1.0817698240280151367 1.3704279661178588867 1.8934834003448486328 2.1789240837097167969 2.5321567058563232422 2.3510205745697021484 2.9304149150848388672 2.6504750251770019531 2.7670452594757080078 2.5590586662292480469 2.0545949935913085938 2.1388268470764160156 1.7464917898178100586 1.8933428525924682617 1.7964990139007568359 1.7472804784774780273 1.5629944801330566406 1.5245848894119262695 1.5593950748443603516 1.6637426614761352539 1.5606743097305297852 1.2654714584350585938 1.3557789325714111328 1.3399076461791992188 1.5397988557815551758 1.591988682746887207 2.0295431613922119141 2.6847002506256103516 2.1487443447113037109 2.2545492649078369141 2.0637795925140380859 2.0261969566345214844 1.484902501106262207 1.2454404830932617188 1.1718627214431762695 1.3492091894149780273 1.6256067752838134766 1.3683668375015258789 1.2132804393768310547 
1.1927138566970825195 1.3872436285018920898 1.3577849864959716797 1.6473259925842285156 1.5955474376678466797 2.3584153652191162109 1.976444244384765625 2.8254268169403076172 2.9784784317016601563 2.786823272705078125 2.7243208885192871094 1.9885671138763427734 1.7384073734283447266 1.1216261386871337891 1.5748587846755981445 1.7024441957473754883 1.7408537864685058594 1.3285634517669677734 1.1958186626434326172 1.4442021846771240234 1.9384032487869262695 2.2023520469665527344 1.8034187555313110352 1.4775575399398803711 1.1625403165817260742 1.3688549995422363281 1.8119189739227294922 2.5046246051788330078 2.2859303951263427734 2.5436136722564697266 2.6036105155944824219 3.3109116554260253906 2.1094124317169189453 1.4639739990234375 1.0922572612762451172 1.2442681789398193359 1.4137855768203735352 1.4401230812072753906 1.2161198854446411133 1.2072010040283203125 
1.4451603889465332031 1.6934658288955688477 1.5211080312728881836 1.4086471796035766602 1.3393591642379760742 1.7116465568542480469 1.6726340055465698242 2.5578658580780029297 3.1832685470581054688 3.1158499717712402344 2.9293203353881835938 1.6388986110687255859 1.4640588760375976563 1.2757307291030883789 1.6634535789489746094 1.50049591064453125 1.3399316072463989258 1.0312299728393554688 1.2240610122680664063 1.4802480936050415039 1.8622174263000488281 1.9084590673446655273 1.9546147584915161133 1.5594475269317626953 1.4826430082321166992 1.5584605932235717773 1.6525434255599975586 1.9498279094696044922 1.9837003946304321289 2.2796721458435058594 2.6707241535186767578 4.0518035888671875 2.0028579235076904297 1.4008055925369262695 1.3474421501159667969 1.5017659664154052734 1.5179039239883422852 1.3391571044921875 1.1240627765655517578 1.4733145236968994141 
1.3928519487380981445 1.5684019327163696289 1.7185443639755249023 1.3131322860717773438 1.4594748020172119141 1.8832106590270996094 1.3918244838714599609 2.2835342884063720703 3.2695500850677490234 3.6058301925659179688 3.5037417411804199219 2.2313625812530517578 1.8250260353088378906 1.7214210033416748047 1.8823331594467163086 1.4259265661239624023 1.2675107717514038086 1.0932680368423461914 1.1385134458541870117 1.2731305360794067383 1.2814936637878417969 1.1802611351013183594 1.3003188371658325195 1.6734620332717895508 1.6948775053024291992 1.7610235214233398438 2.1084537506103515625 2.0321037769317626953 1.8173645734786987305 2.1987233161926269531 2.2865929603576660156 2.6957876682281494141 1.8991172313690185547 1.5471433401107788086 1.2424166202545166016 1.4538499116897583008 1.3928390741348266602 1.3051176071166992188 1.1291965246200561523 1.3797712326049804688 
1.7894421815872192383 1.5598909854888916016 1.6494073867797851563 1.6473643779754638672 1.4762657880783081055 1.2780370712280273438 1.4423680305480957031 1.7442228794097900391 1.8771386146545410156 2.7757613658905029297 2.7921466827392578125 2.8537876605987548828 2.8011829853057861328 2.1647891998291015625 1.8757317066192626953 1.6179115772247314453 1.0817270278930664063 1.0007059574127197266 1.176171422004699707 1.0491576194763183594 1.0157222747802734375 1.0986211299896240234 1.0688475370407104492 1.4433497190475463867 1.4469896554946899414 1.3969645500183105469 1.8906586170196533203 2.2285754680633544922 2.2809567451477050781 1.9001637697219848633 2.207408905029296875 2.2728965282440185547 1.8193410634994506836 1.6010162830352783203 1.1662782430648803711 1.3041442632675170898 1.0798245668411254883 1.0904861688613891602 1.0535435676574707031 1.1292570829391479492 
1.7127870321273803711 1.5532906055450439453 1.7176400423049926758 1.7531737089157104492 1.4512395858764648438 1.3949342966079711914 1.8049062490463256836 1.5208008289337158203 2.2752819061279296875 3.0508525371551513672 3.67644500732421875 2.7627546787261962891 2.2798817157745361328 2.0652720928192138672 1.8897671699523925781 1.7843624353408813477 1.2064568996429443359 1.0027767419815063477 1.0671381950378417969 1.1680408716201782227 1.1345704793930053711 1.1157387495040893555 1.1042100191116333008 1.2024899721145629883 1.190006256103515625 1.3095719814300537109 1.4922876358032226563 1.9455099105834960938 2.1734044551849365234 2.5783643722534179688 2.4426991939544677734 1.6363806724548339844 1.4935839176177978516 1.5242900848388671875 1.0197352170944213867 1.2071471214294433594 1.4485856294631958008 1.1147370338439941406 1.027785181999206543 1.1066792011260986328 
1.5743896961212158203 1.7229011058807373047 1.7476968765258789063 1.5032563209533691406 1.5178586244583129883 1.4640243053436279297 1.9091204404830932617 1.8631757497787475586 2.5515050888061523438 2.9346907138824462891 2.7685868740081787109 2.3173542022705078125 1.9204592704772949219 1.8547378778457641602 1.7211339473724365234 1.4428733587265014648 1.3940569162368774414 1.1156412363052368164 1 1 1.0395004749298095703 1 1 1.2616838216781616211 1.0648069381713867188 1.1116772890090942383 1.4304449558258056641 1.5368580818176269531 1.8719224929809570313 2.2286462783813476563 2.0792620182037353516 1.3021717071533203125 1.2690149545669555664 1.0455788373947143555 1 1.0710599422454833984 1.1734977960586547852 1.3753644227981567383 1.1836084127426147461 1 
1.6730997562408447266 2.0486357212066650391 1.9868425130844116211 1.6397424936294555664 1.4354746341705322266 1.4394227266311645508 1.6284008026123046875 1.853354334831237793 1.7249372005462646484 1.6123797893524169922 1.7797589302062988281 1.5224634408950805664 1.6039906740188598633 1.464445948600769043 1.180310368537902832 1.1422851085662841797 1.1597138643264770508 1 1 1.0185712575912475586 1.0749039649963378906 1 1 1.4826455116271972656 1.3459942340850830078 1.2729738950729370117 1.4330637454986572266 1.2992266416549682617 1.4738367795944213867 1.5554795265197753906 1.2961968183517456055 1 1.0435107946395874023 1.0834932327270507813 1 1.1817437410354614258 1.254975438117980957 1.5139199495315551758 1.4015576839447021484 1 
1.6798353195190429688 2.1833453178405761719 2.4519670009613037109 2.1360929012298583984 1.6104066371917724609 1.459781646728515625 1.3166359663009643555 1.2580934762954711914 1.1742662191390991211 1.0839518308639526367 1.3036271333694458008 1.2752938270568847656 1.3721994161605834961 1.4673161506652832031 1.2357727289199829102 1.293263554573059082 1.3566058874130249023 1 1 1.6365993022918701172 1.4642959833145141602 1.1548976898193359375 1.0046459436416625977 1.5918828248977661133 1.2977406978607177734 1.6518210172653198242 1.4423788785934448242 1.3643575906753540039 1.1905493736267089844 1.0404356718063354492 1.0435593128204345703 1 1.0096366405487060547 1 1 1.1168860197067260742 1.2949404716491699219 1.3674885034561157227 1.1765674352645874023 1.210352778434753418 
2.2675826549530029297 2.451259613037109375 2.3575501441955566406 2.1909005641937255859 1.9591279029846191406 1.6223163604736328125 1.4046269655227661133 1.1146901845932006836 1.1163383722305297852 1.034328460693359375 1.0816586017608642578 1.1981732845306396484 1.1647293567657470703 1.1935136318206787109 1.5161696672439575195 1.1617723703384399414 1.2381334304809570313 1 1.0363786220550537109 2.1252152919769287109 2.0223937034606933594 1.5729420185089111328 1.3319556713104248047 1.1951968669891357422 1.0744000673294067383 2.2848236560821533203 2.2301416397094726563 1.3610843420028686523 1.2985978126525878906 1.3306659460067749023 1.2577573060989379883 1.3107280731201171875 1.0397412776947021484 1.0714776515960693359 1.1315460205078125 1.2586098909378051758 1.3729215860366821289 1.4704620838165283203 1.354609370231628418 1.3891308307647705078 
2.4453537464141845703 2.4049637317657470703 2.0739033222198486328 1.7906694412231445313 1.7156270742416381836 1.6420019865036010742 1.5424057245254516602 1.1657745838165283203 1.1051076650619506836 1 1.1604017019271850586 1.259547114372253418 1.3516738414764404297 1.1773140430450439453 1.2063106298446655273 1.2309669256210327148 1.2291290760040283203 1.2610001564025878906 1.3137041330337524414 1.5833239555358886719 2.5441954135894775391 2.0064764022827148438 1.3097034692764282227 1.365454554557800293 2.5516707897186279297 2.6043188571929931641 1.723227381706237793 1.2240550518035888672 1.5550899505615234375 1.5698524713516235352 1.6532157659530639648 1.2979750633239746094 1 1.0863319635391235352 1.1916093826293945313 1.3757359981536865234 1.4446578025817871094 1.7309010028839111328 1.5004632472991943359 1.4350330829620361328 
2.2518126964569091797 1.9203599691390991211 1.5437159538269042969 1.4038649797439575195 1.6310822963714599609 1.644314885139465332 1.2693512439727783203 1.1555370092391967773 1.0702811479568481445 1 1.1746960878372192383 1.2378340959548950195 1.7269151210784912109 1.7387415170669555664 1.6044766902923583984 1.7713305950164794922 1.3570616245269775391 1.421805262565612793 1.2262685298919677734 1.7212133407592773438 2.4708778858184814453 2.2296750545501708984 1.4920165538787841797 1.1802772283554077148 1.7187798023223876953 1.3810911178588867188 1.1326874494552612305 1.0279519557952880859 1.2050435543060302734 1.5289409160614013672 1.6374384164810180664 1.5325200557708740234 1 1 1.0504382848739624023 1.4529507160186767578 1.6271537542343139648 1.6257464885711669922 1.5034077167510986328 1.6358495950698852539 
2.0745699405670166016 2.2279849052429199219 2.4372942447662353516 1.7027300596237182617 1.8786232471466064453 1.4128252267837524414 1.2111607789993286133 1 1.1033501625061035156 1.1583729982376098633 1 1.2766546010971069336 1.6132040023803710938 1.7892122268676757813 1.5665254592895507813 1.4016617536544799805 1.4421576261520385742 1.8558410406112670898 1.4891724586486816406 1.716815948486328125 2.2100818157196044922 1.8949191570281982422 1.3156585693359375 1 1.6903715133666992188 1.3852596282958984375 1.4489147663116455078 1.5395805835723876953 1.43587493896484375 1.3786193132400512695 1.4724063873291015625 1.4841178655624389648 1.1126836538314819336 1.1018526554107666016 1 1.0732861757278442383 1.3091039657592773438 1.450034022331237793 1.5731068849563598633 1.5187542438507080078 
3.2439010143280029297 3.9320859909057617188 4.3043375015258789063 2.9836270809173583984 2.9431917667388916016 1.6022360324859619141 1.1280206441879272461 1 1.1369107961654663086 1 1 1.2755594253540039063 1.7266477346420288086 2.0318288803100585938 1.6515643596649169922 1.443696141242980957 1.5382449626922607422 1.6584490537643432617 1.4558336734771728516 1.6367547512054443359 1.7193104028701782227 1.6851017475128173828 1.128941655158996582 1.2661855220794677734 1.3387712240219116211 1.5014966726303100586 1.6294220685958862305 1.634829401969909668 1.3976446390151977539 1.3087220191955566406 1.4385814666748046875 1.6342241764068603516 1.3937184810638427734 1.3579498529434204102 1.204812169075012207 1 1 1.1960010528564453125 1.4400382041931152344 1.8382686376571655273 
3.1262061595916748047 3.3111319541931152344 3.4124653339385986328 3.101776123046875 2.2140178680419921875 1.8270851373672485352 1.2328528165817260742 1.1091465950012207031 1.0292648077011108398 1 1.0109450817108154297 1.1326568126678466797 1.4207730293273925781 1.7044460773468017578 1.6176645755767822266 1.8152538537979125977 1.7476949691772460938 1.3403186798095703125 1.1268481016159057617 1.2886245250701904297 1.1527080535888671875 1.3357002735137939453 1.331310272216796875 1.2712340354919433594 1.3002414703369140625 1.358149409294128418 1.4758563041687011719 1.5542078018188476563 1.4360996484756469727 1.1739066839218139648 1.4181344509124755859 1.7156265974044799805 1.7225899696350097656 1.4531080722808837891 1.365393519401550293 1.2274522781372070313 1.1300961971282958984 1 1.4109795093536376953 1.4017542600631713867 
3.2170739173889160156 3.4921603202819824219 2.6152205467224121094 2.3784801959991455078 2.3705756664276123047 3.3174386024475097656 1.6413606405258178711 1.2195550203323364258 1 1 1 1 1.2522120475769042969 1.6773415803909301758 1.6562922000885009766 1.6013609170913696289 1.135588526725769043 1 1.2641767263412475586 1.2099860906600952148 1.2358624935150146484 1.2750897407531738281 1.3320745229721069336 1.1766694784164428711 1.2855763435363769531 1.2316832542419433594 1.0649392604827880859 1 1 1.1636030673980712891 1.4721710681915283203 1.7458966970443725586 1.8283482789993286133 1.4949096441268920898 1.376829981803894043 1.3872237205505371094 1.1854557991027832031 1 1.3704837560653686523 1.4525262117385864258 
2.4365770816802978516 2.4828195571899414063 2.5340418815612792969 1.6457622051239013672 1.642016291618347168 3.0523958206176757813 1.8314585685729980469 1.8201707601547241211 1 1 1 1 1 1.1503092050552368164 1.557585597038269043 1.1205331087112426758 1 1.1532747745513916016 1 1 1.0534186363220214844 1.1556425094604492188 1.1309250593185424805 1.1808618307113647461 1.4426524639129638672 1.3981863260269165039 1.1248707771301269531 1 1 1 1.1020429134368896484 1.3988319635391235352 1.9197015762329101563 1.8616740703582763672 1.3995969295501708984 1.3431023359298706055 1.2163320779800415039 1.3756700754165649414 1.2445125579833984375 1.4998165369033813477 
2.0551967620849609375 1.2691510915756225586 1.6700358390808105469 2.3252189159393310547 1.3006402254104614258 1.1726952791213989258 1.4417525529861450195 1.9823470115661621094 1 1 1.0152517557144165039 1.1794611215591430664 1.2272766828536987305 1.2951486110687255859 1.151004791259765625 1.0013728141784667969 1 1 1.1159094572067260742 1 1.0550786256790161133 1.0258009433746337891 1 1.1402225494384765625 1.3588842153549194336 1.5158742666244506836 1.0989388227462768555 1.2546939849853515625 1.3257404565811157227 1.1062792539596557617 1.2209542989730834961 1.4753223657608032227 2.0328984260559082031 2.1539282798767089844 1.9244675636291503906 1.8682914972305297852 1.452880859375 1.3202871084213256836 1.0061380863189697266 1.1947814226150512695 
1.715527653694152832 1.6440893411636352539 1.2508676052093505859 1.2038512229919433594 1.377208709716796875 1.3570405244827270508 1.23500823974609375 1.8081630468368530273 1.3752118349075317383 1.1753325462341308594 1 1 1.0320961475372314453 1.2114734649658203125 1.1334116458892822266 1 1.045010685920715332 1 1 1 1.0030889511108398438 1.1672918796539306641 1.2852687835693359375 1.3169035911560058594 1.3215298652648925781 1.2302572727203369141 1.3463289737701416016 1.3984888792037963867 1.3878911733627319336 1.3581311702728271484 1.4101644754409790039 1.471860051155090332 1.9951826333999633789 1.9933671951293945313 1.8744180202484130859 2.1124887466430664063 1.3585076332092285156 1.1679855585098266602 1.0560272932052612305 1.3480961322784423828 
1.3638582229614257813 1.7249056100845336914 1.7196077108383178711 1.4890854358673095703 1.4254683256149291992 1.2116539478302001953 1.0864057540893554688 1.3926308155059814453 1.5667290687561035156 1.2037502527236938477 1.0686848163604736328 1.1665910482406616211 1.3032329082489013672 1.0103048086166381836 1 1 1 1 1.1653250455856323242 1.0287082195281982422 1.0995806455612182617 1.3856996297836303711 1.5358426570892333984 1.4078191518783569336 1.0941486358642578125 1 1.2102458477020263672 1.5116050243377685547 1.5682824850082397461 1.6295871734619140625 1.3121783733367919922 1.4821392297744750977 1.8388870954513549805 1.990224003791809082 2.0436472892761230469 2.1238024234771728516 1.4001939296722412109 1.0808236598968505859 1.2979172468185424805 1.4702855348587036133 
1.1003687381744384766 1.4403346776962280273 1.5644425153732299805 1.2385843992233276367 1.0810718536376953125 1.1867415904998779297 1 1.1973549127578735352 1.4580453634262084961 1.4955365657806396484 1.6166723966598510742 1.6819158792495727539 1.6406651735305786133 1.4766267538070678711 1.4779564142227172852 1.5597275495529174805 1.4176025390625 1.5057814121246337891 1.7985634803771972656 1.8612766265869140625 1.5268954038619995117 1.7798804044723510742 1.5969022512435913086 1.127665400505065918 1 1 1.2347637414932250977 1.6402907371520996094 1.3341925144195556641 1.4539190530776977539 1.3707484006881713867 1.5624697208404541016 1.7308471202850341797 1.7487607002258300781 1.9478036165237426758 1.9810788631439208984 1.5320991277694702148 1.3025645017623901367 1.2419199943542480469 1.1696654558181762695 
