ncols        40
nrows        40
xllcorner    -0.000000000000
yllcorner    0.000000000000
cellsize     5.000000000000
NODATA_value nan
2.9687123298645019531 3.0205931663513183594 2.4711377620697021484 2.421184539794921875 2.2993314266204833984 2.8570501804351806641 2.2904818058013916016 1.7124038934707641602 1.5590263605117797852 2.0282950401306152344 1.6778500080108642578 1.0841013193130493164 1.030881047248840332 1.0336650609970092773 1.0140801668167114258 1.1751952171325683594 1.3224009275436401367 1.8339613676071166992 2.7210631370544433594 1.8484746217727661133 1.7568597793579101563 2.7125470638275146484 2.4741983413696289063 2.0062892436981201172 2.3648903369903564453 2.6486687660217285156 2.7460753917694091797 2.2242183685302734375 1.0841310024261474609 1.4455968141555786133 1.8396265506744384766 1.0316866636276245117 1.3579497337341308594 1.6137336492538452148 1.0284893512725830078 1.0636161565780639648 1.8144205808639526367 2.5429389476776123047 4.6835613250732421875 4.8383412361145019531 
3.1857647895812988281 2.9574604034423828125 2.5164439678192138672 1.7126040458679199219 1.745480656623840332 2.3559131622314453125 2.5106213092803955078 2.3160915374755859375 2.1912863254547119141 1.6555337905883789063 1.0584189891815185547 1.1010624170303344727 1 1.2514052391052246094 1.3583685159683227539 2.3262095451354980469 1.3619813919067382813 1.1378374099731445313 1.6062779426574707031 1.5920745134353637695 1.8986496925354003906 3.1157605648040771484 2.7481858730316162109 2.5443196296691894531 3.050994873046875 3.0169711112976074219 2.7222867012023925781 2.0992493629455566406 1.1629135608673095703 1.0323494672775268555 1.0212163925170898438 1.093607783317565918 1.0440348386764526367 1 1.1699355840682983398 1.2027666568756103516 1.8557249307632446289 3.0461204051971435547 5.106227874755859375 4.2568073272705078125 
3.8462622165679931641 3.3647770881652832031 2.0996024608612060547 1.7398617267608642578 2.0032448768615722656 2.6470143795013427734 2.6811518669128417969 2.0271680355072021484 1.7657440900802612305 1.0321320295333862305 1 1.0136963129043579102 1.182468414306640625 1.0253915786743164063 1.5295373201370239258 2.0707857608795166016 2.0413053035736083984 1.3783628940582275391 2.0155975818634033203 2.1610097885131835938 1.9237926006317138672 2.9693763256072998047 3.3671205043792724609 3.4571819305419921875 3.01709747314453125 2.9611971378326416016 2.3215169906616210938 1.8981633186340332031 1 1.0198099613189697266 1.0012072324752807617 1.3157711029052734375 1.764683842658996582 1.5977485179901123047 1.8767035007476806641 2.6890070438385009766 2.8180279731750488281 3.6239748001098632813 4.220947265625 4.9437966346740722656 
2.6922175884246826172 2.7875108718872070313 2.0670554637908935547 2.1098010540008544922 2.6998026371002197266 2.8936250209808349609 2.6152031421661376953 1.6749405860900878906 1.2516617774963378906 1.018894195556640625 1.003338932991027832 1.0006335973739624023 1.1483072042465209961 1.1366416215896606445 1.1971110105514526367 1.497902989387512207 1 1.7117239236831665039 1.942780613899230957 1.5656286478042602539 1.7392581701278686523 1.9153921604156494141 2.7979960441589355469 3.2034702301025390625 3.1288614273071289063 3.1496930122375488281 2.5427057743072509766 1.8821989297866821289 1.4614827632904052734 1.4695596694946289063 1.5977485179901123047 1.2381954193115234375 1.6234308481216430664 1.9802343845367431641 2.7801213264465332031 3.855091094970703125 3.4912836551666259766 4.1046719551086425781 5.2719106674194335938 5.1993846893310546875 
2.5436663627624511719 2.583705902099609375 2.1641521453857421875 2.1005444526672363281 3.1685671806335449219 2.9671523571014404297 2.5456452369689941406 1.9732903242111206055 2.4960439205169677734 1.7180753946304321289 1.2446160316467285156 1.2568345069885253906 1.2959808111190795898 1.225345611572265625 1.0078576803207397461 1.2993295192718505859 1.0300197601318359375 2.0009810924530029297 1.9662953615188598633 1.3167941570281982422 1.9555660486221313477 1.5038342475891113281 2.4703888893127441406 2.7221851348876953125 2.1105351448059082031 2.5107970237731933594 2.1051225662231445313 1.504931330680847168 1.8665378093719482422 2.4532139301300048828 3.1001451015472412109 3.3201413154602050781 2.9432778358459472656 4.5755000114440917969 4.1350674629211425781 4.2053155899047851563 3.4513864517211914063 4.1300215721130371094 4.8201479911804199219 4.4793562889099121094 
2.9551293849945068359 3.4189600944519042969 2.7680222988128662109 1.9630143642425537109 3.0183548927307128906 3.0063333511352539063 2.529003143310546875 3.1324830055236816406 3.4225225448608398438 2.9363415241241455078 2.3844366073608398438 1.6170102357864379883 1.4821778535842895508 1 1 1.0249397754669189453 1.1890425682067871094 1.0093294382095336914 1.3901728391647338867 1.528725743293762207 1.4768654108047485352 1.7709631919860839844 1.5977487564086914063 1.8085908889770507813 1.7424433231353759766 1.6549564599990844727 1.3073680400848388672 1.5415332317352294922 2.1418919563293457031 2.5412189960479736328 3.1011745929718017578 2.8489961624145507813 2.9949491024017333984 3.8576714992523193359 3.8760082721710205078 3.6153931617736816406 3.4213178157806396484 3.6593346595764160156 2.9129114151000976563 2.5619587898254394531 
3.117458343505859375 3.8970007896423339844 3.3158721923828125 3.0987293720245361328 3.26782989501953125 2.8110668659210205078 2.6128165721893310547 3.3690624237060546875 3.0336391925811767578 2.6647000312805175781 1.7669914960861206055 1.9059368371963500977 1.8224691152572631836 1 1 1.0614560842514038086 1.4004904031753540039 1.156841278076171875 1.3414839506149291992 1.1839696168899536133 1.4643845558166503906 1.9471890926361083984 1.4632723331451416016 1.3814586400985717773 1.8221648931503295898 2.2612040042877197266 1.9978437423706054688 1.9946204423904418945 2.6092832088470458984 2.8209993839263916016 3.7945511341094970703 4.3091187477111816406 3.8687725067138671875 4.41802215576171875 5.1260380744934082031 4.02722930908203125 3.6200122833251953125 4.2499551773071289063 2.3237004280090332031 1.8911570310592651367 
1.9914240837097167969 2.9949033260345458984 3.0144617557525634766 2.2722907066345214844 2.2143566608428955078 2.5084373950958251953 2.9085831642150878906 3.2938504219055175781 2.9013941287994384766 2.5071470737457275391 1.865126490592956543 1.4821778535842895508 1.3794484138488769531 1.1290366649627685547 1.011858820915222168 1.0479601621627807617 1.5223919153213500977 1.1729671955108642578 1.8802751302719116211 2.0185663700103759766 1.6412411928176879883 2.2128717899322509766 2.0800054073333740234 1.003741145133972168 1.6359243392944335938 2.1482753753662109375 1.7859337329864501953 2.3377778530120849609 2.7048633098602294922 3.3721754550933837891 3.9937727451324462891 4.0581560134887695313 4.6872110366821289063 4.4278607368469238281 4.7286028861999511719 2.8077974319458007813 3.4667460918426513672 4.9308261871337890625 2.5139794349670410156 1.1131290197372436523 
1.4411387443542480469 1.763411402702331543 2.1522233486175537109 1.6352596282958984375 1.8689330816268920898 2.2586786746978759766 2.35044097900390625 2.8791949748992919922 2.6692781448364257813 2.4805715084075927734 2.5421140193939208984 2.0675761699676513672 2.1242368221282958984 1.0327365398406982422 1 1.2759237289428710938 2.1543667316436767578 2.0329022407531738281 2.14131927490234375 2.4241871833801269531 2.0527746677398681641 1.5209804773330688477 1.2542718648910522461 1.2624846696853637695 1.73345947265625 1.8167617321014404297 1.1658523082733154297 1.3676815032958984375 1.7364532947540283203 2.6925957202911376953 3.3174149990081787109 3.4422962665557861328 3.8621225357055664063 3.0954802036285400391 2.6299729347229003906 2.2984693050384521484 4.00780487060546875 5.5308365821838378906 3.0075783729553222656 1.1586192846298217773 
1.0194356441497802734 1 1.4287217855453491211 1.1966379880905151367 1.8283530473709106445 1.9285485744476318359 3.2995600700378417969 3.6715059280395507813 3.2255387306213378906 2.5743117332458496094 2.1164758205413818359 2.2586381435394287109 2.1443309783935546875 1.4051308631896972656 1.0211093425750732422 1 1.8176441192626953125 2.1677660942077636719 1.9232934713363647461 2.8711576461791992188 2.0266354084014892578 1.3528347015380859375 1.3007559776306152344 1.7237794399261474609 1.7534830570220947266 1.0028736591339111328 1 1.3675972223281860352 1.403063654899597168 1.7932915687561035156 2.5906977653503417969 2.6719901561737060547 3.4936835765838623047 2.8425726890563964844 1.3820289373397827148 1.6500400304794311523 2.794345855712890625 3.4447410106658935547 2.9307830333709716797 2.3358356952667236328 
1.7383399009704589844 1.3549255132675170898 1.3598023653030395508 1.4127751588821411133 1.3963344097137451172 2.0496068000793457031 4.769321441650390625 4.6539006233215332031 2.8990190029144287109 2.2788681983947753906 1.578005671501159668 1.0161033868789672852 1.1404632329940795898 1.190808415412902832 1 1.2018069028854370117 1.0452269315719604492 2.3651437759399414063 2.603199005126953125 1.945595860481262207 1.4341406822204589844 1.3291800022125244141 1.3403313159942626953 1.6197726726531982422 1.4564691781997680664 1.0793555974960327148 2.2038788795471191406 1.5047898292541503906 1.4161357879638671875 1.5251833200454711914 1.8732581138610839844 2.7760987281799316406 3.1232771873474121094 2.7351620197296142578 2.1665511131286621094 1.9451106786727905273 2.4524557590484619141 2.7956981658935546875 2.7577228546142578125 2.2277858257293701172 
2.2774643898010253906 1.7872931957244873047 1.0238250494003295898 1.4956985712051391602 1.1898430585861206055 1.6234308481216430664 3.2356231212615966797 3.7072689533233642578 2.2768473625183105469 1.4736895561218261719 1.2912926673889160156 1.3776572942733764648 1.3398184776306152344 1.4670550823211669922 1.2143577337265014648 1.1792435646057128906 1.079110264778137207 2.1703166961669921875 1.1684464216232299805 1.3887488842010498047 2.16180419921875 2.4263978004455566406 1.9007365703582763672 1.607799530029296875 1.3152425289154052734 1.0947953462600708008 1.4036574363708496094 1.1612001657485961914 1.4959510564804077148 1.7766549587249755859 1.4628752470016479492 1.2902776002883911133 1.5913153886795043945 2.2120783329010009766 2.6953046321868896484 2.4405684471130371094 3.0969340801239013672 2.8436305522918701172 2.6214549541473388672 2.444400787353515625 
2.5607593059539794922 1.9393285512924194336 1.8298746347427368164 1.1000539064407348633 1.3628728389739990234 1.3794935941696166992 2.5532414913177490234 2.9688963890075683594 1.6040346622467041016 1.1147353649139404297 1.2769491672515869141 1.9617207050323486328 3.0902056694030761719 2.2559330463409423828 1.698643803596496582 1.4901756048202514648 1.8931713104248046875 1.6436046361923217773 1.3145346641540527344 1.1596152782440185547 1.9039494991302490234 2.4305274486541748047 2.2309894561767578125 2.0568170547485351563 1.6876367330551147461 1.2381954193115234375 1 1.0041924715042114258 1.229222416877746582 1.2748354673385620117 1.0811141729354858398 1.8383274078369140625 1.2830836772918701172 2.02252197265625 2.8146584033966064453 3.4567289352416992188 3.6142818927764892578 3.8584637641906738281 3.8235137462615966797 2.92382049560546875 
1.7357621192932128906 1.7235074043273925781 1.4891835451126098633 1.0134882926940917969 1.3673503398895263672 1.7492575645446777344 2.2041127681732177734 2.1070015430450439453 1.603697657585144043 1.0077575445175170898 2.0400180816650390625 2.6545696258544921875 5.0121788978576660156 2.8542017936706542969 1.7779610157012939453 2.375244140625 1.1138377189636230469 1.994936823844909668 1.6568044424057006836 1.8267329931259155273 2.9815011024475097656 3.7874557971954345703 3.8880772590637207031 2.6957154273986816406 2.0343487262725830078 2.0536103248596191406 1.0776807069778442383 1.1982870101928710938 1.0415555238723754883 1.0198954343795776367 1.0575433969497680664 1.7092638015747070313 1.2865914106369018555 1.9991027116775512695 3.0568754673004150391 3.3011074066162109375 3.3015370368957519531 3.4619481563568115234 3.9421088695526123047 3.6407968997955322266 
1.1041985750198364258 1.0084542036056518555 1.2102124691009521484 1.6850281953811645508 1.6487993001937866211 1.549158930778503418 1.8877291679382324219 1.6540060043334960938 1.2989065647125244141 1.1520049571990966797 1.4381287097930908203 1.9953958988189697266 4.9029965400695800781 3.7214994430541992188 2.3896212577819824219 2.6294498443603515625 1.1348911523818969727 1.1068824529647827148 1.1083719730377197266 2.1783051490783691406 4.1948838233947753906 5.9964251518249511719 4.9928998947143554688 3.5828032493591308594 1.508156895637512207 1.8160486221313476563 1 1.001912236213684082 1.0115869045257568359 1.1833841800689697266 1.0644524097442626953 1.0463892221450805664 2.0113041400909423828 2.8216614723205566406 3.2362072467803955078 3.1249232292175292969 3.1870911121368408203 3.5001976490020751953 3.0922944545745849609 3.6015555858612060547 
1.7102941274642944336 1.1555975675582885742 1.0361657142639160156 2.6595396995544433594 2.2403056621551513672 1.3858690261840820313 1.7817498445510864258 1.2959514856338500977 1.0005091428756713867 1.0387510061264038086 1.8291779756546020508 2.1953008174896240234 5.2984519004821777344 3.6018476486206054688 2.7541871070861816406 1.9311882257461547852 1.4503152370452880859 1.002902984619140625 1.6751101016998291016 2.6748402118682861328 3.8843593597412109375 5.8847546577453613281 5.2234511375427246094 3.6882350444793701172 1.1160804033279418945 1.1094678640365600586 1.0223186016082763672 1.0590879917144775391 1.0529704093933105469 1.0125030279159545898 1.0668210983276367188 1.1055637598037719727 1.2646214962005615234 2.1001596450805664063 2.8478715419769287109 3.1610968112945556641 2.7611687183380126953 3.4889957904815673828 3.9062259197235107422 3.2593762874603271484 
3.0278978347778320313 2.3008716106414794922 1.5912457704544067383 1.6615737676620483398 1.3964858055114746094 1.1354659795761108398 1.3875184059143066406 1.7257696390151977539 1.348521113395690918 1.0085155963897705078 1.978360295295715332 2.3359084129333496094 4.5615277290344238281 2.5569491386413574219 1.1092621088027954102 1 1 1.1396635770797729492 1.7842454910278320313 2.5398771762847900391 2.5300314426422119141 4.6176776885986328125 4.4876689910888671875 3.1279649734497070313 1.0509852170944213867 1.0081146955490112305 1.0545117855072021484 1 1 1.2492041587829589844 1.1153565645217895508 1.2309408187866210938 2.2520999908447265625 2.1331462860107421875 2.8123240470886230469 2.8561856746673583984 2.523578643798828125 2.9524183273315429688 4.0136890411376953125 2.9554915428161621094 
3.97881317138671875 2.8262040615081787109 2.0600309371948242188 1.4693367481231689453 1.0514523983001708984 1.1804101467132568359 1.1942535638809204102 2.0271840095520019531 1.7408287525177001953 1 1.5534980297088623047 1.9635825157165527344 2.2661015987396240234 1.7636208534240722656 1 1.1937031745910644531 1 1.1175333261489868164 2.0106604099273681641 1.8630144596099853516 1.9150881767272949219 4.0413999557495117188 3.7980430126190185547 2.1113958358764648438 1.2574572563171386719 1.150096893310546875 1.0385397672653198242 1.1931841373443603516 1.1588654518127441406 1.0151472091674804688 1.1818451881408691406 1.3740596771240234375 2.7320516109466552734 3.8635003566741943359 4.6965799331665039063 2.7944092750549316406 2.7433774471282958984 3.2717463970184326172 3.7764933109283447266 2.8992338180541992188 
4.0152082443237304688 2.8701903820037841797 2.2668144702911376953 1.6156661510467529297 1.3987102508544921875 1.4574952125549316406 1.3108330965042114258 1.88130950927734375 1.5885976552963256836 1.5468838214874267578 1.674831390380859375 1.637658238410949707 1.4033387899398803711 1.0819541215896606445 1 1.0682686567306518555 1.1162042617797851563 1.141886591911315918 1.8356325626373291016 1.5338433980941772461 1.7633990049362182617 3.0539071559906005859 2.4736618995666503906 1.3858690261840820313 1.2174335718154907227 1.0012820959091186523 1.004088282585144043 1.1739934682846069336 1 1.2326805591583251953 1.2182613611221313477 1.008150935173034668 1.8293694257736206055 3.8471806049346923828 6.1571598052978515625 3.8776748180389404297 2.8317711353302001953 4.1577410697937011719 3.3111007213592529297 2.9529731273651123047 
2.7476637363433837891 2.7389543056488037109 3.4013638496398925781 2.0471897125244140625 2.0150868892669677734 1.9805099964141845703 1.7492277622222900391 2.6507823467254638672 2.0503418445587158203 1.125315546989440918 1.2255387306213378906 1.0066316127777099609 1.0124351978302001953 1.0060139894485473633 1 1.003752589225769043 1.0198954343795776367 1.0327365398406982422 1.8272461891174316406 1.8519189357757568359 2.2289652824401855469 2.4764580726623535156 2.1179280281066894531 1.9922896623611450195 1.2510366439819335938 1.0630707740783691406 1 1 1.1313195228576660156 1 1.2822175025939941406 1.0448348522186279297 1.3991665840148925781 2.3935089111328125 3.3698313236236572266 3.3632423877716064453 3.61531829833984375 4.80608367919921875 4.6617937088012695313 4.4374947547912597656 
1.912114262580871582 2.5287339687347412109 1.9829839468002319336 1.7518427371978759766 2.4483549594879150391 3.1359503269195556641 2.5483765602111816406 3.3628766536712646484 3.0173716545104980469 1.6702311038970947266 1.756951451301574707 1.2230663299560546875 1.0997245311737060547 1.1193411350250244141 1.764683842658996582 1.26387786865234375 1.1932513713836669922 1.4500749111175537109 2.0571744441986083984 2.4075691699981689453 3.5457887649536132813 4.2338924407958984375 3.5514605045318603516 2.7283124923706054688 1.8374434709548950195 1.0069420337677001953 1 1.1459052562713623047 1.0176330804824829102 1.1994742155075073242 1.2965631484985351563 2.0150103569030761719 1.2634484767913818359 1.6349898576736450195 1.9508810043334960938 2.7274627685546875 3.0224480628967285156 2.6808035373687744141 3.4293816089630126953 4.8244791030883789063 
1.2060924768447875977 1.5977485179901123047 2.0664515495300292969 1.9701427221298217773 2.3361711502075195313 2.5413606166839599609 2.1683933734893798828 2.6493213176727294922 2.4236826896667480469 2.2051889896392822266 2.4593546390533447266 1.0263160467147827148 1.1430622339248657227 1 1.3345043659210205078 2.3934276103973388672 3.3949096202850341797 3.3013081550598144531 3.1938681602478027344 2.7508604526519775391 3.8152756690979003906 4.0937132835388183594 4.4626736640930175781 3.6181020736694335938 3.2386012077331542969 1.9799039363861083984 1.1473827362060546875 1 1.0339505672454833984 1.0165255069732666016 1.2862695455551147461 2.2593271732330322266 1 1.0395028591156005859 1.4428192377090454102 2.5369131565093994141 2.3301613330841064453 2.5522775650024414063 2.3873598575592041016 2.4966311454772949219 
1.1932513713836669922 2.0792927742004394531 2.4195840358734130859 2.1036252975463867188 1.4885984659194946289 1.9821184873580932617 1.9829839468002319336 2.2193784713745117188 2.2970097064971923828 2.2396967411041259766 2.1979622840881347656 1.3730483055114746094 1 1.0160567760467529297 1.1838393211364746094 1.6137003898620605469 1.9508810043334960938 3.7736442089080810547 4.0243535041809082031 3.5547358989715576172 3.3267443180084228516 3.3530128002166748047 3.0353879928588867188 4.1493244171142578125 3.4362044334411621094 2.2406210899353027344 2.1171963214874267578 2.015354156494140625 1.4479434490203857422 1 1.0744259357452392578 1.1771956682205200195 1.036856532096862793 1.1664142608642578125 1.6004027128219604492 2.2359950542449951172 2.1152663230895996094 2.3697564601898193359 2.3591010570526123047 2.2205457687377929688 
2.1458647251129150391 3.2446980476379394531 3.5566797256469726563 4.449920654296875 2.4520533084869384766 2.2033395767211914063 1.9665954113006591797 2.1127817630767822266 1.0754184722900390625 1.297185063362121582 1.1858860254287719727 1.2360190153121948242 1.7571759223937988281 1.0601661205291748047 1 1.1353805065155029297 1.1611484289169311523 2.0017375946044921875 2.6525619029998779297 2.6080584526062011719 3.1135048866271972656 3.8709287643432617188 3.9157011508941650391 3.0368852615356445313 2.3523571491241455078 1.8762580156326293945 2.2843570709228515625 2.0965983867645263672 2.0434064865112304688 1.4314641952514648438 1.8787275552749633789 1.375713348388671875 1.000989079475402832 1.4611947536468505859 1.6640393733978271484 2.1390781402587890625 1.1756889820098876953 1.4862380027770996094 1.6041767597198486328 2.2022898197174072266 
3.6906118392944335938 4.1015682220458984375 5.2515325546264648438 4.9474596977233886719 3.0204920768737792969 2.1122133731842041016 1.4981747865676879883 1 1.3220334053039550781 1.5535703897476196289 1.8223278522491455078 1.1538510322570800781 1.1538033485412597656 1.0957493782043457031 1.1417627334594726563 1 1.087170720100402832 1.1109887361526489258 1.5670216083526611328 1.7921602725982666016 2.6938714981079101563 3.8864893913269042969 3.2410225868225097656 2.1746757030487060547 1.7596924304962158203 2.0699307918548583984 2.1567909717559814453 2.1791863441467285156 2.8887240886688232422 2.4890010356903076172 2.4508173465728759766 1.1738412380218505859 1 1.4511878490447998047 1.3580738306045532227 1.4508348703384399414 1.0857374668121337891 1.2664628028869628906 1.599765777587890625 2.0100739002227783203 
3.4615573883056640625 4.8788876533508300781 5.7357544898986816406 4.1563291549682617188 2.4263095855712890625 1.3430434465408325195 1.0999915599822998047 1.0050221681594848633 1.377066493034362793 1.677550196647644043 1.349396824836730957 1.0214383602142333984 1.138132929801940918 1.2061153650283813477 1.2820132970809936523 1.295894622802734375 1.3764060735702514648 1.3791414499282836914 1.7991859912872314453 1.9081772565841674805 1.8977913856506347656 2.2435882091522216797 1.342505335807800293 1.0111633539199829102 1.121298670768737793 1.7442390918731689453 2.0938773155212402344 1.913588404655456543 3.0588800907135009766 2.8424553871154785156 2.3698940277099609375 1.1876633167266845703 1.0469452142715454102 1.1552165746688842773 1.4619966745376586914 1.1721804141998291016 1.3740322589874267578 1.9834024906158447266 1.609127044677734375 1.385023951530456543 
3.6732316017150878906 4.9631915092468261719 5.0850067138671875 3.6718082427978515625 2.0784449577331542969 1.2504308223724365234 1.0200017690658569336 1.0522582530975341797 1.0281823873519897461 1.0526298284530639648 1 1.1246808767318725586 1.2913517951965332031 1.2920625209808349609 1.7498044967651367188 1.5682395696640014648 1.4257615804672241211 1.5634905099868774414 2.3096477985382080078 2.8625757694244384766 2.2108197212219238281 2.2603387832641601563 1.3935847282409667969 1.0663988590240478516 1 1.2486975193023681641 1.7106038331985473633 1.7421239614486694336 2.1710863113403320313 2.1674494743347167969 1.9215260744094848633 1.4946388006210327148 1.4418282508850097656 1.6832387447357177734 2.0916624069213867188 2.1125171184539794922 1.8848105669021606445 2.3316562175750732422 1.8827306032180786133 1.146235346794128418 
3.3543450832366943359 4.5701384544372558594 3.3825359344482421875 2.7653470039367675781 2.1593072414398193359 1.8151572942733764648 2.2474370002746582031 2.2835109233856201172 1.819520115852355957 1.3495925664901733398 1.5453430414199829102 1.2825865745544433594 1.0379011631011962891 1.1491427421569824219 1.0148806571960449219 1.3082698583602905273 1.4025423526763916016 1.5056415796279907227 2.6235110759735107422 3.0044567584991455078 2.6092376708984375 1.8373520374298095703 1.4014624357223510742 1.0554327964782714844 1.0712304115295410156 1.1105424165725708008 1.2253662347793579102 1.2658612728118896484 1.2583419084548950195 1.5469319820404052734 1.3170816898345947266 1.3481311798095703125 1.4145144224166870117 1.6549634933471679688 1.7629230022430419922 2.5492265224456787109 3.1884200572967529297 2.7490513324737548828 2.1402935981750488281 1.547476649284362793 
2.7558424472808837891 3.0712234973907470703 2.7016274929046630859 3.00084686279296875 2.6153788566589355469 2.482837677001953125 3.7843885421752929688 3.6333830356597900391 2.7284483909606933594 2.8738756179809570313 2.1118619441986083984 1.6073153018951416016 1.2822427749633789063 1.019366145133972168 1.3436180353164672852 1.0287623405456542969 1.0933423042297363281 1.4657629728317260742 1.4359829425811767578 2.6848437786102294922 2.3195912837982177734 1.600734710693359375 1.2398617267608642578 1.0094434022903442383 1.0104660987854003906 1.8428473472595214844 1.6954382658004760742 1.2342509031295776367 1.5374013185501098633 1.2869913578033447266 1.0382710695266723633 1.1039311885833740234 1.2797919511795043945 1.7471866607666015625 1.8963866233825683594 2.8936028480529785156 4.1930513381958007813 4.2229738235473632813 3.6176164150238037109 2.3988785743713378906 
1.6376608610153198242 1.8030905723571777344 1.5462872982025146484 2.7024617195129394531 1.9479681253433227539 1.9380102157592773438 3.4826800823211669922 4.2401132583618164063 3.7923529148101806641 3.1121935844421386719 2.8217923641204833984 2.9576270580291748047 2.8193171024322509766 1.874762415885925293 1.7098387479782104492 1.4016106128692626953 1.2023141384124755859 1.5327466726303100586 1.8022772073745727539 2.2578368186950683594 2.6163578033447265625 1.6851733922958374023 1 1.3662574291229248047 2.1420722007751464844 2.3239474296569824219 1.4834176301956176758 1.3007301092147827148 1.5811057090759277344 1.4578120708465576172 1.6517659425735473633 1.2207233905792236328 1.3061323165893554688 2.1396570205688476563 2.9934356212615966797 3.5358104705810546875 4.5998563766479492188 4.8084650039672851563 3.9786646366119384766 3.5492942333221435547 
1 1.1176877021789550781 1.1600288152694702148 1.5247656106948852539 1.5187172889709472656 1.3585737943649291992 2.3709940910339355469 3.1002109050750732422 4.0325312614440917969 4.4607381820678710938 3.0706274509429931641 3.3298709392547607422 3.7373013496398925781 3.2329590320587158203 2.9783482551574707031 2.5189189910888671875 1.8014395236968994141 1.9401011466979980469 1.9625616073608398438 2.5372557640075683594 2.7106897830963134766 2.0311896800994873047 1.2749475240707397461 1.2939180135726928711 1.5613141059875488281 1.2579042911529541016 1.0117881298065185547 1.2527787685394287109 1.4173650741577148438 1.1496388912200927734 1.4837775230407714844 1.3465174436569213867 1.1681363582611083984 2.0916588306427001953 3.365459442138671875 4.0667929649353027344 4.6076130867004394531 4.3640551567077636719 3.8461291790008544922 4.1852054595947265625 
1 1.2634748220443725586 1.6731151342391967773 1.388238072395324707 1.1560227870941162109 1.2007972002029418945 1.7729284763336181641 2.23635101318359375 3.9600613117218017578 4.6403231620788574219 3.1491692066192626953 3.9510254859924316406 4.3227534294128417969 3.6511068344116210938 3.2860736846923828125 2.5672247409820556641 2.3892700672149658203 2.7879123687744140625 1.9229007959365844727 2.1687815189361572266 2.4178130626678466797 2.3798716068267822266 1.8524280786514282227 1.3772865533828735352 1.6292139291763305664 1.120074152946472168 1.1598998308181762695 1.1991746425628662109 1.1556552648544311523 1.1564681529998779297 1.5961726903915405273 1.3567469120025634766 1.090323328971862793 1.6642942428588867188 2.5720148086547851563 2.8429172039031982422 3.2529094219207763672 3.5201709270477294922 3.9185233116149902344 3.5938768386840820313 
2.2847647666931152344 2.7791385650634765625 3.0680887699127197266 1.5947010517120361328 1.8937071561813354492 1.4452326297760009766 1.9110169410705566406 2.4307587146759033203 4.4428205490112304688 3.7722623348236083984 3.5612802505493164063 4.4541101455688476563 5.8215665817260742188 5.5717854499816894531 4.1764655113220214844 2.9997398853302001953 2.4947011470794677734 2.4238126277923583984 1.76177978515625 1.9046939611434936523 2.6804785728454589844 2.6925499439239501953 2.373546600341796875 1.7909487485885620117 1.14992523193359375 1.1094880104064941406 1.1538836956024169922 1.2780833244323730469 1.2372407913208007813 1.6110385656356811523 1.6891374588012695313 1.7405303716659545898 1.6418524980545043945 1.833363652229309082 2.1236643791198730469 2.774974822998046875 3.2525856494903564453 3.9471611976623535156 4.1388254165649414063 3.9734015464782714844 
2.1535964012145996094 2.4491276741027832031 2.4501776695251464844 2.0117762088775634766 1.1862806081771850586 1.2638916969299316406 1.2647683620452880859 1.5732412338256835938 2.3267490863800048828 3.2422840595245361328 3.2107539176940917969 3.4966886043548583984 4.8433198928833007813 5.2117962837219238281 4.2085900306701660156 3.707592010498046875 2.7822716236114501953 2.0572266578674316406 1.6920510530471801758 1.6069605350494384766 1.9041759967803955078 2.4480764865875244141 2.8877050876617431641 2.6883590221405029297 1.7147306203842163086 1.4342349767684936523 1.3766376972198486328 1.2688274383544921875 1.6011775732040405273 2.2328822612762451172 2.4627735614776611328 2.2809026241302490234 1.8189369440078735352 2.2678942680358886719 2.2314915657043457031 2.5188019275665283203 3.5745077133178710938 4.3473291397094726563 5.1758556365966796875 3.4524455070495605469 
2.2328028678894042969 2.5928065776824951172 2.1571738719940185547 1.648493647575378418 1.3202964067459106445 2.6464800834655761719 1.5290505886077880859 1.2354083061218261719 1.5117816925048828125 2.2080430984497070313 3.0753338336944580078 3.3342936038970947266 3.5196366310119628906 5.259429931640625 4.8342738151550292969 3.9200806617736816406 2.7268784046173095703 1.8826506137847900391 1.8427841663360595703 1.313840031623840332 1.5955693721771240234 2.1411838531494140625 3.4805252552032470703 2.7650768756866455078 2.4976558685302734375 2.4215257167816162109 1.6729347705841064453 1.4101090431213378906 1.7790935039520263672 2.2311131954193115234 2.1044609546661376953 2.0087275505065917969 1.8355795145034790039 1.9982868432998657227 2.2091460227966308594 2.4489383697509765625 3.1637609004974365234 3.5702183246612548828 4.0132517814636230469 4.7633609771728515625 
1.9440777301788330078 2.0408525466918945313 2.2810945510864257813 1.3651813268661499023 1.4766430854797363281 2.6584734916687011719 1.9117338657379150391 1.9729665517807006836 1.7614681720733642578 2.5455660820007324219 3.0557317733764648438 3.3026638031005859375 3.2103991508483886719 4.2415304183959960938 4.6092281341552734375 3.5965890884399414063 2.8538413047790527344 1.7533308267593383789 2.0839800834655761719 1.7068223953247070313 1.6326528787612915039 2.0033154487609863281 2.9483990669250488281 3.1152546405792236328 2.6462113857269287109 2.5720074176788330078 2.1138398647308349609 1.8226137161254882813 2.0166065692901611328 2.3391327857971191406 2.4854602813720703125 2.0153360366821289063 1.9295934438705444336 1.9977281093597412109 1.8007609844207763672 1.7972958087921142578 2.3343069553375244141 3.0260820388793945313 2.8988325595855712891 3.8786962032318115234 
1.7812047004699707031 1.3794988393783569336 1.7276461124420166016 2.1957383155822753906 1.5354496240615844727 1.3630819320678710938 1.7546246051788330078 2.1462967395782470703 1.7697236537933349609 2.1899914741516113281 4.2836151123046875 4.2396364212036132813 4.7758088111877441406 5.2584142684936523438 5.3775539398193359375 3.8465249538421630859 3.1259799003601074219 2.1744010448455810547 3.0442104339599609375 2.5785639286041259766 1.9862807989120483398 2.4196877479553222656 3.233661651611328125 3.672626495361328125 2.7597286701202392578 2.6237597465515136719 2.7023675441741943359 2.3605372905731201172 1.9535883665084838867 2.0714480876922607422 2.589832305908203125 2.1313192844390869141 1.559047698974609375 1.6306524276733398438 1.3152439594268798828 1.8035591840744018555 2.6554963588714599609 2.6478779315948486328 2.0258150100708007813 2.6113579273223876953 
1.5934745073318481445 1.5134485960006713867 1.4420348405838012695 1.4291439056396484375 1.6167201995849609375 1.7039836645126342773 1.3988164663314819336 1.9426304101943969727 1.9155884981155395508 1.9889646768569946289 3.7931776046752929688 4.0288004875183105469 4.9522519111633300781 5.1495890617370605469 5.0809521675109863281 4.9118437767028808594 4.4561305046081542969 3.1364367008209228516 2.8427109718322753906 2.8365769386291503906 2.2975869178771972656 2.4831395149230957031 3.0312650203704833984 2.9482691287994384766 4.1598958969116210938 3.8143939971923828125 4.8569250106811523438 3.7314131259918212891 2.6419937610626220703 2.4967019557952880859 2.5772523880004882813 1.8877880573272705078 1.4766798019409179688 1.4623911380767822266 1.5611164569854736328 1.7125730514526367188 1.9344841241836547852 1.9787894487380981445 1.8129048347473144531 2.2282595634460449219 
1.6175256967544555664 2.1532354354858398438 1.9587721824645996094 1.7555748224258422852 1.7752704620361328125 1.982463836669921875 1.79636383056640625 1.6090595722198486328 2.0487105846405029297 2.3090322017669677734 3.1288826465606689453 3.3136413097381591797 3.9399137496948242188 4.2670283317565917969 5.344207763671875 6.6726789474487304688 4.6614818572998046875 3.5643100738525390625 2.6307415962219238281 2.3344950675964355469 2.2815079689025878906 2.5204334259033203125 2.3603954315185546875 2.5922882556915283203 3.6989417076110839844 5.3005204200744628906 7.1582050323486328125 5.2921204566955566406 3.2230207920074462891 3.1315257549285888672 2.9565236568450927734 2.1662638187408447266 1.6679991483688354492 1.5896105766296386719 1.5340365171432495117 1.6859893798828125 1.8969565629959106445 1.9856169223785400391 2.2235620021820068359 2.4715673923492431641 
1.6698811054229736328 2.2148668766021728516 2.5729591846466064453 2.2359716892242431641 2.2195353507995605469 2.0134229660034179688 1.7993744611740112305 1.5913680791854858398 2.0028243064880371094 2.6824383735656738281 2.8418602943420410156 3.3235571384429931641 3.4983975887298583984 4.4742422103881835938 5.7196860313415527344 6.2055225372314453125 5.5369839668273925781 4.8531045913696289063 3.4445230960845947266 2.97599029541015625 2.2598736286163330078 2.402988433837890625 2.6205642223358154297 2.5089652538299560547 3.6639034748077392578 5.9370203018188476563 7.0373063087463378906 6.8292703628540039063 3.6725864410400390625 3.8232886791229248047 4.7221899032592773438 3.0912749767303466797 1.954035639762878418 1.8159996271133422852 1.8973973989486694336 2.1356663703918457031 2.3874361515045166016 2.1135802268981933594 2.1381788253784179688 2.2908871173858642578 
