ncols        40
nrows        40
xllcorner    -0.000000000000
yllcorner    0.000000000000
cellsize     5.000000000000
NODATA_value nan
3.2970366477966308594 2.7555594444274902344 2.5050806999206542969 1.7451581954956054688 2.1804668903350830078 2.1848011016845703125 1.8226792812347412109 1.9419876337051391602 1.9040795564651489258 1.7151087522506713867 1.3469088077545166016 1.095339655876159668 1.4197462797164916992 1.7459462881088256836 1.7787767648696899414 1.5359095335006713867 1 1 1 1 1.4017328023910522461 1.9657118320465087891 2.0430834293365478516 1.4667117595672607422 1 1 1 1 1.0890169143676757813 2.4353530406951904297 3.551959991455078125 2.9856965541839599609 2.9092655181884765625 2.7501893043518066406 1.3351572751998901367 1.2533235549926757813 1.2956693172454833984 1.4543323516845703125 1.9605504274368286133 2.3046808242797851563 
2.9763076305389404297 2.7939727306365966797 2.68448638916015625 2.3530445098876953125 2.4222900867462158203 2.1185700893402099609 1.6381449699401855469 2.0259587764739990234 1.9157792329788208008 1.6290555000305175781 1.3872349262237548828 1.8359509706497192383 1.7014690637588500977 1.9590628147125244141 2.8906719684600830078 3.8957273960113525391 2.3312613964080810547 1 1 1 1.3921806812286376953 1.910999298095703125 1.5890233516693115234 1.1781710386276245117 1 1 1 1 1 2.0748763084411621094 2.0950458049774169922 2.5041739940643310547 2.1314113140106201172 1.4751645326614379883 1.3071933984756469727 1.1796995401382446289 1.7016733884811401367 1.7903953790664672852 1.9028302431106567383 2.3838207721710205078 
2.8352932929992675781 3.1611101627349853516 2.8429732322692871094 2.6331503391265869141 2.7222716808319091797 2.4979264736175537109 1.9693214893341064453 1.6488510370254516602 1.4651991128921508789 1.2425806522369384766 1.5369534492492675781 1.6372835636138916016 2.4188082218170166016 2.3599398136138916016 3.4070508480072021484 3.7066440582275390625 3.5774776935577392578 1.9608390331268310547 2.4361238479614257813 2.0603325366973876953 1.4153805971145629883 1.707884669303894043 1.5167700052261352539 1.1810445785522460938 1 1 1 1 1.3154941797256469727 1.5506215095520019531 1.8311114311218261719 2.2759985923767089844 1.690338134765625 1.3705004453659057617 1.3867913484573364258 1.8849939107894897461 2.0930995941162109375 2.3053586483001708984 2.2567164897918701172 2.5956463813781738281 
2.3023433685302734375 2.8448014259338378906 2.8080191612243652344 3.0155158042907714844 3.1185200214385986328 2.7568795680999755859 2.0210645198822021484 1 1 1.3065328598022460938 1.5180890560150146484 1.4066462516784667969 1.8702020645141601563 2.3847417831420898438 3.0256078243255615234 3.3362176418304443359 2.4655816555023193359 2.9211227893829345703 2.99306488037109375 2.0371053218841552734 2.0300283432006835938 1.854183197021484375 1.4668616056442260742 1.6973223686218261719 1.5029882192611694336 1.1687222719192504883 1 1 1 1 1.1508884429931640625 1.1909818649291992188 1.1566430330276489258 1.3809736967086791992 1.403367161750793457 1.6320844888687133789 1.8334826231002807617 2.0034785270690917969 2.3149421215057373047 2.0979111194610595703 
2.4215705394744873047 2.5260207653045654297 2.6794762611389160156 3.0157141685485839844 3.0524599552154541016 2.7098186016082763672 2.0342242717742919922 1 1 1 1.0119159221649169922 1.5571135282516479492 1.9990903139114379883 2.3742914199829101563 2.3211741447448730469 2.9500849246978759766 2.2842779159545898438 3.1225483417510986328 3.1697995662689208984 2.2825791835784912109 2.0407776832580566406 1.3196312189102172852 1.3965017795562744141 1.2754241228103637695 1 1.2227562665939331055 1.089762568473815918 1 1 1 1 1 1 1.2234717607498168945 1.5165256261825561523 1.338580012321472168 1.2201893329620361328 1.6811221837997436523 1.6208094358444213867 1.6082745790481567383 
3.0367085933685302734 2.8015863895416259766 2.3774545192718505859 2.2479267120361328125 2.6534814834594726563 2.5954823493957519531 1.9316092729568481445 1.2844051122665405273 1 1 1 1.4397920370101928711 1.8786393404006958008 1.8902807235717773438 2.4784092903137207031 2.3188161849975585938 2.2139852046966552734 2.0974588394165039063 2.8497669696807861328 2.6991071701049804688 1.5251008272171020508 1.2632851600646972656 1 1 1 1 1 1 1 1 1 1 1 1 1 1.165578007698059082 1 1.3540669679641723633 1.3816432952880859375 1.6808636188507080078 
2.6569640636444091797 2.8015198707580566406 2.1738860607147216797 2.6206386089324951172 2.4308948516845703125 2.3716042041778564453 1.853603363037109375 1.196414947509765625 1 1 1 1.6395059823989868164 2.0659768581390380859 2.2769272327423095703 2.6020841598510742188 2.2526800632476806641 2.5731153488159179688 2.3288042545318603516 2.7624232769012451172 2.2714476585388183594 1.5730270147323608398 1.2318720817565917969 1.047572016716003418 1 1 1 1 1 1 1 1 1 1 1 1 1 1 1.1500029563903808594 1.6519680023193359375 2.1354362964630126953 
2.2879984378814697266 2.4677608013153076172 2.4604125022888183594 2.1945812702178955078 2.2107765674591064453 2.4366223812103271484 2.0710093975067138672 1.0747716426849365234 1 1 1 1.7442226409912109375 2.1832056045532226563 2.6268510818481445313 2.6827986240386962891 2.6679418087005615234 2.8930735588073730469 2.4769396781921386719 3.4844532012939453125 3.2540113925933837891 2.1684978008270263672 1.9666048288345336914 1.891642451286315918 1.1792733669281005859 1.1262258291244506836 1 1 1 1 1 1 1 1 1 1 1 1.0843786001205444336 1.3921823501586914063 2.1145024299621582031 2.3212299346923828125 
2.1553337574005126953 1.6637718677520751953 2.5579371452331542969 2.0274388790130615234 1.7908407449722290039 1.8095145225524902344 1.8646824359893798828 1.8601917028427124023 1.340189814567565918 1.4584573507308959961 1.2671997547149658203 1.9572808742523193359 1.8316131830215454102 2.1718866825103759766 2.6142182350158691406 2.9910929203033447266 3.9011945724487304688 3.5929009914398193359 3.8578217029571533203 4.0156068801879882813 2.9337506294250488281 1.5576946735382080078 1.2631351947784423828 1.7740973234176635742 1.8161655664443969727 1.6665250062942504883 1 1 1 1 1 1 1.2973345518112182617 1.1892423629760742188 1 1 1 1.0173387527465820313 1.5115249156951904297 1.7672123908996582031 
2.0524542331695556641 1.6738580465316772461 2.1995813846588134766 1.9549081325531005859 1.7155073881149291992 1.3294084072113037109 1.0930428504943847656 1.1166384220123291016 1.5804055929183959961 1.7123901844024658203 1.9355767965316772461 2.1347332000732421875 1.3870899677276611328 2.0016846656799316406 2.1723883152008056641 2.6249144077301025391 3.6875889301300048828 3.8939554691314697266 3.7616162300109863281 4.8912830352783203125 3.3323335647583007813 1.6838793754577636719 1.7620019912719726563 1.9505975246429443359 1.9240688085556030273 1.1194946765899658203 1.424403071403503418 1.2129004001617431641 1 1 1 1 1 1 1 1 1 1.3129945993423461914 1.3313413858413696289 1.4971532821655273438 
3.0566999912261962891 2.9114422798156738281 2.8501040935516357422 2.2205493450164794922 1.6315097808837890625 1.0925148725509643555 1 1.230444788932800293 1.3768545389175415039 1.2903966903686523438 1.5535712242126464844 1.3759726285934448242 1.1006748676300048828 1.7422652244567871094 1.7653659582138061523 2.1470956802368164063 2.3229982852935791016 3.8363077640533447266 4.2553944587707519531 3.4310250282287597656 2.2262563705444335938 1.0536829233169555664 1 1.1776685714721679688 1.6438002586364746094 1.8683233261108398438 3.0125699043273925781 1.5544826984405517578 1 1 1 1 1 1 1 1 1 1.3376580476760864258 1.4497510194778442383 1.8589169979095458984 
3.3365619182586669922 3.6873583793640136719 2.6315853595733642578 2.2263634204864501953 1.7788536548614501953 1.1374566555023193359 1.1774523258209228516 1.3236004114151000977 1.1194795370101928711 1 1 1 1.7515437602996826172 1.9964127540588378906 1.2823951244354248047 1.6740664243698120117 2.1722071170806884766 3.0268738269805908203 1.7900735139846801758 2.069499969482421875 2.1054365634918212891 1.3481343984603881836 1 1.079395294189453125 1.4820700883865356445 2.1794559955596923828 2.2556612491607666016 1.3732916116714477539 1 1 1 1 1 1 1 1 1 1 1.3503446578979492188 2.1580107212066650391 
3.2644226551055908203 3.2750260829925537109 3.3815228939056396484 1.8404304981231689453 1.6685563325881958008 1.3711475133895874023 1 1 1 1.3373899459838867188 1.7676477432250976563 1.7951776981353759766 3.5065274238586425781 2.8938198089599609375 1.3894774913787841797 1.3133257627487182617 1.9691845178604125977 1.208660125732421875 1.3594796657562255859 1.648423314094543457 1.6563152074813842773 1.1598033905029296875 1 1 1.6951961517333984375 1.849512934684753418 1.2760878801345825195 1.0756433010101318359 1 1 1.7690289020538330078 2.2863290309906005859 1.1871275901794433594 1 1 1 1 1 1.2032091617584228516 1.5386679172515869141 
2.7304987907409667969 2.7745668888092041016 2.4307196140289306641 1.2976478338241577148 1 1 1 1 1 1 2.5093567371368408203 3.2042589187622070313 5.8736329078674316406 3.6701452732086181641 1.6971489191055297852 2.5319206714630126953 1 1 1 1 1 1 1 1 1.3864291906356811523 1.8741664886474609375 1.3717635869979858398 1.3348581790924072266 1.1868450641632080078 1.2424826622009277344 1.9316173791885375977 2.2343156337738037109 1.1733418703079223633 1 1 1 1 1.2072849273681640625 1.2643220424652099609 1.5455545186996459961 
1.3070313930511474609 1.6044979095458984375 1.4681839942932128906 1 1 1 1 1 1 1.1975798606872558594 1.9682260751724243164 2.7367563247680664063 5.7641854286193847656 4.3747711181640625 2.6244943141937255859 3.2160451412200927734 1.2803919315338134766 1 1 1 1 1 1 1 1 1.9535566568374633789 1.973790287971496582 1.6122794151306152344 1.0198616981506347656 1.2918174266815185547 1.6461693048477172852 1.3975341320037841797 1 1 1 1 1 1 1.1860117912292480469 1.9975615739822387695 
1 1 1.0037442445755004883 1 1 1.2159889936447143555 1 1.0957673788070678711 1.0965592861175537109 1.9593563079833984375 2.4528334140777587891 2.9408047199249267578 6.7425522804260253906 4.6521391868591308594 3.3269429206848144531 2.5678317546844482422 1.8690598011016845703 1.063855290412902832 1 1 1 1 1 1 1.0914361476898193359 2.1648371219635009766 2.3774394989013671875 2.2882921695709228516 1.6107990741729736328 1.3376206159591674805 1.1021852493286132813 1 1 1 1.5224649906158447266 1.6382517814636230469 1.6755285263061523438 1.3053202629089355469 1 1.2585723400115966797 
1 1 1 1 1 1.0201382637023925781 1.2349238395690917969 1.7243559360504150391 1.6948869228363037109 2.0818684101104736328 3.4025678634643554688 3.7021975517272949219 6.0827703475952148438 3.3653028011322021484 1.7109929323196411133 1.2904199361801147461 1.4724045991897583008 1 1 1 1 1 1 1 1 1.702910304069519043 2.2004821300506591797 2.3271799087524414063 1.8000690937042236328 1.1488046646118164063 1.109466552734375 1 1.6880588531494140625 1.7138657569885253906 1.7233809232711791992 1.4851807355880737305 1.4719277620315551758 1.1504167318344116211 1 1 
1 1 1.5342601537704467773 1.5156109333038330078 1.3224054574966430664 1.0550823211669921875 1.450692296028137207 2.0660436153411865234 2.1265742778778076172 2.4336824417114257813 3.3137533664703369141 3.2200036048889160156 3.421600341796875 2.5520079135894775391 2.0085463523864746094 1.8399063348770141602 1.4141958951950073242 1.2354428768157958984 1 1 1 1 1 1.2669997215270996094 1.2745988368988037109 1.5294344425201416016 2.0692844390869140625 2.4929277896881103516 2.1989524364471435547 1.4779516458511352539 1.1777510643005371094 1.4208456277847290039 1.9809405803680419922 1.8317023515701293945 1.5533335208892822266 1 1 1.2309179306030273438 1 1 
1 1 1.7952085733413696289 2.0598139762878417969 1.9932308197021484375 1.9907393455505371094 2.2214608192443847656 2.2964565753936767578 2.5436279773712158203 3.4689891338348388672 3.6139574050903320313 3.5525038242340087891 2.7630686759948730469 1.6521894931793212891 2.1176836490631103516 1.8042325973510742188 1.5169836282730102539 1.3885104656219482422 1 1 1 1 1 1.2249372005462646484 1.801880955696105957 1.4472433328628540039 1.7657905817031860352 2.4974446296691894531 2.442203521728515625 2.280513763427734375 1.7101806402206420898 1.6185966730117797852 1.8713980913162231445 1.5793677568435668945 1 1 1 1 1 1 
1.11203765869140625 1 1.4230163097381591797 2.0775363445281982422 2.5097320079803466797 3.0340325832366943359 2.7848072052001953125 2.9779160022735595703 3.0225243568420410156 3.0421860218048095703 2.8304038047790527344 2.1616575717926025391 2.3633449077606201172 1.8015357255935668945 2.2053768634796142578 2.0491373538970947266 1.9169259071350097656 1.6867014169692993164 1 1 1 1 1 1 1.3112883567810058594 1.5734423398971557617 1.4864718914031982422 2.1748418807983398438 2.8063981533050537109 2.1840999126434326172 2.2096207141876220703 2.0795729160308837891 1.9211580753326416016 1.3019508123397827148 1.2720997333526611328 1 1 1 1 1 
1.5159348249435424805 1.4047755002975463867 1.4740561246871948242 1.9687629938125610352 2.0947751998901367188 2.6977946758270263672 2.4207279682159423828 3.0645110607147216797 3.4190945625305175781 3.2408723831176757813 3.1576371192932128906 2.3194601535797119141 1.7302187681198120117 1.051228642463684082 1.8580259084701538086 1.9331051111221313477 1.8554366827011108398 1.3998289108276367188 1.0628604888916015625 1 1 1 1 1 1.047503352165222168 1.2876228094100952148 1.8333014249801635742 2.8228766918182373047 2.7027423381805419922 3.0517408847808837891 2.7367317676544189453 3.4443187713623046875 2.0921704769134521484 1.5445142984390258789 1.1266651153564453125 1 1 1 1.0914846658706665039 1 
1.7643202543258666992 2.1320962905883789063 2.0523304939270019531 1.6544333696365356445 1.7550683021545410156 2.2566964626312255859 1.9902375936508178711 2.7994813919067382813 3.7588379383087158203 3.6748287677764892578 3.4130008220672607422 2.0800442695617675781 1.4437148571014404297 1.3908102512359619141 2.1821675300598144531 1.9135546684265136719 1.7539973258972167969 1.0439847707748413086 1.0453618764877319336 1.0206667184829711914 1 1 1 1 1 1.3067369461059570313 1.8188288211822509766 2.2430233955383300781 2.4725401401519775391 2.8266048431396484375 3.201385498046875 4.5897455215454101563 2.3285999298095703125 1.5798195600509643555 1 1 1 1.1191790103912353516 1.1799312829971313477 1.9088373184204101563 
1.9002777338027954102 2.1666338443756103516 2.3024296760559082031 1.8097782135009765625 1.9614663124084472656 2.3630387783050537109 1.9320636987686157227 2.6858942508697509766 3.7810270786285400391 4.3564705848693847656 4.1392989158630371094 2.7432112693786621094 2.2752604484558105469 2.1674628257751464844 2.73577880859375 2.2803475856781005859 1.7002493143081665039 1.1888387203216552734 1.2089219093322753906 1.1142368316650390625 1.1414264440536499023 1.2255036830902099609 1.1751396656036376953 1 1 1.6358122825622558594 2.0349600315093994141 2.2657437324523925781 2.2101080417633056641 2.9323146343231201172 3.1667468547821044922 3.42855072021484375 2.3455948829650878906 1.8698189258575439453 1.1181453466415405273 1.0592604875564575195 1.0400136709213256836 1.15052032470703125 1.1393264532089233398 1.7883727550506591797 
2.6645810604095458984 2.3342099189758300781 2.2890884876251220703 2.4370889663696289063 2.3530569076538085938 1.8611503839492797852 2.0701088905334472656 2.3177249431610107422 2.4100599288940429688 3.7694687843322753906 3.7745878696441650391 3.6617753505706787109 3.4449138641357421875 3.0921101570129394531 2.6919307708740234375 2.2268545627593994141 1.4015582799911499023 1.401032567024230957 1.2413606643676757813 1.3197911977767944336 1.5188319683074951172 1.1926028728485107422 1.3715153932571411133 1.0716996192932128906 1.0862872600555419922 1.5771454572677612305 1.9970562458038330078 2.3316445350646972656 2.6746547222137451172 2.4416623115539550781 2.9875922203063964844 3.0589647293090820313 2.4491159915924072266 2.1622788906097412109 1.2781618833541870117 1.1807465553283691406 1.2129726409912109375 1.2594314813613891602 1.5137038230895996094 1.6584953069686889648 
2.5621585845947265625 2.4226119518280029297 2.84709930419921875 2.6899101734161376953 2.2561943531036376953 2.2096431255340576172 2.9877002239227294922 2.4290223121643066406 3.1520488262176513672 3.91617584228515625 4.8823566436767578125 3.7887146472930908203 3.2980034351348876953 2.9663527011871337891 2.9002659320831298828 2.6518816947937011719 1.8252509832382202148 1.4751617908477783203 1.6556363105773925781 1.8450375795364379883 1.5324923992156982422 1.6474223136901855469 1.4158884286880493164 1.3934243917465209961 1.618062138557434082 1.7878756523132324219 2.0952773094177246094 2.6729311943054199219 2.7689752578735351563 3.0745630264282226563 2.9867851734161376953 2.4900383949279785156 2.2821669578552246094 2.3110551834106445313 1.4002606868743896484 1.9742007255554199219 1.9692301750183105469 1.3355897665023803711 1.3696016073226928711 1.5576305389404296875 
2.4933333396911621094 2.9688813686370849609 2.8760077953338623047 2.5134503841400146484 2.48361968994140625 2.4125123023986816406 3.3126490116119384766 2.8089861869812011719 3.3421885967254638672 3.8943495750427246094 3.7117371559143066406 3.4683971405029296875 3.2483549118041992188 3.2633500099182128906 2.6303439140319824219 2.358539581298828125 2.5098834037780761719 1.9411081075668334961 1.6155703067779541016 1.7066172361373901367 1.6652449369430541992 1.6159524917602539063 1.4745148420333862305 1.8508205413818359375 1.8618326187133789063 1.6518805027008056641 1.7164109945297241211 2.0154826641082763672 2.5606949329376220703 3.0047819614410400391 2.9009940624237060547 1.9310554265975952148 2.2071230411529541016 1.7654489278793334961 1.5356497764587402344 1.7881330251693725586 1.3981170654296875 1.2979160547256469727 1.4762359857559204102 1.5783571004867553711 
2.9691979885101318359 3.3766894340515136719 3.3785953521728515625 2.7551562786102294922 2.6881639957427978516 2.5443851947784423828 2.6104166507720947266 3.0732989311218261719 2.8525018692016601563 2.4549736976623535156 2.9202437400817871094 2.5565321445465087891 2.7352342605590820313 2.3792490959167480469 2.0567939281463623047 1.9695874452590942383 2.0092451572418212891 1.7515181303024291992 1.645074009895324707 1.6433845758438110352 1.5849854946136474609 1.66898345947265625 1.6466270685195922852 2.2961406707763671875 2.1422243118286132813 2.2380335330963134766 2.2717421054840087891 2.0832004547119140625 2.0760838985443115234 1.9443875551223754883 1.8374335765838623047 1.6484488248825073242 1.9025489091873168945 2.0122151374816894531 1.764840245246887207 1.5382210016250610352 1.4977513551712036133 1.2650980949401855469 1.3692353963851928711 1.7051829099655151367 
2.9062623977661132813 3.7208995819091796875 4.1419196128845214844 3.6705579757690429688 2.7869486808776855469 2.6154105663299560547 2.3923211097717285156 2.2092528343200683594 2.1054093837738037109 2.1319799423217773438 2.4470353126525878906 2.4982471466064453125 2.752101898193359375 2.7253892421722412109 2.0637068748474121094 2.425693511962890625 2.3761589527130126953 1.8542031049728393555 1.8347982168197631836 2.5166771411895751953 2.1990725994110107422 2.0629351139068603516 2.0221948623657226563 2.6359674930572509766 2.4608395099639892578 2.7031707763671875 2.3264322280883789063 2.2894062995910644531 2.1008250713348388672 1.7662657499313354492 1.7066979408264160156 1.5892773866653442383 1.8191514015197753906 1.8538626432418823242 1.7715482711791992188 1.6255934238433837891 1.5151451826095581055 1.4944452047348022461 1.6739213466644287109 1.5458310842514038086 
4.1482076644897460938 4.0605244636535644531 4.1032137870788574219 3.6813457012176513672 3.7130565643310546875 2.9005544185638427734 2.7911152839660644531 2.2527782917022705078 2.3502914905548095703 1.8360515832901000977 2.0674977302551269531 2.2109329700469970703 2.3481180667877197266 2.4453060626983642578 2.6439249515533447266 2.0117557048797607422 2.2114937305450439453 1.8944832086563110352 2.0765044689178466797 3.1609759330749511719 3.0453116893768310547 2.8309988975524902344 2.4280579090118408203 2.4183969497680664063 2.204624176025390625 3.00141143798828125 3.4139847755432128906 2.5516536235809326172 2.6918513774871826172 2.5122129917144775391 2.3222301006317138672 2.5376577377319335938 2.1117691993713378906 1.7257906198501586914 1.7355810403823852539 1.6840502023696899414 1.5596857070922851563 1.4223957061767578125 1.6114718914031982422 1.5274870395660400391 
4.2004022598266601563 4.1986012458801269531 3.6677739620208740234 3.3486239910125732422 3.4747381210327148438 3.3985624313354492188 3.0447299480438232422 2.3547728061676025391 2.2661430835723876953 2.0583035945892333984 1.8090987205505371094 1.7889543771743774414 1.9490807056427001953 1.9197750091552734375 2.2132792472839355469 2.1442968845367431641 2.3795838356018066406 1.9039895534515380859 2.1783874034881591797 2.8652646541595458984 3.8890628814697265625 3.3484272956848144531 2.6110086441040039063 2.5968179702758789063 3.7597033977508544922 3.4197888374328613281 2.8790633678436279297 2.4606432914733886719 3.15012359619140625 3.1086246967315673828 3.3338696956634521484 2.6776974201202392578 2.087917327880859375 1.7945942878723144531 1.7771168947219848633 1.5825812816619873047 1.583376765251159668 1.0280523300170898438 1.4422824382781982422 1.5303902626037597656 
4.1038680076599121094 3.6715703010559082031 3.1211380958557128906 2.8732142448425292969 3.3055539131164550781 3.1879999637603759766 2.9193520545959472656 2.5506792068481445313 2.3386158943176269531 2.126560211181640625 2.1901285648345947266 2.1098303794860839844 2.4457952976226806641 2.3598275184631347656 2.6580941677093505859 2.5315809249877929688 2.0006308555603027344 1.7761021852493286133 2.2967305183410644531 2.6401729583740234375 3.9570298194885253906 3.624179840087890625 2.7793207168579101563 2.4112067222595214844 2.8977096080780029297 2.4114859104156494141 2.3614974021911621094 2.3162775039672851563 2.6069097518920898438 3.0763521194458007813 3.2862687110900878906 3.150722503662109375 2.2781682014465332031 2.1938908100128173828 1.9461295604705810547 1.5415358543395996094 1.286525726318359375 1.3000549077987670898 1.4939262866973876953 1.2924695014953613281 
4.100704193115234375 4.1745715141296386719 4.2800717353820800781 3.5868058204650878906 3.8887050151824951172 3.2193689346313476563 2.8144273757934570313 2.3246259689331054688 2.0295512676239013672 1.9413717985153198242 2.2300665378570556641 2.4592809677124023438 2.5067229270935058594 2.5066850185394287109 2.08905792236328125 2.1356072425842285156 2.1155724525451660156 2.189571380615234375 2.3200540542602539063 2.8219933509826660156 3.436016082763671875 3.2803900241851806641 2.4484930038452148438 2.2984702587127685547 2.9934418201446533203 2.8503277301788330078 2.9275071620941162109 3.3453855514526367188 3.1172995567321777344 3.0577769279479980469 3.2159452438354492188 3.2483229637145996094 2.6177434921264648438 2.5516912937164306641 2.3635280132293701172 2.0795428752899169922 1.7799956798553466797 1.5743919610977172852 1.3976066112518310547 1.5259488821029663086 
5.4385695457458496094 6.1402730941772460938 6.3146791458129882813 5.1639809608459472656 5.0874810218811035156 3.6815404891967773438 2.6543765068054199219 2.6300332546234130859 2.1166412830352783203 2.1762473583221435547 2.3408825397491455078 2.3255598545074462891 2.4733262062072753906 2.7758777141571044922 2.3490276336669921875 2.3466200828552246094 2.2376017570495605469 2.2608308792114257813 2.8349368572235107422 2.9926929473876953125 2.9691121578216552734 3.3109869956970214844 2.6969814300537109375 2.8777875900268554688 3.1006648540496826172 3.3008580207824707031 3.5588266849517822266 3.5104548931121826172 3.2445349693298339844 3.0040595531463623047 3.2289621829986572266 3.6452550888061523438 3.1661438941955566406 3.0493741035461425781 2.8387203216552734375 2.4862568378448486328 2.3809950351715087891 2.0142524242401123047 1.728352665901184082 2.1658098697662353516 
5.1935896873474121094 5.5826869010925292969 5.7976994514465332031 5.495464324951171875 4.624500274658203125 4.1877460479736328125 3.1573514938354492188 2.7978878021240234375 2.6606848239898681641 2.6173746585845947266 2.1400351524353027344 2.6507468223571777344 2.6240360736846923828 2.5143122673034667969 2.2001359462738037109 2.7414953708648681641 2.905475616455078125 2.8603029251098632813 2.5435883998870849609 2.8106539249420166016 2.7609658241271972656 3.1459224224090576172 3.2123389244079589844 3.0829665660858154297 3.2272539138793945313 3.30367279052734375 3.4414920806884765625 3.6015942096710205078 3.3200755119323730469 3.0145843029022216797 3.5841355323791503906 4.0215177536010742188 4.1212487220764160156 3.4442763328552246094 3.3094789981842041016 3.0070302486419677734 2.6456449031829833984 2.2595257759094238281 1.7356412410736083984 2.1146605014801025391 
5.5716447830200195313 5.85166168212890625 4.7131748199462890625 4.6880755424499511719 4.8320713043212890625 5.6623196601867675781 3.4787869453430175781 3.1968309879302978516 2.6827816963195800781 2.72025299072265625 2.7858231067657470703 2.5923345088958740234 2.7087283134460449219 2.7145366668701171875 2.4977667331695556641 2.4177091121673583984 2.3574697971343994141 2.6491525173187255859 3.1461417675018310547 3.3089978694915771484 3.0893206596374511719 3.3590292930603027344 3.5048518180847167969 3.1660037040710449219 3.4869806766510009766 3.3943877220153808594 2.9147357940673828125 2.6694097518920898438 2.7635874748229980469 3.1128628253936767578 3.6017007827758789063 3.9760909080505371094 4.1933164596557617188 3.6447358131408691406 3.5132129192352294922 3.6134099960327148438 2.931171417236328125 2.6677310466766357422 2.7854461669921875 2.5089392662048339844 
4.8776807785034179688 4.7242612838745117188 4.7292504310607910156 4.007350921630859375 4.0984477996826171875 5.0534496307373046875 3.9129254817962646484 3.937602996826171875 3.0758864879608154297 2.5969800949096679688 2.8171982765197753906 2.6044108867645263672 2.8707342147827148438 2.2887184619903564453 2.3474564552307128906 2.4482934474945068359 2.5137848854064941406 3.0505108833312988281 2.8392078876495361328 3.0098462104797363281 3.0222935676574707031 3.2858052253723144531 3.1264548301696777344 3.4459681510925292969 3.7165014743804931641 3.5929148197174072266 3.0438580513000488281 2.682849884033203125 2.7302618026733398438 2.9276220798492431641 3.1857302188873291016 3.8848540782928466797 4.4166803359985351563 4.5237860679626464844 3.4663708209991455078 3.3924312591552734375 3.4784314632415771484 3.701076507568359375 3.0806674957275390625 2.3996131420135498047 
4.8129611015319824219 3.6843962669372558594 3.7245082855224609375 4.7656025886535644531 3.5871014595031738281 3.4015774726867675781 3.4741144180297851563 4.2103433609008789063 3.0057568550109863281 2.7264833450317382813 2.5237474441528320313 2.2668640613555908203 2.5957608222961425781 2.1506409645080566406 2.335582733154296875 2.4955117702484130859 2.5803694725036621094 2.82271575927734375 2.5815460681915283203 2.6762769222259521484 3.0868980884552001953 2.8848886489868164063 3.1295735836029052734 3.3648636341094970703 3.7572793960571289063 4.00714111328125 3.1326115131378173828 3.3129701614379882813 3.7332539558410644531 3.3251681327819824219 3.4923214912414550781 3.74323272705078125 4.7843675613403320313 5.0654621124267578125 4.5565338134765625 4.3297405242919921875 3.8003342151641845703 3.5286550521850585938 2.9626114368438720703 2.7110750675201416016 
4.3058962821960449219 4.3019313812255859375 3.623912811279296875 3.6608862876892089844 3.9144411087036132813 3.78467559814453125 3.6558601856231689453 4.24765777587890625 3.9623155593872070313 3.6310136318206787109 3.0816876888275146484 2.6362376213073730469 2.5354123115539550781 2.299343109130859375 2.3548564910888671875 2.6114881038665771484 2.4829900264739990234 2.9818100929260253906 2.9053514003753662109 2.6030089855194091797 2.9927570819854736328 3.3834598064422607422 3.933696746826171875 3.9456870555877685547 3.7203955650329589844 3.5372366905212402344 3.6750478744506835938 3.8841757774353027344 4.0797514915466308594 3.8442547321319580078 4.0782480239868164063 4.1286106109619140625 4.8371005058288574219 4.8197836875915527344 4.8378381729125976563 4.858028411865234375 3.8174767494201660156 3.3422331809997558594 3.0543138980865478516 3.0856525897979736328 
4.0099363327026367188 4.4968771934509277344 4.6536078453063964844 4.0188908576965332031 4.1651163101196289063 3.9763727188110351563 3.5092968940734863281 3.8623042106628417969 4.4690279960632324219 3.8069913387298583984 3.6638772487640380859 3.5967981815338134766 3.9298157691955566406 3.1681065559387207031 3.2315351963043212891 2.884029388427734375 2.9485750198364257813 3.2670588493347167969 3.5777685642242431641 3.5109865665435791016 3.6400892734527587891 3.9335768222808837891 4.3229355812072753906 4.1212430000305175781 3.8186860084533691406 3.1112172603607177734 3.5575742721557617188 4.4227261543273925781 4.3681821823120117188 4.5169844627380371094 4.0664792060852050781 4.2628078460693359375 4.9099292755126953125 5.139972686767578125 4.9094104766845703125 5.301311492919921875 4.2019658088684082031 3.5007119178771972656 3.5222458839416503906 3.6246881484985351563 
3.8400740623474121094 4.4134182929992675781 4.5248456001281738281 3.7417900562286376953 3.5922827720642089844 3.6322379112243652344 3.4407505989074707031 3.7031662464141845703 4.4416470527648925781 4.4534063339233398438 4.7062788009643554688 4.77773284912109375 4.4231166839599609375 4.5263500213623046875 4.3326210975646972656 4.5705461502075195313 4.1766400337219238281 4.4685764312744140625 5.0958065986633300781 4.926120758056640625 4.3773136138916015625 4.8912444114685058594 4.6354060173034667969 3.5823857784271240234 3.3394720554351806641 2.9213862419128417969 3.7425084114074707031 4.5219364166259765625 3.9974586963653564453 4.398311614990234375 4.0236849784851074219 4.5474228858947753906 4.7898664474487304688 4.8039417266845703125 5.0874347686767578125 5.1637449264526367188 4.5533938407897949219 3.9659779071807861328 4.0278258323669433594 3.4946668148040771484 
