ncols        40
nrows        40
xllcorner    -0.000000000000
yllcorner    0.000000000000
cellsize     5.000000000000
NODATA_value nan
2.9642291069030761719 3.0260190963745117188 2.4901065826416015625 2.4327917098999023438 2.3059401512145996094 2.8628754615783691406 2.3132317066192626953 1.7099841833114624023 1.5617308616638183594 2.0449221134185791016 1.702540278434753418 1.1056053638458251953 1.0159853696823120117 1.0358513593673706055 1.019251704216003418 1.1474364995956420898 1.3315644264221191406 1.8115879297256469727 2.7554082870483398438 1.8770064115524291992 1.7516025304794311523 2.7176392078399658203 2.4641971588134765625 2.0332703590393066406 2.3672366142272949219 2.6875281333923339844 2.7486102581024169922 2.2297384738922119141 1.0753946304321289063 1.4420108795166015625 1.8383023738861083984 1.0405548810958862305 1.3637067079544067383 1.5665971040725708008 1.0413274765014648438 1.0464463233947753906 1.8278588056564331055 2.5880548954010009766 4.6770687103271484375 4.8680567741394042969 
3.1852734088897705078 2.9540560245513916016 2.5139081478118896484 1.7731636762619018555 1.7400949001312255859 2.366092681884765625 2.5063269138336181641 2.3050932884216308594 2.2164266109466552734 1.6641678810119628906 1.0604410171508789063 1.0881360769271850586 1.0197619199752807617 1.1967908143997192383 1.3405381441116333008 2.3045132160186767578 1.3525094985961914063 1.1319701671600341797 1.5998131036758422852 1.5656560659408569336 1.9009015560150146484 3.1689107418060302734 2.7645397186279296875 2.5755441188812255859 3.0650525093078613281 3.0550661087036132813 2.7438948154449462891 2.1417641639709472656 1.1523338556289672852 1.0285965204238891602 1.018605351448059082 1.0833617448806762695 1.0024939775466918945 1.0155115127563476563 1.1681326627731323242 1.2457603216171264648 1.8797712326049804688 3.0239286422729492188 5.0956516265869140625 4.2863945960998535156 
3.8879427909851074219 3.3635525703430175781 2.0944683551788330078 1.7236040830612182617 1.9854582548141479492 2.6640861034393310547 2.7063934803009033203 2.0370645523071289063 1.7597633600234985352 1.0698182582855224609 1.0089336633682250977 1.0152029991149902344 1.2249177694320678711 1.032145380973815918 1.4929267168045043945 2.0593857765197753906 1.9889310598373413086 1.3669847249984741211 1.9962165355682373047 2.1340346336364746094 1.9385274648666381836 3.0012831687927246094 3.3927037715911865234 3.4813811779022216797 3.035785675048828125 2.9834656715393066406 2.3050923347473144531 1.9072132110595703125 1.0120229721069335938 1.0359286069869995117 1.0002945661544799805 1.3198444843292236328 1.8005825281143188477 1.6365162134170532227 1.9029952287673950195 2.7045116424560546875 2.8382766246795654297 3.6382336616516113281 4.2759432792663574219 4.9841012954711914063 
2.7016134262084960938 2.7787868976593017578 2.0853826999664306641 2.08916473388671875 2.7020640373229980469 2.8999507427215576172 2.64734649658203125 1.6576886177062988281 1.2576825618743896484 1.025805354118347168 1.0344978570938110352 1.0088247060775756836 1.1738126277923583984 1.1450939178466796875 1.1888123750686645508 1.4879279136657714844 1.0463756322860717773 1.7131335735321044922 1.9198384284973144531 1.5613410472869873047 1.7419669628143310547 1.9123215675354003906 2.8203301429748535156 3.2366762161254882813 3.1515824794769287109 3.1380901336669921875 2.5674562454223632813 1.8933123350143432617 1.463410496711730957 1.5019478797912597656 1.6143950223922729492 1.2457067966461181641 1.6328294277191162109 2.0186998844146728516 2.8096332550048828125 3.9117953777313232422 3.5277292728424072266 4.1620459556579589844 5.2880835533142089844 5.2090740203857421875 
2.5915541648864746094 2.5933630466461181641 2.1577093601226806641 2.1175096035003662109 3.1705796718597412109 2.9794707298278808594 2.5565576553344726563 1.9843409061431884766 2.5229644775390625 1.7185275554656982422 1.2622977495193481445 1.2689858675003051758 1.3129924535751342773 1.2155520915985107422 1.0028808116912841797 1.274502873420715332 1.0426690578460693359 1.9444385766983032227 1.933182835578918457 1.3243316411972045898 1.9344987869262695313 1.5018837451934814453 2.4700136184692382813 2.7504050731658935547 2.1166939735412597656 2.4949605464935302734 2.1159844398498535156 1.5238056182861328125 1.8802496194839477539 2.4592182636260986328 3.1180620193481445313 3.3638346195220947266 2.9535911083221435547 4.5991220474243164063 4.1674733161926269531 4.2457337379455566406 3.4839372634887695313 4.1651926040649414063 4.84252166748046875 4.5083899497985839844 
2.9541661739349365234 3.4233603477478027344 2.7725169658660888672 1.9879946708679199219 3.0349698066711425781 3.0131525993347167969 2.5174195766448974609 3.1425542831420898438 3.4432673454284667969 2.9909384250640869141 2.3962156772613525391 1.6300642490386962891 1.526831507682800293 1.0099401473999023438 1.0277018547058105469 1.0117713212966918945 1.1988856792449951172 1.0009365081787109375 1.3807009458541870117 1.5188449621200561523 1.4576319456100463867 1.7382088899612426758 1.6210839748382568359 1.7867835760116577148 1.736535191535949707 1.6485764980316162109 1.3271107673645019531 1.5271940231323242188 2.1596899032592773438 2.5402584075927734375 3.1169962882995605469 2.8780653476715087891 3.0118281841278076172 3.9051270484924316406 3.8776416778564453125 3.6644213199615478516 3.4515655040740966797 3.6861472129821777344 2.9289534091949462891 2.6010315418243408203 
3.1042418479919433594 3.9376749992370605469 3.3235433101654052734 3.1182885169982910156 3.2854416370391845703 2.8155422210693359375 2.6131427288055419922 3.4233448505401611328 3.0755207538604736328 2.6864295005798339844 1.7970767021179199219 1.9397622346878051758 1.8614159822463989258 1.0110602378845214844 1.02863311767578125 1.0660614967346191406 1.4140204191207885742 1.1585462093353271484 1.3302315473556518555 1.1873073577880859375 1.4738913774490356445 1.9430902004241943359 1.4544703960418701172 1.400141596794128418 1.8460129499435424805 2.2371661663055419922 2.0108540058135986328 2.0074200630187988281 2.6264328956604003906 2.8401498794555664063 3.8205869197845458984 4.3625545501708984375 3.88159942626953125 4.4628820419311523438 5.1680436134338378906 4.0455069541931152344 3.6782166957855224609 4.2622022628784179688 2.3213148117065429688 1.9068791866302490234 
1.9992158412933349609 2.9939210414886474609 3.0521602630615234375 2.2662689685821533203 2.2454867362976074219 2.5046582221984863281 2.9115390777587890625 3.3182070255279541016 2.9179804325103759766 2.5215125083923339844 1.8911691904067993164 1.5148491859436035156 1.3931820392608642578 1.1501100063323974609 1.0061271190643310547 1.0705596208572387695 1.5083113908767700195 1.1791548728942871094 1.8817161321640014648 2.0315809249877929688 1.6416976451873779297 2.2094526290893554688 2.0520772933959960938 1.0062515735626220703 1.6412874460220336914 2.14361572265625 1.8100770711898803711 2.3349928855895996094 2.7394628524780273438 3.4062647819519042969 4.0262823104858398438 4.0993289947509765625 4.7178387641906738281 4.4495954513549804688 4.7682085037231445313 2.8394675254821777344 3.49266815185546875 4.9375863075256347656 2.5448701381683349609 1.1067053079605102539 
1.4439759254455566406 1.7763683795928955078 2.1362390518188476563 1.6175044775009155273 1.8915160894393920898 2.2712075710296630859 2.3436136245727539063 2.8641257286071777344 2.6667380332946777344 2.5083851814270019531 2.5510022640228271484 2.0579330921173095703 2.1241064071655273438 1.0309460163116455078 1.017855525016784668 1.2794502973556518555 2.1092405319213867188 1.9906669855117797852 2.13360595703125 2.4634597301483154297 2.0522778034210205078 1.5139276981353759766 1.255913853645324707 1.2791572809219360352 1.7363500595092773438 1.8251510858535766602 1.1692337989807128906 1.328830718994140625 1.7451982498168945313 2.6681735515594482422 3.3303990364074707031 3.4974086284637451172 3.8836877346038818359 3.1385037899017333984 2.6513783931732177734 2.3292586803436279297 4.0100793838500976563 5.5216155052185058594 3.0296416282653808594 1.1424559354782104492 
1.0250571966171264648 1.0202240943908691406 1.4287624359130859375 1.2187055349349975586 1.8461169004440307617 1.9447014331817626953 3.2953898906707763672 3.6838731765747070313 3.2611761093139648438 2.5823071002960205078 2.1371963024139404297 2.2817995548248291016 2.1466510295867919922 1.4199119806289672852 1.0298229455947875977 1.0174781084060668945 1.8245841264724731445 2.153537750244140625 1.9371669292449951172 2.8746089935302734375 2.0006763935089111328 1.3553669452667236328 1.3126215934753417969 1.7437546253204345703 1.7717720270156860352 1.0025998353958129883 1.0240341424942016602 1.3505942821502685547 1.4010092020034790039 1.7970216274261474609 2.6193361282348632813 2.6791362762451171875 3.5113172531127929688 2.8266975879669189453 1.4255598783493041992 1.6434643268585205078 2.8206305503845214844 3.4775433540344238281 2.9829485416412353516 2.3326008319854736328 
1.7179113626480102539 1.3535289764404296875 1.3638950586318969727 1.4405206441879272461 1.3880918025970458984 2.0551419258117675781 4.7365322113037109375 4.6379513740539550781 2.9203805923461914063 2.3124611377716064453 1.60218048095703125 1.0281578302383422852 1.1397926807403564453 1.2041620016098022461 1.0306146144866943359 1.1989976167678833008 1.0477688312530517578 2.3672549724578857422 2.6166634559631347656 1.9684348106384277344 1.4406839609146118164 1.3237313032150268555 1.3483843803405761719 1.6062102317810058594 1.4608694314956665039 1.0872924327850341797 2.1734056472778320313 1.4866764545440673828 1.4529290199279785156 1.5122787952423095703 1.9027020931243896484 2.7883131504058837891 3.1354913711547851563 2.7759716510772705078 2.1620173454284667969 1.951813817024230957 2.4484348297119140625 2.8526484966278076172 2.7703146934509277344 2.2361972332000732422 
2.2648909091949462891 1.7734109163284301758 1.0083414316177368164 1.4732089042663574219 1.1953511238098144531 1.655872344970703125 3.2576069831848144531 3.7240779399871826172 2.2955670356750488281 1.48834228515625 1.3000061511993408203 1.3730360269546508789 1.3157877922058105469 1.4635319709777832031 1.1841895580291748047 1.1412200927734375 1.0821868181228637695 2.1315793991088867188 1.1817973852157592773 1.3701541423797607422 2.1372826099395751953 2.4070508480072021484 1.8777779340744018555 1.6195009946823120117 1.2973232269287109375 1.0713211297988891602 1.4026381969451904297 1.1656484603881835938 1.488564610481262207 1.7804890871047973633 1.4710662364959716797 1.2875626087188720703 1.5683226585388183594 2.2207288742065429688 2.7289361953735351563 2.4198181629180908203 3.1074402332305908203 2.8516862392425537109 2.6469290256500244141 2.4662289619445800781 
2.5626502037048339844 1.8988423347473144531 1.8221613168716430664 1.0994025468826293945 1.3742475509643554688 1.3771491050720214844 2.5445952415466308594 2.9831864833831787109 1.6031972169876098633 1.1041120290756225586 1.2777105569839477539 1.9459006786346435547 3.1047489643096923828 2.2551846504211425781 1.6818392276763916016 1.4868097305297851563 1.872418522834777832 1.6201812028884887695 1.3227859735488891602 1.1635192632675170898 1.8888022899627685547 2.4421756267547607422 2.2141079902648925781 2.073444366455078125 1.7056453227996826172 1.2613760232925415039 1.0279027223587036133 1.0071555376052856445 1.2630522251129150391 1.3094009160995483398 1.0697578191757202148 1.8124942779541015625 1.2891552448272705078 2.0154283046722412109 2.7994797229766845703 3.4670996665954589844 3.6228723526000976563 3.8819398880004882813 3.8377122879028320313 2.9862821102142333984 
1.7441269159317016602 1.7413507699966430664 1.465058445930480957 1.0046576261520385742 1.3307763338088989258 1.7742404937744140625 2.2203502655029296875 2.1259825229644775391 1.6127789020538330078 1.0020163059234619141 1.9984213113784790039 2.6673326492309570313 4.967449188232421875 2.8647751808166503906 1.8119235038757324219 2.3854305744171142578 1.1129757165908813477 1.9903250932693481445 1.6417925357818603516 1.8269622325897216797 2.9722545146942138672 3.8090593814849853516 3.9094731807708740234 2.6951882839202880859 2.0411515235900878906 2.1185760498046875 1.1019184589385986328 1.1922748088836669922 1.0413978099822998047 1.015276789665222168 1.0649769306182861328 1.6901972293853759766 1.2719037532806396484 1.9894857406616210938 3.0715279579162597656 3.3001029491424560547 3.3319027423858642578 3.4812967777252197266 3.9716839790344238281 3.6736087799072265625 
1.1092444658279418945 1.000146031379699707 1.1839948892593383789 1.6853955984115600586 1.6668679714202880859 1.5540623664855957031 1.8892917633056640625 1.6519761085510253906 1.3267996311187744141 1.1329944133758544922 1.4229377508163452148 1.9958208799362182617 4.8781986236572265625 3.701656341552734375 2.3934185504913330078 2.5921471118927001953 1.1501485109329223633 1.107036590576171875 1.0881443023681640625 2.1802861690521240234 4.2176828384399414063 5.9721832275390625 4.9885993003845214844 3.6002097129821777344 1.5303529500961303711 1.8144083023071289063 1.0234829187393188477 1.0010215044021606445 1.0009032487869262695 1.1806595325469970703 1.1032558679580688477 1.0213327407836914063 1.9840923547744750977 2.8161306381225585938 3.2096586227416992188 3.1344351768493652344 3.1859295368194580078 3.515346527099609375 3.1088876724243164063 3.6203820705413818359 
1.7526613473892211914 1.1837301254272460938 1.0670223236083984375 2.6751918792724609375 2.2701802253723144531 1.3876518011093139648 1.7810189723968505859 1.2732443809509277344 1.0025093555450439453 1.0424977540969848633 1.8020675182342529297 2.1599361896514892578 5.2398962974548339844 3.6032354831695556641 2.7052166461944580078 1.9298012256622314453 1.4431366920471191406 1.0039788484573364258 1.6707623004913330078 2.7015845775604248047 3.881500244140625 5.8595523834228515625 5.1978883743286132813 3.6966638565063476563 1.1300001144409179688 1.1081587076187133789 1.010168910026550293 1.0358749628067016602 1.0629174709320068359 1.0243879556655883789 1.064650416374206543 1.1058655977249145508 1.2389385700225830078 2.1301164627075195313 2.8775887489318847656 3.1668303012847900391 2.7486126422882080078 3.5174577236175537109 3.9421052932739257813 3.2885520458221435547 
3.0207078456878662109 2.3003826141357421875 1.592075347900390625 1.6857075691223144531 1.4068663120269775391 1.1387872695922851563 1.3769508600234985352 1.7154538631439208984 1.3519463539123535156 1.0080939531326293945 1.9978582859039306641 2.3413290977478027344 4.5002074241638183594 2.5614166259765625 1.1371403932571411133 1.0161064863204956055 1.013844609260559082 1.1208827495574951172 1.7718659639358520508 2.5708963871002197266 2.544921875 4.6077280044555664063 4.4944262504577636719 3.1318068504333496094 1.0884826183319091797 1.0134558677673339844 1.0347777605056762695 1.0046273469924926758 1.0068264007568359375 1.2051061391830444336 1.1186751127243041992 1.2165292501449584961 2.2629330158233642578 2.1626338958740234375 2.8430287837982177734 2.8788781166076660156 2.5338358879089355469 2.9901726245880126953 4.0394730567932128906 2.9809899330139160156 
3.9889500141143798828 2.8479964733123779297 2.0780203342437744141 1.5019451379776000977 1.0467393398284912109 1.1692039966583251953 1.1972384452819824219 2.0214452743530273438 1.7589700222015380859 1.0262453556060791016 1.5249626636505126953 1.9370163679122924805 2.2364556789398193359 1.72418212890625 1.0024064779281616211 1.212115168571472168 1.0264463424682617188 1.1338093280792236328 2.0133333206176757813 1.8908666372299194336 1.9247068166732788086 4.0180335044860839844 3.8023471832275390625 2.0973763465881347656 1.2871842384338378906 1.1524937152862548828 1.0418365001678466797 1.1513794660568237305 1.1294835805892944336 1.0181608200073242188 1.1756006479263305664 1.3741221427917480469 2.7446460723876953125 3.8670837879180908203 4.6651744842529296875 2.7829062938690185547 2.7690138816833496094 3.2886087894439697266 3.7717592716217041016 2.8923802375793457031 
4.008296966552734375 2.8988244533538818359 2.2783954143524169922 1.6124340295791625977 1.4245206117630004883 1.4687467813491821289 1.2971860170364379883 1.8957228660583496094 1.5801348686218261719 1.515668034553527832 1.6773828268051147461 1.6294636726379394531 1.3856971263885498047 1.0925207138061523438 1.0062409639358520508 1.0743961334228515625 1.0927011966705322266 1.1351003646850585938 1.8219251632690429688 1.5398764610290527344 1.7812379598617553711 3.0559878349304199219 2.4924061298370361328 1.384886622428894043 1.2173291444778442383 1.0057862997055053711 1.0012063980102539063 1.1533883810043334961 1.014011383056640625 1.2044501304626464844 1.2185099124908447266 1 1.8349744081497192383 3.8751471042633056641 6.0765657424926757813 3.861766815185546875 2.8449561595916748047 4.1458783149719238281 3.3177418708801269531 2.9689545631408691406 
2.763824462890625 2.7429754734039306641 3.4073569774627685547 2.0540554523468017578 2.0190300941467285156 1.9797381162643432617 1.7698004245758056641 2.67267608642578125 2.0300443172454833984 1.1064909696578979492 1.2170321941375732422 1 1.026782989501953125 1.0017606019973754883 1.0200886726379394531 1.0026636123657226563 1.0364763736724853516 1.0410848855972290039 1.8335841894149780273 1.8624252080917358398 2.2562415599822998047 2.4961526393890380859 2.1234946250915527344 2.0113456249237060547 1.2263506650924682617 1.0582634210586547852 1.003016352653503418 1.0061466693878173828 1.1266449689865112305 1.03037261962890625 1.2890752553939819336 1.0329656600952148438 1.3911632299423217773 2.3806943893432617188 3.3711938858032226563 3.3859086036682128906 3.6085209846496582031 4.7576446533203125 4.6486220359802246094 4.3993010520935058594 
1.9089668989181518555 2.54441070556640625 1.9600400924682617188 1.7498878240585327148 2.4458489418029785156 3.1384398937225341797 2.5488216876983642578 3.3867328166961669922 2.9989831447601318359 1.7139699459075927734 1.7505933046340942383 1.2053959369659423828 1.0777068138122558594 1.0961937904357910156 1.7591050863265991211 1.2300375699996948242 1.1728909015655517578 1.4678413867950439453 2.0634207725524902344 2.4075932502746582031 3.5732975006103515625 4.2566475868225097656 3.5764365196228027344 2.7344548702239990234 1.8338749408721923828 1.0200029611587524414 1.0097706317901611328 1.1260331869125366211 1.018029332160949707 1.1840535402297973633 1.2906208038330078125 1.9727749824523925781 1.2470334768295288086 1.6380498409271240234 1.9480577707290649414 2.7562417984008789063 3.0337870121002197266 2.7012434005737304688 3.4197971820831298828 4.7863292694091796875 
1.2189769744873046875 1.5830564498901367188 2.0715682506561279297 1.961883544921875 2.3273484706878662109 2.5662641525268554688 2.1730697154998779297 2.6625227928161621094 2.4373533725738525391 2.1924636363983154297 2.4676618576049804688 1.0254156589508056641 1.1524677276611328125 1.0313379764556884766 1.3185226917266845703 2.3953413963317871094 3.3749687671661376953 3.2706935405731201172 3.1934161186218261719 2.7464330196380615234 3.8346993923187255859 4.1040897369384765625 4.4894013404846191406 3.6312119960784912109 3.2577228546142578125 1.9777481555938720703 1.1252391338348388672 1.0017896890640258789 1.0233708620071411133 1.005420684814453125 1.2817207574844360352 2.2345414161682128906 1.0153734683990478516 1.0031464099884033203 1.4707849025726318359 2.5306520462036132813 2.3430361747741699219 2.5917372703552246094 2.4046475887298583984 2.4918727874755859375 
1.2097597122192382813 2.0715682506561279297 2.4467084407806396484 2.1167449951171875 1.4678413867950439453 1.9784870147705078125 2.0042827129364013672 2.2524683475494384766 2.3349256515502929688 2.2168829441070556641 2.1940643787384033203 1.3816045522689819336 1.0106705427169799805 1.0107653141021728516 1.2034369707107543945 1.5917917490005493164 1.9600400924682617188 3.752048492431640625 3.9885449409484863281 3.526371002197265625 3.3448619842529296875 3.3620610237121582031 3.0431973934173583984 4.1654100418090820313 3.4489874839782714844 2.2411143779754638672 2.1392638683319091797 2.0334639549255371094 1.4602084159851074219 1.0052031278610229492 1.0596343278884887695 1.144199371337890625 1.0337544679641723633 1.1845651865005493164 1.5821783542633056641 2.2319424152374267578 2.1236679553985595703 2.4021978378295898438 2.3792169094085693359 2.2153565883636474609 
2.1472630500793457031 3.26834869384765625 3.5138216018676757813 4.3724389076232910156 2.4622721672058105469 2.2020986080169677734 1.9470239877700805664 2.1174046993255615234 1.0678021907806396484 1.2533168792724609375 1.1705596446990966797 1.2189847230911254883 1.7054307460784912109 1.0324703454971313477 1.002890467643737793 1.1400830745697021484 1.1765778064727783203 2.0125513076782226563 2.6756315231323242188 2.6137318611145019531 3.1399617195129394531 3.8395714759826660156 3.9087898731231689453 3.0680398941040039063 2.3430886268615722656 1.8801139593124389648 2.2898361682891845703 2.0946695804595947266 2.0489363670349121094 1.4304887056350708008 1.9090399742126464844 1.3906369209289550781 1.0026843547821044922 1.4642642736434936523 1.6683452129364013672 2.1332354545593261719 1.1819108724594116211 1.4825315475463867188 1.6281656026840209961 2.2107789516448974609 
3.67670440673828125 4.0689868927001953125 5.2079906463623046875 4.8721485137939453125 3.0018258094787597656 2.1353557109832763672 1.5013606548309326172 1.0081377029418945313 1.3110325336456298828 1.5610450506210327148 1.8222085237503051758 1.1440550088882446289 1.0994310379028320313 1.1025880575180053711 1.13184356689453125 1.0124633312225341797 1.0842382907867431641 1.1267108917236328125 1.560854792594909668 1.7849364280700683594 2.706207275390625 3.8388872146606445313 3.2171502113342285156 2.1756310462951660156 1.7654546499252319336 2.0663938522338867188 2.1753847599029541016 2.1572122573852539063 2.9188818931579589844 2.5089857578277587891 2.4167883396148681641 1.1718715429306030273 1.0050895214080810547 1.4444742202758789063 1.3406357765197753906 1.452271580696105957 1.0799016952514648438 1.2313741445541381836 1.6253559589385986328 1.9765508174896240234 
3.4736347198486328125 4.8622298240661621094 5.6617136001586914063 4.11698150634765625 2.4422886371612548828 1.3702036142349243164 1.1090511083602905273 1.0149282217025756836 1.3737007379531860352 1.6664960384368896484 1.3519072532653808594 1.0092231035232543945 1.1276476383209228516 1.2091631889343261719 1.2603222131729125977 1.2795138359069824219 1.381381988525390625 1.3730567693710327148 1.8271857500076293945 1.9269187450408935547 1.9423410892486572266 2.24858856201171875 1.3640093803405761719 1.0078630447387695313 1.1400471925735473633 1.7295252084732055664 2.0984349250793457031 1.9032726287841796875 3.0835511684417724609 2.8416206836700439453 2.3945939540863037109 1.1849920749664306641 1.0627808570861816406 1.1378606557846069336 1.465443730354309082 1.1707453727722167969 1.3749946355819702148 1.9978350400924682617 1.6281996965408325195 1.3830447196960449219 
3.6551749706268310547 4.9137291908264160156 5.0150051116943359375 3.6704685688018798828 2.0855815410614013672 1.2535729408264160156 1.0273532867431640625 1.0391117334365844727 1.0150454044342041016 1.0242954492568969727 1.0234391689300537109 1.1253504753112792969 1.2835686206817626953 1.2906274795532226563 1.7409669160842895508 1.5619881153106689453 1.4179906845092773438 1.5864195823669433594 2.2766907215118408203 2.8680288791656494141 2.2181546688079833984 2.2491667270660400391 1.4004040956497192383 1.055127263069152832 1.0206425189971923828 1.2012079954147338867 1.72969818115234375 1.6994003057479858398 2.1607608795166015625 2.1733155250549316406 1.9260207414627075195 1.4567971229553222656 1.4202315807342529297 1.6867390871047973633 2.1122159957885742188 2.1282296180725097656 1.8792169094085693359 2.3252761363983154297 1.8836710453033447266 1.1257779598236083984 
3.3297927379608154297 4.5045862197875976563 3.3596384525299072266 2.7609441280364990234 2.146480560302734375 1.8163014650344848633 2.2588264942169189453 2.2908267974853515625 1.8281009197235107422 1.3450053930282592773 1.5065168142318725586 1.2698078155517578125 1.0368627309799194336 1.1424263715744018555 1.0083434581756591797 1.3132554292678833008 1.4338393211364746094 1.4996198415756225586 2.60482025146484375 3.0225183963775634766 2.5798609256744384766 1.8432716131210327148 1.4052965641021728516 1.0527904033660888672 1.061959385871887207 1.1102781295776367188 1.2007501125335693359 1.2487447261810302734 1.2297680377960205078 1.5171848535537719727 1.2995152473449707031 1.3375732898712158203 1.4216579198837280273 1.6523358821868896484 1.7678579092025756836 2.5555043220520019531 3.1993281841278076172 2.7530329227447509766 2.1507055759429931641 1.5266731977462768555 
2.7550733089447021484 3.0654079914093017578 2.6953909397125244141 3.0334918498992919922 2.6288537979125976563 2.4850947856903076172 3.7873113155364990234 3.6605319976806640625 2.7177917957305908203 2.8909115791320800781 2.1095392704010009766 1.6029578447341918945 1.2747741937637329102 1.0019036531448364258 1.3206033706665039063 1.0027842521667480469 1.1025372743606567383 1.4681092500686645508 1.452227473258972168 2.6744747161865234375 2.3105938434600830078 1.6086523532867431641 1.2260135412216186523 1.0208373069763183594 1 1.8314472436904907227 1.6590791940689086914 1.2504326105117797852 1.5033819675445556641 1.2803815603256225586 1.0154985189437866211 1.0737847089767456055 1.3055052757263183594 1.7477524280548095703 1.8958104848861694336 2.8997960090637207031 4.2071990966796875 4.2206974029541015625 3.6233088970184326172 2.4004383087158203125 
1.6407933235168457031 1.7970278263092041016 1.5584797859191894531 2.6702911853790283203 1.9350976943969726563 1.9356657266616821289 3.4799346923828125 4.2248654365539550781 3.7625753879547119141 3.1099584102630615234 2.8487665653228759766 2.9418559074401855469 2.8577704429626464844 1.8963389396667480469 1.7343786954879760742 1.3804926872253417969 1.1841911077499389648 1.5143309831619262695 1.7821972370147705078 2.2456870079040527344 2.59930419921875 1.6607242822647094727 1.021605372428894043 1.3206619024276733398 2.1265039443969726563 2.3160140514373779297 1.4543694257736206055 1.2872909307479858398 1.5560834407806396484 1.4351459741592407227 1.636086583137512207 1.2243878841400146484 1.2936558723449707031 2.1406219005584716797 2.9979014396667480469 3.5427172183990478516 4.5846352577209472656 4.7997679710388183594 3.9926526546478271484 3.5205149650573730469 
1.0178240537643432617 1.1206604242324829102 1.1671286821365356445 1.5352185964584350586 1.5209062099456787109 1.3571169376373291016 2.3887195587158203125 3.0852508544921875 4.0477514266967773438 4.4167284965515136719 3.0952355861663818359 3.3201773166656494141 3.7374730110168457031 3.2335369586944580078 2.983440399169921875 2.4723606109619140625 1.8035943508148193359 1.9547827243804931641 1.9350450038909912109 2.5131552219390869141 2.7296462059020996094 2.0197172164916992188 1.2892202138900756836 1.2826559543609619141 1.5464377403259277344 1.2520563602447509766 1.0540584325790405273 1.2396007776260375977 1.3774161338806152344 1.1426928043365478516 1.4793571233749389648 1.3208756446838378906 1.1590322256088256836 2.0835638046264648438 3.3728501796722412109 4.0702862739562988281 4.6070637702941894531 4.3898053169250488281 3.8450646400451660156 4.198574066162109375 
1.008993983268737793 1.2678287029266357422 1.6462563276290893555 1.364490509033203125 1.1593605279922485352 1.2349195480346679688 1.7618262767791748047 2.2416317462921142578 3.9460132122039794922 4.6190924644470214844 3.1805877685546875 3.962848663330078125 4.2921552658081054688 3.6415991783142089844 3.2961928844451904297 2.5481510162353515625 2.3668119907379150391 2.8053276538848876953 1.9291296005249023438 2.1824374198913574219 2.3799469470977783203 2.3578853607177734375 1.8521856069564819336 1.393792271614074707 1.5961861610412597656 1.1002020835876464844 1.1334717273712158203 1.1721804141998291016 1.1537675857543945313 1.1536588668823242188 1.5955336093902587891 1.3427416086196899414 1.0778878927230834961 1.6692483425140380859 2.5836970806121826172 2.8540017604827880859 3.2232182025909423828 3.5068504810333251953 3.9140331745147705078 3.5723962783813476563 
2.2441840171813964844 2.7709851264953613281 3.0579030513763427734 1.6416306495666503906 1.8737188577651977539 1.4112010002136230469 1.8791869878768920898 2.4333279132843017578 4.4170541763305664063 3.7371623516082763672 3.5497868061065673828 4.4419903755187988281 5.7966833114624023438 5.5593414306640625 4.1460218429565429688 3.0236849784851074219 2.4823505878448486328 2.4296228885650634766 1.7540569305419921875 1.9119702577590942383 2.6741106510162353516 2.6904253959655761719 2.3659768104553222656 1.775206446647644043 1.130974888801574707 1.1269975900650024414 1.1725980043411254883 1.2479779720306396484 1.2198097705841064453 1.6310957670211791992 1.6635489463806152344 1.7243163585662841797 1.6253869533538818359 1.7948299646377563477 2.0908401012420654297 2.7717742919921875 3.2845168113708496094 3.9165413379669189453 4.1412811279296875 3.9721045494079589844 
2.1364772319793701172 2.4244775772094726563 2.4830927848815917969 1.9967206716537475586 1.2028684616088867188 1.2548916339874267578 1.2872639894485473633 1.5372403860092163086 2.3288245201110839844 3.2330935001373291016 3.2086226940155029297 3.4533314704895019531 4.8251471519470214844 5.1917581558227539063 4.2137064933776855469 3.6975181102752685547 2.7650511264801025391 2.0454833507537841797 1.6975905895233154297 1.6095557212829589844 1.8905287981033325195 2.4192440509796142578 2.8842432498931884766 2.6856081485748291016 1.6961699724197387695 1.4098075628280639648 1.36187744140625 1.2626868486404418945 1.5996577739715576172 2.2534549236297607422 2.4615297317504882813 2.2877752780914306641 1.8025656938552856445 2.2566471099853515625 2.2606115341186523438 2.5513691902160644531 3.5541963577270507813 4.3492455482482910156 5.1997361183166503906 3.4427490234375 
2.2255711555480957031 2.5982587337493896484 2.1338543891906738281 1.6376596689224243164 1.3280227184295654297 2.5930268764495849609 1.5237784385681152344 1.2288588285446166992 1.5151317119598388672 2.1826651096343994141 3.0819478034973144531 3.3464286327362060547 3.5128338336944580078 5.2676725387573242188 4.8198580741882324219 3.9219481945037841797 2.7366201877593994141 1.8742603063583374023 1.8300683498382568359 1.3072905540466308594 1.5936408042907714844 2.1336016654968261719 3.495059967041015625 2.7465624809265136719 2.509033203125 2.4176838397979736328 1.6471042633056640625 1.4128082990646362305 1.7430200576782226563 2.2203474044799804688 2.1021261215209960938 1.9802385568618774414 1.8476243019104003906 1.9871217012405395508 2.2100794315338134766 2.4619076251983642578 3.159587860107421875 3.5637738704681396484 4.0080313682556152344 4.7270345687866210938 
1.929880976676940918 2.0613038539886474609 2.2596185207366943359 1.3377152681350708008 1.4920794963836669922 2.6131584644317626953 1.8923212289810180664 1.9329205751419067383 1.7659286260604858398 2.5339412689208984375 3.0793552398681640625 3.2863607406616210938 3.1974368095397949219 4.2270827293395996094 4.5945386886596679688 3.6183063983917236328 2.8859684467315673828 1.7675746679306030273 2.0747938156127929688 1.6883124113082885742 1.5998985767364501953 1.9722909927368164063 2.9340119361877441406 3.1003861427307128906 2.6619045734405517578 2.5734343528747558594 2.1085197925567626953 1.8087656497955322266 2.0137779712677001953 2.3419725894927978516 2.4753236770629882813 1.9881243705749511719 1.915034174919128418 1.9685156345367431641 1.8215197324752807617 1.7912617921829223633 2.36651611328125 3.0074322223663330078 2.9242339134216308594 3.8633341789245605469 
1.7710093259811401367 1.3699640035629272461 1.7039710283279418945 2.1517539024353027344 1.5258736610412597656 1.3589830398559570313 1.7345734834671020508 2.0976092815399169922 1.7745398283004760742 2.2292695045471191406 4.2860631942749023438 4.2487134933471679688 4.7917270660400390625 5.2449855804443359375 5.3720145225524902344 3.80954742431640625 3.1223485469818115234 2.1660640239715576172 3.0231170654296875 2.5696825981140136719 1.9686104059219360352 2.4054551124572753906 3.2564167976379394531 3.6909110546112060547 2.7210404872894287109 2.6165139675140380859 2.6957509517669677734 2.3868288993835449219 1.9605528116226196289 2.0874629020690917969 2.6092848777770996094 2.1283555030822753906 1.5563641786575317383 1.5963788032531738281 1.3289093971252441406 1.7730886936187744141 2.6689057350158691406 2.6385588645935058594 2.0404677391052246094 2.5941374301910400391 
1.5846726894378662109 1.5117907524108886719 1.4703220129013061523 1.4528224468231201172 1.5831166505813598633 1.6514014005661010742 1.4128373861312866211 1.9100840091705322266 1.9080981016159057617 2.0142691135406494141 3.7820711135864257813 4.0092730522155761719 4.9169440269470214844 5.1528458595275878906 5.0290532112121582031 4.8683972358703613281 4.42237091064453125 3.1315279006958007813 2.8361980915069580078 2.8596222400665283203 2.2592420578002929688 2.4962439537048339844 3.0237798690795898438 2.9443767070770263672 4.1259059906005859375 3.8478977680206298828 4.7950253486633300781 3.7222664356231689453 2.6419644355773925781 2.4868578910827636719 2.5758924484252929688 1.871363520622253418 1.4516644477844238281 1.4446551799774169922 1.5622237920761108398 1.700829625129699707 1.940117955207824707 1.9920800924301147461 1.8075505495071411133 2.2347085475921630859 
1.5982294082641601563 2.1227238178253173828 1.9427660703659057617 1.7694507837295532227 1.7869884967803955078 1.9795191287994384766 1.7871967554092407227 1.5899204015731811523 2.0231003761291503906 2.3049890995025634766 3.1120228767395019531 3.3176474571228027344 3.9466879367828369141 4.2627224922180175781 5.268283843994140625 6.5354766845703125 4.6786584854125976563 3.5507092475891113281 2.6175251007080078125 2.3297507762908935547 2.2519083023071289063 2.5470807552337646484 2.3789770603179931641 2.5658218860626220703 3.6830379962921142578 5.2579669952392578125 7.0734300613403320313 5.2371034622192382813 3.2234439849853515625 3.1047475337982177734 2.9539084434509277344 2.1451895236968994141 1.6534371376037597656 1.6241611242294311523 1.5049568414688110352 1.6631948947906494141 1.8697955608367919922 1.9598493576049804688 2.2260217666625976563 2.4918735027313232422 
1.6412103176116943359 2.2014591693878173828 2.5505037307739257813 2.2224597930908203125 2.2213468551635742188 1.9911534786224365234 1.7923436164855957031 1.5928310155868530273 1.9869126081466674805 2.6905570030212402344 2.8371596336364746094 3.3064677715301513672 3.5160312652587890625 4.4729533195495605469 5.6278123855590820313 6.1214122772216796875 5.4638686180114746094 4.8189287185668945313 3.4079735279083251953 2.9637801647186279297 2.2602505683898925781 2.3936040401458740234 2.6453366279602050781 2.4920401573181152344 3.6157174110412597656 5.8736886978149414063 6.9585843086242675781 6.7087655067443847656 3.6474654674530029297 3.8071551322937011719 4.6921510696411132813 3.0816316604614257813 1.9380296468734741211 1.8241251707077026367 1.9188673496246337891 2.1398971080780029297 2.3999843597412109375 2.0622560977935791016 2.1502017974853515625 2.2811443805694580078 
