ncols        40
nrows        40
xllcorner    -0.000000000000
yllcorner    0.000000000000
cellsize     5.000000000000
NODATA_value nan
5.0468707084655761719 4.9886102676391601563 4.4128966331481933594 4.0754246711730957031 4.3903913497924804688 4.60284423828125 4.2551822662353515625 3.7342991828918457031 3.0834915637969970703 3.0054166316986083984 3.1100826263427734375 2.9403331279754638672 3.4211168289184570313 3.6050858497619628906 3.5602262020111083984 3.7621588706970214844 3.68119049072265625 4.0126070976257324219 4.5973148345947265625 3.7645261287689208984 3.619049072265625 4.4149656295776367188 4.2045907974243164063 4.0056939125061035156 4.38519287109375 4.5368008613586425781 4.7327933311462402344 4.1128664016723632813 3.2330071926116943359 4.3165850639343261719 4.7634687423706054688 3.7608320713043212891 4.2398505210876464844 4.3194527626037597656 3.7658698558807373047 3.6697788238525390625 3.8106441497802734375 3.7384929656982421875 4.1772613525390625 4.4868960380554199219 
4.9339160919189453125 4.8577046394348144531 4.7396292686462402344 4.0133757591247558594 4.1281409263610839844 4.5440187454223632813 4.5276465415954589844 4.3597760200500488281 3.7075741291046142578 2.8610885143280029297 2.9156830310821533203 3.3032145500183105469 3.5617156028747558594 3.6636767387390136719 4.0751204490661621094 5.27519989013671875 4.0183248519897460938 3.4209115505218505859 4.0098309516906738281 4.066890716552734375 3.7781007289886474609 4.0278806686401367188 3.8517222404479980469 4.2270092964172363281 4.7586998939514160156 4.8506045341491699219 4.6897692680358886719 3.9512095451354980469 3.3157124519348144531 3.6168639659881591797 3.5767788887023925781 3.4802787303924560547 3.0928022861480712891 3.0308470726013183594 3.3330044746398925781 3.6877684593200683594 4.2188277244567871094 4.3587965965270996094 4.2059450149536132813 4.4419345855712890625 
4.7891201972961425781 5.0147480964660644531 4.2641263008117675781 4.029201507568359375 4.2096934318542480469 4.7205801010131835938 4.7311220169067382813 4.1576790809631347656 3.5549044609069824219 2.8144829273223876953 2.9948508739471435547 3.2193427085876464844 3.5423667430877685547 3.3261308670043945313 4.1795701980590820313 4.85308074951171875 4.6616349220275878906 3.9510886669158935547 4.6864385604858398438 4.9404354095458984375 4.2183527946472167969 4.2311000823974609375 4.0297212600708007813 4.3632359504699707031 4.3345708847045898438 4.699840545654296875 4.4218096733093261719 3.7080347537994384766 3.1294798851013183594 3.1000475883483886719 3.1126928329467773438 3.3422913551330566406 2.6942167282104492188 2.7960505485534667969 3.4447112083435058594 3.9105477333068847656 4.2603931427001953125 4.7723593711853027344 4.5234746932983398438 4.5292859077453613281 
4.3555278778076171875 4.3041729927062988281 4.3423757553100585938 4.412014007568359375 4.6871967315673828125 4.8209805488586425781 4.6608929634094238281 3.6938612461090087891 3.4053800106048583984 3.1404895782470703125 3.0908372402191162109 2.7110869884490966797 2.7445077896118164063 2.9592623710632324219 3.5993647575378417969 4.0344152450561523438 3.5430786609649658203 4.4043025970458984375 4.5677647590637207031 4.1514582633972167969 4.3841266632080078125 4.0613012313842773438 3.8504900932312011719 4.3084087371826171875 4.2147302627563476563 4.3204989433288574219 4.2196264266967773438 3.6054940223693847656 3.0909605026245117188 2.7194426059722900391 2.6312270164489746094 2.6925313472747802734 2.6354260444641113281 2.7771706581115722656 3.1197247505187988281 3.9511902332305908203 3.9237186908721923828 4.2632198333740234375 4.6065154075622558594 4.5534758567810058594 
4.1409134864807128906 4.255329132080078125 4.0527601242065429688 4.34551239013671875 4.5229630470275878906 4.4831986427307128906 4.4854874610900878906 3.5433723926544189453 3.6691839694976806641 3.0025124549865722656 2.6158976554870605469 2.6217257976531982422 2.5426774024963378906 2.9522027969360351563 3.0900051593780517578 3.6454865932464599609 3.3688099384307861328 4.3582730293273925781 4.5102720260620117188 3.7854049205780029297 4.4847669601440429688 3.6447446346282958984 3.8087451457977294922 3.7414820194244384766 3.7172122001647949219 4.1603326797485351563 3.7574694156646728516 3.1547045707702636719 3.2668859958648681641 3.5542809963226318359 3.538547515869140625 3.7407364845275878906 3.1021034717559814453 3.3897120952606201172 3.7616832256317138672 3.9248793125152587891 3.5184309482574462891 3.8128175735473632813 4.18791961669921875 3.9613184928894042969 
4.4947767257690429688 4.7400426864624023438 4.1398911476135253906 3.6612732410430908203 3.9748051166534423828 4.5005946159362792969 3.9792532920837402344 3.4669077396392822266 3.71927642822265625 3.2338960170745849609 2.6618287563323974609 2.5248918533325195313 2.5166971683502197266 2.4872651100158691406 3.0136392116546630859 3.1492021083831787109 3.2819004058837890625 3.2870054244995117188 3.6507599353790283203 3.8887569904327392578 3.7722146511077880859 3.7567937374114990234 3.4511010646820068359 3.4360020160675048828 3.5276188850402832031 3.4808013439178466797 3.1514108180999755859 3.1436293125152587891 3.2180793285369873047 3.5153734683990478516 3.4457066059112548828 3.6366746425628662109 3.5126168727874755859 3.7310202121734619141 3.3471741676330566406 3.1501500606536865234 3.0739753246307373047 3.2722561359405517578 3.2342545986175537109 3.2165932655334472656 
4.2204861640930175781 4.7114109992980957031 3.951129913330078125 3.6884908676147460938 3.6460871696472167969 3.6946153640747070313 3.7513525485992431641 3.6252562999725341797 3.2486758232116699219 2.8212912082672119141 2.4879977703094482422 2.3909296989440917969 2.3975355625152587891 2.5726943016052246094 3.1077291965484619141 3.2620701789855957031 3.4313819408416748047 3.2001736164093017578 3.5897767543792724609 3.3582875728607177734 3.7092075347900390625 4.2302646636962890625 3.6838426589965820313 3.5390543937683105469 3.6615650653839111328 3.7000863552093505859 3.240024566650390625 3.5319371223449707031 3.3353204727172851563 3.4721250534057617188 3.6906874179840087891 4.2580180168151855469 3.9834351539611816406 3.7641654014587402344 3.3274364471435546875 3.1740109920501708984 2.9537258148193359375 2.9453561305999755859 3.2904889583587646484 3.3040947914123535156 
3.6542553901672363281 3.9774124622344970703 3.9982836246490478516 3.5132336616516113281 3.3635125160217285156 3.4196057319641113281 3.7828845977783203125 3.8231952190399169922 3.0753607749938964844 2.7982659339904785156 2.4515550136566162109 2.3321995735168457031 2.3640172481536865234 2.579074859619140625 2.9686427116394042969 3.1602168083190917969 3.7077701091766357422 3.1222689151763916016 4.3113102912902832031 4.375209808349609375 4.0237536430358886719 4.5680646896362304688 4.4038176536560058594 3.1786892414093017578 2.9666531085968017578 3.2744612693786621094 3.0774891376495361328 3.5015516281127929688 3.3281571865081787109 3.3846411705017089844 3.6533367633819580078 3.3416292667388916016 3.5392205715179443359 3.4588880538940429688 3.1587975025177001953 2.7478711605072021484 2.9536626338958740234 3.197536468505859375 3.3446338176727294922 3.1901915073394775391 
3.0229833126068115234 2.99127197265625 3.6485507488250732422 3.3243970870971679688 2.9916875362396240234 3.1579313278198242188 3.2648937702178955078 3.6257917881011962891 2.95436859130859375 2.6765880584716796875 2.5892050266265869141 2.6340055465698242188 2.20731353759765625 2.2422933578491210938 2.9106988906860351563 3.3379848003387451172 4.2978014945983886719 4.2486944198608398438 4.3777246475219726563 4.8474307060241699219 4.3766050338745117188 3.6777665615081787109 3.0929892063140869141 3.0406396389007568359 3.1653740406036376953 3.2718584537506103516 2.7726991176605224609 3.1833841800689697266 3.2202229499816894531 3.3144099712371826172 3.2835013866424560547 3.0353975296020507813 3.1582710742950439453 3.0464043617248535156 2.4241840839385986328 2.3657827377319335938 2.6990506649017333984 3.2086212635040283203 3.3175628185272216797 2.9055180549621582031 
2.9054601192474365234 2.5578048229217529297 2.996002197265625 2.7084085941314697266 3.1467983722686767578 2.8233883380889892578 2.6569092273712158203 3.2535657882690429688 3.4590229988098144531 3.0114054679870605469 2.846515655517578125 2.8302288055419921875 2.2797005176544189453 2.1065912246704101563 2.5167167186737060547 2.9221217632293701172 4.0662722587585449219 4.3185129165649414063 4.2018175125122070313 5.242412567138671875 4.0847315788269042969 3.1005434989929199219 2.8993775844573974609 2.7602164745330810547 2.7686040401458740234 2.5540268421173095703 3.0755727291107177734 3.3734838962554931641 2.9720506668090820313 2.7424561977386474609 3.3741579055786132813 3.2621548175811767578 3.4897606372833251953 3.2248675823211669922 2.4947679042816162109 2.4334278106689453125 2.9155948162078857422 2.9934790134429931641 3.1993091106414794922 3.2521851062774658203 
3.7662289142608642578 3.3182723522186279297 3.0771169662475585938 2.5971653461456298828 2.3969683647155761719 2.1430079936981201172 2.544116973876953125 3.0057051181793212891 2.9859631061553955078 2.9126751422882080078 2.6422011852264404297 2.4566259384155273438 2.3703186511993408203 2.5710923671722412109 2.4448690414428710938 2.9176440238952636719 2.9036464691162109375 4.5619516372680664063 4.8574514389038085938 4.2280840873718261719 3.2445285320281982422 3.0023322105407714844 2.8336100578308105469 2.43466949462890625 2.4322876930236816406 2.8619925975799560547 4.1999263763427734375 3.5088720321655273438 3.0189769268035888672 2.7434523105621337891 2.7970049381256103516 3.6189622879028320313 3.9577658176422119141 3.3559203147888183594 3.0584130287170410156 3.1123862266540527344 3.3615376949310302734 3.3278872966766357422 3.5193817615509033203 3.2594258785247802734 
4.3519015312194824219 3.7765116691589355469 2.7670912742614746094 2.9712195396423339844 2.5462954044342041016 1.9493783712387084961 2.3862829208374023438 2.8554415702819824219 2.8579459190368652344 2.6541202068328857422 2.6060278415679931641 2.9631736278533935547 3.0581541061401367188 3.3415594100952148438 2.9493494033813476563 2.7725632190704345703 2.7784824371337890625 4.0416779518127441406 3.0005905628204345703 3.1473035812377929688 3.6456899642944335938 3.7967448234558105469 2.8466069698333740234 2.1779994964599609375 2.0079941749572753906 2.5210387706756591797 3.2116656303405761719 2.9537785053253173828 3.0617115497589111328 2.6932551860809326172 2.4904851913452148438 2.8587832450866699219 3.0999193191528320313 3.5268361568450927734 4.03857421875 3.7231426239013671875 4.0573554039001464844 3.6824681758880615234 3.5467984676361083984 3.4669654369354248047 
4.5362796783447265625 3.8073177337646484375 3.7413523197174072266 2.5327806472778320313 2.3986525535583496094 1.9773190021514892578 2.3902587890625 3.2253849506378173828 2.415660858154296875 2.7564883232116699219 2.978244781494140625 3.869045257568359375 5.2177305221557617188 4.2114567756652832031 3.5616230964660644531 3.2413222789764404297 3.6274137496948242188 3.4020726680755615234 2.7922546863555908203 2.7330486774444580078 3.2887487411499023438 3.2038173675537109375 2.6116049289703369141 1.921004176139831543 1.8980398178100585938 1.9328157901763916016 2.0170459747314453125 2.2802455425262451172 2.5472974777221679688 2.0323519706726074219 2.5805029869079589844 3.6689515113830566406 2.9875833988189697266 3.6503827571868896484 4.1446628570556640625 4.1614966392517089844 4.202846527099609375 4.1460738182067871094 3.4811010360717773438 2.9251439571380615234 
3.4270253181457519531 3.6397948265075683594 3.0783102512359619141 2.1430149078369140625 1.9122942686080932617 2.1218502521514892578 2.6115598678588867188 2.60394287109375 2.5421974658966064453 2.2908310890197753906 3.8877861499786376953 4.6311783790588378906 7.02388763427734375 4.8294382095336914063 3.7721149921417236328 4.31807708740234375 2.6558997631072998047 3.5919337272644042969 3.0832250118255615234 3.0209248065948486328 3.4890921115875244141 3.4141972064971923828 3.1306300163269042969 2.1435446739196777344 1.8587710857391357422 1.8857423067092895508 1.8867040872573852539 2.0827207565307617188 2.1190867424011230469 1.8558250665664672852 2.5888240337371826172 3.3402001857757568359 2.8694305419921875 3.2197506427764892578 4.0570340156555175781 3.9470593929290771484 3.8696281909942626953 3.7683155536651611328 3.4871966838836669922 3.0281367301940917969 
2.5057530403137207031 2.2728343009948730469 2.2233798503875732422 2.3288829326629638672 2.1810772418975830078 1.9929077625274658203 2.2783718109130859375 2.0856318473815917969 1.8966443538665771484 2.0153224468231201172 2.9920644760131835938 3.7023034095764160156 6.9474186897277832031 5.7158374786376953125 4.2353792190551757813 4.3129620552062988281 2.6950130462646484375 2.5443186759948730469 2.3786203861236572266 2.7368390560150146484 3.4667735099792480469 3.3729870319366455078 2.6068353652954101563 2.4865970611572265625 2.0972819328308105469 1.7403166294097900391 1.8200953006744384766 1.9815012216567993164 1.8707071542739868164 2.2570536136627197266 2.5299587249755859375 2.40285491943359375 2.8674781322479248047 3.7886595726013183594 3.2311575412750244141 3.6608786582946777344 3.7728040218353271484 3.5589857101440429688 3.471805572509765625 3.4787585735321044922 
2.5959584712982177734 2.0668087005615234375 1.7191455364227294922 2.5762274265289306641 2.4018878936767578125 1.5672605037689208984 2.0378317832946777344 1.920302271842956543 1.764237523078918457 2.4796905517578125 3.3266043663024902344 3.8093492984771728516 7.1777143478393554688 5.4680166244506835938 4.3388881683349609375 3.6362798213958740234 3.0049681663513183594 2.3910970687866210938 2.6274421215057373047 2.5479042530059814453 2.205348968505859375 2.3999822139739990234 2.7848045825958251953 2.8331673145294189453 1.9044730663299560547 1.8146165609359741211 1.7026958465576171875 2.2430520057678222656 2.4981110095977783203 2.4070761203765869141 2.2602968215942382813 2.270252227783203125 2.0384180545806884766 2.6720104217529296875 3.0954232215881347656 3.0097775459289550781 2.9106259346008300781 3.4400143623352050781 3.4423487186431884766 2.9184329509735107422 
2.3530714511871337891 2.1442675590515136719 1.762553095817565918 1.9810080528259277344 1.9301800727844238281 1.5937674045562744141 1.8457862138748168945 2.1274037361145019531 1.9097235202789306641 2.2108988761901855469 3.6225526332855224609 3.9980952739715576172 6.317108154296875 4.2596030235290527344 2.5408289432525634766 2.2223799228668212891 2.0826635360717773438 1.9601296186447143555 2.1766147613525390625 2.0125510692596435547 1.6861631870269775391 2.9397885799407958984 2.4926919937133789063 1.9256017208099365234 1.7031778097152709961 1.7925179004669189453 1.8829542398452758789 2.1436049938201904297 2.2102539539337158203 2.3946778774261474609 2.0874981880187988281 1.7437832355499267578 2.2828218936920166016 2.1181464195251464844 2.3331372737884521484 2.3073172569274902344 2.5123248100280761719 2.3587524890899658203 3.0967402458190917969 2.6862211227416992188 
2.7802133560180664063 2.0465495586395263672 1.4432047605514526367 1.5273787975311279297 1.5450561046600341797 1.5166838169097900391 1.8111878633499145508 2.3334221839904785156 2.2900815010070800781 2.1170699596405029297 2.9980006217956542969 3.3037846088409423828 3.6763644218444824219 3.1059107780456542969 1.9995445013046264648 2.0342566967010498047 1.7039351463317871094 1.8442070484161376953 2.0693430900573730469 2.0753424167633056641 1.7590311765670776367 2.1183576583862304688 2.2048492431640625 1.4375224113464355469 1.5314849615097045898 2.1112589836120605469 2.2298526763916015625 2.3575890064239501953 2.1544370651245117188 2.1693007946014404297 2.1699035167694091797 1.9359134435653686523 2.3055415153503417969 1.9281877279281616211 1.6637691259384155273 1.6114493608474731445 1.9434993267059326172 1.7963019609451293945 1.9230339527130126953 1.9195145368576049805 
1.8751695156097412109 1.5279331207275390625 1.1769111156463623047 1.0303207635879516602 1.4146858453750610352 1.3746554851531982422 1.6641342639923095703 2.1347601413726806641 2.0079746246337890625 2.6137399673461914063 2.9900145530700683594 2.9162297248840332031 2.4994559288024902344 1.925961613655090332 1.8067723512649536133 1.5582975149154663086 1.3516691923141479492 1.4116607904434204102 1.5958079099655151367 2.0000166893005371094 1.8575865030288696289 2.0566797256469726563 1.645357966423034668 1.4603446722030639648 1.6313546895980834961 1.3157410621643066406 1.7041631937026977539 2.1613423824310302734 2.0231921672821044922 2.2782752513885498047 2.2935166358947753906 1.9530431032180786133 2.0347037315368652344 1.8845038414001464844 1.4173086881637573242 1.6577322483062744141 1.4401099681854248047 1.4253597259521484375 1.3700177669525146484 1.5426267385482788086 
1.0214272737503051758 1.1064851284027099609 1.2116448879241943359 1.3146679401397705078 1.2635968923568725586 1.6512997150421142578 1.7710347175598144531 2.4794151782989501953 2.0762386322021484375 2.0704891681671142578 1.942020416259765625 1.6833211183547973633 1.7333912849426269531 1.5874075889587402344 1.5393644571304321289 1.2872829437255859375 1.308513641357421875 1.2853715419769287109 1.993897557258605957 2.0615723133087158203 2.2053949832916259766 2.1227202415466308594 1.4951773881912231445 1.5877271890640258789 1.2900611162185668945 1.4003931283950805664 1.4720033407211303711 1.7246553897857666016 2.1871778964996337891 1.8917776346206665039 2.2012522220611572266 1.8951369524002075195 2.0327723026275634766 1.5941222906112670898 1.2533233165740966797 1.4635196924209594727 1.7209590673446655273 2.1877901554107666016 1.8207912445068359375 1.4472124576568603516 
1 1.2414748668670654297 1.2021204233169555664 1.1937417984008789063 1.0596826076507568359 1.8772876262664794922 1.6888349056243896484 2.2919983863830566406 2.4311921596527099609 2.1147298812866210938 2.0861024856567382813 1.629123687744140625 1.6674157381057739258 1.3278405666351318359 1.2122324705123901367 1.2981243133544921875 1.2952796220779418945 1.2312054634094238281 1.475365757942199707 1.9971376657485961914 2.943450927734375 3.3679220676422119141 2.6703643798828125 2.0404882431030273438 1.397015690803527832 1.4159947633743286133 1.683806300163269043 2.016277313232421875 1.7155237197875976563 2.0266332626342773438 2.3461823463439941406 3.1617681980133056641 2.0459308624267578125 1.616947174072265625 1.1862579584121704102 1.5379586219787597656 1.9975341558456420898 1.9528440237045288086 1.5982115268707275391 1.349488377571105957 
1.1504359245300292969 1.1531721353530883789 1.0884060859680175781 1.1857587099075317383 1 1.2982267141342163086 1.3549858331680297852 1.995581507682800293 2.2046806812286376953 2.2617418766021728516 2.4264729022979736328 1.1668179035186767578 1.3780374526977539063 1.3075203895568847656 1.1046855449676513672 1 1 1.0647933483123779297 1.5387865304946899414 2.2612295150756835938 2.9436490535736083984 2.8665173053741455078 2.9224328994750976563 2.3387024402618408203 2.0890166759490966797 1.8163870573043823242 1.6210700273513793945 1.5457211732864379883 1.4646935462951660156 1.6908446550369262695 2.0851864814758300781 3.2713303565979003906 1.766930699348449707 1.3648369312286376953 1.7328281402587890625 2.1863932609558105469 2.1026747226715087891 1.903731226921081543 1.3700287342071533203 1.1349364519119262695 
1.092381596565246582 1.0613317489624023438 1.0830330848693847656 1 1.0543925762176513672 1.4301331043243408203 1.0498145818710327148 1.9434430599212646484 2.5582010746002197266 2.5992274284362792969 2.6815981864929199219 1.7297210693359375 1.6359689235687255859 1.5073004961013793945 1.121392369270324707 1 1.0369149446487426758 1.268599390983581543 1.4303797483444213867 1.6972906589508056641 1.7702913284301757813 1.4941923618316650391 1.8386381864547729492 2.5763840675354003906 2.5998418331146240234 2.2207362651824951172 2.522670745849609375 2.1610429286956787109 1.6314244270324707031 1.5974897146224975586 1.6117146015167236328 1.9507498741149902344 1.5372003316879272461 1.5003272294998168945 1.6501207351684570313 2.1876516342163085938 1.9718420505523681641 1.8687378168106079102 1.3201082944869995117 1.0529679059982299805 
1 1 1 1 1 1.0765378475189208984 1 1.3492696285247802734 1.4790885448455810547 1.877129673957824707 1.7931144237518310547 2.0420002937316894531 2.4339747428894042969 1.5142520666122436523 1.0937331914901733398 1.2184079885482788086 1.0511580705642700195 1 1.4683160781860351563 1.2228093147277832031 1 1.2388590574264526367 1.310969233512878418 2.0873730182647705078 2.1102347373962402344 1.6189273595809936523 2.1011197566986083984 2.4399912357330322266 2.2071900367736816406 1.7192680835723876953 1.8319915533065795898 1.7724573612213134766 1.3520542383193969727 1.3340232372283935547 1.5060412883758544922 1.8317205905914306641 1.1765717267990112305 1.2647986412048339844 1 1.1509956121444702148 
1 1 1 1 1 1 1 1.0810035467147827148 1.8599554300308227539 2.3666362762451171875 2.6339409351348876953 1.7370313405990600586 1.3686150312423706055 1.2797970771789550781 1.1399270296096801758 1.149891972541809082 1 1 1 1 1 1 1.3559257984161376953 1.6637136936187744141 1.3744230270385742188 1.3585007190704345703 1.567845463752746582 1.9339977502822875977 2.2078967094421386719 2.4723789691925048828 2.1900324821472167969 1.2087926864624023438 1.1540170907974243164 1.3307701349258422852 1 1 1.3944585323333740234 1.3386503458023071289 1.1444851160049438477 1 
1 1 1 1 1 1 1 1.352139592170715332 2.1067740917205810547 2.3580715656280517578 1.9573309421539306641 1.3794327974319458008 1.0826573371887207031 1 1 1 1 1 1.0364344120025634766 1.0444416999816894531 1 1.1694532632827758789 1.0721735954284667969 1.1045219898223876953 1 1.1504930257797241211 1.7109664678573608398 1.5407822132110595703 1.9304513931274414063 2.007335662841796875 1.7859781980514526367 1.1177765130996704102 1.1202247142791748047 1.0542497634887695313 1.0498048067092895508 1 1.5207784175872802734 2.0313966274261474609 1.607809901237487793 1.1856243610382080078 
1 1 1 1 1 1 1.1082085371017456055 1.1704018115997314453 1.2774556875228881836 1.3186336755752563477 1.1592601537704467773 1.043211817741394043 1.1763194799423217773 1.1270204782485961914 1 1 1 1.0660980939865112305 1.0393245220184326172 1.2486320734024047852 1.3289140462875366211 1.2116097211837768555 1.0136872529983520508 1.2500364780426025391 1.1939008235931396484 1 1.4036017656326293945 1.4405431747436523438 1.5555227994918823242 1.8161740303039550781 1.4609099626541137695 1.0130991935729980469 1 1 1.0898433923721313477 1.639170527458190918 1.7318495512008666992 2.348651885986328125 2.156337738037109375 1.1835281848907470703 
1 1 1 1 1 1 1 1 1 1 1 1 1 1.2781805992126464844 1.0616449117660522461 1 1 1.0016058683395385742 1.0966726541519165039 1.7105028629302978516 1.6014764308929443359 1.1532452106475830078 1 1.3977577686309814453 1 1.3563939332962036133 1.3877924680709838867 1.3335267305374145508 1 1.3206841945648193359 1.2521533966064453125 1.0480303764343261719 1 1.0132567882537841797 1.0877894163131713867 1.4742166996002197266 1.8867502212524414063 2.0904259681701660156 1.6654050350189208984 1.6605752706527709961 
1 1 1 1 1 1 1 1 1 1.3479844331741333008 1.1606061458587646484 1.2277857065200805664 1 1.0133577585220336914 1.5712431669235229492 1.2039407491683959961 1.0672323703765869141 1.0764025449752807617 1.1716547012329101563 2.1985707283020019531 2.0157113075256347656 1.4066804647445678711 1.1231684684753417969 1 1.0737775564193725586 2.3763303756713867188 2.0158982276916503906 1 1 1 1.0595905780792236328 1.1124852895736694336 1 1.3375285863876342773 1.505980372428894043 1.8549789190292358398 2.0501086711883544922 2.2974038124084472656 2.1342661380767822266 2.0855147838592529297 
1 1 1 1 1 1 1 1 1 1.2221275568008422852 1.6096651554107666016 1.7983874082565307617 1.7590917348861694336 1.471472620964050293 1.3532079458236694336 1.3874596357345581055 1.2402355670928955078 1.6146938800811767578 1.6042661666870117188 1.6715800762176513672 2.4855401515960693359 1.7374775409698486328 1.1323632001876831055 1.2342127561569213867 2.4470500946044921875 2.8101432323455810547 1.713040471076965332 1 1 1 1 1.0401511192321777344 1.1166319847106933594 1.4319473505020141602 1.7335566282272338867 2.1201722621917724609 2.3974351882934570313 2.8712515830993652344 2.3957762718200683594 2.2710258960723876953 
1.0614240169525146484 1 1 1 1 1 1 1 1 1.113782048225402832 1.5060849189758300781 1.6484239101409912109 2.2469506263732910156 2.2736520767211914063 1.9696916341781616211 2.1985771656036376953 1.8363155126571655273 2.0961964130401611328 1.5555666685104370117 1.9115908145904541016 2.5028057098388671875 2.1597306728363037109 1.4578963518142700195 1.2084813117980957031 1.7076140642166137695 1.4537862539291381836 1.1271516084671020508 1 1 1 1 1 1.0399472713470458984 1.1871105432510375977 1.3707566261291503906 2.3776762485504150391 2.7514667510986328125 2.8155894279479980469 2.4700777530670166016 2.8602001667022705078 
1.0395860671997070313 1.3177992105484008789 1.7008330821990966797 1.3038932085037231445 1.222761988639831543 1 1 1.1448496580123901367 1.5350239276885986328 1.6328487396240234375 1.1000611782073974609 1.5450834035873413086 2.1146550178527832031 2.3525364398956298828 2.2685708999633789063 1.9086098670959472656 2.0731337070465087891 2.8007907867431640625 1.9555785655975341797 2.0269446372985839844 2.2927069664001464844 1.9752534627914428711 1.5409760475158691406 1.0454733371734619141 1.6283720731735229492 1.0806994438171386719 1 1.0387102365493774414 1 1 1 1 1 1 1.1203247308731079102 1.4746899604797363281 1.9753911495208740234 2.3873157501220703125 2.6367270946502685547 2.5380578041076660156 
2.3825712203979492188 3.010555267333984375 3.4122455120086669922 1.8836903572082519531 1.9896397590637207031 1 1 1.0288560390472412109 1.5132353305816650391 1.1475276947021484375 1.2799054384231567383 1.7756183147430419922 2.2326259613037109375 2.7285108566284179688 2.3853607177734375 1.9673435688018798828 2.1589467525482177734 2.3070492744445800781 1.6992033720016479492 1.782361149787902832 1.8490779399871826172 1.5544784069061279297 1 1 1 1 1 1.1337952613830566406 1 1 1 1 1 1 1 1.082744598388671875 1.1254380941390991211 1.8247430324554443359 2.4072549343109130859 2.7843077182769775391 
2.3289055824279785156 2.5770840644836425781 2.6377704143524169922 2.1052954196929931641 1 1 1 1 1.1316324472427368164 1.1550107002258300781 1.2941135168075561523 1.4103405475616455078 1.7531141042709350586 2.4021799564361572266 2.3561162948608398438 2.4082839488983154297 2.1698727607727050781 1.6275016069412231445 1.1984717845916748047 1.3603514432907104492 1 1 1 1 1 1 1 1 1 1 1 1 1 1 1 1 1 1.3297748565673828125 2.2482647895812988281 2.028179168701171875 
2.348697662353515625 2.7544376850128173828 2.1526606082916259766 1.5622998476028442383 1.1881489753723144531 2.5767822265625 1.412207484245300293 1 1.0229805707931518555 1.107136845588684082 1.1058251857757568359 1.1425582170486450195 1.5205061435699462891 2.2184321880340576172 2.4096388816833496094 2.3660984039306640625 1.6049591302871704102 1.0914608240127563477 1 1.0465884208679199219 1 1 1 1 1 1 1 1.1159554719924926758 1.00096893310546875 1 1 1 1 1 1 1 1 1.0326954126358032227 1.807612299919128418 2.1292910575866699219 
1.8312971591949462891 2.0881242752075195313 2.2248389720916748047 1 1 2.5721070766448974609 1.7188097238540649414 1.7084686756134033203 1.0273752212524414063 1.2491871118545532227 1.1076447963714599609 1.2245448827743530273 1.17427825927734375 1.7253340482711791992 2.3650422096252441406 1.6685187816619873047 1.2420728206634521484 1 1.1711201667785644531 1.1201293468475341797 1 1 1 1 1 1 1 1.1319462060928344727 1.1419389247894287109 1.0575186014175415039 1 1 1 1 1 1 1 1 1.4494053125381469727 2.1539969444274902344 
1.4645768404006958008 1 1.45751953125 1.8609666824340820313 1 1 1.4702912569046020508 1.8943957090377807617 1.1194418668746948242 1.1470692157745361328 1.4749373197555541992 1.8748416900634765625 1.7813400030136108398 2.1207876205444335938 1.7121577262878417969 1.3978633880615234375 1.3675148487091064453 1.0787639617919921875 1.6233685016632080078 1.3314301967620849609 1 1 1.0366444587707519531 1 1 1 1 1 1 1 1 1 1 1 1 1 1 1 1.0337756872177124023 1.6719182729721069336 
1.1906435489654541016 1 1 1 1 1 1 1.5031452178955078125 1 1 1.1209615468978881836 1.4426528215408325195 1.482504725456237793 1.9534726142883300781 1.7119902372360229492 1.4064681529998779297 1.4822524785995483398 1.1552872657775878906 1.2237765789031982422 1.2978987693786621094 1 1 1 1 1 1 1 1 1 1 1 1 1 1 1 1 1 1.0512965917587280273 1.0948293209075927734 1.7008836269378662109 
1 1 1 1 1 1 1 1 1 1 1 1 1 1 1.1957001686096191406 1.343731999397277832 1.2709547281265258789 1.1826897859573364258 1 1 1 1 1 1 1 1.1314061880111694336 1 1 1 1 1 1 1 1 1.0725792646408081055 1 1 1 1.2832317352294921875 1.7698923349380493164 
1 1 1 1 1 1 1.0141160488128662109 1 1 1 1 1 1 1 1 1 1 1 1 1 1 1 1 1 1.1367272138595581055 1.2703119516372680664 1 1 1 1 1 1 1 1 1 1 1 1 1 1.3093788623809814453 
