ncols        40
nrows        40
xllcorner    -0.000000000000
yllcorner    0.000000000000
cellsize     5.000000000000
NODATA_value nan
3.5157086849212646484 3.4677307605743408203 3.1723797321319580078 2.8761708736419677734 2.7266979217529296875 3.3649377822875976563 2.8508067131042480469 2.1728763580322265625 1.991657257080078125 2.256359100341796875 2.0756886005401611328 1.6828746795654296875 1.4095877408981323242 1 1.3373343944549560547 1 1.7436035871505737305 1.9875743389129638672 3.2641437053680419922 2.4576010704040527344 2.2217957973480224609 3.1418898105621337891 2.776790618896484375 2.5055227279663085938 2.7681574821472167969 3.3990674018859863281 3.2954437732696533203 2.7153568267822265625 1.381137847900390625 1 1 1 1 1 1.3889197111129760742 1 2.4406666755676269531 2.9190280437469482422 3.6948740482330322266 4.0532379150390625 
3.6984016895294189453 3.4163641929626464844 2.9362447261810302734 2.4904005527496337891 1.9584890604019165039 2.7651050090789794922 3.0096478462219238281 2.6197578907012939453 2.6313149929046630859 1.9397878646850585938 1.6895327568054199219 1.2717269659042358398 1.3628294467926025391 1 1 1 1 1.4856795072555541992 1.8202953338623046875 1.3523988723754882813 2.2601535320281982422 3.4683554172515869141 3.0818407535552978516 3.1387691497802734375 3.5861527919769287109 3.6030828952789306641 3.2596845626831054688 2.7919886112213134766 1.6755206584930419922 1.1111558675765991211 1 1 1.2405424118041992188 1.5765262842178344727 1.4349627494812011719 1.8074802160263061523 2.2785511016845703125 3.3434686660766601563 3.89702606201171875 3.9190847873687744141 
4.2234568595886230469 3.7623715400695800781 2.4481682777404785156 2.0588347911834716797 2.2181284427642822266 3.23969268798828125 3.1928288936614990234 2.4063582420349121094 2.0989882946014404297 1.6846796274185180664 1.4782073497772216797 1.3858652114868164063 1.8114557266235351563 1.4249235391616821289 1 1 1 1 1 1 2.1134057044982910156 3.3661017417907714844 3.5369024276733398438 3.7881033420562744141 3.4789245128631591797 3.4880671501159667969 2.7669091224670410156 2.3920207023620605469 1.6191027164459228516 1.3838762044906616211 1.219738006591796875 1.7271106243133544922 2.0811998844146728516 2.092723846435546875 2.3707714080810546875 3.0928814411163330078 3.2989561557769775391 3.95721435546875 4.1597189903259277344 4.2604775428771972656 
3.3009667396545410156 3.1574234962463378906 2.5235655307769775391 2.1084210872650146484 3.0767984390258789063 3.3827478885650634766 3.0897393226623535156 2.0136916637420654297 1.7259840965270996094 1.4714163541793823242 1.5958176851272583008 1.4857459068298339844 1.6388641595840454102 1.6007710695266723633 1 1 1.1601821184158325195 1 1 1 1 2.3875408172607421875 3.2449889183044433594 3.7130513191223144531 3.6123805046081542969 3.42006683349609375 3.1419677734375 2.5081217288970947266 1.9135776758193969727 1.923030853271484375 1.9161500930786132813 1.6752752065658569336 2.00695037841796875 2.2912950515747070313 2.7419118881225585938 3.6906466484069824219 3.5332555770874023438 3.9222776889801025391 4.4184198379516601563 4.2921543121337890625 
3.2149624824523925781 3.0927524566650390625 2.3356404304504394531 2.3416388034820556641 3.5352079868316650391 3.5247941017150878906 2.9096267223358154297 2.4772276878356933594 2.9127302169799804688 2.1478221416473388672 1.7289203405380249023 1.7895491123199462891 1.7488297224044799805 1.6258491277694702148 1.2364150285720825195 1 1 1 1 1 1 1.3104223012924194336 2.8215165138244628906 3.1935715675354003906 2.6203124523162841797 2.9434504508972167969 2.6997148990631103516 2.0992224216461181641 2.3655366897583007813 2.8174078464508056641 3.1842429637908935547 3.4262683391571044922 2.8675420284271240234 3.3740105628967285156 3.6644728183746337891 3.8089916706085205078 3.264003753662109375 3.7081389427185058594 4.0135226249694824219 3.9674673080444335938 
3.4615345001220703125 3.925838470458984375 3.2233934402465820313 2.6217286586761474609 3.3436632156372070313 3.5264692306518554688 2.8127999305725097656 3.2036075592041015625 3.4203257560729980469 3.1132361888885498047 2.352466583251953125 1.9497394561767578125 2.0676085948944091797 1.6565407514572143555 1.3146692514419555664 1 1.2987663745880126953 1.0759959220886230469 1 1 1.4160618782043457031 1.6761287450790405273 2.0404005050659179688 2.1952698230743408203 2.0835804939270019531 2.1011803150177001953 1.9783477783203125 1.914214015007019043 2.5375983715057373047 2.8601460456848144531 3.1739892959594726563 3.2397964000701904297 3.1359453201293945313 3.6340239048004150391 3.2636392116546630859 3.1857399940490722656 3.0110447406768798828 3.1958758831024169922 2.8755619525909423828 2.8869614601135253906 
3.5091240406036376953 4.3337979316711425781 3.5971167087554931641 3.4062085151672363281 3.4771246910095214844 3.2325460910797119141 3.0443360805511474609 3.6018261909484863281 3.1005997657775878906 2.6258101463317871094 2.1922705173492431641 2.214725494384765625 2.1727747917175292969 1.4329617023468017578 1.3824219703674316406 1 1.4739171266555786133 1.3384039402008056641 1 1.1472172737121582031 1 1.6639424562454223633 1.0360209941864013672 1.5473232269287109375 2.3619606494903564453 2.5222189426422119141 2.5977847576141357422 2.5367794036865234375 3.0106732845306396484 3.0792193412780761719 3.5987179279327392578 4.1874065399169921875 3.8027210235595703125 3.9129996299743652344 3.64914703369140625 3.2636537551879882813 3.0052120685577392578 3.1373007297515869141 2.72466278076171875 2.4127249717712402344 
2.4003927707672119141 3.4665653705596923828 3.6158850193023681641 2.5907833576202392578 2.6829669475555419922 2.9380900859832763672 3.3171832561492919922 3.6169559955596923828 2.985157012939453125 2.6339769363403320313 2.1797487735748291016 1.9838765859603881836 1.8982084989547729492 1.6614049673080444336 1.251816868782043457 1.0510728359222412109 1 1.1413884162902832031 1 1 1 1 1 1 2.0655367374420166016 2.6482121944427490234 2.3410422801971435547 2.7626459598541259766 3.1722624301910400391 3.3440041542053222656 3.6677043437957763672 3.5600864887237548828 3.7579252719879150391 3.5782916545867919922 3.5390949249267578125 2.7253003120422363281 3.0204427242279052734 3.4604003429412841797 2.8374111652374267578 1 
1.9749419689178466797 2.3849971294403076172 2.5274095535278320313 1.8203639984130859375 2.4076266288757324219 2.6681346893310546875 2.7230038642883300781 3.1060030460357666016 2.7492430210113525391 2.7381746768951416016 2.5349090099334716797 2.3351981639862060547 2.1158323287963867188 1.4699748754501342773 1.1679773330688476563 1 1 1 1 1 1 1.0384896993637084961 1.2108070850372314453 1.4909623861312866211 2.1702404022216796875 2.3825328350067138672 1.4633747339248657227 1.2044432163238525391 2.1899523735046386719 2.8635463714599609375 3.1959984302520751953 3.2182538509368896484 3.3411250114440917969 3.1478166580200195313 2.5500762462615966797 2.3516027927398681641 2.9278864860534667969 3.5846376419067382813 3.0755298137664794922 1.4431860446929931641 
1.0388962030410766602 1.3499969244003295898 1.6959809064865112305 1.7729074954986572266 2.4232776165008544922 2.4825987815856933594 2.7973444461822509766 3.3864414691925048828 3.4787287712097167969 2.8973758220672607422 2.5941343307495117188 2.6418159008026123047 2.2307040691375732422 1.7531669139862060547 1.4419192075729370117 1.1296162605285644531 1 1 1 1 1 1.6369524002075195313 1.828276515007019043 2.2796447277069091797 2.2684121131896972656 1.3268162012100219727 1.0405700206756591797 1 1.7749232053756713867 2.2423739433288574219 3.0673670768737792969 3.1188082695007324219 3.4865677356719970703 3.0291345119476318359 2.0419230461120605469 1.977081298828125 2.90834808349609375 3.2353549003601074219 3.2986192703247070313 2.6659531593322753906 
1 1 1.548159480094909668 1.987608790397644043 1.8368611335754394531 2.171142578125 3.0201268196105957031 3.3986189365386962891 3.0196301937103271484 2.8535587787628173828 2.045482635498046875 1.4612184762954711914 1.476807713508605957 1.7186996936798095703 1.6563333272933959961 1.0703525543212890625 1.0783674716949462891 1 1 1 1.4899958372116088867 1.4501250982284545898 1.7316337823867797852 1.8856089115142822266 1.8496367931365966797 1 1 1 1.9760813713073730469 1.9126321077346801758 2.4553511142730712891 3.1697497367858886719 3.6132533550262451172 3.3210370540618896484 2.5655889511108398438 2.4335603713989257813 2.9094750881195068359 3.3883135318756103516 3.0725371837615966797 2.7822694778442382813 
1 1 1.0725339651107788086 1.5198185443878173828 1.6291919946670532227 2.0228662490844726563 2.8126196861267089844 3.2582619190216064453 2.6340274810791015625 1.8843501806259155273 1.7024457454681396484 1.6741653680801391602 1 1 1 1 1 1 1 1.1967551708221435547 2.3726336956024169922 2.5753743648529052734 2.2197806835174560547 2.1139786243438720703 1.6468744277954101563 1.2276506423950195313 1 1 1.5821928977966308594 2.2526483535766601563 2.0183317661285400391 1.4593653678894042969 1.6341930627822875977 2.6327910423278808594 3.2572956085205078125 2.7413084506988525391 3.6413519382476806641 3.3370630741119384766 3.0828113555908203125 2.9419195652008056641 
1 1 1 1.2274997234344482422 1.9125455617904663086 1.7739366292953491211 2.6030366420745849609 3.1939806938171386719 2.0835311412811279297 1 1 1 1 1 1 1 1 1 1.6052476167678833008 1.2761049270629882813 2.1452999114990234375 3.0068950653076171875 2.5106892585754394531 2.2097947597503662109 1.9817500114440917969 1.7940371036529541016 1.5930209159851074219 1.5150722265243530273 1.8595669269561767578 1.8923729658126831055 1 1 1 1.8112413883209228516 2.9946339130401611328 3.9048242568969726563 4.0440683364868164063 4.2723364830017089844 3.7730302810668945313 3.3388378620147705078 
1 1 1 1.2780796289443969727 1.6815061569213867188 2.2245578765869140625 2.5848467350006103516 2.6332421302795410156 2.1597545146942138672 1.3546400070190429688 1 1 1 1 1 1 1.0730613470077514648 1.9355188608169555664 1.5481975078582763672 2.1534864902496337891 3.2743923664093017578 3.7434651851654052734 3.6670193672180175781 2.4863140583038330078 2.1686029434204101563 2.2176299095153808594 1.6212445497512817383 1.5816807746887207031 1.5363141298294067383 1.4150737524032592773 1 1 1 2.1363990306854248047 3.5952706336975097656 3.7061684131622314453 3.8742828369140625 3.8480739593505859375 3.9146382808685302734 3.5088224411010742188 
1.2834612131118774414 1.0516531467437744141 1.3159830570220947266 2.1707892417907714844 2.1799566745758056641 1.9594440460205078125 2.3249070644378662109 2.1239352226257324219 1.8054429292678833008 1.4385246038436889648 1 1 1 1 1 1 1 1.2077318429946899414 1.1974325180053710938 2.5702500343322753906 4.0369901657104492188 4.2142186164855957031 3.4704225063323974609 3.1534800529479980469 2.0254518985748291016 1.9911102056503295898 1.4426028728485107422 1.3044104576110839844 1.3364402055740356445 1.4967212677001953125 1.43819427490234375 1 2.3059964179992675781 3.2892708778381347656 3.4609076976776123047 3.5588781833648681641 3.6076607704162597656 3.86957550048828125 3.6112682819366455078 3.8785583972930908203 
2.3893835544586181641 1.5690227746963500977 1.5846734046936035156 2.9821393489837646484 2.6454145908355712891 1.8222401142120361328 2.1759586334228515625 1.6258296966552734375 1.5664458274841308594 1 1 1 1 1 1 1 1 1.0398161411285400391 1.9868540763854980469 2.9128413200378417969 3.0666022300720214844 3.4253468513488769531 3.7255499362945556641 3.408477783203125 1.6595381498336791992 1.5314720869064331055 1.2547839879989624023 1 1 1 1.0835940837860107422 1.3542947769165039063 1.6390196084976196289 2.8103601932525634766 3.3121244907379150391 3.4167706966400146484 3.0129213333129882813 3.7345428466796875 4.0154390335083007813 3.4043536186218261719 
3.0106563568115234375 2.6012670993804931641 1.9759083986282348633 2.1714117527008056641 1.9299505949020385742 1.6061785221099853516 1.8406654596328735352 2.0815279483795166016 1.8221513032913208008 1.3130134344100952148 1 1 1 1 1 1.0766336917877197266 1.3714219331741333008 1.5004858970642089844 2.1542098522186279297 2.6011288166046142578 2.3754231929779052734 3.6994445323944091797 3.4628994464874267578 2.649383544921875 1.5234831571578979492 1.3764276504516601563 1.3949897289276123047 1.2219320535659790039 1.0188716650009155273 1 1.2416604757308959961 1.5337424278259277344 2.64630126953125 2.4916384220123291016 2.9689593315124511719 2.9900610446929931641 2.8154847621917724609 3.0113084316253662109 3.8523828983306884766 3.1557748317718505859 
3.6414389610290527344 2.8115794658660888672 2.1730570793151855469 1.8781472444534301758 1.595969080924987793 1.4615825414657592773 1.6225479841232299805 2.4268071651458740234 2.3299965858459472656 1.1851038932800292969 1 1 1 1 1.1469824314117431641 1.7487008571624755859 1.5336719751358032227 1.5517113208770751953 2.4587101936340332031 2.3932950496673583984 2.1811008453369140625 3.1369502544403076172 3.1740906238555908203 2.0446379184722900391 1.6909881830215454102 1.4220767021179199219 1.1803572177886962891 1 1 1 1.3713929653167724609 1.8986304998397827148 2.8374135494232177734 2.9269938468933105469 2.6812016963958740234 2.4073400497436523438 2.7305996417999267578 2.6985428333282470703 2.9356365203857421875 2.7052061557769775391 
2.9631054401397705078 2.4783301353454589844 1.9957652091979980469 1.7966655492782592773 1.7810235023498535156 1.791842341423034668 1.76061248779296875 2.2794525623321533203 1.9625020027160644531 1 1 1 1 1.5667046308517456055 1.1842091083526611328 1.5764452219009399414 1.4876155853271484375 1.6540994644165039063 2.1361901760101318359 2.0118696689605712891 2.2245159149169921875 2.8494801521301269531 2.4360883235931396484 1.7251230478286743164 1.6361179351806640625 1.4159599542617797852 1.3201175928115844727 1 1.0666388273239135742 1 1.2490637302398681641 1.1124227046966552734 2.142822265625 2.9287660121917724609 2.6421246528625488281 2.6985979080200195313 2.451702117919921875 2.6250505447387695313 2.4575014114379882813 2.5642759799957275391 
2.1906828880310058594 2.1630952358245849609 2.3370518684387207031 2.1241581439971923828 2.1046407222747802734 2.2572271823883056641 2.241382598876953125 3.0946824550628662109 2.39392852783203125 1 1.3165487051010131836 1.2219419479370117188 1.3314607143402099609 1.3677077293395996094 1.4383001327514648438 1.4374370574951171875 1.561673283576965332 1.5781444311141967773 2.2691543102264404297 2.3554944992065429688 2.7571153640747070313 2.7847676277160644531 2.2786819934844970703 2.3587357997894287109 1.5731033086776733398 1.5569292306900024414 1.3969362974166870117 1.3395228385925292969 1 1.4288895130157470703 1.4546521902084350586 1 1.6938092708587646484 2.2611548900604248047 2.442073822021484375 2.6260883808135986328 2.8220193386077880859 3.3367016315460205078 3.0037741661071777344 2.6393182277679443359 
1.9253762960433959961 2.3165631294250488281 2.0014972686767578125 1.9708218574523925781 2.1274182796478271484 2.8596479892730712891 2.6685874462127685547 3.2676777839660644531 3.1233775615692138672 2.3403942584991455078 2.2040076255798339844 1.5482965707778930664 1.3828793764114379883 1.2891650199890136719 2.0237717628479003906 1.5442582368850708008 1.5233237743377685547 1.8918035030364990234 2.3171541690826416016 2.745502471923828125 3.8939898014068603516 4.3381428718566894531 3.6211676597595214844 2.9028196334838867188 2.1264829635620117188 1.4366338253021240234 1.4142488241195678711 1 1.2079874277114868164 1 1 1 1.3599526882171630859 1.9637813568115234375 2.0177330970764160156 2.6244451999664306641 3.0251405239105224609 2.8476414680480957031 2.6886935234069824219 2.6927564144134521484 
1.687035679817199707 1.8480106592178344727 2.0697312355041503906 2.0763680934906005859 2.1205255985260009766 2.4443862438201904297 2.3027133941650390625 2.8018877506256103516 2.7406494617462158203 2.6287086009979248047 2.9411334991455078125 1.4987416267395019531 1.5778281688690185547 1.5803776979446411133 1.553471684455871582 2.0817978382110595703 2.3185105323791503906 2.2674186229705810547 2.6886372566223144531 3.1698982715606689453 4.0061731338500976563 3.8904857635498046875 4.113651275634765625 3.4665269851684570313 3.2105224132537841797 2.2706694602966308594 1.3859436511993408203 1.2591229677200317383 1.4243854284286499023 1.1387439966201782227 1 1 1.2930009365081787109 1.1775701045989990234 2.0955898761749267578 2.8627970218658447266 2.8097116947174072266 2.9459116458892822266 2.4873661994934082031 2.2946248054504394531 
1.6419360637664794922 2.1261706352233886719 2.3415155410766601563 2.0122997760772705078 1.7099813222885131836 2.2382724285125732422 2.1528000831604003906 2.7326176166534423828 3.0030155181884765625 2.6033220291137695313 2.3497774600982666016 1.7232294082641601563 1.1977237462997436523 1.1274294853210449219 1.6578339338302612305 1.6967688798904418945 1.9831016063690185547 2.5713262557983398438 2.7565252780914306641 2.9684937000274658203 3.0570003986358642578 2.8696777820587158203 2.9963030815124511719 3.8872759342193603516 3.5635335445404052734 2.7372505664825439453 2.4197914600372314453 2.6046745777130126953 2.0341672897338867188 1.1754868030548095703 1.1590292453765869141 1 1.3177576065063476563 1.6655623912811279297 1.9538640975952148438 2.7307307720184326172 2.6414752006530761719 2.7407338619232177734 2.5151076316833496094 2.1682386398315429688 
2.2072241306304931641 2.4874107837677001953 2.3733134269714355469 2.4706680774688720703 2.36830902099609375 2.2170407772064208984 2.101863861083984375 2.3023810386657714844 1.3904629945755004883 1 1.1518433094024658203 1 1 1 1.5237154960632324219 1.6937018632888793945 1.6699386835098266602 2.0663115978240966797 2.705394744873046875 2.4363944530487060547 2.5021693706512451172 2.6529014110565185547 2.8627290725708007813 3.2843594551086425781 2.7525823116302490234 2.2824993133544921875 2.7268276214599609375 2.5196714401245117188 2.4091064929962158203 1.9314806461334228516 2.3654832839965820313 1.7628475427627563477 1.3820931911468505859 1.815181732177734375 2.1220812797546386719 2.56993865966796875 1.5829941034317016602 1.9010854959487915039 2.0416636466979980469 2.2933340072631835938 
2.5034108161926269531 2.6643941402435302734 2.7627377510070800781 2.6199088096618652344 2.4710171222686767578 2.2250978946685791016 1.8609675168991088867 1.5202826261520385742 1 1 1 1 1.0717695951461791992 1.6637166738510131836 1.5445734262466430664 1.3646363019943237305 1.5095820426940917969 1.520930171012878418 1.8674684762954711914 2.0283539295196533203 2.3754284381866455078 2.5541121959686279297 2.7266566753387451172 2.5649168491363525391 2.2182004451751708984 2.3247716426849365234 2.6650533676147460938 2.461765289306640625 3.3611540794372558594 3.0338931083679199219 2.7151644229888916016 1.5121694803237915039 1.3830796480178833008 1.7956175804138183594 1.7129950523376464844 1.7524455785751342773 1.3931896686553955078 1.5289752483367919922 2.094394683837890625 1.9228055477142333984 
2.6590087413787841797 2.8623256683349609375 2.8912227153778076172 2.7533936500549316406 2.4383325576782226563 1.9248892068862915039 1.5453778505325317383 1.1892836093902587891 1 1 1 1 1.6279759407043457031 1.5841180086135864258 1.6172733306884765625 1.6398001909255981445 1.8034247159957885742 1.8085019588470458984 2.2418935298919677734 2.3171651363372802734 2.3327157497406005859 2.403919219970703125 1.8159469366073608398 1.2857798337936401367 1.5495309829711914063 2.0000231266021728516 2.4979419708251953125 2.4331986904144287109 3.2735335826873779297 3.1568555831909179688 2.8291840553283691406 1.5510824918746948242 1.6005527973175048828 1.4793918132781982422 1.907091975212097168 1.5785018205642700195 1.6242992877960205078 2.6384077072143554688 2.1725623607635498047 1.6414330005645751953 
2.7238736152648925781 2.8343968391418457031 2.8210625648498535156 2.7119066715240478516 2.3274743556976318359 1.745392918586730957 1.6028324365615844727 1.3492630720138549805 1.1212788820266723633 1 1.3060261011123657227 1.5703269243240356445 1.6844384670257568359 1.7257765531539916992 2.0279879570007324219 1.8854311704635620117 1.8846009969711303711 1.9969329833984375 2.2588717937469482422 2.7543559074401855469 2.5711243152618408203 2.4148881435394287109 1.8352429866790771484 1.2655956745147705078 1.489169001579284668 1.4358301162719726563 2.1659455299377441406 1.9003280401229858398 2.4588015079498291016 2.6563494205474853516 2.3093314170837402344 1.6940251588821411133 1.7641774415969848633 1.9941446781158447266 2.4531946182250976563 2.7281470298767089844 2.1923465728759765625 2.6394212245941162109 2.0284891128540039063 1.2954224348068237305 
2.6989858150482177734 2.8561861515045166016 2.7325620651245117188 2.58587646484375 2.3244104385375976563 2.1857171058654785156 2.3323447704315185547 2.4152050018310546875 2.1629176139831542969 1.7622171640396118164 1.7855471372604370117 1.5564404726028442383 1.3736487627029418945 1.0949165821075439453 1.3151520490646362305 1.7056163549423217773 1.9423117637634277344 1.9786478281021118164 2.5978825092315673828 3.1488852500915527344 2.7910780906677246094 2.19710540771484375 1.7791537046432495117 1.0890316963195800781 1.4206256866455078125 1.2267405986785888672 1.3956962823867797852 1.4373587369918823242 1.5017666816711425781 1.8534090518951416016 1.5443874597549438477 1.6833795309066772461 2.0119826793670654297 1.9353870153427124023 2.1494667530059814453 2.8108394145965576172 3.3404901027679443359 3.1235315799713134766 2.6074221134185791016 1.5833734273910522461 
2.7725827693939208984 2.7058098316192626953 2.6645040512084960938 2.7463021278381347656 2.6724491119384765625 2.5184314250946044922 2.9156947135925292969 2.9787771701812744141 2.5889425277709960938 3.0146381855010986328 2.5174052715301513672 1.8893393278121948242 1.8077689409255981445 1.0234988927841186523 1 1.0205589532852172852 1.6030123233795166016 1.7689173221588134766 1.8635925054550170898 3.1253602504730224609 2.71791839599609375 2.0755479335784912109 1.4969793558120727539 1.3951640129089355469 1.0766744613647460938 1 1 1.5654153823852539063 1.8298171758651733398 1.590012669563293457 1.0372601747512817383 1 1.8467340469360351563 2.2505848407745361328 2.3100373744964599609 3.2258746623992919922 3.9010684490203857422 4.0650353431701660156 3.6628406047821044922 2.679119110107421875 
2.098506927490234375 2.1074361801147460938 1.948862910270690918 2.6027126312255859375 2.3005890846252441406 2.3243939876556396484 2.9319789409637451172 2.9198153018951416016 2.9416399002075195313 2.9354429244995117188 3.1865863800048828125 3.1903429031372070313 3.3140506744384765625 2.3006615638732910156 2.2750163078308105469 1.5567786693572998047 1 1.7109906673431396484 2.2314994335174560547 2.6647484302520751953 2.6371095180511474609 1.2921073436737060547 1.1603516340255737305 1 1 1 1 1.5523394346237182617 1.9445366859436035156 1.7376896142959594727 2.0250532627105712891 1.7788013219833374023 1.4936466217041015625 2.5537173748016357422 3.1409773826599121094 3.650585174560546875 4.2500972747802734375 4.5328054428100585938 4.1120800971984863281 3.6615090370178222656 
1.2474091053009033203 1.2868626117706298828 1.6922168731689453125 2.0024933815002441406 1.7592737674713134766 1.6383764743804931641 2.6529803276062011719 2.7396836280822753906 3.1106650829315185547 3.1563549041748046875 3.2037446498870849609 3.2798786163330078125 3.8819296360015869141 3.6464810371398925781 3.3451273441314697266 2.6858310699462890625 1.6323794126510620117 2.151943206787109375 2.0388965606689453125 2.8721439838409423828 3.1428406238555908203 1.7422491312026977539 1.1168636083602905273 1 1 1 1.3364020586013793945 1.4684789180755615234 1.4406676292419433594 1.4986661672592163086 1.8905950784683227539 1.550931096076965332 1.3002382516860961914 2.2921748161315917969 3.2475538253784179688 4.031215667724609375 4.4818878173828125 4.5670061111450195313 4.0919427871704101563 4.4764790534973144531 
1.0300313234329223633 1 1 1 1 1.6190029382705688477 2.2689266204833984375 2.6483159065246582031 3.5014777183532714844 3.7618649005889892578 3.0144584178924560547 3.6036229133605957031 3.9082264900207519531 3.9261028766632080078 3.8227624893188476563 2.917781829833984375 2.4024927616119384766 2.8785903453826904297 1.7512943744659423828 2.4758138656616210938 2.1976275444030761719 2.5321383476257324219 1.8129135370254516602 1.8446328639984130859 1 1 1.0644066333770751953 1 1.4230806827545166016 1.4367049932479858398 1.9853311777114868164 1.5200400352478027344 1.146586298942565918 2.1101787090301513672 2.8807456493377685547 3.2090389728546142578 3.4029567241668701172 3.72772979736328125 4.2426481246948242188 3.8443481922149658203 
1 1 1 1 1 1.5546766519546508789 2.0560686588287353516 2.7238688468933105469 3.6518576145172119141 3.13934326171875 3.3054296970367431641 3.854461669921875 4.4570050239562988281 4.8440737724304199219 4.2017436027526855469 3.5423655509948730469 2.6622023582458496094 2.4688882827758789063 1.5795795917510986328 1.5876098871231079102 2.889705657958984375 3.0306236743927001953 2.6894538402557373047 2.0791780948638916016 1.1024503707885742188 1.0993676185607910156 1.3751075267791748047 1 1.2698848247528076172 2.1431081295013427734 2.0140490531921386719 2.0733499526977539063 2.0455052852630615234 2.1162970066070556641 2.2700877189636230469 2.9559829235076904297 3.2677068710327148438 3.6795165538787841797 4.2675104141235351563 4.3524799346923828125 
1 1 1 1 1.0569329261779785156 1.3012514114379882813 1.3744051456451416016 1.5865021944046020508 2.4833807945251464844 3.1087968349456787109 3.1787631511688232422 3.3160233497619628906 4.0797686576843261719 4.6268453598022460938 4.2537436485290527344 4.0826821327209472656 2.9759202003479003906 2.1409695148468017578 1.9379304647445678711 1.8401443958282470703 2.2837057113647460938 2.6491422653198242188 2.9259185791015625 2.8126282691955566406 2.0955030918121337891 1.4587067365646362305 1.3962740898132324219 1.2035238742828369141 1.9045902490615844727 2.6694028377532958984 2.7158930301666259766 2.6566612720489501953 2.1984415054321289063 2.4640736579895019531 2.7535865306854248047 2.8153097629547119141 3.1127769947052001953 3.6810586452484130859 4.4917902946472167969 3.7845811843872070313 
1 1 1 1 1 1 1 1.0288250446319580078 1.8284649848937988281 2.5447247028350830078 3.1604099273681640625 3.3257162570953369141 3.5052480697631835938 4.5890202522277832031 4.567028045654296875 4.1619057655334472656 3.1132438182830810547 2.3127899169921875 2.0426571369171142578 1 1.9051090478897094727 2.6098690032958984375 3.2851734161376953125 2.8846156597137451172 2.8040058612823486328 2.7111794948577880859 1.6573961973190307617 1.2897917032241821289 2.0001044273376464844 2.5645878314971923828 2.5350110530853271484 2.3522076606750488281 2.2837574481964111328 2.3939695358276367188 2.535686492919921875 2.8714134693145751953 3.0175325870513916016 3.2870943546295166016 3.8623278141021728516 4.3173570632934570313 
1 1 1 1.0415217876434326172 1.5925416946411132813 1 1 1 2.1265702247619628906 2.9688913822174072266 3.3282115459442138672 3.3011605739593505859 3.3182694911956787109 3.9608330726623535156 4.52679443359375 3.7511265277862548828 3.2902290821075439453 2.1947958469390869141 2.6175811290740966797 1.7131140232086181641 1.8399320840835571289 2.2037456035614013672 3.0542001724243164063 3.1141664981842041016 3.0381379127502441406 2.8999686241149902344 2.4449052810668945313 2.0814373493194580078 2.5478360652923583984 2.7692437171936035156 2.8185243606567382813 2.2593524456024169922 2.1702141761779785156 2.2779726982116699219 2.3001713752746582031 1.9876934289932250977 2.9371802806854248047 3.0929958820343017578 3.3127410411834716797 4.0368199348449707031 
1 1.0339219570159912109 1 1 1.5907075405120849609 1.064824223518371582 1 1 2.0399231910705566406 2.7645244598388671875 3.8790445327758789063 4.1114406585693359375 4.3071150779724121094 4.628780364990234375 4.3525896072387695313 3.5844457149505615234 3.3399538993835449219 2.6083714962005615234 3.333255767822265625 2.9177310466766357422 2.2759389877319335938 2.8604905605316162109 3.3029229640960693359 3.4556908607482910156 2.9403123855590820313 2.9187839031219482422 2.851043701171875 2.8198883533477783203 2.3466463088989257813 2.5792512893676757813 3.0850901603698730469 2.5296218395233154297 1.7403444051742553711 1.5458626747131347656 1.3542835712432861328 1.8841332197189331055 2.9889402389526367188 2.9959645271301269531 2.4972639083862304688 2.7464730739593505859 
1 1.2534464597702026367 1.3300889730453491211 1.4462801218032836914 1.3910834789276123047 1.4022307395935058594 1.2417776584625244141 1 2.1248271465301513672 2.6006748676300048828 3.6086926460266113281 3.8646595478057861328 4.0582571029663085938 4.5625710487365722656 4.1635942459106445313 3.9978671073913574219 3.9062726497650146484 3.3231852054595947266 3.1056914329528808594 3.3692553043365478516 2.5657432079315185547 2.9387559890747070313 3.145626068115234375 3.1754326820373535156 3.4640889167785644531 3.5164670944213867188 3.5843272209167480469 3.3436970710754394531 2.9761037826538085938 2.8192293643951416016 3.024051666259765625 2.1117012500762939453 1.0577007532119750977 1.2648956775665283203 1.6898998022079467773 2.0068128108978271484 2.1378524303436279297 2.5784347057342529297 1.8830127716064453125 2.2743830680847167969 
1.2629609107971191406 2.4906618595123291016 2.0946495532989501953 2.1170752048492431641 2.0795493125915527344 2.20214080810546875 1.7143768072128295898 1.3929312229156494141 2.1731207370758056641 2.6987581253051757813 3.2830278873443603516 3.4060087203979492188 3.6289141178131103516 3.6564078330993652344 3.9308285713195800781 4.1267037391662597656 4.0209321975708007813 3.5623180866241455078 2.9448285102844238281 2.8311350345611572266 2.6268641948699951172 3.0029506683349609375 2.9036357402801513672 2.8379752635955810547 3.5443744659423828125 3.8840715885162353516 3.81894683837890625 3.8278417587280273438 3.3472890853881835938 3.1922309398651123047 3.2677097320556640625 2.4587686061859130859 1.2706239223480224609 1.8004066944122314453 1 1.2815599441528320313 2.0398688316345214844 2.1335628032684326172 2.6952872276306152344 2.4984602928161621094 
1.1450411081314086914 2.4211728572845458984 2.9225802421569824219 2.5266849994659423828 2.4312872886657714844 2.2202634811401367188 1.8763518333435058594 1.3478133678436279297 2.0481734275817871094 3.1478624343872070313 3.14846038818359375 3.478412628173828125 3.4992339611053466797 3.8039364814758300781 3.8142971992492675781 3.9409735202789306641 3.8110818862915039063 3.7653801441192626953 3.3724179267883300781 3.1926198005676269531 2.7272346019744873047 2.8026797771453857422 3.0970401763916015625 2.8795309066772460938 3.4017152786254882813 4.1178631782531738281 3.9893288612365722656 3.9385259151458740234 3.4812858104705810547 3.5092360973358154297 3.7081198692321777344 3.1771769523620605469 2.0832505226135253906 2.1340076923370361328 2.2482876777648925781 2.4908771514892578125 2.8072731494903564453 2.1804976463317871094 2.6170318126678466797 2.5916836261749267578 
