ncols        40
nrows        40
xllcorner    -0.000000000000
yllcorner    0.000000000000
cellsize     5.000000000000
NODATA_value nan
2.9813122749328613281 2.8880803585052490234 2.3269295692443847656 2.4424257278442382813 2.4753520488739013672 2.7057743072509765625 2.2891330718994140625 1.6646196842193603516 1.4427211284637451172 1.760039210319519043 1.9800343513488769531 1.1807830333709716797 1.1369223594665527344 1.1069893836975097656 1 1.1830909252166748047 1.2663594484329223633 1.7537671327590942383 2.6800448894500732422 1.6683802604675292969 1.7325811386108398438 2.9859511852264404297 2.3897657394409179688 2.0935678482055664063 2.3776438236236572266 2.7311332225799560547 2.6546847820281982422 2.1110439300537109375 1 1.4283804893493652344 1.743718266487121582 1.0030821561813354492 1.4269919395446777344 1.5324649810791015625 1 1.1060602664947509766 1.9481344223022460938 2.5727829933166503906 4.7322225570678710938 5.2688765525817871094 
3.2143039703369140625 2.8993570804595947266 2.5145578384399414063 1.6822065114974975586 1.9374734163284301758 2.3732507228851318359 2.6545391082763671875 2.1948516368865966797 2.1111359596252441406 1.9489289522171020508 1.2193833589553833008 1 1.1261036396026611328 1.0881217718124389648 1.1921023130416870117 2.3383436203002929688 1.4221959114074707031 1.1781814098358154297 1.7029926776885986328 1.5251382589340209961 2.0966463088989257813 2.9490115642547607422 2.8705937862396240234 2.6695129871368408203 3.1904821395874023438 3.0711925029754638672 2.7350018024444580078 2.0144329071044921875 1.0363222360610961914 1 1.1292042732238769531 1.0513230562210083008 1.0604181289672851563 1.097405552864074707 1.0753321647644042969 1.2478864192962646484 1.8521173000335693359 2.6741373538970947266 5.1258835792541503906 3.9154467582702636719 
4.0833635330200195313 3.2312717437744140625 2.0588092803955078125 1.7119096517562866211 2.1774289608001708984 2.5667433738708496094 2.7693843841552734375 1.9092893600463867188 1.8775589466094970703 1.2663218975067138672 1.0111470222473144531 1 1 1 1.5921589136123657227 2.0508170127868652344 2.1116085052490234375 1.2777173519134521484 2.0665240287780761719 2.1912596225738525391 1.9317266941070556641 2.9832813739776611328 3.3075749874114990234 3.4601206779479980469 2.8790464401245117188 3.0012011528015136719 2.2321114540100097656 1.9213126897811889648 1.0443576574325561523 1 1.1986664533615112305 1 1.9913892745971679688 1.7636474370956420898 1.8413052558898925781 2.8959901332855224609 2.5524809360504150391 3.9675886631011962891 4.4812140464782714844 5.1656985282897949219 
2.6331603527069091797 2.583187103271484375 2.1830320358276367188 2.0455405712127685547 2.6478130817413330078 2.8302087783813476563 2.5449824333190917969 1.5431129932403564453 1.1800266504287719727 1 1 1.0186618566513061523 1.2193833589553833008 1 1.2368409633636474609 1.5952265262603759766 1.1449816226959228516 1.7766374349594116211 1.9564445018768310547 1.6578693389892578125 1.6615041494369506836 1.9068553447723388672 2.4145481586456298828 3.3256094455718994141 3.2521464824676513672 3.0206999778747558594 2.4050333499908447266 2.0572655200958251953 1.8347103595733642578 1.4575519561767578125 1.5474858283996582031 1.2116632461547851563 1.3853646516799926758 2.1055865287780761719 2.8111164569854736328 3.6807808876037597656 3.5311064720153808594 3.9508459568023681641 5.1081166267395019531 5.4974946975708007813 
2.4407725334167480469 2.6865012645721435547 1.9987686872482299805 2.0979676246643066406 3.3749363422393798828 3.0496935844421386719 2.543605804443359375 1.9604767560958862305 2.3476738929748535156 1.6852377653121948242 1.0804222822189331055 1 1.4123848676681518555 1 1.0584822893142700195 1.1254967451095581055 1.144274592399597168 1.9698159694671630859 2.0134000778198242188 1.3137568235397338867 2.0747501850128173828 1.4306693077087402344 2.5418105125427246094 2.7283699512481689453 2.1670868396759033203 2.3911252021789550781 1.8567702770233154297 1.5228059291839599609 1.7794295549392700195 2.5365610122680664063 3.3136308193206787109 3.4589869976043701172 3.0927112102508544922 3.9930298328399658203 4.3357939720153808594 4.5410284996032714844 3.1959388256072998047 4.3037281036376953125 4.7926397323608398438 4.7741384506225585938 
2.9410164356231689453 3.2584729194641113281 2.9511160850524902344 1.9781749248504638672 3.1713743209838867188 2.9434926509857177734 2.5562427043914794922 3.1990959644317626953 3.4571857452392578125 3.0455296039581298828 2.5723166465759277344 1.5166056156158447266 1.319744110107421875 1.0141297578811645508 1.0105330944061279297 1.072658538818359375 1 1.0528811216354370117 1.3230063915252685547 1.6260875463485717773 1.5526735782623291016 1.7970898151397705078 1.4324803352355957031 1.825127720832824707 1.626171112060546875 1.7121937274932861328 1.3775998353958129883 1.5388082265853881836 2.2444622516632080078 2.463897705078125 3.2849645614624023438 2.9018468856811523438 2.9725511074066162109 3.7824225425720214844 4.2468066215515136719 3.5124769210815429688 3.7402906417846679688 3.8613224029541015625 3.3180992603302001953 2.2690131664276123047 
2.9521570205688476563 3.8416171073913574219 3.1901688575744628906 3.0193080902099609375 3.1063938140869140625 2.7723076343536376953 2.7716424465179443359 3.2413742542266845703 2.9846429824829101563 2.4008798599243164063 2.10938262939453125 1.9643690586090087891 2.1071901321411132813 1.1579433679580688477 1.0461889505386352539 1.0973260402679443359 1.4083093404769897461 1.1711575984954833984 1.34253692626953125 1.3483664989471435547 1.4858453273773193359 1.9314258098602294922 1.57099151611328125 1.3196434974670410156 1.7596642971038818359 2.2998316287994384766 2.4061954021453857422 1.947028040885925293 2.7843935489654541016 3.0720877647399902344 3.4014036655426025391 4.4035196304321289063 3.6990077495574951172 4.5957808494567871094 5.0654006004333496094 3.9982676506042480469 3.580501556396484375 3.9015324115753173828 2.3606886863708496094 2.1202640533447265625 
1.9973349571228027344 3.0214192867279052734 3.0087978839874267578 2.4745311737060546875 1.8878881931304931641 2.2904717922210693359 3.0072550773620605469 3.5734887123107910156 2.7621643543243408203 2.5260250568389892578 1.8487651348114013672 1.4471250772476196289 1.4278249740600585938 1 1.0621765851974487305 1.1659983396530151367 1.5247060060501098633 1.147345423698425293 1.9233279228210449219 2.0254259109497070313 1.6508147716522216797 2.1876285076141357422 2.1552762985229492188 1.0369354486465454102 1.6166133880615234375 2.1872868537902832031 1.5840554237365722656 2.4938898086547851563 2.5338320732116699219 3.1702694892883300781 3.7245299816131591797 3.9348320960998535156 4.0205821990966796875 4.6822495460510253906 4.070346832275390625 2.9405679702758789063 3.1412091255187988281 4.9189934730529785156 2.8405082225799560547 1.1039781570434570313 
1.3555548191070556641 1.5408951044082641602 2.2083911895751953125 1.6717820167541503906 1.8370110988616943359 2.1177985668182373047 2.4990630149841308594 2.7168381214141845703 2.9569432735443115234 2.6421167850494384766 2.6282954216003417969 2.0779664516448974609 2.4893329143524169922 1.0418219566345214844 1.0694643259048461914 1.3284566402435302734 2.1808719635009765625 2.0337250232696533203 2.2371513843536376953 2.4810352325439453125 2.0687687397003173828 1.5437406301498413086 1.1000078916549682617 1.1778163909912109375 1.5453380346298217773 1.7392815351486206055 1.2769763469696044922 1.2507568597793579102 1.732083439826965332 2.9294281005859375 3.4590899944305419922 3.5447237491607666016 3.7052426338195800781 2.8123984336853027344 2.4989235401153564453 1.9741114377975463867 4.1763186454772949219 5.1571588516235351563 3.2526681423187255859 1.4703881740570068359 
1.1286846399307250977 1.0906395912170410156 1.5888803005218505859 1.2062169313430786133 1.768950343132019043 1.869990229606628418 3.2812960147857666016 3.7943797111511230469 3.2517910003662109375 2.8794019222259521484 2.3606445789337158203 2.0102529525756835938 2.0834093093872070313 1.5976662635803222656 1 1.0152703523635864258 1.832377314567565918 2.1336181163787841797 1.9931746721267700195 2.8946034908294677734 1.9720031023025512695 1.4867734909057617188 1.354056239128112793 1.7601153850555419922 1.8850969076156616211 1.1500375270843505859 1.1358853578567504883 1.3595539331436157227 1.3829851150512695313 1.743560791015625 2.6146912574768066406 2.6949529647827148438 3.7649548053741455078 3.0705008506774902344 1.3860316276550292969 1.774317622184753418 2.6948237419128417969 3.3811104297637939453 2.6958146095275878906 2.4110789299011230469 
1.6644074916839599609 1.4948244094848632813 1.4820460081100463867 1.3623152971267700195 1.3475193977355957031 1.8495321273803710938 4.1776065826416015625 4.9000759124755859375 2.7942223548889160156 2.4483969211578369141 1.7364094257354736328 1 1 1.2790793180465698242 1.0740151405334472656 1 1.0488405227661132813 2.3283202648162841797 2.6330268383026123047 1.9085804224014282227 1.5047893524169921875 1.4568134546279907227 1.2494727373123168945 1.4208769798278808594 1.5430238246917724609 1.0035150051116943359 2.2149055004119873047 1.4233292341232299805 1.5063916444778442383 1.6754065752029418945 1.8389291763305664063 3.0159471035003662109 3.2241642475128173828 3.264896392822265625 1.93283843994140625 2.0015089511871337891 2.3060708045959472656 2.8624205589294433594 2.9050838947296142578 2.3243908882141113281 
2.2123596668243408203 1.7790195941925048828 1.0597717761993408203 1.4498224258422851563 1 1.7790876626968383789 3.0347917079925537109 4.0774912834167480469 2.0783355236053466797 1.6470346450805664063 1.4052842855453491211 1.2697905302047729492 1.2495685815811157227 1.4369976520538330078 1.2104431390762329102 1.0815806388854980469 1.0237542390823364258 2.1672027111053466797 1.0999038219451904297 1.4297015666961669922 2.0309307575225830078 2.2764544486999511719 1.8493610620498657227 1.7139997482299804688 1.4587051868438720703 1 1.5900301933288574219 1.1442525386810302734 1.5502055883407592773 1.9710601568222045898 1.446163177490234375 1.4513517618179321289 1.4320071935653686523 2.1381897926330566406 2.8298959732055664063 2.4323384761810302734 3.2656953334808349609 2.78992462158203125 2.7298319339752197266 2.4546320438385009766 
2.5032594203948974609 1.9285328388214111328 1.8678061962127685547 1.1389833688735961914 1.3601094484329223633 1.4032568931579589844 2.8204607963562011719 2.993427276611328125 1.5294989347457885742 1.114757537841796875 1.263861536979675293 1.9263885021209716797 3.1072306632995605469 2.2692515850067138672 1.8073939085006713867 1.4511753320693969727 2.0446503162384033203 1.6677410602569580078 1.4601303339004516602 1 2.0073151588439941406 2.2957224845886230469 1.9039505720138549805 2.1128039360046386719 1.5976662635803222656 1.2888638973236083984 1.0563982725143432617 1.0357472896575927734 1.1370644569396972656 1.1888731718063354492 1.0889332294464111328 1.831353306770324707 1.2029993534088134766 1.927266240119934082 3.0248053073883056641 3.3684747219085693359 3.8065488338470458984 3.7234339714050292969 4.020259857177734375 2.9616913795471191406 
1.7983069419860839844 1.7240231037139892578 1.4181954860687255859 1.0142396688461303711 1.3704756498336791992 1.6626098155975341797 2.2527577877044677734 1.823300480842590332 1.6744667291641235352 1.3080614805221557617 1.9056246280670166016 2.6780536174774169922 5.0561089515686035156 2.82865142822265625 1.8091651201248168945 2.4644253253936767578 1.1059862375259399414 2.0076465606689453125 1.5424019098281860352 1.871167302131652832 2.8047347068786621094 4.0086617469787597656 4.0919346809387207031 2.5029823780059814453 1.7983877658843994141 2.0454297065734863281 1.0649821758270263672 1 1 1.1035825014114379883 1.188653111457824707 1.7693247795104980469 1.2748800516128540039 1.9249069690704345703 3.1723198890686035156 3.5974414348602294922 3.1321070194244384766 3.2431051731109619141 3.5240795612335205078 3.8444240093231201172 
1 1.0472685098648071289 1 1.9155498743057250977 1.551295161247253418 1.4017431735992431641 1.9012886285781860352 1.8644653558731079102 1.4508897066116333008 1 1.4673862457275390625 2.0924506187438964844 4.8631520271301269531 3.7345495223999023438 2.3926208019256591797 2.6789231300354003906 1.2001885175704956055 1.1260895729064941406 1.1343451738357543945 1.9703515768051147461 4.0833263397216796875 6.0211310386657714844 5.0351071357727050781 3.2327299118041992188 1.7222076654434204102 1.9219087362289428711 1.2070161104202270508 1.1264147758483886719 1.046162724494934082 1 1 1.1211664676666259766 1.8786376714706420898 2.7904632091522216797 3.1872823238372802734 3.1627888679504394531 3.2105858325958251953 3.56072998046875 3.1098291873931884766 3.7576730251312255859 
1.8514978885650634766 1.2837681770324707031 1 2.8566644191741943359 2.4239749908447265625 1.3699245452880859375 1.8418215513229370117 1.5135936737060546875 1.0645890235900878906 1.0115995407104492188 1.8224340677261352539 2.1984922885894775391 5.2613210678100585938 3.5428564548492431641 2.7124342918395996094 2.0565626621246337891 1.5527982711791992188 1.0182501077651977539 1.6783835887908935547 2.9774851799011230469 3.9429173469543457031 5.6934957504272460938 4.7689762115478515625 3.8663334846496582031 1 1 1.1767088174819946289 1.1029850244522094727 1.1428040266036987305 1.079214930534362793 1 1.2307133674621582031 1.200020909309387207 2.1261382102966308594 3.0404837131500244141 3.2862572669982910156 2.6694765090942382813 3.4235999584197998047 3.8840579986572265625 3.0955717563629150391 
3.1319265365600585938 2.0384607315063476563 1.5199613571166992188 1.8139023780822753906 1.4519683122634887695 1.3274642229080200195 1.0712537765502929688 2.0143454074859619141 1.4140924215316772461 1.1153573989868164063 1.9980994462966918945 2.4108722209930419922 4.5668578147888183594 2.6614937782287597656 1.1667242050170898438 1.0038821697235107422 1.1057343482971191406 1.0825911760330200195 1.5619210004806518555 2.6385545730590820313 2.5700845718383789063 4.618450164794921875 4.1993613243103027344 2.88570404052734375 1.1306971311569213867 1 1 1.1867948770523071289 1.0205833911895751953 1.2906558513641357422 1 1.2092610597610473633 2.3406832218170166016 2.4122471809387207031 3.2029490470886230469 2.5482604503631591797 2.7576971054077148438 2.3834257125854492188 3.644886016845703125 3.1554453372955322266 
3.9076161384582519531 2.6306035518646240234 2.2847514152526855469 1.4046647548675537109 1 1.2116632461547851563 1.2107520103454589844 1.8242363929748535156 1.7587801218032836914 1.050202488899230957 1.5221027135848999023 1.9103647470474243164 2.1767289638519287109 1.6576622724533081055 1.1171609163284301758 1 1.1732683181762695313 1 2.4257397651672363281 2.3756253719329833984 1.720858454704284668 4.6226301193237304688 3.9063208103179931641 2.3735320568084716797 1.5552059412002563477 1 1 1.0761827230453491211 1.2955183982849121094 1.0189526081085205078 1.0985147953033447266 1.5693421363830566406 2.7197039127349853516 3.1452767848968505859 4.5866451263427734375 2.5313184261322021484 2.7318356037139892578 3.5587315559387207031 3.370548248291015625 2.8583798408508300781 
3.93025970458984375 2.75527191162109375 2.330181121826171875 1.6470013856887817383 1.593806147575378418 1.7453086376190185547 1.2401957511901855469 1.7426445484161376953 1.6696474552154541016 1.5609314441680908203 1.7372610569000244141 1.6783423423767089844 1.322070002555847168 1 1.1767829656600952148 1 1.2927238941192626953 1.1614829301834106445 1.6451478004455566406 1.4732563495635986328 2.0573260784149169922 2.7272958755493164063 2.7334296703338623047 1.3506243228912353516 1 1.131251215934753418 1.0380885601043701172 1.1264725923538208008 1.0398068428039550781 1.0010626316070556641 1.2066267728805541992 1.0071423053741455078 1.9623595476150512695 4.2430138587951660156 5.3299226760864257813 3.9214835166931152344 2.6101481914520263672 3.6787679195404052734 3.3234534263610839844 2.6786091327667236328 
2.4956212043762207031 2.6425354480743408203 3.1002538204193115234 2.0222694873809814453 2.0647296905517578125 2.02292633056640625 1.9376344680786132813 2.6505849361419677734 2.1138129234313964844 1.1755564212799072266 1.1552797555923461914 1.1229535341262817383 1 1.0131859779357910156 1.0536457300186157227 1.0577821731567382813 1.2000832557678222656 1.0070817470550537109 1.7980383634567260742 1.870139002799987793 2.0649249553680419922 2.5614116191864013672 1.8033518791198730469 2.0233178138732910156 1.1885031461715698242 1 1.0679782629013061523 1.0686637163162231445 1.2379311323165893555 1.0838352441787719727 1.2037395238876342773 1.0425267219543457031 1.2609183788299560547 2.2272970676422119141 3.0220170021057128906 3.3715050220489501953 3.2890577316284179688 4.8260850906372070313 5.1699185371398925781 3.9127385616302490234 
1.6916701793670654297 2.7325148582458496094 2.2191309928894042969 1.5783660411834716797 2.5390105247497558594 3.2546954154968261719 2.5633559226989746094 3.3500738143920898438 2.82723236083984375 1.6568417549133300781 1.6794713735580444336 1.2934516668319702148 1 1.245450139045715332 1.4123848676681518555 1.1576229333877563477 1.3313242197036743164 1.6246864795684814453 1.7022380828857421875 2.5374283790588378906 3.3478524684906005859 4.0250668525695800781 3.4547293186187744141 2.7275447845458984375 2.1642024517059326172 1.1598026752471923828 1.1201052665710449219 1.2102484703063964844 1 1.1608194112777709961 1.2846598625183105469 2.0196931362152099609 1.209698796272277832 1.838836669921875 1.9952492713928222656 2.86661529541015625 3.4121575355529785156 2.4486258029937744141 3.5891010761260986328 5.0724964141845703125 
1.3892246484756469727 1.508885502815246582 2.6900546550750732422 2.0299894809722900391 2.4561007022857666016 3.0471394062042236328 2.3453404903411865234 2.7976801395416259766 2.4656000137329101563 2.0998113155364990234 2.5279853343963623047 1.2000832557678222656 1 1.0151221752166748047 1.4741452932357788086 2.4068057537078857422 3.2584428787231445313 3.2546911239624023438 3.547466278076171875 2.9721376895904541016 3.9690625667572021484 3.6899015903472900391 4.5497379302978515625 3.4677526950836181641 2.9002180099487304688 2.1890254020690917969 1 1.1948603391647338867 1 1 1.3826389312744140625 2.1880702972412109375 1.030979156494140625 1.0029916763305664063 1.416895747184753418 2.631725311279296875 2.2846360206604003906 2.8201053142547607422 2.6327567100524902344 2.4121325016021728516 
1.2039432525634765625 2.0068292617797851563 2.7054946422576904297 2.0815725326538085938 1.528185725212097168 1.8816753625869750977 1.7906676530838012695 2.2677550315856933594 2.3597900867462158203 2.1181497573852539063 2.1277034282684326172 1.4072020053863525391 1.019360661506652832 1.1077271699905395508 1 1.2881528139114379883 2.1033301353454589844 3.4442527294158935547 3.7517933845520019531 3.5110194683074951172 3.1807920932769775391 3.3631834983825683594 2.8525903224945068359 4.2117371559143066406 3.1653113365173339844 2.306499481201171875 2.1151952743530273438 2.0667462348937988281 1.2315790653228759766 1.0296796560287475586 1 1.2285825014114379883 1 1 1.8591672182083129883 2.323772430419921875 2.1993756294250488281 2.2474911212921142578 2.3561949729919433594 2.1728105545043945313 
2.0733630657196044922 3.4833011627197265625 3.2903096675872802734 4.9314861297607421875 2.4431869983673095703 2.2942969799041748047 2.1511476039886474609 2.8207297325134277344 1 1.3177684545516967773 1.2244701385498046875 1.3270370960235595703 1.668187260627746582 1.0359205007553100586 1.0203200578689575195 1 1.2155233621597290039 1.9726885557174682617 2.5455117225646972656 2.2428085803985595703 3.1111414432525634766 3.7964525222778320313 3.9311132431030273438 2.9756948947906494141 2.4994494915008544922 1.7622447013854980469 2.3388087749481201172 2.2824392318725585938 2.3094305992126464844 1.3715626001358032227 2.0858972072601318359 1.5419853925704956055 1.052989959716796875 1.7161376476287841797 1.9281170368194580078 2.3057391643524169922 1.4664413928985595703 1.4184682369232177734 1.4213737249374389648 2.2647740840911865234 
3.9686594009399414063 3.9402248859405517578 4.7244896888732910156 5.2639265060424804688 3.1708848476409912109 2.5066215991973876953 1.3868371248245239258 1.0086249113082885742 1.4570031166076660156 1.5826743841171264648 1.7728550434112548828 1.1538348197937011719 1 1 1 1.0393899679183959961 1.0601396560668945313 1.0891939401626586914 1.5769512653350830078 1.8114165067672729492 2.7266650199890136719 3.3283636569976806641 2.7028005123138427734 1.8808474540710449219 1.6019575595855712891 1.9309258460998535156 2.4201447963714599609 2.3041110038757324219 2.9181075096130371094 2.5609929561614990234 2.3946659564971923828 1.2069258689880371094 1.0393899679183959961 1.5283392667770385742 1.0124202966690063477 1.2854951620101928711 1 1.0087840557098388672 1.5734637975692749023 2.0427470207214355469 
3.5935328006744384766 5.0314350128173828125 5.3702626228332519531 4.0283117294311523438 2.4506156444549560547 1.4565031528472900391 1.3054779767990112305 1 1.3457863330841064453 1.7104758024215698242 1.5601524114608764648 1.2441579103469848633 1 1.0785317420959472656 1.1793113946914672852 1.0953158140182495117 1.4255063533782958984 1.3935014009475708008 1.5646727085113525391 2.4048542976379394531 1.5452620983123779297 2.1410834789276123047 1.3581264019012451172 1.1701759099960327148 1.0258946418762207031 1.8557138442993164063 2.2564098834991455078 1.9512622356414794922 3.2781722545623779297 2.9440333843231201172 2.2522509098052978516 1.2298440933227539063 1 1.3389573097229003906 1.450751185417175293 1.1617354154586791992 1.3604894876480102539 2.0395705699920654297 1.6164140701293945313 1.6140543222427368164 
3.782161712646484375 5.0193915367126464844 4.5200104713439941406 3.4308135509490966797 2.1583924293518066406 1.2850066423416137695 1 1 1 1.1751805543899536133 1.0093871355056762695 1.2490682601928710938 1.1815000772476196289 1.3781182765960693359 1.4509702920913696289 1.6369470357894897461 1.6048800945281982422 1.576743006706237793 2.1611297130584716797 2.7121112346649169922 2.3458001613616943359 1.9865014553070068359 1.3732044696807861328 1 1.0119476318359375 1.2897324562072753906 1.7530148029327392578 1.8707168102264404297 2.1846842765808105469 2.0647089481353759766 2.0042591094970703125 1.3985493183135986328 1.6170867681503295898 1.681396484375 2.3091180324554443359 1.9315453767776489258 1.7660928964614868164 2.3464329242706298828 1.7607232332229614258 1.1197361946105957031 
3.3968873023986816406 4.2046742439270019531 3.7067835330963134766 2.6420178413391113281 1.9164268970489501953 1.4750854969024658203 1.9338917732238769531 1.9650365114212036133 1.7754094600677490234 1.3226382732391357422 1.5701756477355957031 1.1600856781005859375 1.0950615406036376953 1 1 1.2695051431655883789 1.4386096000671386719 1.2755587100982666016 2.8753285408020019531 3.0628504753112792969 2.7082550525665283203 1.6397942304611206055 1.2291648387908935547 1 1.0499290227890014648 1 1.3916766643524169922 1.3601689338684082031 1.0264222621917724609 1.640439152717590332 1.4077212810516357422 1.5345860719680786133 1.4736651182174682617 1.8214328289031982422 2.0645701885223388672 2.5777325630187988281 3.4064512252807617188 2.7753367424011230469 2.0658345222473144531 1.6417843103408813477 
2.9048919677734375 3.2122128009796142578 2.6023740768432617188 3.0580999851226806641 2.8980381488800048828 2.5544180870056152344 4.0926642417907714844 4.2579126358032226563 2.9380741119384765625 2.8502545356750488281 1.9970480203628540039 1.5710728168487548828 1.0348446369171142578 1.1186798810958862305 1.2611266374588012695 1.0224790573120117188 1 1.3009551763534545898 1.4483911991119384766 2.6938140392303466797 2.2820491790771484375 1.5809632539749145508 1.308640599250793457 1.0818520784378051758 1.0864661931991577148 1.9811397790908813477 1.7298552989959716797 1.3907413482666015625 1.5130460262298583984 1.3303564786911010742 1 1.1081203222274780273 1.0246737003326416016 1.5926978588104248047 2.0338838100433349609 3.0696673393249511719 4.2940258979797363281 4.0650196075439453125 3.6440608501434326172 2.4524857997894287109 
1.6288607120513916016 1.7560739517211914063 1.4460691213607788086 2.5902903079986572266 2.1443636417388916016 1.93475341796875 3.7399692535400390625 4.5466723442077636719 3.9473350048065185547 3.3347373008728027344 2.8295068740844726563 3.1247487068176269531 3.0185418128967285156 2.059879302978515625 1.3594040870666503906 1.4404633045196533203 1.2897791862487792969 1.5226800441741943359 1.8415520191192626953 2.2616858482360839844 2.6399240493774414063 1.6311552524566650391 1.1415437459945678711 1.4065631628036499023 2.0901155471801757813 2.3643629550933837891 1.5538359880447387695 1.3632419109344482422 1.597834467887878418 1.3186866044998168945 1.7277328968048095703 1 1.2743586301803588867 2.1902871131896972656 2.9267404079437255859 3.5710058212280273438 5.01483154296875 4.6711101531982421875 3.8005275726318359375 3.6073808670043945313 
1.2109858989715576172 1.0497975349426269531 1.0717308521270751953 1.4756819009780883789 1.4091726541519165039 1.2975646257400512695 2.6012907028198242188 2.8625721931457519531 3.8790180683135986328 4.0685553550720214844 2.9090378284454345703 3.6304926872253417969 3.4790191650390625 3.2168993949890136719 2.7615287303924560547 2.4296283721923828125 1.6997630596160888672 2.0003924369812011719 2.0378377437591552734 2.5501244068145751953 2.837215423583984375 1.9691060781478881836 1.1948248147964477539 1.2824752330780029297 1.5919862985610961914 1.2807796001434326172 1 1.1683408021926879883 1.326851963996887207 1.148745417594909668 1.5144165754318237305 1.2802720069885253906 1.1542481184005737305 2.0831656455993652344 3.2343332767486572266 4.2748889923095703125 4.6036376953125 4.2771821022033691406 3.6867933273315429688 4.1363959312438964844 
1.0422137975692749023 1.3352694511413574219 1.6960672140121459961 1.1823024749755859375 1.2084788084030151367 1.0479094982147216797 1.7510952949523925781 2.1933093070983886719 3.8488879203796386719 4.7671003341674804688 2.8315007686614990234 3.8771913051605224609 3.8741126060485839844 3.5093493461608886719 3.1874234676361083984 2.5824620723724365234 2.4450542926788330078 2.7928638458251953125 2.0191550254821777344 2.1431980133056640625 2.3652477264404296875 2.397247314453125 1.9352709054946899414 1.4782067537307739258 1.5519204139709472656 1.2037174701690673828 1.2850493192672729492 1.2391732931137084961 1.1429897546768188477 1.2634634971618652344 1.4029685258865356445 1.2684873342514038086 1.107085108757019043 1.7477509975433349609 2.6763834953308105469 2.9997966289520263672 3.2964715957641601563 3.5198967456817626953 3.7936589717864990234 3.6151561737060546875 
2.3279709815979003906 2.8027377128601074219 3.0375707149505615234 1.6709644794464111328 1.8418272733688354492 1.5179098844528198242 1.8932355642318725586 2.7483832836151123047 4.6117129325866699219 3.8480918407440185547 3.2836651802062988281 4.5929613113403320313 6.3805193901062011719 5.7121663093566894531 4.1024723052978515625 3.0053107738494873047 2.4758453369140625 2.4868180751800537109 1.8335360288619995117 1.9559657573699951172 2.6638431549072265625 2.7022492885589599609 2.1198868751525878906 1.7600959539413452148 1.1216278076171875 1.0565773248672485352 1.1242482662200927734 1.2265872955322265625 1.3378539085388183594 1.8332260847091674805 1.8291568756103515625 1.5705246925354003906 1.4846112728118896484 1.6739455461502075195 2.376430511474609375 2.4640669822692871094 3.3657872676849365234 3.5676169395446777344 4.0531373023986816406 3.681980133056640625 
2.2725117206573486328 2.3762645721435546875 2.4761838912963867188 2.0317072868347167969 1.3186513185501098633 1.2818378210067749023 1.3741325139999389648 1.7526614665985107422 2.072513580322265625 2.8804719448089599609 2.9903483390808105469 2.9855964183807373047 4.8051466941833496094 5.0805988311767578125 4.5040903091430664063 3.8203663825988769531 2.6671836376190185547 2.1411771774291992188 1.5922881364822387695 1.5041764974594116211 1.7949383258819580078 2.5932607650756835938 2.6851465702056884766 2.9369633197784423828 1.7516752481460571289 1.3497202396392822266 1.5273928642272949219 1.3601524829864501953 1.6070500612258911133 1.7998242378234863281 2.5976388454437255859 2.4359068870544433594 1.9743964672088623047 2.1193709373474121094 2.4920547008514404297 2.5754358768463134766 3.5946519374847412109 4.5985813140869140625 5.4283304214477539063 3.3646516799926757813 
2.3143024444580078125 2.6497697830200195313 2.1320841312408447266 1.5747147798538208008 1.4254167079925537109 2.7102861404418945313 1.5376317501068115234 1.2635198831558227539 1.5868660211563110352 2.2906224727630615234 3.0322976112365722656 3.3636822700500488281 3.1383707523345947266 4.930339813232421875 4.7663226127624511719 3.6484968662261962891 2.7786159515380859375 1.963354945182800293 1.7421822547912597656 1.3805518150329589844 1.6540292501449584961 2.0656173229217529297 3.7215299606323242188 2.9904828071594238281 2.4316842555999755859 2.3360621929168701172 1.5988925695419311523 1.4356601238250732422 1.8430582284927368164 2.0875573158264160156 1.9978990554809570313 1.9727921485900878906 1.7220597267150878906 1.7924332618713378906 2.061614990234375 2.2683503627777099609 3.2009847164154052734 3.5925779342651367188 3.7326154708862304688 4.5993700027465820313 
1.9768499135971069336 2.0580310821533203125 2.3216252326965332031 1.3895479440689086914 1.5063612461090087891 2.5613808631896972656 1.9073202610015869141 1.9186029434204101563 1.9215499162673950195 2.7674520015716552734 2.8838231563568115234 3.1220042705535888672 3.1235263347625732422 4.276500701904296875 4.2487154006958007813 3.56104278564453125 2.9463231563568115234 1.5121997594833374023 1.8147594928741455078 1.5770565271377563477 1.6008791923522949219 1.9619518518447875977 3.0530364513397216797 2.9061222076416015625 2.6679897308349609375 2.486812591552734375 2.1371426582336425781 1.7640116214752197266 1.9905296564102172852 2.3138616085052490234 2.7114365100860595703 2.0795311927795410156 1.744070887565612793 1.9666451215744018555 2.0331523418426513672 1.687405705451965332 2.3076980113983154297 3.0832531452178955078 2.791393280029296875 4.1476316452026367188 
1.7652111053466796875 1.2865732908248901367 1.8108673095703125 2.0846586227416992188 1.5213694572448730469 1.4631193876266479492 1.7850664854049682617 2.1046593189239501953 1.8176343441009521484 1.9312819242477416992 4.1917033195495605469 3.97077178955078125 5.0739898681640625 4.9407129287719726563 5.076251983642578125 3.9572429656982421875 3.4269800186157226563 2.1718678474426269531 2.9430382251739501953 2.6456649303436279297 1.7671638727188110352 2.2427678108215332031 2.8627147674560546875 3.8853502273559570313 2.9050281047821044922 2.3454101085662841797 2.7086291313171386719 2.43321990966796875 1.936377406120300293 2.0892844200134277344 2.7232060432434082031 2.1493091583251953125 1.6094805002212524414 1.5471686124801635742 1.3793569803237915039 1.9906995296478271484 2.6011817455291748047 2.5718176364898681641 2.0756390094757080078 2.3920490741729736328 
1.5699527263641357422 1.4953550100326538086 1.4739296436309814453 1.5150791406631469727 1.5035403966903686523 1.498316645622253418 1.5205994844436645508 2.0015454292297363281 2.0074892044067382813 1.9099547863006591797 3.8447339534759521484 4.0172586441040039063 5.0917940139770507813 5.4263706207275390625 5.425075531005859375 4.8533010482788085938 4.7234702110290527344 3.3411662578582763672 3.0004675388336181641 3.1397538185119628906 2.34668731689453125 2.5132465362548828125 3.0546498298645019531 2.5701727867126464844 3.4483559131622314453 3.2861835956573486328 4.8081316947937011719 3.9339330196380615234 2.4961078166961669922 2.4149065017700195313 2.4685137271881103516 2.1226248741149902344 1.4957718849182128906 1.5586453676223754883 1.4388020038604736328 1.8042434453964233398 1.9003801345825195313 1.7710992097854614258 1.8131955862045288086 2.1599087715148925781 
1.6289744377136230469 2.0563786029815673828 1.9875361919403076172 1.7738279104232788086 1.8963297605514526367 1.8401638269424438477 1.9728780984878540039 1.5266448259353637695 2.0262250900268554688 2.2587640285491943359 3.4622924327850341797 3.4122035503387451172 3.8787672519683837891 4.3044114112854003906 5.2133607864379882813 5.7208027839660644531 4.8147802352905273438 3.5161528587341308594 2.8514430522918701172 2.1543624401092529297 2.5967583656311035156 2.5542852878570556641 2.3849592208862304688 2.3007519245147705078 3.3837187290191650391 5.1465902328491210938 7.7238626480102539063 4.9016208648681640625 3.1912961006164550781 3.2694504261016845703 2.6824176311492919922 2.2174642086029052734 1.5881450176239013672 1.6986292600631713867 1.4410341978073120117 1.6473344564437866211 1.7867211103439331055 2.0454146862030029297 2.3617062568664550781 2.4624164104461669922 
1.6169320344924926758 2.3018383979797363281 2.4690344333648681641 2.4107697010040283203 2.2758183479309082031 1.9998033046722412109 1.7530379295349121094 1.6232244968414306641 2.0702271461486816406 2.7201120853424072266 2.7512757778167724609 3.0911107063293457031 3.5843870639801025391 4.3869194984436035156 5.9732794761657714844 6.404697418212890625 5.5574460029602050781 4.4758629798889160156 3.5044848918914794922 2.5782096385955810547 2.0898678302764892578 2.2176961898803710938 2.6222364902496337891 2.4204807281494140625 3.4949777126312255859 5.4752087593078613281 7.7105078697204589844 7.4324922561645507813 3.4963243007659912109 3.590694427490234375 4.7577795982360839844 3.1016650199890136719 2.0407001972198486328 1.7363758087158203125 1.9865072965621948242 2.2355556488037109375 2.2522475719451904297 2.2262339591979980469 2.3716778755187988281 2.3272943496704101563 
