ncols        40
nrows        40
xllcorner    -0.000000000000
yllcorner    0.000000000000
cellsize     5.000000000000
NODATA_value nan
2.7097594738006591797 2.5851054191589355469 2.5560975074768066406 2.5745027065277099609 2.5597691535949707031 2.5714652538299560547 2.3909614086151123047 2.7489817142486572266 3.0633378028869628906 3.0581529140472412109 2.8951926231384277344 3.2638735771179199219 3.4741303920745849609 3.3311717510223388672 3.6608788967132568359 3.5915186405181884766 3.3949010372161865234 3.1307005882263183594 2.9639725685119628906 2.6372892856597900391 2.5763413906097412109 2.5382893085479736328 2.6173453330993652344 2.3064334392547607422 2.4743411540985107422 3.0722699165344238281 2.8835813999176025391 2.6899807453155517578 2.7769117355346679688 4.4970331192016601563 5.7561535835266113281 5.43436431884765625 5.3588714599609375 4.4601435661315917969 3.5348715782165527344 3.4240946769714355469 2.4119422435760498047 2.5819213390350341797 2.5655891895294189453 2.6017296314239501953 
2.4306182861328125 2.2929329872131347656 2.559600830078125 2.7162616252899169922 2.6804530620574951172 2.2910425662994384766 2.1802172660827636719 2.4321584701538085938 2.8487758636474609375 3.2827527523040771484 3.2835235595703125 3.8275399208068847656 3.7752251625061035156 3.66724395751953125 4.7732329368591308594 5.9045276641845703125 4.21068572998046875 3.0556952953338623047 2.8471038341522216797 2.2998509407043457031 2.3178093433380126953 2.3877739906311035156 2.4540917873382568359 2.0679924488067626953 2.7104194164276123047 3.2189991474151611328 3.2605657577514648438 3.2176911830902099609 3.2277233600616455078 4.5047869682312011719 4.4534139633178710938 5.0203862190246582031 4.3716893196105957031 2.9738748073577880859 2.4828276634216308594 2.3431127071380615234 2.2566051483154296875 2.3687274456024169922 2.4020187854766845703 2.58264923095703125 
2.2923314571380615234 2.4067952632904052734 2.5091936588287353516 2.6869366168975830078 2.6178367137908935547 2.3182771205902099609 1.9588339328765869141 2.1295704841613769531 2.274883270263671875 2.6368072032928466797 3.2886767387390136719 3.5012300014495849609 4.22727203369140625 4.2330217361450195313 5.5954980850219726563 5.7564034461975097656 5.4013543128967285156 3.6530134677886962891 4.0312552452087402344 3.4253358840942382813 2.0182662010192871094 2.1273941993713378906 2.1848216056823730469 1.90386199951171875 2.1813201904296875 2.8264775276184082031 2.7931470870971679688 3.1532635688781738281 3.4997534751892089844 4.4390263557434082031 4.4708762168884277344 4.6061596870422363281 4.0260343551635742188 3.1620762348175048828 2.5769529342651367188 2.3675749301910400391 2.3966934680938720703 2.2212424278259277344 2.289386749267578125 2.4388706684112548828 
2.2689137458801269531 2.36571502685546875 2.4641885757446289063 2.5111513137817382813 2.4560031890869140625 2.2159717082977294922 1.966154932975769043 2.0601503849029541016 2.5633094310760498047 3.2928164005279541016 3.7392003536224365234 3.5062277317047119141 3.8278217315673828125 3.5819554328918457031 4.8486037254333496094 5.0001893043518066406 3.7530925273895263672 4.4904088973999023438 4.3533177375793457031 2.942424774169921875 2.7433273792266845703 2.2522907257080078125 2.0649764537811279297 1.9376319646835327148 1.8274024724960327148 1.8469606637954711914 2.0450112819671630859 2.5658404827117919922 3.0330607891082763672 3.4831049442291259766 3.9313695430755615234 3.6809256076812744141 3.1794767379760742188 2.6175587177276611328 2.4519050121307373047 2.134006500244140625 2.2218146324157714844 2.1700894832611083984 2.1106593608856201172 2.1167848110198974609 
2.2358462810516357422 2.2090556621551513672 2.3260467052459716797 2.3642208576202392578 2.2736227512359619141 2.1402270793914794922 1.7946141958236694336 2.0926508903503417969 2.8441333770751953125 2.8265125751495361328 3.1675016880035400391 3.2198224067687988281 3.4336268901824951172 3.6911635398864746094 4.2655310630798339844 4.5697145462036132813 3.3367862701416015625 4.3141021728515625 4.4397258758544921875 2.9247157573699951172 2.9091844558715820313 1.9686728715896606445 2.0246074199676513672 1.8286703824996948242 1.8334630727767944336 1.8506622314453125 1.9223203659057617188 2.3958911895751953125 2.5253300666809082031 2.8249192237854003906 3.0543189048767089844 3.2933242321014404297 2.4980509281158447266 2.0585970878601074219 1.961291193962097168 1.8762226104736328125 2.0691344738006591797 2.0715048313140869141 2.0128231048583984375 1.7408277988433837891 
2.2330121994018554688 1.9217623472213745117 2.0913574695587158203 2.2631957530975341797 2.3799364566802978516 2.1140005588531494141 2.0118062496185302734 1.900630950927734375 2.69275665283203125 2.9143958091735839844 2.7152173519134521484 2.8139431476593017578 3.3212037086486816406 3.4592478275299072266 3.9838080406188964844 3.3777992725372314453 2.7470562458038330078 2.6863424777984619141 3.1848943233489990234 2.9479489326477050781 1.989771723747253418 1.8331817388534545898 2.0299918651580810547 1.9591171741485595703 2.1750245094299316406 2.1689541339874267578 2.4790294170379638672 2.6151790618896484375 2.5086143016815185547 3.228672027587890625 2.9052515029907226563 2.9139661788940429688 2.5054788589477539063 2.447605133056640625 2.3269731998443603516 1.9575200080871582031 2.0417296886444091797 2.0515072345733642578 2.1453902721405029297 2.1899573802947998047 
1.9981952905654907227 1.8671613931655883789 1.9961353540420532227 2.2205410003662109375 2.1060099601745605469 2.1864771842956542969 1.8915382623672485352 1.689266204833984375 2.0093624591827392578 2.6192591190338134766 2.8721714019775390625 3.1093137264251708984 2.9616925716400146484 2.8222808837890625 3.0262959003448486328 2.5927097797393798828 2.4137907028198242188 2.4661202430725097656 2.5837819576263427734 2.1878714561462402344 1.7868028879165649414 1.7176102399826049805 1.6852047443389892578 2.2139203548431396484 2.5404119491577148438 2.5283217430114746094 2.8587675094604492188 3.1057393550872802734 3.0975728034973144531 3.1499145030975341797 2.8082256317138671875 2.9375302791595458984 3.0151686668395996094 2.9535191059112548828 2.8162071704864501953 2.2061865329742431641 2.1110525131225585938 1.9429314136505126953 2.0703842639923095703 2.2306010723114013672 
2.0905210971832275391 1.9436804056167602539 1.8896019458770751953 2.0247707366943359375 2.0346481800079345703 2.0723409652709960938 1.8119916915893554688 1.6760600805282592773 1.7774184942245483398 2.1684100627899169922 2.1827359199523925781 2.82465362548828125 3.027751922607421875 3.1673409938812255859 3.0450060367584228516 2.3294665813446044922 2.5777294635772705078 2.3510544300079345703 3.7224180698394775391 3.5480227470397949219 2.3359954357147216797 2.1661863327026367188 2.4895663261413574219 2.0298647880554199219 1.815955042839050293 2.0350232124328613281 2.3370494842529296875 2.4172918796539306641 2.9257543087005615234 3.2727200984954833984 2.8752388954162597656 2.4526164531707763672 2.1604864597320556641 2.3670637607574462891 2.6560583114624023438 2.4523339271545410156 1.9158186912536621094 1.9308713674545288086 2.048313140869140625 2.4335968494415283203 
2.0791025161743164063 1.9458439350128173828 1.9768741130828857422 1.9674302339553833008 1.9621120691299438477 1.8135888576507568359 1.7921974658966064453 1.6917550563812255859 1.8607953786849975586 1.8814603090286254883 2.0395901203155517578 2.2196013927459716797 2.5947482585906982422 2.881572723388671875 2.8959603309631347656 2.5542452335357666016 2.7759759426116943359 3.1874115467071533203 4.0408940315246582031 4.3951697349548339844 3.2987995147705078125 1.6300193071365356445 1.7154525518417358398 1.9256333112716674805 1.9329800605773925781 1.8494449853897094727 1.9118376970291137695 1.6813485622406005859 2.3952138423919677734 2.9619400501251220703 3.0366528034210205078 2.2652027606964111328 1.6842157840728759766 1.7004475593566894531 2.1389238834381103516 2.3834092617034912109 2.1225802898406982422 1.6410582065582275391 1.7221765518188476563 2.0741434097290039063 
1.9439592361450195313 2.1380684375762939453 2.0991559028625488281 2.0461611747741699219 1.7814408540725708008 1.8039528131484985352 1.6649885177612304688 1.5669504404067993164 1.5142564773559570313 1.7368614673614501953 2.0281271934509277344 2.1044061183929443359 2.0207834243774414063 2.2414836883544921875 2.6250460147857666016 2.3061492443084716797 3.0878362655639648438 3.2212612628936767578 3.8808152675628662109 4.572261810302734375 2.9142906665802001953 1.6583930253982543945 1.8974872827529907227 2.024570465087890625 2.0342864990234375 1.7959386110305786133 2.4834883213043212891 2.1715118885040283203 1.96318817138671875 2.2889978885650634766 2.7755031585693359375 2.6157412528991699219 1.8260548114776611328 1.834781646728515625 2.2066924571990966797 2.158935546875 2.1832921504974365234 1.669419407844543457 1.5417791604995727539 1.6853934526443481445 
2.7424035072326660156 2.5099890232086181641 2.0439887046813964844 1.990424036979675293 1.7829535007476806641 1.7411742210388183594 1.9775830507278442383 1.5386308431625366211 1.5110176801681518555 1.589753270149230957 1.8421158790588378906 1.9337979555130004883 1.8879287242889404297 1.8477160930633544922 2.0095603466033935547 2.1757972240447998047 1.9598077535629272461 3.3465771675109863281 3.8306865692138671875 2.9639737606048583984 1.7768515348434448242 1.5431094169616699219 1.6320053339004516602 1.7693126201629638672 2.0208065509796142578 2.4890756607055664063 4.1454057693481445313 2.6632449626922607422 1.9372503757476806641 1.943430781364440918 2.0530447959899902344 2.5776844024658203125 2.5351700782775878906 1.9796181917190551758 1.8070123195648193359 1.980876922607421875 2.2012438774108886719 1.4830663204193115234 1.4738669395446777344 1.5703034400939941406 
2.9947316646575927734 3.0074298381805419922 2.1281249523162841797 1.7987713813781738281 2.0956096649169921875 1.9308096170425415039 1.6544727087020874023 1.3687549829483032227 1.4684220552444458008 1.5279260873794555664 1.8344640731811523438 2.0947847366333007813 2.4634418487548828125 2.6391806602478027344 1.8933142423629760742 1.9441584348678588867 2.0919854640960693359 3.0214481353759765625 1.9433135986328125 1.6067267656326293945 1.4142012596130371094 1.4015593528747558594 1.5356274843215942383 1.5818488597869873047 1.9777166843414306641 2.9440062046051025391 3.2734980583190917969 2.47978973388671875 1.883961796760559082 1.6220778226852416992 2.2557570934295654297 2.3577671051025390625 2.4446697235107421875 2.3182032108306884766 2.3518273830413818359 2.3187623023986816406 2.5395603179931640625 1.707888484001159668 1.4578266143798828125 1.4769650697708129883 
3.3982968330383300781 2.8971002101898193359 3.0590174198150634766 1.6903780698776245117 1.6755145788192749023 1.6995022296905517578 1.5767107009887695313 1.6479580402374267578 1.3894333839416503906 2.4723093509674072266 2.5556578636169433594 3.2146947383880615234 4.724456787109375 3.8045847415924072266 2.6197631359100341797 2.5391225814819335938 2.8498091697692871094 1.7129240036010742188 1.3928530216217041016 1.4955209493637084961 1.3738591670989990234 1.3712216615676879883 1.8125661611557006836 1.5500034093856811523 2.12268829345703125 2.6183378696441650391 2.7793786525726318359 2.4175708293914794922 2.0736353397369384766 1.6746028661727905273 2.4201464653015136719 3.1333794593811035156 2.5217986106872558594 2.6249225139617919922 2.249752044677734375 2.2554650306701660156 2.1078047752380371094 1.3958792686462402344 1.3158239126205444336 1.3812576532363891602 
2.7716696262359619141 2.6062996387481689453 2.3323645591735839844 1.812530517578125 1.6106816530227661133 1.5190168619155883789 1.4703818559646606445 1.6840549707412719727 1.9678215980529785156 1.8700067996978759766 3.7432644367218017578 4.4718170166015625 7.2709078788757324219 5.2078037261962890625 3.263515472412109375 3.9705781936645507813 2.2933623790740966797 1.9708153009414672852 1.4959824085235595703 1.6104959249496459961 1.9695484638214111328 1.7478293180465698242 2.1527340412139892578 1.8052215576171875 2.0384142398834228516 3.0592527389526367188 3.3132169246673583984 3.4009940624237060547 2.7270853519439697266 2.7591900825500488281 3.0389521121978759766 3.5190999507904052734 2.6781814098358154297 2.2777292728424072266 2.1975750923156738281 1.9471977949142456055 1.5479693412780761719 1.3103684186935424805 1.3387556076049804688 1.2928580045700073242 
2.3273155689239501953 1.9789526462554931641 1.8681530952453613281 1.8593276739120483398 2.0845429897308349609 1.8939089775085449219 1.5086213350296020508 1.6042788028717041016 1.6767815351486206055 1.7182060480117797852 2.4343652725219726563 3.4153771400451660156 6.9037394523620605469 5.8615136146545410156 3.9469547271728515625 4.3810186386108398438 2.5437715053558349609 1.7662498950958251953 1.3832361698150634766 1.8650211095809936523 2.0711305141448974609 2.5274448394775390625 2.8207144737243652344 3.0086200237274169922 2.6072583198547363281 3.1430408954620361328 3.900234222412109375 3.7393321990966796875 2.5650930404663085938 2.782215118408203125 3.23613739013671875 2.8534760475158691406 2.2761909961700439453 1.9727545976638793945 1.359576106071472168 1.6968227624893188477 1.7156894207000732422 1.3336007595062255859 1.2370051145553588867 1.222378849983215332 
2.8076531887054443359 2.6296098232269287109 1.7787092924118041992 1.9228525161743164063 1.8101888895034790039 1.4247318506240844727 1.2952790260314941406 1.3499867916107177734 1.3590283393859863281 2.0564935207366943359 2.8157408237457275391 3.3766913414001464844 7.3948159217834472656 5.5615830421447753906 4.101696014404296875 3.6009824275970458984 2.3446044921875 1.3903903961181640625 1.331313014030456543 1.4997197389602661133 1.8899503946304321289 2.5226652622222900391 2.7991013526916503906 3.3962700366973876953 2.6960368156433105469 3.9926042556762695313 4.0948433876037597656 4.2641124725341796875 3.3386023044586181641 2.5037682056427001953 1.9492509365081787109 1.8280746936798095703 1.4079480171203613281 1.265019536018371582 1.1933428049087524414 1.1896138191223144531 1.1788133382797241211 1.2114156484603881836 1.5844701528549194336 1.2418043613433837891 
2.4687695503234863281 2.8886764049530029297 2.4533667564392089844 2.3336839675903320313 1.71910858154296875 1.7148112058639526367 1.1964565515518188477 1.2865886688232421875 1.2550823688507080078 1.3261594772338867188 2.7343873977661132813 3.9400832653045654297 6.4055538177490234375 4.1700434684753417969 2.7402935028076171875 2.5405941009521484375 2.1173670291900634766 1.557413935661315918 1.6039407253265380859 1.3504387140274047852 1.5783962011337280273 2.3031520843505859375 2.5198986530303955078 2.60646820068359375 2.5980691909790039063 3.4096639156341552734 3.8434405326843261719 3.4367423057556152344 2.4790256023406982422 2.0499515533447265625 1.366344451904296875 1.230988621711730957 1.1935942173004150391 1.257049560546875 1.1186435222625732422 1.1342810392379760742 1.1580955982208251953 1.1474694013595581055 1.9924032688140869141 1.5633287429809570313 
2.4778330326080322266 2.8833529949188232422 3.2549874782562255859 2.8585991859436035156 1.9244316816329956055 1.374562382698059082 1.1247808933258056641 1.1149677038192749023 1.2511308193206787109 1.6028814315795898438 2.4618136882781982422 3.7505376338958740234 4.2189354896545410156 3.6621923446655273438 2.8601977825164794922 2.9059398174285888672 2.4798874855041503906 2.3696568012237548828 1.9503089189529418945 1.7278929948806762695 1.646658778190612793 1.3860896825790405273 2.3432040214538574219 2.6535923480987548828 2.4382302761077880859 2.6906476020812988281 3.4037506580352783203 3.4064416885375976563 2.2510714530944824219 1.706277012825012207 1.1146166324615478516 1.0598605871200561523 1.1272184848785400391 1.3109089136123657227 1.3026261329650878906 1.1122355461120605469 1.1454275846481323242 1.1142747402191162109 1.4562891721725463867 1.7827881574630737305 
2.6169936656951904297 3.1322987079620361328 3.4568524360656738281 2.8826453685760498047 2.3181371688842773438 1.3549191951751708984 1.4065059423446655273 1.2236979007720947266 1.3973633050918579102 2.0651714801788330078 2.6638662815093994141 3.5012278556823730469 3.2942137718200683594 2.732990264892578125 3.2061116695404052734 3.1998407840728759766 2.8044264316558837891 3.0895872116088867188 2.7374615669250488281 2.1687791347503662109 2.0573823451995849609 2.1937661170959472656 2.4158143997192382813 2.8537790775299072266 2.7800662517547607422 2.3478589057922363281 2.3721346855163574219 2.8761742115020751953 2.0153217315673828125 1.6595323085784912109 1.0854417085647583008 1.2517434358596801758 1.159327387809753418 1.0614206790924072266 1.2912435531616210938 1.4663583040237426758 1.3149710893630981445 1.2808485031127929688 1.7324032783508300781 2.0491883754730224609 
2.4882192611694335938 3.1114251613616943359 3.0964782238006591797 2.9698195457458496094 2.0004646778106689453 1.5355117321014404297 1.3524012565612792969 1.3062009811401367188 1.251776576042175293 1.5232534408569335938 1.3823903799057006836 1.2276357412338256836 2.4167728424072265625 2.5413432121276855469 3.3961772918701171875 3.4752740859985351563 3.0253467559814453125 3.0415217876434326172 2.6577277183532714844 2.6350381374359130859 2.7610595226287841797 2.9641544818878173828 2.6212599277496337891 2.2748808860778808594 1.9444468021392822266 2.2930970191955566406 2.0324146747589111328 2.1977415084838867188 2.6088302135467529297 1.2640007734298706055 1.0396376848220825195 1.175205230712890625 1.0649113655090332031 1.0573141574859619141 1.6629874706268310547 1.4697676897048950195 1.8987966775894165039 2.3862195014953613281 1.8461736440658569336 1.405301213264465332 
2.4759798049926757813 2.8734326362609863281 2.4410398006439208984 2.1695771217346191406 1.2630048990249633789 1.2026910781860351563 1.0785754919052124023 1.2256672382354736328 1.196683049201965332 1.2687809467315673828 1.2424056529998779297 1.1265119314193725586 1.5587421655654907227 1.1474001407623291016 2.28420257568359375 2.7743535041809082031 3.2727701663970947266 2.8624067306518554688 2.5024905204772949219 2.7120387554168701172 3.0142931938171386719 3.1351213455200195313 2.7428214550018310547 2.2327802181243896484 1.5891292095184326172 1.5460519790649414063 1.7178348302841186523 2.3225429058074951172 2.0091009140014648438 2.2086586952209472656 1.3496328592300415039 1.9287819862365722656 1.0371888875961303711 1.0065371990203857422 1.2396159172058105469 1.7969305515289306641 2.2853274345397949219 2.9629895687103271484 2.2695813179016113281 1.6118693351745605469 
2.5606660842895507813 2.3714811801910400391 2.1884467601776123047 1.8386701345443725586 1.2398737668991088867 1.0631034374237060547 1.0576148033142089844 1.2158575057983398438 1.4316728115081787109 1.3110347986221313477 1.1559365987777709961 1.3850711584091186523 1.3312035799026489258 1.3026785850524902344 2.1334300041198730469 2.3783438205718994141 3.0343210697174072266 2.6800532341003417969 2.9489095211029052734 2.9473049640655517578 3.5379314422607421875 2.7992615699768066406 2.7517833709716796875 2.3759069442749023438 1.7202937602996826172 1 1.0553070306777954102 1.1165920495986938477 1.2691690921783447266 2.0286262035369873047 1.9023891687393188477 3.2278182506561279297 1.3578795194625854492 1.4163457155227661133 1.2349610328674316406 1.8341871500015258789 2.6383948326110839844 2.7991282939910888672 2.9208087921142578125 2.2724101543426513672 
3.0895218849182128906 2.7327868938446044922 2.8169713020324707031 2.2532992362976074219 1.3894327878952026367 1.0576651096343994141 1.0295288562774658203 1 1.1994987726211547852 1.3336703777313232422 1.2280511856079101563 1.0726665258407592773 1.4252147674560546875 1.6816369295120239258 2.2561502456665039063 2.307559967041015625 2.7960915565490722656 2.7552428245544433594 3.0762746334075927734 3.037410736083984375 3.2573454380035400391 3.0115439891815185547 2.6089005470275878906 2.5544385910034179688 1.6612334251403808594 1 1.0026096105575561523 1.0005484819412231445 1.0063366889953613281 1.7834311723709106445 1.7811758518218994141 1.8314526081085205078 1.2847683429718017578 1.4481379985809326172 1.610932469367980957 2.2631499767303466797 2.7689077854156494141 2.2230689525604248047 2.0270011425018310547 2.1670222282409667969 
2.6783390045166015625 2.6457493305206298828 3.1594424247741699219 2.7143218517303466797 1.8769335746765136719 1.0033299922943115234 1.3553431034088134766 1 1.2236695289611816406 1.5307304859161376953 1.2585159540176391602 1.6412028074264526367 1.8281381130218505859 1.6438916921615600586 1.8930243253707885742 2.6990201473236083984 2.5627481937408447266 2.4740955829620361328 2.7051527500152587891 2.8234684467315673828 3.0831668376922607422 2.9958767890930175781 2.8942823410034179688 2.1277019977569580078 1.2435075044631958008 1.0050154924392700195 1.006457209587097168 1.0005530118942260742 1 1.0019718408584594727 1 1 1.3071391582489013672 1 1.2714151144027709961 2.1967947483062744141 2.274059295654296875 1.5854372978210449219 1.5018594264984130859 1.0018585920333862305 
2.5364105701446533203 2.4614274501800537109 2.9580228328704833984 2.5314357280731201172 1.6438027620315551758 1.2942425012588500977 2.0014526844024658203 1.3970234394073486328 1.9090119600296020508 2.5260672569274902344 2.7928843498229980469 1.8018958568572998047 1.3412238359451293945 1.4523274898529052734 2.0838720798492431641 2.9499592781066894531 2.9189741611480712891 2.5706722736358642578 2.5707836151123046875 2.4344084262847900391 2.7973074913024902344 2.9867458343505859375 2.9157199859619140625 1.8213491439819335938 1.0285527706146240234 1.0060946941375732422 1 1 1 1 1 1.0054326057434082031 1.2851614952087402344 1 1.3109771013259887695 1.9211903810501098633 2.1894886493682861328 1.8253778219223022461 1.7720258235931396484 1.5274715423583984375 
2.1676018238067626953 2.3899774551391601563 2.5114912986755371094 2.2020370960235595703 1.9660791158676147461 1.3086935281753540039 2.0899338722229003906 1.9207241535186767578 2.1656687259674072266 2.6712658405303955078 2.2632284164428710938 1.4694643020629882813 1.3220715522766113281 1.7734121084213256836 1.6826246976852416992 2.3122992515563964844 3.2249009609222412109 2.5689768791198730469 2.2977962493896484375 2.2834043502807617188 2.2695090770721435547 1.8659089803695678711 1.6854683160781860352 1.4809335470199584961 1.1941179037094116211 1.0083104372024536133 1.0164322853088378906 1.0008283853530883789 1.0006836652755737305 1 1.0044078826904296875 1.000822901725769043 1.1587841510772705078 1.0097453594207763672 1.434132695198059082 1.5941768884658813477 1.6545068025588989258 2.281711578369140625 2.0984988212585449219 1.7803424596786499023 
1.961661219596862793 1.8334027528762817383 1.9586447477340698242 1.5852756500244140625 1.8490129709243774414 1.7015143632888793945 2.0639317035675048828 2.4815356731414794922 1.6298005580902099609 1.824993133544921875 1.9594833850860595703 1.0029455423355102539 1.0058152675628662109 1 1.0728640556335449219 1.8146488666534423828 2.6541295051574707031 2.4200832843780517578 1.4972784519195556641 1.5024094581604003906 1.5931375026702880859 1.4390916824340820313 1.4592243432998657227 1.5898251533508300781 1.3166469335556030273 1.0093818902969360352 1.003966212272644043 1 1 1.008290410041809082 1 1.3964376449584960938 1.7024145126342773438 1.9141896963119506836 1.7630242109298706055 1.7214081287384033203 1.8725347518920898438 2.447063446044921875 1.8292858600616455078 1.8171048164367675781 
1.7752779722213745117 2.0085153579711914063 2.5481488704681396484 2.0837328433990478516 1.7184858322143554688 2.4243690967559814453 2.3859884738922119141 2.4674556255340576172 1.4508689641952514648 1.1196343898773193359 1.2062482833862304688 1.0480741262435913086 1.1365121603012084961 1.4347283840179443359 1.2212927341461181641 2.1468844413757324219 2.5620703697204589844 2.135646820068359375 1.3505195379257202148 1 1.0042990446090698242 1.0072562694549560547 1.0688897371292114258 1.510424494743347168 1.4330114126205444336 1.3719381093978881836 1 1.0036081075668334961 1.1091818809509277344 1.2788856029510498047 1.473982691764831543 2.1895413398742675781 2.2912299633026123047 2.2584128379821777344 2.1963732242584228516 1.956137537956237793 1.7955034971237182617 2.0149159431457519531 1.8557955026626586914 1.9101430177688598633 
2.9384758472442626953 2.7752394676208496094 2.3637588024139404297 2.3586115837097167969 2.6481604576110839844 2.8122575283050537109 3.5553195476531982422 2.7992882728576660156 2.1087288856506347656 1.4243869781494140625 1.054659724235534668 1.0000059604644775391 1.1981557607650756836 1.5055472850799560547 1.9553461074829101563 1.5553267002105712891 1.6917386054992675781 1.540697932243347168 1.0681160688400268555 1 1 1.0037981271743774414 1 1.3707228899002075195 1.8053450584411621094 2.42351531982421875 2.3078675270080566406 1.5443910360336303711 1.5877443552017211914 2.2864477634429931641 2.6577389240264892578 3.0234706401824951172 2.6850538253784179688 2.1758022308349609375 2.4109029769897460938 2.7985064983367919922 2.2570543289184570313 2.0707864761352539063 1.7633484601974487305 1.9588121175765991211 
3.2237367630004882813 2.7357530593872070313 2.4240117073059082031 2.2319877147674560547 2.6169137954711914063 3.2123668193817138672 3.6733720302581787109 2.9985582828521728516 2.309112548828125 1.6044051647186279297 1.3225954771041870117 1.1634258031845092773 1.0879201889038085938 1.1013839244842529297 1.0458201169967651367 1.0253332853317260742 1.3150715827941894531 1.1008608341217041016 1.0482289791107177734 1 1 1.0044828653335571289 1.0175349712371826172 1.5674588680267333984 3.0689959526062011719 2.5367019176483154297 2.0373220443725585938 1.700806736946105957 2.2053303718566894531 2.61840057373046875 3.0876853466033935547 2.9520914554595947266 2.2151081562042236328 2.1733431816101074219 2.2635178565979003906 2.36945343017578125 2.3888535499572753906 2.1285369396209716797 1.7769640684127807617 1.9420523643493652344 
2.7218852043151855469 1.9624629020690917969 1.9799375534057617188 1.5688378810882568359 2.0562193393707275391 2.6229426860809326172 2.9172956943511962891 2.8274161815643310547 2.5283894538879394531 1.4125932455062866211 1.1143231391906738281 1.1288717985153198242 1.0493723154067993164 1.051928400993347168 1.02277374267578125 1.0009325742721557617 1.1447343826293945313 1.1869695186614990234 1.110196232795715332 1.0019890069961547852 1 1.0056681632995605469 1.0078017711639404297 1.2097736597061157227 2.244266510009765625 1.7550460100173950195 1.8051382303237915039 1.7743823528289794922 2.3406159877777099609 2.6451559066772460938 3.1896126270294189453 2.7923700809478759766 1.8422718048095703125 1.9142845869064331055 2.0792624950408935547 2.1572322845458984375 1.9315953254699707031 2.0303394794464111328 1.5897800922393798828 1.5397793054580688477 
2.2625501155853271484 2.4616780281066894531 2.9347982406616210938 1.8204396963119506836 2.2974519729614257813 2.2915136814117431641 2.2701909542083740234 2.2587184906005859375 2.0388662815093994141 1.3389014005661010742 1.1645612716674804688 1.0750948190689086914 1.0861703157424926758 1.0497454404830932617 1.1906750202178955078 1.1158922910690307617 1.1633378267288208008 1.1842492818832397461 1.0736557245254516602 1 1 1.000639796257019043 1.0675969123840332031 1.8978672027587890625 2.7500319480895996094 2.6435992717742919922 2.5406284332275390625 2.9004304409027099609 3.3648233413696289063 3.1935772895812988281 2.8984806537628173828 2.6596660614013671875 2.4777886867523193359 2.2012379169464111328 1.8417601585388183594 1.7568972110748291016 1.5213907957077026367 1.6236214637756347656 1.5415177345275878906 1.408108830451965332 
3.9188590049743652344 4.7653369903564453125 4.7327556610107421875 3.3088166713714599609 3.4876778125762939453 2.2760736942291259766 1.5523270368576049805 1.6371920108795166016 1.1588774919509887695 1.2442947626113891602 1.347293853759765625 1.1424123048782348633 1.0557270050048828125 1.0438576936721801758 1.1893954277038574219 1.1191970109939575195 1.1470807790756225586 1.0893709659576416016 1 1 1 1 1.2016065120697021484 2.4948928356170654297 2.7320873737335205078 3.3573889732360839844 3.3923432826995849609 3.4413518905639648438 3.63054656982421875 3.3874247074127197266 3.3115625381469726563 3.5598361492156982422 3.1597471237182617188 3.0981602668762207031 2.7003524303436279297 2.2162003517150878906 1.9623548984527587891 1.7372181415557861328 1.4461643695831298828 1.2049963474273681641 
3.8700535297393798828 4.1354174613952636719 3.8832557201385498047 3.2043204307556152344 2.767299652099609375 2.4802722930908203125 1.9701149463653564453 1.8207222223281860352 1.091053009033203125 1.4356055259704589844 1.2554968595504760742 1.1092332601547241211 1.0718160867691040039 1.1430367231369018555 1.1378908157348632813 1.0613029003143310547 1.0255339145660400391 1.055859684944152832 1.0479990243911743164 1.0007387399673461914 1.2211222648620605469 1.170403599739074707 1.6124991178512573242 2.5562176704406738281 3.1164617538452148438 3.3373615741729736328 3.5379250049591064453 3.6691188812255859375 3.6546239852905273438 3.1039059162139892578 3.3817286491394042969 3.8052492141723632813 4.04872894287109375 3.8198807239532470703 3.4263510704040527344 3.0323255062103271484 2.1021716594696044922 1.3638715744018554688 1.281075596809387207 1.1794170141220092773 
4.0076274871826171875 4.3638529777526855469 3.5189404487609863281 3.0761234760284423828 3.2711236476898193359 4.0709805488586425781 2.3552105426788330078 2.271549224853515625 1.6398361921310424805 1.9513602256774902344 1.7692363262176513672 1.1252282857894897461 1.1003290414810180664 1.0759891271591186523 1.1539657115936279297 1.1885150671005249023 1.2018767595291137695 1.5935075283050537109 1.6068732738494873047 1.4503459930419921875 1.4286042451858520508 1.9250937700271606445 2.0789554119110107422 2.4017493724822998047 2.8313922882080078125 3.325305938720703125 3.0455369949340820313 3.3297636508941650391 3.0741524696350097656 2.4944295883178710938 2.9823362827301025391 3.6844961643218994141 4.0553507804870605469 3.8476393222808837891 3.6171178817749023438 3.0922663211822509766 1.9934649467468261719 1.2672318220138549805 1.1430084705352783203 1.2049409151077270508 
3.1940820217132568359 3.4897308349609375 3.5489809513092041016 2.8156664371490478516 2.2378723621368408203 3.7267019748687744141 2.5417478084564208984 3.0915911197662353516 1.9874056577682495117 1.9410471916198730469 1.9404110908508300781 1.4007627964019775391 1.4011394977569580078 1.235751032829284668 1.2214654684066772461 1.2346982955932617188 1.4785091876983642578 1.4867790937423706055 1.4393231868743896484 1.5977680683135986328 1.6421991586685180664 1.6703524589538574219 1.3399474620819091797 1.8352619409561157227 2.7060596942901611328 2.8263189792633056641 2.2970535755157470703 2.7377908229827880859 2.638393402099609375 2.3395593166351318359 2.5995078086853027344 3.5735802650451660156 3.8933854103088378906 3.857669830322265625 3.4135391712188720703 2.6025707721710205078 1.7389830350875854492 1.497456669807434082 1.0834518671035766602 1.1744352579116821289 
2.9589216709136962891 2.8315672874450683594 2.9114797115325927734 3.5793588161468505859 2.0422170162200927734 1.6351277828216552734 2.2434358596801757813 2.8022673130035400391 1.8254268169403076172 1.6788772344589233398 1.9431868791580200195 1.702891230583190918 1.2275080680847167969 1.2988885641098022461 1.4470682144165039063 1.7833346128463745117 1.9532291889190673828 1.5339243412017822266 1.2141726016998291016 1.4707046747207641602 1.6641643047332763672 1.3357949256896972656 1.1272554397583007813 1.2254148721694946289 1.8765125274658203125 2.3738064765930175781 2.3162331581115722656 2.555179595947265625 2.8269040584564208984 2.5236160755157470703 2.6113953590393066406 2.9738383293151855469 3.689075469970703125 3.6897115707397460938 3.3793573379516601563 2.8940889835357666016 1.8762621879577636719 1.6826262474060058594 1.0890215635299682617 1.1920382976531982422 
3.276653289794921875 3.3993861675262451172 2.8653361797332763672 2.6931326389312744141 3.06365203857421875 2.8171994686126708984 2.3383443355560302734 2.5375542640686035156 2.5086455345153808594 2.2882912158966064453 1.9654192924499511719 1.5639410018920898438 1.5552818775177001953 1.541560053825378418 1.5185741186141967773 1.5886385440826416016 1.7609286308288574219 1.5630725622177124023 1.2172898054122924805 1.2454540729522705078 1.7038543224334716797 1.832051396369934082 1.7913599014282226563 1.6871186494827270508 1.9410659074783325195 2.3843846321105957031 3.2381446361541748047 3.1790513992309570313 2.7186179161071777344 2.5978686809539794922 2.7174410820007324219 2.8303287029266357422 3.2169699668884277344 3.1226141452789306641 2.6381461620330810547 3.1825385093688964844 1.7885309457778930664 1.004140019416809082 1.0640108585357666016 1.0936410427093505859 
3.0458245277404785156 3.6636111736297607422 3.5509490966796875 2.9844009876251220703 3.1871821880340576172 2.6568765640258789063 2.0968337059020996094 2.0483872890472412109 2.8235652446746826172 2.2875204086303710938 2.0102343559265136719 2.3770191669464111328 2.2849948406219482422 1.7493768930435180664 1.678866267204284668 1.4915833473205566406 1.4039759635925292969 1.6460906267166137695 1.815684199333190918 2.0528838634490966797 2.2198684215545654297 2.197235107421875 2.21259307861328125 2.0158185958862304688 1.7243164777755737305 2.0624444484710693359 2.8463511466979980469 3.3131892681121826172 2.9522948265075683594 2.9166715145111083984 2.6857242584228515625 2.3886492252349853516 2.7881207466125488281 3.23146820068359375 3.1577923297882080078 3.6207544803619384766 2.6197054386138916016 1.306400299072265625 1.0002173185348510742 1.0555996894836425781 
2.7032938003540039063 3.3609793186187744141 3.6773526668548583984 2.9759874343872070313 2.3619444370269775391 2.2557537555694580078 1.6171599626541137695 1.4826557636260986328 2.1356444358825683594 2.5339465141296386719 2.9278562068939208984 2.7018041610717773438 2.4850103855133056641 2.7606725692749023438 3.1405344009399414063 3.0725369453430175781 3.1204180717468261719 3.0133500099182128906 3.5780873298645019531 3.7498028278350830078 3.5393958091735839844 3.321559906005859375 2.9664025306701660156 1.8480015993118286133 1.7970917224884033203 1.5969375371932983398 2.2161548137664794922 2.8237676620483398438 2.0956180095672607422 2.2057535648345947266 2.1157121658325195313 2.1845278739929199219 2.6428270339965820313 2.8779978752136230469 3.2869095802307128906 3.6763296127319335938 3.1262674331665039063 2.0738005638122558594 1.1595897674560546875 1.0830686092376708984 
