ncols        40
nrows        40
xllcorner    -0.000000000000
yllcorner    0.000000000000
cellsize     5.000000000000
NODATA_value nan
2.9654035568237304688 3.0258696079254150391 2.4914345741271972656 2.4301874637603759766 2.3053576946258544922 2.8617913722991943359 2.3124170303344726563 1.710774540901184082 1.5620223283767700195 2.0454041957855224609 1.7020015716552734375 1.1081598997116088867 1.0159300565719604492 1.0353161096572875977 1.0183750391006469727 1.1487040519714355469 1.3325607776641845703 1.8125237226486206055 2.7557120323181152344 1.8762793540954589844 1.7500402927398681641 2.7176711559295654297 2.4631328582763671875 2.0329248905181884766 2.3668489456176757813 2.6871457099914550781 2.7471308708190917969 2.2279176712036132813 1.0761367082595825195 1.4417250156402587891 1.8368773460388183594 1.040508270263671875 1.3637650012969970703 1.5663572549819946289 1.0435122251510620117 1.045653223991394043 1.8273218870162963867 2.5886597633361816406 4.6769976615905761719 4.8685398101806640625 
3.1857488155364990234 2.9532382488250732422 2.5135126113891601563 1.7747819423675537109 1.7393282651901245117 2.365139007568359375 2.5051233768463134766 2.3050456047058105469 2.2159276008605957031 1.6618529558181762695 1.0592857599258422852 1.0864738225936889648 1.0180701017379760742 1.1959345340728759766 1.3414770364761352539 2.3038156032562255859 1.3525059223175048828 1.1334358453750610352 1.6000745296478271484 1.5657413005828857422 1.9002562761306762695 3.1674838066101074219 2.7649066448211669922 2.5724003314971923828 3.064075469970703125 3.0558207035064697266 2.7460794448852539063 2.1425390243530273438 1.1510608196258544922 1.0280798673629760742 1.018947601318359375 1.0851228237152099609 1.0030446052551269531 1.0126764774322509766 1.1662998199462890625 1.2430844306945800781 1.8804199695587158203 3.0240108966827392578 5.0953111648559570313 4.2857441902160644531 
3.8878848552703857422 3.3632147312164306641 2.094818115234375 1.7238030433654785156 1.9853590726852416992 2.6666724681854248047 2.7075216770172119141 2.0366234779357910156 1.7602971792221069336 1.0702055692672729492 1.01006317138671875 1.0166902542114257813 1.2270888090133666992 1.0331165790557861328 1.4945272207260131836 2.0600185394287109375 1.990509033203125 1.3682239055633544922 1.9972155094146728516 2.1322667598724365234 1.9384893178939819336 3.0031230449676513672 3.3915183544158935547 3.4798438549041748047 3.0359508991241455078 2.9816677570343017578 2.3082759380340576172 1.9101716279983520508 1.0121197700500488281 1.0362426042556762695 1.000133514404296875 1.3199647665023803711 1.8007584810256958008 1.6377373933792114258 1.9043352603912353516 2.7057735919952392578 2.8361463546752929688 3.6390061378479003906 4.2777500152587890625 4.985095977783203125 
2.7017660140991210938 2.77819061279296875 2.0884737968444824219 2.0874083042144775391 2.7036850452423095703 2.9027745723724365234 2.6455996036529541016 1.6581932306289672852 1.2565542459487915039 1.0266703367233276367 1.0337150096893310547 1.0065530538558959961 1.1747188568115234375 1.144597172737121582 1.1902894973754882813 1.486334681510925293 1.0473145246505737305 1.7131445407867431641 1.9189732074737548828 1.5621498823165893555 1.7427307367324829102 1.9106793403625488281 2.8213160037994384766 3.2370181083679199219 3.1503996849060058594 3.1377193927764892578 2.5679073333740234375 1.8955649137496948242 1.4626404047012329102 1.5018770694732666016 1.6149079799652099609 1.244814753532409668 1.6313065290451049805 2.018795013427734375 2.8106851577758789063 3.9105417728424072266 3.5284566879272460938 4.1635775566101074219 5.2861242294311523438 5.2106943130493164063 
2.5904417037963867188 2.5920751094818115234 2.1563260555267333984 2.1176397800445556641 3.1703736782073974609 2.9802887439727783203 2.5554528236389160156 1.9853497743606567383 2.5235586166381835938 1.7177230119705200195 1.2634640932083129883 1.269573211669921875 1.3152320384979248047 1.2159992456436157227 1.0028028488159179688 1.2738791704177856445 1.0433735847473144531 1.9426109790802001953 1.9334746599197387695 1.3251613378524780273 1.9336981773376464844 1.5014585256576538086 2.4694240093231201172 2.7495012283325195313 2.1167147159576416016 2.492580413818359375 2.1148698329925537109 1.5232681035995483398 1.8807922601699829102 2.4586343765258789063 3.118316650390625 3.3640258312225341797 2.9529926776885986328 4.5996618270874023438 4.167858123779296875 4.2460527420043945313 3.4823386669158935547 4.1640982627868652344 4.8423185348510742188 4.5106415748596191406 
2.9556031227111816406 3.4235374927520751953 2.7735950946807861328 1.9905633926391601563 3.0329318046569824219 3.0127274990081787109 2.5164365768432617188 3.1418197154998779297 3.4442512989044189453 2.9914288520812988281 2.3962793350219726563 1.6296988725662231445 1.5258412361145019531 1.008139491081237793 1.0256495475769042969 1.0125452280044555664 1.1965733766555786133 1.0011911392211914063 1.3826265335083007813 1.5204035043716430664 1.4591524600982666016 1.7372503280639648438 1.6212041378021240234 1.7860511541366577148 1.7357558012008666992 1.6494017839431762695 1.3279602527618408203 1.5283488035202026367 2.1604342460632324219 2.5384123325347900391 3.1170136928558349609 2.8788390159606933594 3.0102109909057617188 3.9047520160675048828 3.8755426406860351563 3.6633062362670898438 3.4514336585998535156 3.6856739521026611328 2.9281790256500244141 2.6007387638092041016 
3.1023662090301513672 3.9370100498199462891 3.3231205940246582031 3.1197733879089355469 3.2859241962432861328 2.8156249523162841797 2.6133878231048583984 3.4250123500823974609 3.0772123336791992188 2.6890215873718261719 1.7994371652603149414 1.9409501552581787109 1.8612080812454223633 1.0095121860504150391 1.0263177156448364258 1.0665316581726074219 1.4144520759582519531 1.1599216461181640625 1.3323503732681274414 1.1876465082168579102 1.4737572669982910156 1.9434502124786376953 1.4530718326568603516 1.3985129594802856445 1.8451658487319946289 2.2365872859954833984 2.0131342411041259766 2.0082569122314453125 2.6278922557830810547 2.8403027057647705078 3.8209815025329589844 4.3640847206115722656 3.8787271976470947266 4.4631848335266113281 5.1652517318725585938 4.049266815185546875 3.6781795024871826172 4.2608318328857421875 2.3216946125030517578 1.9064522981643676758 
1.9994864463806152344 2.9937193393707275391 3.0508875846862792969 2.2671298980712890625 2.2456221580505371094 2.5027413368225097656 2.9123036861419677734 3.3175280094146728516 2.9171819686889648438 2.5218477249145507813 1.8926115036010742188 1.5149087905883789063 1.3933664560317993164 1.1497619152069091797 1.0055941343307495117 1.0692911148071289063 1.5071287155151367188 1.1776143312454223633 1.8804197311401367188 2.0320827960968017578 1.6436161994934082031 2.2087545394897460938 2.0535032749176025391 1.0080918073654174805 1.6431095600128173828 2.1435792446136474609 1.8112375736236572266 2.3363072872161865234 2.7404937744140625 3.4049799442291259766 4.0259761810302734375 4.0984954833984375 4.7177062034606933594 4.4504446983337402344 4.7692656517028808594 2.8365342617034912109 3.4937386512756347656 4.9381361007690429688 2.5451231002807617188 1.1069608926773071289 
1.4452302455902099609 1.7761343717575073242 2.1365530490875244141 1.6164194345474243164 1.8895058631896972656 2.27089691162109375 2.3436882495880126953 2.8634347915649414063 2.6665132045745849609 2.5086541175842285156 2.5529513359069824219 2.0578694343566894531 2.1242282390594482422 1.0345270633697509766 1.0180495977401733398 1.2806266546249389648 2.1099605560302734375 1.9907876253128051758 2.1350536346435546875 2.4626305103302001953 2.0532102584838867188 1.5158940553665161133 1.2586178779602050781 1.2788196802139282227 1.7369033098220825195 1.8263044357299804688 1.1675703525543212891 1.3289616107940673828 1.7438827753067016602 2.6674447059631347656 3.3306360244750976563 3.4965426921844482422 3.8824446201324462891 3.1400897502899169922 2.6506304740905761719 2.3294920921325683594 4.0100760459899902344 5.5228667259216308594 3.02722930908203125 1.1441990137100219727 
1.0242203474044799805 1.0169122219085693359 1.4283014535903930664 1.2177302837371826172 1.8453423976898193359 1.9446048736572265625 3.2964551448822021484 3.6844828128814697266 3.2618279457092285156 2.5810444355010986328 2.1369984149932861328 2.2854642868041992188 2.1458277702331542969 1.4203759431838989258 1.0323871374130249023 1.015997767448425293 1.8235663175582885742 2.1534414291381835938 1.9364680051803588867 2.8733077049255371094 1.9998524188995361328 1.3555628061294555664 1.3112168312072753906 1.7447248697280883789 1.77094268798828125 1.0026726722717285156 1.0256997346878051758 1.3513182401657104492 1.3980599641799926758 1.7950570583343505859 2.6210653781890869141 2.6797327995300292969 3.5117630958557128906 2.8265066146850585938 1.4243847131729125977 1.6420830488204956055 2.8218874931335449219 3.4780259132385253906 2.9840936660766601563 2.33226776123046875 
1.7192739248275756836 1.3569538593292236328 1.3646892309188842773 1.4412888288497924805 1.3878356218338012695 2.0564165115356445313 4.7361226081848144531 4.6391768455505371094 2.9222784042358398438 2.3096697330474853516 1.6036412715911865234 1.0285549163818359375 1.1407325267791748047 1.2030611038208007813 1.0292124748229980469 1.1965578794479370117 1.0476586818695068359 2.3661711215972900391 2.6184914112091064453 1.9696209430694580078 1.4408546686172485352 1.323328852653503418 1.3481791019439697266 1.6058541536331176758 1.4613683223724365234 1.0881521701812744141 2.1723034381866455078 1.4878064393997192383 1.4539630413055419922 1.5109014511108398438 1.9013593196868896484 2.7869286537170410156 3.1360361576080322266 2.7755589485168457031 2.1609313488006591797 1.9534183740615844727 2.4492754936218261719 2.8529684543609619141 2.7693185806274414063 2.2353847026824951172 
2.2643644809722900391 1.7746886014938354492 1.0080617666244506836 1.4726374149322509766 1.1948685646057128906 1.657351374626159668 3.2580323219299316406 3.7230632305145263672 2.2963542938232421875 1.4886372089385986328 1.2993550300598144531 1.3737046718597412109 1.3156133890151977539 1.4625606536865234375 1.1841456890106201172 1.1417790651321411133 1.081715703010559082 2.1329638957977294922 1.1823718547821044922 1.3699792623519897461 2.1370742321014404297 2.4082825183868408203 1.8790649175643920898 1.6194055080413818359 1.2981904745101928711 1.0726784467697143555 1.4029145240783691406 1.1649384498596191406 1.4865322113037109375 1.7810485363006591797 1.4716885089874267578 1.2853807210922241211 1.5680907964706420898 2.2217280864715576172 2.726528167724609375 2.4184162616729736328 3.1084730625152587891 2.8523778915405273438 2.6456055641174316406 2.4656927585601806641 
2.5617151260375976563 1.9000771045684814453 1.8216795921325683594 1.1010164022445678711 1.374094843864440918 1.37591552734375 2.5460875034332275391 2.9807226657867431641 1.6042276620864868164 1.101947784423828125 1.2781151533126831055 1.9468346834182739258 3.1055490970611572266 2.2572515010833740234 1.6814866065979003906 1.4863753318786621094 1.8697979450225830078 1.6186542510986328125 1.3211826086044311523 1.1634762287139892578 1.8873090744018554688 2.4402086734771728516 2.2149176597595214844 2.0752124786376953125 1.7055823802947998047 1.2608916759490966797 1.0266355276107788086 1.006074070930480957 1.2634263038635253906 1.3092344999313354492 1.0706387758255004883 1.8138360977172851563 1.2886797189712524414 2.0145063400268554688 2.8012230396270751953 3.4665942192077636719 3.6235246658325195313 3.8812122344970703125 3.8397457599639892578 2.9874713420867919922 
1.7428123950958251953 1.7393462657928466797 1.4652693271636962891 1.0057849884033203125 1.3290048837661743164 1.7767416238784790039 2.2204961776733398438 2.1246862411499023438 1.6134653091430664063 1.0027538537979125977 1.9978113174438476563 2.6647889614105224609 4.9692316055297851563 2.8655948638916015625 1.8129389286041259766 2.3864891529083251953 1.1134674549102783203 1.9910092353820800781 1.6421591043472290039 1.8292678594589233398 2.9719669818878173828 3.808521270751953125 3.9093527793884277344 2.6936047077178955078 2.0422353744506835938 2.1174759864807128906 1.1007645130157470703 1.1928298473358154297 1.0416917800903320313 1.0155562162399291992 1.0674625635147094727 1.6913055181503295898 1.2717519998550415039 1.9901791810989379883 3.0715014934539794922 3.2989733219146728516 3.3338181972503662109 3.4816594123840332031 3.9697992801666259766 3.6744282245635986328 
1.1074880361557006836 1 1.1832575798034667969 1.6843485832214355469 1.6674734354019165039 1.5529353618621826172 1.8880811929702758789 1.6524595022201538086 1.3264815807342529297 1.1346201896667480469 1.4247334003448486328 1.9967960119247436523 4.8776211738586425781 3.7026677131652832031 2.3928484916687011719 2.5926070213317871094 1.148836970329284668 1.1062214374542236328 1.0893274545669555664 2.1810657978057861328 4.2169809341430664063 5.9739193916320800781 4.9886341094970703125 3.6007211208343505859 1.5308327674865722656 1.8142632246017456055 1.0218738317489624023 1.0001807212829589844 1 1.1810345649719238281 1.1036418676376342773 1.0221283435821533203 1.9823745489120483398 2.8138103485107421875 3.2083919048309326172 3.1354520320892333984 3.1855490207672119141 3.5148973464965820313 3.1072077751159667969 3.6194455623626708984 
1.7532361745834350586 1.1836159229278564453 1.0676857233047485352 2.6750459671020507813 2.2685246467590332031 1.387900233268737793 1.7812905311584472656 1.2724323272705078125 1.0010693073272705078 1.0415962934494018555 1.8013336658477783203 2.1604180335998535156 5.2413568496704101563 3.6036047935485839844 2.7039418220520019531 1.9303478002548217773 1.4455095529556274414 1.002884984016418457 1.6702598333358764648 2.7006459236145019531 3.8806941509246826172 5.8602190017700195313 5.1969790458679199219 3.6998438835144042969 1.130446314811706543 1.1072568893432617188 1.0086035728454589844 1.034827113151550293 1.0608785152435302734 1.0243003368377685547 1.0663031339645385742 1.1071795225143432617 1.2378404140472412109 2.13262939453125 2.8757178783416748047 3.1670284271240234375 2.746612548828125 3.5157253742218017578 3.9412858486175537109 3.2859942913055419922 
3.0202744007110595703 2.2995042800903320313 1.5926237106323242188 1.6852447986602783203 1.4054116010665893555 1.1393493413925170898 1.3765903711318969727 1.7165311574935913086 1.3508524894714355469 1.0095746517181396484 1.9983178377151489258 2.3409931659698486328 4.5005741119384765625 2.5629885196685791016 1.13629913330078125 1.0139002799987792969 1.0134208202362060547 1.1201245784759521484 1.7723630666732788086 2.5709967613220214844 2.5435945987701416016 4.6073517799377441406 4.4950437545776367188 3.131198883056640625 1.0886757373809814453 1.0140285491943359375 1.0349626541137695313 1.0044176578521728516 1.007449030876159668 1.2044669389724731445 1.1160894632339477539 1.2157816886901855469 2.2614502906799316406 2.1621823310852050781 2.8439843654632568359 2.8789350986480712891 2.5314338207244873047 2.9897391796112060547 4.0374650955200195313 2.9824559688568115234 
3.989391326904296875 2.8473308086395263672 2.0776050090789794922 1.5030118227005004883 1.0461179018020629883 1.168931126594543457 1.1957987546920776367 2.0230798721313476563 1.7598699331283569336 1.0261188745498657227 1.5270979404449462891 1.935937047004699707 2.2377109527587890625 1.7244101762771606445 1.0023657083511352539 1.2131978273391723633 1.0242110490798950195 1.1327309608459472656 2.0130028724670410156 1.8915189504623413086 1.9262508153915405273 4.0196318626403808594 3.8001189231872558594 2.0965759754180908203 1.2872580289840698242 1.1540452241897583008 1.0408952236175537109 1.1534382104873657227 1.1305166482925415039 1.0170891284942626953 1.1769995689392089844 1.3758752346038818359 2.7435824871063232422 3.8684916496276855469 4.6628661155700683594 2.7813720703125 2.7680921554565429688 3.2901084423065185547 3.7712099552154541016 2.893627166748046875 
4.0065569877624511719 2.8994383811950683594 2.2808218002319335938 1.6120332479476928711 1.4219835996627807617 1.4663605690002441406 1.2972306013107299805 1.8951708078384399414 1.5819566249847412109 1.5159877538681030273 1.6779311895370483398 1.6299279928207397461 1.3845794200897216797 1.0916492938995361328 1.0059287548065185547 1.0721873044967651367 1.0914398431777954102 1.1329185962677001953 1.8222661018371582031 1.5396605730056762695 1.780047297477722168 3.0552823543548583984 2.4914813041687011719 1.3856494426727294922 1.2182084321975708008 1.0046292543411254883 1.0010445117950439453 1.1525754928588867188 1.0154261589050292969 1.2018561363220214844 1.2176309823989868164 1.0016770362854003906 1.8340389728546142578 3.8738729953765869141 6.0745863914489746094 3.8610568046569824219 2.8424413204193115234 4.1463403701782226563 3.3165304660797119141 2.9697628021240234375 
2.7648112773895263672 2.7425458431243896484 3.4065392017364501953 2.0560617446899414063 2.0187630653381347656 1.9793722629547119141 1.7690812349319458008 2.6746022701263427734 2.0289359092712402344 1.1058062314987182617 1.2163549661636352539 1.00228118896484375 1.0273057222366333008 1.0002297163009643555 1.018132328987121582 1.0003268718719482422 1.0377424955368041992 1.0412794351577758789 1.8341051340103149414 1.8621716499328613281 2.2566175460815429688 2.4949955940246582031 2.1218540668487548828 2.0125269889831542969 1.2274514436721801758 1.0580271482467651367 1.0021984577178955078 1.0058979988098144531 1.1238346099853515625 1.0304419994354248047 1.2906413078308105469 1.0335277318954467773 1.3904678821563720703 2.3829610347747802734 3.372127532958984375 3.3855299949645996094 3.607391357421875 4.7549290657043457031 4.647029876708984375 4.398227691650390625 
1.9084869623184204102 2.5441603660583496094 1.961850285530090332 1.7496335506439208984 2.4493937492370605469 3.1409955024719238281 2.5485770702362060547 3.3856828212738037109 2.9988150596618652344 1.7136629819869995117 1.7507388591766357422 1.2071256637573242188 1.0777814388275146484 1.0963219404220581055 1.7608873844146728516 1.2309885025024414063 1.1727895736694335938 1.4669992923736572266 2.0623300075531005859 2.40767669677734375 3.5734727382659912109 4.257305145263671875 3.5772469043731689453 2.7334125041961669922 1.8343663215637207031 1.0193991661071777344 1.0097360610961914063 1.1266766786575317383 1.0176718235015869141 1.1846960783004760742 1.2908949851989746094 1.9735387563705444336 1.2486248016357421875 1.6384447813034057617 1.9464163780212402344 2.7551939487457275391 3.0341479778289794922 2.7011690139770507813 3.4211478233337402344 4.7880764007568359375 
1.2181267738342285156 1.5824323892593383789 2.0731034278869628906 1.9608857631683349609 2.3253791332244873047 2.5671014785766601563 2.1729729175567626953 2.6630005836486816406 2.4359724521636962891 2.1922295093536376953 2.4704346656799316406 1.0248808860778808594 1.1532788276672363281 1.0323414802551269531 1.3194121122360229492 2.3953697681427001953 3.3772146701812744141 3.2712206840515136719 3.1949534416198730469 2.7468390464782714844 3.8349673748016357422 4.1044135093688964844 4.4870781898498535156 3.6326503753662109375 3.2568647861480712891 1.9773517847061157227 1.1234694719314575195 1.0001920461654663086 1.0224194526672363281 1.0054887533187866211 1.2810763120651245117 2.2329473495483398438 1.0155693292617797852 1.0019371509552001953 1.4694752693176269531 2.5313093662261962891 2.3434567451477050781 2.5915267467498779297 2.4024329185485839844 2.4914276599884033203 
1.2100882530212402344 2.0737464427947998047 2.4467337131500244141 2.1165909767150878906 1.4673207998275756836 1.9806286096572875977 2.0055799484252929688 2.2509813308715820313 2.3361444473266601563 2.2149004936218261719 2.1929585933685302734 1.3826673030853271484 1.0110371112823486328 1.0099351406097412109 1.2027328014373779297 1.5936121940612792969 1.9583133459091186523 3.7499012947082519531 3.9904949665069580078 3.5242033004760742188 3.3449373245239257813 3.3606209754943847656 3.0452096462249755859 4.1658482551574707031 3.4490826129913330078 2.2412686347961425781 2.1376454830169677734 2.0347065925598144531 1.4597983360290527344 1.003983616828918457 1.0585660934448242188 1.1447123289108276367 1.0366350412368774414 1.1835514307022094727 1.5813441276550292969 2.2321615219116210938 2.1238045692443847656 2.4007830619812011719 2.3790178298950195313 2.2116873264312744141 
2.1496124267578125 3.2689352035522460938 3.5142669677734375 4.3741102218627929688 2.4623804092407226563 2.2039129734039306641 1.9488965272903442383 2.1183304786682128906 1.0687968730926513672 1.2528660297393798828 1.1724246740341186523 1.2184436321258544922 1.7059410810470581055 1.031444549560546875 1.0040868520736694336 1.1420295238494873047 1.1785773038864135742 2.0120024681091308594 2.6770415306091308594 2.6142261028289794922 3.1400282382965087891 3.838626861572265625 3.9070501327514648438 3.0690355300903320313 2.3428378105163574219 1.8816013336181640625 2.2909150123596191406 2.0974233150482177734 2.0471308231353759766 1.4303700923919677734 1.9061902761459350586 1.3920791149139404297 1.0037227869033813477 1.4637100696563720703 1.6695508956909179688 2.1342751979827880859 1.1799598932266235352 1.4809091091156005859 1.6258276700973510742 2.20883941650390625 
3.6769387722015380859 4.0694456100463867188 5.2090215682983398438 4.872676849365234375 2.9984979629516601563 2.1380248069763183594 1.5019921064376831055 1.0094610452651977539 1.3139462471008300781 1.5609525442123413086 1.8222429752349853516 1.1448912620544433594 1.0980677604675292969 1.1028369665145874023 1.1323755979537963867 1.0135490894317626953 1.0827804803848266602 1.1291778087615966797 1.5598405599594116211 1.7852349281311035156 2.706516265869140625 3.8385443687438964844 3.2178697586059570313 2.1757731437683105469 1.7650561332702636719 2.0626838207244873047 2.1740062236785888672 2.1581780910491943359 2.9186429977416992188 2.5090069770812988281 2.4172236919403076172 1.1698077917098999023 1.0029381513595581055 1.4425868988037109375 1.340557098388671875 1.4533967971801757813 1.0816676616668701172 1.2319034337997436523 1.6271475553512573242 1.9752925634384155273 
3.4743521213531494141 4.8606081008911132813 5.6594109535217285156 4.1186385154724121094 2.4431643486022949219 1.3697152137756347656 1.1110602617263793945 1.0157889127731323242 1.3739093542098999023 1.6659307479858398438 1.3521398305892944336 1.0084110498428344727 1.1272755861282348633 1.2092887163162231445 1.2604540586471557617 1.2771576642990112305 1.3811926841735839844 1.3729956150054931641 1.8273949623107910156 1.9279907941818237305 1.944292902946472168 2.2502241134643554688 1.3636699914932250977 1.0076401233673095703 1.1389515399932861328 1.7289377450942993164 2.0975413322448730469 1.9049930572509765625 3.0826599597930908203 2.8422617912292480469 2.3953568935394287109 1.1837013959884643555 1.0623213052749633789 1.1380919218063354492 1.4649562835693359375 1.1689639091491699219 1.3723257780075073242 1.9969924688339233398 1.6275503635406494141 1.3832162618637084961 
3.6542856693267822266 4.9141669273376464844 5.0156178474426269531 3.6715526580810546875 2.0835902690887451172 1.2539563179016113281 1.0259917974472045898 1.0408135652542114258 1.0174058675765991211 1.0240004062652587891 1.0238327980041503906 1.1260727643966674805 1.28208160400390625 1.2910966873168945313 1.7400819063186645508 1.5623391866683959961 1.4170945882797241211 1.5848188400268554688 2.2792303562164306641 2.8702795505523681641 2.2189455032348632813 2.2478404045104980469 1.4006221294403076172 1.053999781608581543 1.0209286212921142578 1.2007970809936523438 1.7315845489501953125 1.6984546184539794922 2.1618227958679199219 2.1747980117797851563 1.9261343479156494141 1.45714569091796875 1.4193350076675415039 1.6861937046051025391 2.1143596172332763672 2.1284303665161132813 1.876295924186706543 2.3267445564270019531 1.8848974704742431641 1.1235570907592773438 
3.3306057453155517578 4.5046224594116210938 3.3596999645233154297 2.7609243392944335938 2.1471915245056152344 1.8143867254257202148 2.2601618766784667969 2.2903003692626953125 1.8293807506561279297 1.3446204662322998047 1.506221771240234375 1.2702748775482177734 1.0374296903610229492 1.1428575515747070313 1.0067025423049926758 1.3137246370315551758 1.4345270395278930664 1.5008025169372558594 2.6070630550384521484 3.0240054130554199219 2.581401824951171875 1.8411592245101928711 1.4048913717269897461 1.0528323650360107422 1.0627408027648925781 1.1106880903244018555 1.2018916606903076172 1.2498229742050170898 1.2315199375152587891 1.5161697864532470703 1.2986243963241577148 1.3388359546661376953 1.4232867956161499023 1.6529010534286499023 1.7673528194427490234 2.5559999942779541016 3.1993587017059326172 2.7537922859191894531 2.1495511531829833984 1.5237213373184204102 
2.7559258937835693359 3.0659539699554443359 2.6972298622131347656 3.0308651924133300781 2.6268742084503173828 2.4862434864044189453 3.7849850654602050781 3.6582019329071044922 2.7186458110809326172 2.8914391994476318359 2.1098768711090087891 1.6037260293960571289 1.2746825218200683594 1 1.3223375082015991211 1 1.1009401082992553711 1.4667570590972900391 1.4547073841094970703 2.6733591556549072266 2.3114902973175048828 1.6098026037216186523 1.2246301174163818359 1.0207157135009765625 1.0009450912475585938 1.8298293352127075195 1.660831451416015625 1.251990199089050293 1.5054403543472290039 1.2800538539886474609 1.0176904201507568359 1.0720964670181274414 1.3047074079513549805 1.7485227584838867188 1.8979727029800415039 2.8974769115447998047 4.2092227935791015625 4.2202506065368652344 3.6238343715667724609 2.3989739418029785156 
1.6405181884765625 1.7953222990036010742 1.5584181547164916992 2.6690845489501953125 1.9358823299407958984 1.9353967905044555664 3.4803817272186279297 4.2243528366088867188 3.7661185264587402344 3.10918426513671875 2.8460869789123535156 2.9432244300842285156 2.86016845703125 1.8975803852081298828 1.7366015911102294922 1.3828978538513183594 1.1843410730361938477 1.5149779319763183594 1.7829370498657226563 2.2466940879821777344 2.5990538597106933594 1.6620965003967285156 1.0222501754760742188 1.3200249671936035156 2.1263034343719482422 2.3163239955902099609 1.4545780420303344727 1.28723907470703125 1.5548608303070068359 1.4369004964828491211 1.6361727714538574219 1.2231764793395996094 1.2933197021484375 2.1414225101470947266 2.9970040321350097656 3.5411808490753173828 4.5855226516723632813 4.7996430397033691406 3.9916348457336425781 3.5213310718536376953 
1.0173963308334350586 1.1205589771270751953 1.1672232151031494141 1.5359876155853271484 1.5199817419052124023 1.3592305183410644531 2.3885262012481689453 3.0837333202362060547 4.046413421630859375 4.4198365211486816406 3.0972807407379150391 3.3188176155090332031 3.7396857738494873047 3.2332906723022460938 2.9844367504119873047 2.4716866016387939453 1.8030803203582763672 1.9554456472396850586 1.9361271858215332031 2.5122971534729003906 2.7287757396697998047 2.0210199356079101563 1.2885514497756958008 1.2828301191329956055 1.5444840192794799805 1.2525883913040161133 1.0531569719314575195 1.2410023212432861328 1.3769361972808837891 1.1422924995422363281 1.4808108806610107422 1.3191286325454711914 1.1568291187286376953 2.0828645229339599609 3.3744800090789794922 4.0693364143371582031 4.6074466705322265625 4.3888506889343261719 3.8461606502532958984 4.1983180046081542969 
1.0095056295394897461 1.267182469367980957 1.6456742286682128906 1.3641250133514404297 1.1600213050842285156 1.2347965240478515625 1.7618267536163330078 2.241214752197265625 3.9470956325531005859 4.6215658187866210938 3.1784675121307373047 3.9628388881683349609 4.2908520698547363281 3.6421091556549072266 3.2955355644226074219 2.5475685596466064453 2.3649332523345947266 2.8042111396789550781 1.9298341274261474609 2.1811761856079101563 2.3829720020294189453 2.3576171398162841797 1.849343419075012207 1.3925807476043701172 1.5957556962966918945 1.1011670827865600586 1.1328984498977661133 1.1713461875915527344 1.1542646884918212891 1.1566853523254394531 1.5954875946044921875 1.3427503108978271484 1.0772243738174438477 1.66973876953125 2.5835704803466796875 2.8529925346374511719 3.2214343547821044922 3.5092029571533203125 3.9148030281066894531 3.5720424652099609375 
2.2451610565185546875 2.7704789638519287109 3.0587246417999267578 1.6422395706176757813 1.8738195896148681641 1.4117038249969482422 1.8785252571105957031 2.4336886405944824219 4.4176783561706542969 3.7390654087066650391 3.5501973628997802734 4.4440436363220214844 5.7966456413269042969 5.5586977005004882813 4.1453232765197753906 3.0239927768707275391 2.4819293022155761719 2.4280157089233398438 1.751952052116394043 1.9119896888732910156 2.6739192008972167969 2.6900079250335693359 2.3661873340606689453 1.773405909538269043 1.1310181617736816406 1.1267821788787841797 1.1722344160079956055 1.2466055154800415039 1.2211002111434936523 1.631411433219909668 1.6620655059814453125 1.7237988710403442383 1.6272900104522705078 1.7930731773376464844 2.0920917987823486328 2.7716739177703857422 3.2859308719635009766 3.9181685447692871094 4.14038848876953125 3.9727580547332763672 
2.1373014450073242188 2.4257078170776367188 2.4841501712799072266 1.9968390464782714844 1.2035746574401855469 1.2548910379409790039 1.2873297929763793945 1.5377422571182250977 2.3295404911041259766 3.2323589324951171875 3.2097296714782714844 3.4542675018310546875 4.8243579864501953125 5.1918845176696777344 4.2139554023742675781 3.6968026161193847656 2.7661776542663574219 2.0433881282806396484 1.6958005428314208984 1.6100306510925292969 1.8912165164947509766 2.4194750785827636719 2.8823678493499755859 2.6858692169189453125 1.6971924304962158203 1.411143183708190918 1.363360285758972168 1.2643591165542602539 1.6014922857284545898 2.2549865245819091797 2.4621255397796630859 2.28954315185546875 1.8053697347640991211 2.2544507980346679688 2.2610731124877929688 2.5508341789245605469 3.5551724433898925781 4.3495273590087890625 5.1972951889038085938 3.4404923915863037109 
2.2270371913909912109 2.5966155529022216797 2.1313147544860839844 1.6382318735122680664 1.328724980354309082 2.5937035083770751953 1.5265160799026489258 1.2282346487045288086 1.5160617828369140625 2.1839115619659423828 3.0831592082977294922 3.3475604057312011719 3.5115180015563964844 5.2683396339416503906 4.8208889961242675781 3.9221174716949462891 2.7362177371978759766 1.8744473457336425781 1.8301713466644287109 1.3060232400894165039 1.5912497043609619141 2.1341860294342041016 3.4952368736267089844 2.7471225261688232422 2.5094559192657470703 2.4170954227447509766 1.6467707157135009766 1.4125919342041015625 1.7445136308670043945 2.2191340923309326172 2.1031587123870849609 1.9796603918075561523 1.8473628759384155273 1.988772273063659668 2.2089719772338867188 2.461299896240234375 3.1594347953796386719 3.565387725830078125 4.0079202651977539063 4.7265501022338867188 
1.9304063320159912109 2.0595340728759765625 2.2590937614440917969 1.3362349271774291992 1.4906252622604370117 2.6123981475830078125 1.8917338848114013672 1.9319288730621337891 1.7645235061645507813 2.5348935127258300781 3.0788276195526123047 3.2870576381683349609 3.1985390186309814453 4.2284564971923828125 4.5941681861877441406 3.6190216541290283203 2.8866949081420898438 1.7675025463104248047 2.0758175849914550781 1.6877368688583374023 1.600226283073425293 1.9737018346786499023 2.9341247081756591797 3.0982296466827392578 2.6617529392242431641 2.574222564697265625 2.1089291572570800781 1.810597538948059082 2.0138797760009765625 2.3425159454345703125 2.4749720096588134766 1.9873710870742797852 1.9166589975357055664 1.9687473773956298828 1.8217054605484008789 1.7908889055252075195 2.3646588325500488281 3.0087046623229980469 2.9219729900360107422 3.8634619712829589844 
1.7718155384063720703 1.3677520751953125 1.7055078744888305664 2.1514034271240234375 1.5246320962905883789 1.3603075742721557617 1.7347166538238525391 2.0958220958709716797 1.7738811969757080078 2.2308771610260009766 4.2866954803466796875 4.2505350112915039063 4.7900056838989257813 5.2449851036071777344 5.3729295730590820313 3.8095242977142333984 3.121917724609375 2.1645853519439697266 3.0209162235260009766 2.569835662841796875 1.9703401327133178711 2.4042432308197021484 3.2567529678344726563 3.6908955574035644531 2.71932220458984375 2.6168491840362548828 2.6969475746154785156 2.3881690502166748047 1.9620029926300048828 2.0852527618408203125 2.6079916954040527344 2.1301341056823730469 1.55416107177734375 1.5957808494567871094 1.3270207643508911133 1.7732049226760864258 2.6683223247528076172 2.6386198997497558594 2.0404410362243652344 2.5946207046508789063 
1.5829526185989379883 1.5140839815139770508 1.4701693058013916016 1.4489183425903320313 1.5859467983245849609 1.6530758142471313477 1.4123384952545166016 1.9087076187133789063 1.9080431461334228516 2.0150332450866699219 3.7812776565551757813 4.0110721588134765625 4.9154067039489746094 5.1519455909729003906 5.0280299186706542969 4.8679757118225097656 4.4246993064880371094 3.1315939426422119141 2.8341312408447265625 2.8601717948913574219 2.2567148208618164063 2.4962098598480224609 3.022624969482421875 2.9460294246673583984 4.1261172294616699219 3.8466424942016601563 4.7966084480285644531 3.7204937934875488281 2.6427490711212158203 2.4856874942779541016 2.5759456157684326172 1.8719747066497802734 1.4495604038238525391 1.4432796239852905273 1.5623948574066162109 1.7006636857986450195 1.9389073848724365234 1.9926292896270751953 1.806441187858581543 2.2333350181579589844 
1.5981845855712890625 2.122524261474609375 1.9437597990036010742 1.7715780735015869141 1.7885992527008056641 1.9781135320663452148 1.7872868776321411133 1.5884834527969360352 2.0210106372833251953 2.3052234649658203125 3.1121528148651123047 3.3186240196228027344 3.9461176395416259766 4.2622499465942382813 5.2670841217041015625 6.5344862937927246094 4.6776952743530273438 3.5506126880645751953 2.6188647747039794922 2.3297934532165527344 2.2517361640930175781 2.5482027530670166016 2.3786151409149169922 2.5658297538757324219 3.6853728294372558594 5.2565770149230957031 7.0738854408264160156 5.2383522987365722656 3.2261300086975097656 3.1032922267913818359 2.9544215202331542969 2.1449489593505859375 1.6532005071640014648 1.6234714984893798828 1.5064729452133178711 1.6634942293167114258 1.8709812164306640625 1.9588302373886108398 2.2272093296051025391 2.4927301406860351563 
1.6401996612548828125 2.2029938697814941406 2.5482356548309326172 2.2217919826507568359 2.2181048393249511719 1.9913979768753051758 1.7949162721633911133 1.5937485694885253906 1.9891288280487060547 2.6918492317199707031 2.8371291160583496094 3.3080170154571533203 3.5174415111541748047 4.4721174240112304688 5.6266503334045410156 6.1238236427307128906 5.4636893272399902344 4.8182349205017089844 3.4080269336700439453 2.9625113010406494141 2.2598621845245361328 2.3924889564514160156 2.6447863578796386719 2.4909939765930175781 3.6153013706207275391 5.8748421669006347656 6.9609174728393554688 6.7071452140808105469 3.645191192626953125 3.8060860633850097656 4.6923117637634277344 3.0802819728851318359 1.9390233755111694336 1.825178980827331543 1.9176523685455322266 2.1424834728240966797 2.4019553661346435547 2.0643675327301025391 2.1499769687652587891 2.2832088470458984375 
