ncols        200
nrows        200
xllcorner    -0.000000000000
yllcorner    0.000000000000
cellsize     1.000000000000
NODATA_value nan
2.9131853580474853516 2.8755795955657958984 3.0148274898529052734 3.5620276927947998047 3.3969635963439941406 3.0269386768341064453 2.9206254482269287109 2.6727292537689208984 2.4442739486694335938 2.5523028373718261719 2.4237020015716552734 2.9681832790374755859 2.6491332054138183594 2.3395562171936035156 2.6587061882019042969 2.0774247646331787109 2.3666181564331054688 2.936031341552734375 2.1341609954833984375 2.0939388275146484375 2.5069453716278076172 2.3914577960968017578 3.0017025470733642578 2.9375047683715820313 2.8183646202087402344 2.6256301403045654297 2.7871062755584716797 3.2476077079772949219 2.9921543598175048828 2.5175230503082275391 2.7764937877655029297 2.649261474609375 2.7579953670501708984 1.8403046131134033203 1.980159759521484375 2.1627032756805419922 2.0920646190643310547 1.6264138221740722656 1.6276998519897460938 1.6360611915588378906 1.6360611915588378906 1.6360611915588378906 1.7424892187118530273 1.8045020103454589844 1.6061722040176391602 1.7733540534973144531 1.4447818994522094727 1.5504970550537109375 1.0136412382125854492 1.0942691564559936523 1.2744851112365722656 1.313901066780090332 1.2298377752304077148 1.3505208492279052734 1.32544708251953125 1.2212214469909667969 1.1539566516876220703 1 1.2673872709274291992 1.493291020393371582 1.6754753589630126953 1.3505208492279052734 1.6360611915588378906 1.6360611915588378906 1.422367095947265625 1.6264138221740722656 1.7788313627243041992 2.3852427005767822266 1.6264138221740722656 1.7788313627243041992 1.6578775644302368164 1.7788313627243041992 1.8744368553161621094 1.7788313627243041992 1.7788313627243041992 1.4852751493453979492 1.6459958553314208984 1.6620928049087524414 1.5255063772201538086 2.0159938335418701172 1.6246308088302612305 2.0924937725067138672 2.1649963855743408203 2.1480946540832519531 2.5957019329071044922 2.1892919540405273438 2.0247404575347900391 1.7000913619995117188 2.1242105960845947266 2.5483400821685791016 2.6158993244171142578 2.6582422256469726563 2.2114689350128173828 2.4378609657287597656 2.3217666149139404297 2.233631134033203125 2.4073743820190429688 2.2324388027191162109 1.8221651315689086914 1.493291020393371582 1.5894358158111572266 1.4700316190719604492 1.9531679153442382813 1.9727833271026611328 2.1248745918273925781 2.0273396968841552734 2.3232755661010742188 2.4667670726776123047 2.4607279300689697266 2.7379262447357177734 2.4953896999359130859 2.3488659858703613281 2.366481781005859375 2.5589051246643066406 2.2338459491729736328 2.0977165699005126953 1.7788313627243041992 1.8778012990951538086 2.38935089111328125 2.3337512016296386719 2.2481622695922851563 2.7806806564331054688 2.2615909576416015625 2.5529799461364746094 2.5052497386932373047 2.0411422252655029297 2.6774764060974121094 2.3206045627593994141 2.5276894569396972656 2.8313894271850585938 2.5325632095336914063 2.8195536136627197266 2.7297515869140625 2.4768331050872802734 2.507633209228515625 2.3371729850769042969 2.3563070297241210938 1.8316174745559692383 1.493291020393371582 1.6955268383026123047 1.5534824132919311523 1.7989383935928344727 1.493291020393371582 1.6360611915588378906 1.7559435367584228516 1.7788313627243041992 2.4411988258361816406 1.9273805618286132813 2.2718164920806884766 5.0473923683166503906 5.0473923683166503906 3.2965180873870849609 2.8220388889312744141 2.0399518013000488281 2.50002288818359375 1.9775722026824951172 2.8938577175140380859 2.2140893936157226563 1.7788313627243041992 1.7788313627243041992 1.7586873769760131836 1.9273805618286132813 3.4669039249420166016 2.3157980442047119141 2.0283679962158203125 3.2429821491241455078 2.2718164920806884766 1.9444774389266967773 2.2129473686218261719 2.3064684867858886719 1.9273805618286132813 1.9273805618286132813 1.9273805618286132813 1.7788313627243041992 1.9233977794647216797 2.6419634819030761719 1.7280544042587280273 1.7788313627243041992 1.6264138221740722656 1.6264138221740722656 1.4551444053649902344 1.6723762750625610352 1.5646760463714599609 1.493291020393371582 1.8928476572036743164 1.7730489969253540039 1.5238106250762939453 1.4211074113845825195 1.7153619527816772461 1.4506453275680541992 1.7753299474716186523 1.7378427982330322266 2.2003383636474609375 2.3722105026245117188 2.4411678314208984375 2.2924468517303466797 9.21959686279296875 2.208187103271484375 2.2666411399841308594 2.2715501785278320313 
2.8053700923919677734 3.0657303333282470703 3.2563109397888183594 3.5520920753479003906 3.3021769523620605469 2.9380192756652832031 2.9186954498291015625 3.2651207447052001953 2.8788788318634033203 2.2198786735534667969 2.3863861560821533203 2.6873860359191894531 2.5964543819427490234 2.2870523929595947266 2.314453125 2.4034261703491210938 2.147167205810546875 2.1130297183990478516 1.9231350421905517578 2.6854226589202880859 2.5108084678649902344 2.9561593532562255859 2.5035681724548339844 2.4372892379760742188 2.8167564868927001953 3.2455289363861083984 2.6424646377563476563 2.9535667896270751953 2.8232579231262207031 2.6694915294647216797 2.4439694881439208984 2.8157334327697753906 2.0640728473663330078 2.4526782035827636719 2.3187134265899658203 2.4329090118408203125 1.909114837646484375 1.5363926887512207031 1.5838868618011474609 1.5646760463714599609 1.493291020393371582 1.3408490419387817383 1.2446701526641845703 1.3505208492279052734 1.3669817447662353516 1.2398726940155029297 1.4442297220230102539 1.0594129562377929688 1.0624214410781860352 1.2456753253936767578 1.2399617433547973633 1.4114389419555664063 1.2077505588531494141 1.493291020393371582 1.4095516204833984375 1.1572610139846801758 1.3505208492279052734 1.4219058752059936523 1.6360611915588378906 1.32544708251953125 1.3693726062774658203 1.6360611915588378906 1.3459802865982055664 1.6293581724166870117 1.7788313627243041992 1.6293581724166870117 2.6419634819030761719 1.7766367197036743164 1.7103047370910644531 1.7788313627243041992 1.7788313627243041992 1.7788313627243041992 1.7788313627243041992 1.6578775644302368164 1.6360611915588378906 1.6293581724166870117 1.7788313627243041992 1.7788313627243041992 1.6174573898315429688 1.74234771728515625 2.0900218486785888672 1.8550951480865478516 1.9276571273803710938 2.3091454505920410156 2.2853119373321533203 2.3304164409637451172 1.7016943693161010742 1.6742930412292480469 2.2388708591461181641 2.1504523754119873047 2.4725694656372070313 2.8443570137023925781 2.3661732673645019531 2.7413763999938964844 2.9277179241180419922 2.3149750232696533203 2.1579256057739257813 1.2896770238876342773 1.613712310791015625 1.493291020393371582 1.5200306177139282227 1.3688995838165283203 1.6459987163543701172 1.8528409004211425781 1.9752659797668457031 1.9142708778381347656 2.4740025997161865234 2.5827262401580810547 2.6838006973266601563 2.5140171051025390625 2.2427153587341308594 2.7650208473205566406 2.5835936069488525391 2.1887660026550292969 1.7272634506225585938 1.7774395942687988281 1.8115553855895996094 2.2753412723541259766 2.5427706241607666016 2.1507029533386230469 2.4104168415069580078 2.1117091178894042969 2.0400979518890380859 1.808850407600402832 2.6856987476348876953 2.7393260002136230469 2.3374233245849609375 3.3148658275604248047 2.7617540359497070313 2.6644349098205566406 2.2434399127960205078 2.773426055908203125 2.6350870132446289063 2.8036737442016601563 2.8299939632415771484 2.9165945053100585938 2.3537034988403320313 2.3460817337036132813 2.6737432479858398438 1.7194492816925048828 1.6360611915588378906 1.6372709274291992188 1.5646760463714599609 1.7788313627243041992 1.8502165079116821289 1.9273805618286132813 1.9273805618286132813 1.9273805618286132813 2.0399518013000488281 2.6062388420104980469 2.4118311405181884766 3.6951785087585449219 3.4669039249420166016 5.0473923683166503906 2.2129473686218261719 3.2965180873870849609 2.0773510932922363281 2.6419634819030761719 1.7860915660858154297 1.9681315422058105469 1.9273805618286132813 1.9273805618286132813 2.2718164920806884766 2.0399518013000488281 3.7983632087707519531 4.1048259735107421875 1.9273805618286132813 1.7872604131698608398 2.4411988258361816406 1.7788313627243041992 1.694403529167175293 1.9273805618286132813 1.9273805618286132813 1.7788313627243041992 1.8097823858261108398 1.7788313627243041992 1.9273805618286132813 1.8117722272872924805 2.6419634819030761719 2.0773510932922363281 1.5297224521636962891 1.8320413827896118164 1.8752982616424560547 1.8287178277969360352 1.5541707277297973633 1.3078857660293579102 1.3505208492279052734 1.7328455448150634766 1.6173888444900512695 1.7378261089324951172 2.0673675537109375 2.1248164176940917969 2.4408273696899414063 2.4139602184295654297 2.6740286350250244141 2.4159898757934570313 2.6877386569976806641 2.5789835453033447266 2.3598625659942626953 2.3954670429229736328 
2.8243772983551025391 2.8940451145172119141 3.4380314350128173828 3.4610264301300048828 3.299175262451171875 3.5164210796356201172 3.5680584907531738281 3.3359503746032714844 3.0643856525421142578 2.7271573543548583984 2.406536102294921875 2.5429508686065673828 2.6536717414855957031 2.1553299427032470703 2.3758027553558349609 2.1625642776489257813 1.7853606939315795898 1.8706297874450683594 1.7699464559555053711 2.3086748123168945313 2.1675283908843994141 2.545551300048828125 2.5712087154388427734 2.5235352516174316406 2.5273814201354980469 2.5627920627593994141 2.4301447868347167969 2.630321502685546875 2.7090570926666259766 2.6077585220336914063 2.711772918701171875 1.9211430549621582031 2.1585490703582763672 2.4754786491394042969 2.3184428215026855469 2.2213170528411865234 2.0045766830444335938 1.6894195079803466797 1.5348188877105712891 1.5646760463714599609 1.3505208492279052734 1.3613889217376708984 1.1417065858840942383 1.1808640956878662109 1.2077505588531494141 1.1226302385330200195 1.4806663990020751953 1.1859853267669677734 1.2077505588531494141 1.462605595588684082 1.2372623682022094727 1.0164666175842285156 1.7369812726974487305 1.2424100637435913086 1.7361091375350952148 1.0181176662445068359 1.3505208492279052734 1.3505208492279052734 1.0244803428649902344 1.6360611915588378906 1.6643443107604980469 1.400562286376953125 1.7046622037887573242 2.6419634819030761719 1.7280544042587280273 1.6578775644302368164 1.9273805618286132813 1.9273805618286132813 2.2129473686218261719 1.7788313627243041992 1.6264138221740722656 1.6293581724166870117 1.6266878843307495117 1.9684967994689941406 2.0484960079193115234 1.9273805618286132813 1.9273805618286132813 1.9273805618286132813 1.7788313627243041992 1.7162407636642456055 2.6419634819030761719 1.7788313627243041992 1.934256434440612793 1.7570909261703491211 1.9429613351821899414 2.0483117103576660156 1.7637660503387451172 1.7170203924179077148 2.4994003772735595703 2.2194266319274902344 2.3779683113098144531 2.5815143585205078125 2.6939609050750732422 2.5137705802917480469 2.4915165901184082031 1.9811943769454956055 2.0174295902252197266 1.977207183837890625 1.7354658842086791992 1.6321069002151489258 1.6091811656951904297 1.77289581298828125 1.5964815616607666016 1.7673372030258178711 2.2495470046997070313 1.9770653247833251953 2.6818978786468505859 2.4506218433380126953 2.4817349910736083984 2.4708230495452880859 2.4649989604949951172 2.3724212646484375 2.3376622200012207031 2.3081810474395751953 1.9720350503921508789 1.8275153636932373047 2.1533036231994628906 2.4589591026306152344 2.2474267482757568359 2.3347392082214355469 2.4411461353302001953 2.2926869392395019531 2.0850849151611328125 2.3229341506958007813 2.0357949733734130859 1.9787590503692626953 2.4334180355072021484 2.2640678882598876953 2.2871384620666503906 2.6559774875640869141 2.7258751392364501953 2.7803027629852294922 2.4386451244354248047 2.7741806507110595703 2.4477512836456298828 2.8233227729797363281 2.4650809764862060547 2.2233166694641113281 2.7759270668029785156 2.2336480617523193359 1.966856837272644043 1.6168171167373657227 1.422367095947265625 1.6264138221740722656 1.7696378231048583984 1.9273805618286132813 2.6414442062377929688 1.9273805618286132813 3.4669039249420166016 5.0473923683166503906 2.2283473014831542969 2.6967334747314453125 2.2283473014831542969 3.2965180873870849609 3.2965180873870849609 1.9541800022125244141 1.9273805618286132813 1.9273805618286132813 1.9273805618286132813 1.9273805618286132813 1.9273805618286132813 1.8028122186660766602 1.9849596023559570313 4.6208863258361816406 2.0283679962158203125 2.2718164920806884766 2.9318671226501464844 1.9273805618286132813 1.9273805618286132813 2.2129473686218261719 1.7860915660858154297 1.9273805618286132813 1.9541800022125244141 1.9273805618286132813 1.9453938007354736328 2.6419634819030761719 2.0484960079193115234 1.9273805618286132813 1.7860915660858154297 1.7788313627243041992 1.6264138221740722656 1.8236470222473144531 2.3134787082672119141 2.1818287372589111328 2.1613473892211914063 1.4566180706024169922 1.6795217990875244141 2.0455806255340576172 1.9773470163345336914 1.798329472541809082 2.3053655624389648438 2.1528744697570800781 2.1539249420166015625 2.0806024074554443359 9.0646190643310546875 9.0809879302978515625 9.36449432373046875 2.8630614280700683594 2.3078448772430419922 2.5737555027008056641 
2.8393139839172363281 2.865299224853515625 3.3523976802825927734 3.3639321327209472656 2.9900317192077636719 3.3486680984497070313 3.1686875820159912109 3.2364640235900878906 3.0496537685394287109 3.0936982631683349609 2.7716078758239746094 2.8829669952392578125 2.4147801399230957031 2.2967085838317871094 2.427219390869140625 2.311351776123046875 2.4670429229736328125 2.0813848972320556641 2.1306807994842529297 1.8646963834762573242 2.0965580940246582031 2.2008423805236816406 2.309970855712890625 2.6811850070953369141 2.54735565185546875 2.1623427867889404297 2.4625144004821777344 2.6474568843841552734 2.5418059825897216797 2.60677337646484375 2.2093539237976074219 2.0960061550140380859 2.3162248134613037109 2.6289865970611572266 2.3877251148223876953 2.0548672676086425781 2.3545076847076416016 1.8442674875259399414 1.6726883649826049805 1.5219637155532836914 1.5206131935119628906 1.4219058752059936523 1 1 1.0649803876876831055 1 1.3451684713363647461 1.2365952730178833008 1.3505208492279052734 1.2077505588531494141 1 1.3505208492279052734 1.3634102344512939453 1.4556200504302978516 1.0337969064712524414 1.2791357040405273438 1.3505208492279052734 1.3159672021865844727 1.4083597660064697266 1.7788313627243041992 1.7788313627243041992 1.6360611915588378906 1.6960996389389038086 1.694403529167175293 1.6422827243804931641 1.6578775644302368164 2.0773510932922363281 1.9273805618286132813 2.50002288818359375 2.6419634819030761719 1.9273805618286132813 1.7788313627243041992 1.7788313627243041992 1.9684967994689941406 1.9541800022125244141 2.2129473686218261719 2.0283679962158203125 1.9619773626327514648 1.7644934654235839844 1.7202570438385009766 1.7860915660858154297 1.7788313627243041992 1.6360611915588378906 2.2246732711791992188 2.3184149265289306641 2.1119768619537353516 2.6132254600524902344 1.7803548574447631836 2.1959476470947265625 2.0378317832946777344 2.8007929325103759766 2.8018805980682373047 2.4662992954254150391 2.9966619014739990234 3.4112081527709960938 2.3798816204071044922 2.5244281291961669922 2.3115818500518798828 1.8633565902709960938 1.8216636180877685547 1.7282139062881469727 1.2969777584075927734 1.7825204133987426758 2.2873373031616210938 2.0271368026733398438 2.3302829265594482422 2.3514640331268310547 2.4226427078247070313 2.5914990901947021484 2.5892565250396728516 2.7650568485260009766 2.5303707122802734375 2.3270080089569091797 2.3395135402679443359 2.2025129795074462891 1.7427475452423095703 2.1574075222015380859 2.2654242515563964844 2.5963501930236816406 2.4637298583984375 2.7786180973052978516 2.9717469215393066406 2.5348179340362548828 2.4909880161285400391 2.2623937129974365234 2.4650821685791015625 1.9912767410278320313 2.3374800682067871094 2.7047517299652099609 3.1543021202087402344 3.2196226119995117188 2.8743083477020263672 2.7586491107940673828 2.4169774055480957031 2.3208744525909423828 2.2606437206268310547 2.8242590427398681641 2.2040998935699462891 2.2462477684020996094 2.178112030029296875 1.6360611915588378906 1.332964777946472168 1.5646760463714599609 2.1057736873626708984 1.6745015382766723633 2.3778810501098632813 1.9273805618286132813 1.9849596023559570313 2.2283473014831542969 2.2283473014831542969 2.2283473014831542969 3.2656826972961425781 2.6967334747314453125 2.2283473014831542969 2.2283473014831542969 3.4669039249420166016 1.9697748422622680664 1.9273805618286132813 1.9273805618286132813 1.9273805618286132813 2.8220388889312744141 2.6414442062377929688 1.9273805618286132813 2.2283473014831542969 3.4669039249420166016 1.9273805618286132813 2.8220388889312744141 2.2264029979705810547 2.6419634819030761719 1.7904338836669921875 1.9619773626327514648 1.9273805618286132813 1.9372781515121459961 1.9273805618286132813 1.8908059597015380859 1.9273805618286132813 2.8938577175140380859 1.9273805618286132813 1.7819372415542602539 1.7942476272583007813 1.9367569684982299805 2.3897993564605712891 2.6225607395172119141 2.2343642711639404297 2.3055529594421386719 2.0490827560424804688 1.6952193975448608398 2.2086277008056640625 2.7567889690399169922 2.5550527572631835938 2.2304978370666503906 1.9883291721343994141 8.971897125244140625 2.2425477504730224609 9.5735979080200195313 2.9133164882659912109 2.958667755126953125 9.3447170257568359375 2.4397079944610595703 2.4071459770202636719 
2.8179960250854492188 3.0381269454956054688 3.0205419063568115234 2.9670429229736328125 3.3976318836212158203 3.3002033233642578125 3.3653874397277832031 3.2161266803741455078 3.0975847244262695313 3.2383902072906494141 2.8577246665954589844 3.0432848930358886719 2.5663340091705322266 2.7780654430389404297 2.8581829071044921875 2.3953344821929931641 2.0056288242340087891 1.9107033014297485352 2.1525554656982421875 1.9356172084808349609 2.2018907070159912109 1.9989124536514282227 2.1296346187591552734 2.2528023719787597656 2.4287934303283691406 2.40946197509765625 2.1865098476409912109 2.3978953361511230469 2.4251070022583007813 2.4636199474334716797 2.5414862632751464844 2.7219951152801513672 2.5333626270294189453 2.3664689064025878906 2.0488133430480957031 2.2339012622833251953 2.5474057197570800781 2.2648389339447021484 2.2408175468444824219 1.8728646039962768555 1.8601163625717163086 1.5087881088256835938 1.1709183454513549805 1 1.0649803876876831055 1 1 1.493291020393371582 1.2791357040405273438 1 1 1 1.3505208492279052734 1.082188725471496582 1.3032180070877075195 1.0711762905120849609 1.0603493452072143555 1.2748110294342041016 1.3927649259567260742 1.7788313627243041992 1.6264138221740722656 1.6293581724166870117 1.6264138221740722656 1.6745015382766723633 1.9684967994689941406 1.4811452627182006836 2.6419634819030761719 1.9273805618286132813 3.4669039249420166016 1.9273805618286132813 2.6419634819030761719 1.9273805618286132813 1.6745015382766723633 1.9273805618286132813 2.986942291259765625 3.6493880748748779297 3.2429821491241455078 5.0473923683166503906 2.2129473686218261719 1.9273805618286132813 1.7788313627243041992 1.6421043872833251953 1.7788313627243041992 1.7788313627243041992 1.6264138221740722656 1.6588765382766723633 2.2484223842620849609 2.14321136474609375 2.066364288330078125 1.8836600780487060547 2.5067007541656494141 2.4173870086669921875 2.7250654697418212891 2.520946502685546875 2.494007110595703125 2.0171041488647460938 1.6704016923904418945 2.11544036865234375 2.0674827098846435547 1.8217452764511108398 1.7480317354202270508 1.6959557533264160156 2.060947418212890625 1.4992183446884155273 1.6196308135986328125 1.9588767290115356445 2.2805464267730712891 2.6945476531982421875 3.0236208438873291016 2.8573167324066162109 2.4268891811370849609 2.2081089019775390625 1.9886460304260253906 1.6319028139114379883 1.9280438423156738281 1.9838441610336303711 2.2992525100708007813 2.4795463085174560547 2.6467645168304443359 2.4852983951568603516 3.0109374523162841797 3.0911095142364501953 2.4327282905578613281 2.2706432342529296875 2.5485775470733642578 2.2772252559661865234 2.1906180381774902344 2.4102053642272949219 3.0781109333038330078 3.7267816066741943359 3.0436823368072509766 3.5697681903839111328 3.3629901409149169922 2.5385847091674804688 2.5719280242919921875 2.4571559429168701172 2.0736334323883056641 1.8201096057891845703 2.0904319286346435547 1.4036177396774291992 1.482228398323059082 1.5328708887100219727 1.6360611915588378906 1.6360611915588378906 1.7788313627243041992 1.9273805618286132813 2.986942291259765625 3.6493880748748779297 2.6967334747314453125 3.4669039249420166016 2.6820814609527587891 1.9273805618286132813 1.9273805618286132813 3.2429821491241455078 2.2283473014831542969 2.2283473014831542969 1.9574986696243286133 1.9273805618286132813 1.712459564208984375 1.9273805618286132813 1.8502165079116821289 2.4766926765441894531 1.9273805618286132813 2.8220388889312744141 1.9273805618286132813 1.694403529167175293 1.7788313627243041992 2.8938577175140380859 1.7586873769760131836 2.6419634819030761719 2.1317989826202392578 1.7788313627243041992 1.9075075387954711914 1.7904338836669921875 2.2305238246917724609 2.0079195499420166016 2.2129473686218261719 1.9849596023559570313 1.9273805618286132813 1.7788313627243041992 2.0494875907897949219 2.1226334571838378906 2.4739584922790527344 2.5351026058197021484 2.3143889904022216797 1.9809945821762084961 1.9097229242324829102 2.2002434730529785156 2.8867731094360351563 2.1851036548614501953 2.4488079547882080078 8.7349977493286132813 2.0710656642913818359 2.4708435535430908203 9.5275716781616210938 2.8316373825073242188 2.7164907455444335938 2.6561501026153564453 2.7869014739990234375 2.6390366554260253906 
2.9138033390045166016 3.3808526992797851563 2.8623809814453125 3.3378343582153320313 3.2857029438018798828 2.9172976016998291016 3.3760759830474853516 3.0837960243225097656 3.1656029224395751953 2.9870438575744628906 2.8054029941558837891 2.8121120929718017578 2.934253692626953125 2.7446219921112060547 2.7657053470611572266 2.8030064105987548828 2.2339909076690673828 2.1604416370391845703 2.1487452983856201172 2.0622012615203857422 2.3001513481140136719 2.3498048782348632813 2.3802595138549804688 2.4574193954467773438 2.7142875194549560547 2.4680957794189453125 2.2789168357849121094 2.5171263217926025391 2.5888104438781738281 2.6264679431915283203 2.5065729618072509766 2.5620744228363037109 2.3298380374908447266 2.2660675048828125 2.2184510231018066406 2.3045153617858886719 2.7200543880462646484 2.3150308132171630859 2.1262381076812744141 2.3139445781707763672 1.8002245426177978516 1.853595733642578125 1.3505208492279052734 1.3058730363845825195 1 1 1.2077505588531494141 1.3505208492279052734 1 1.0244803428649902344 1 1.3985967636108398438 1 1.1809908151626586914 1.3480896949768066406 1.0622180700302124023 1.493291020393371582 1.4083597660064697266 1.7788313627243041992 1.7788313627243041992 1.7280544042587280273 1.6264138221740722656 1.4629417657852172852 1.7788313627243041992 1.7481386661529541016 1.7788313627243041992 2.0484960079193115234 1.7788313627243041992 2.6419634819030761719 2.6419634819030761719 1.9273805618286132813 1.9273805618286132813 1.9273805618286132813 1.9273805618286132813 2.0283679962158203125 3.6951785087585449219 2.4118311405181884766 2.0283679962158203125 3.4669039249420166016 2.6414442062377929688 2.2305238246917724609 2.8938577175140380859 1.6960996389389038086 1.6422827243804931641 1.6264138221740722656 1.6360611915588378906 2.2713761329650878906 1.9550225734710693359 1.6500800848007202148 1.7589682340621948242 2.590869903564453125 2.2601554393768310547 2.3205583095550537109 2.7187504768371582031 2.6055235862731933594 2.3854155540466308594 2.5334250926971435547 2.3641593456268310547 2.2348413467407226563 2.1210601329803466797 1.9575529098510742188 1.9095321893692016602 2.0290544033050537109 1.8214424848556518555 1.6265611648559570313 1.7118288278579711914 2.2491824626922607422 2.3230082988739013672 2.1583690643310546875 2.2339162826538085938 2.4607753753662109375 1.931313633918762207 1.7315359115600585938 1.6646627187728881836 1.7601618766784667969 2.3323895931243896484 2.8110713958740234375 2.4679415225982666016 2.2597019672393798828 2.4361433982849121094 2.9476144313812255859 2.4995725154876708984 2.3853986263275146484 2.5660941600799560547 2.3841729164123535156 2.2021059989929199219 2.4010336399078369141 2.8433375358581542969 3.2480871677398681641 3.3273479938507080078 3.1825275421142578125 3.5193946361541748047 3.1755459308624267578 2.7239179611206054688 2.5733203887939453125 2.1770913600921630859 2.317905426025390625 1.9348100423812866211 2.0389199256896972656 1.6204540729522705078 1.8115534782409667969 1.7308485507965087891 1.8840299844741821289 1.6498792171478271484 1.7788313627243041992 1.8502165079116821289 2.0399518013000488281 1.9273805618286132813 1.9336783885955810547 2.2129473686218261719 1.9273805618286132813 2.1188180446624755859 1.694403529167175293 1.9273805618286132813 2.2129473686218261719 2.2718164920806884766 3.2429821491241455078 2.8871884346008300781 1.7788313627243041992 1.7766367197036743164 1.6264138221740722656 1.7788313627243041992 2.8938577175140380859 2.8938577175140380859 2.6419634819030761719 1.7788313627243041992 1.7788313627243041992 1.6264138221740722656 1.7788313627243041992 1.7198120355606079102 2.6419634819030761719 1.7904338836669921875 1.6425864696502685547 1.6734724044799804688 1.6264138221740722656 1.8502165079116821289 1.9273805618286132813 1.9697748422622680664 1.991083979606628418 2.0403513908386230469 2.1860134601593017578 2.3215796947479248047 2.4973154067993164063 2.9718108177185058594 2.4067223072052001953 1.9201118946075439453 1.9250559806823730469 2.5207946300506591797 2.3735256195068359375 2.2615642547607421875 2.2674415111541748047 2.1474890708923339844 8.7981405258178710938 8.9265527725219726563 2.1032891273498535156 2.3836779594421386719 2.8039910793304443359 2.5793862342834472656 2.889636993408203125 2.67079925537109375 
2.9697709083557128906 2.8293147087097167969 2.9791116714477539063 3.0737450122833251953 3.6507024765014648438 3.4909427165985107422 3.1216890811920166016 2.8804049491882324219 2.9904963970184326172 2.8621935844421386719 2.9100527763366699219 3.5331792831420898438 3.1078884601593017578 3.1541106700897216797 2.7153306007385253906 2.8084194660186767578 2.0286724567413330078 2.6861608028411865234 2.2579264640808105469 2.6592471599578857422 2.3816580772399902344 2.2489652633666992188 2.2902176380157470703 2.4933919906616210938 2.7913789749145507813 3.0157668590545654297 2.7985789775848388672 2.6699571609497070313 2.9802503585815429688 2.8288707733154296875 2.2768406867980957031 2.5959334373474121094 2.4688913822174072266 2.3919770717620849609 2.2707505226135253906 2.2705316543579101563 2.6168007850646972656 2.6094934940338134766 2.2928533554077148438 2.0699903964996337891 2.2202868461608886719 2.2395415306091308594 1.8586914539337158203 1.7498869895935058594 1.2077505588531494141 1 1.2791357040405273438 1 1 1 1.0029966831207275391 1.1666394472122192383 1.32544708251953125 1.0730701684951782227 1.5708006620407104492 1.3731245994567871094 1.32544708251953125 1.3927649259567260742 1.7074462175369262695 1.7788313627243041992 1.8502165079116821289 1.9273805618286132813 1.6264138221740722656 1.7162407636642456055 1.6264138221740722656 2.2305238246917724609 1.7811305522918701172 2.6419634819030761719 3.2395925521850585938 1.9684967994689941406 1.7788313627243041992 1.9849596023559570313 2.6414442062377929688 1.9273805618286132813 1.9697748422622680664 2.6967334747314453125 2.2283473014831542969 3.6493880748748779297 5.0473923683166503906 3.0927255153656005859 1.9849596023559570313 1.9697748422622680664 1.9273805618286132813 2.6419634819030761719 1.3345512151718139648 1.7594568729400634766 1.7329459190368652344 1.6922247409820556641 2.1179823875427246094 2.2175338268280029297 2.1479253768920898438 1.8930962085723876953 1.7927833795547485352 2.3594796657562255859 2.8982923030853271484 2.6440007686614990234 2.750110626220703125 1.86993408203125 2.3852427005767822266 1.9763085842132568359 2.0470573902130126953 1.9998514652252197266 1.8044780492782592773 1.8326714038848876953 1.6681336164474487305 1.6214659214019775391 2.4425103664398193359 2.307647705078125 2.3013527393341064453 2.3615121841430664063 2.1909396648406982422 2.1747727394104003906 1.8117007017135620117 1.5289728641510009766 1.7614175081253051758 2.2168536186218261719 2.4210221767425537109 2.3546118736267089844 2.4520580768585205078 2.5990092754364013672 2.6353526115417480469 2.8482890129089355469 2.3599157333374023438 2.0756106376647949219 2.3659751415252685547 2.1938874721527099609 2.3698055744171142578 2.8409807682037353516 3.3869192600250244141 3.1999650001525878906 2.6133134365081787109 2.6090023517608642578 2.4447863101959228516 2.5352551937103271484 2.4997498989105224609 2.0037257671356201172 2.1867511272430419922 1.7160761356353759766 2.0046899318695068359 1.9090470075607299805 1.5863333940505981445 1.6360611915588378906 1.6360611915588378906 1.7894746065139770508 1.6264138221740722656 1.8040344715118408203 1.9273805618286132813 1.9273805618286132813 1.9336783885955810547 1.9273805618286132813 1.7904338836669921875 2.8938577175140380859 2.6419634819030761719 1.9273805618286132813 2.0344383716583251953 3.0927255153656005859 3.4669039249420166016 1.9273805618286132813 1.6264138221740722656 1.4776235818862915039 1.3693726062774658203 1.3459802865982055664 1.7788313627243041992 1.6781011819839477539 1.7788313627243041992 1.6264138221740722656 1.6360611915588378906 1.6360611915588378906 1.6094584465026855469 1.6306262016296386719 2.6419634819030761719 1.7586873769760131836 1.7042944431304931641 2.2140893936157226563 2.6419634819030761719 1.7941114902496337891 1.8096925020217895508 2.6419634819030761719 1.9587398767471313477 2.1870388984680175781 2.4358656406402587891 2.5282356739044189453 2.5391261577606201172 2.4768259525299072266 2.1194756031036376953 1.9751136302947998047 2.3927211761474609375 2.6134400367736816406 2.2879650592803955078 2.4129302501678466797 2.3172903060913085938 9.2044963836669921875 2.6492826938629150391 2.3233101367950439453 2.1537168025970458984 2.5163636207580566406 2.4158966541290283203 2.9213969707489013672 2.5277161598205566406 3.0007164478302001953 
3.1303970813751220703 3.3426091670989990234 3.0959410667419433594 2.8898959159851074219 3.4322049617767333984 3.1106448173522949219 3.2089293003082275391 3.0498938560485839844 2.8571617603302001953 2.8371455669403076172 3.0137369632720947266 3.0330400466918945313 2.8272776603698730469 2.7618875503540039063 2.6806881427764892578 2.4082109928131103516 2.3008656501770019531 2.0713138580322265625 2.1822774410247802734 2.0899584293365478516 2.5144286155700683594 2.4222049713134765625 2.0188066959381103516 2.1752676963806152344 2.6234116554260253906 2.4858679771423339844 2.929950714111328125 2.7736368179321289063 2.8326907157897949219 2.8253509998321533203 2.6516125202178955078 2.8047740459442138672 2.7409684658050537109 2.5731565952301025391 2.5159585475921630859 2.7285130023956298828 2.6523637771606445313 2.8446493148803710938 2.4978377819061279297 2.4184722900390625 2.3511791229248046875 1.9346973896026611328 1.8823970556259155273 1.5550556182861328125 1.27941131591796875 1 1 1 1.3505208492279052734 1.3505208492279052734 1 1.493291020393371582 1.5646760463714599609 1.6360611915588378906 1.1283966302871704102 1.32544708251953125 1.6425864696502685547 1.7074462175369262695 1.7788313627243041992 2.2305238246917724609 1.9273805618286132813 1.9273805618286132813 1.6264138221740722656 2.6419634819030761719 1.9273805618286132813 1.7644934654235839844 1.712459564208984375 1.9273805618286132813 1.6264138221740722656 1.7788313627243041992 1.7644934654235839844 3.4669039249420166016 1.7788313627243041992 2.0773510932922363281 1.7788313627243041992 3.6493880748748779297 5.0473923683166503906 3.0857267379760742188 5.0473923683166503906 5.5286641120910644531 2.0283679962158203125 3.7983632087707519531 2.8297266960144042969 1.7788313627243041992 1.7301197052001953125 1.7788313627243041992 1.345389246940612793 1.8991569280624389648 1.7774847745895385742 2.0957150459289550781 2.2904567718505859375 1.9990413188934326172 1.9711604118347167969 2.4360442161560058594 2.4766926765441894531 3.5284249782562255859 2.7385642528533935547 2.3660311698913574219 1.9273805618286132813 2.1414837837219238281 1.6960996389389038086 1.9178084135055541992 2.0954866409301757813 1.9993352890014648438 2.1708929538726806641 2.4636340141296386719 2.1545784473419189453 1.9147477149963378906 2.2380194664001464844 2.2452640533447265625 2.2142877578735351563 2.0568256378173828125 2.5905556678771972656 2.1160769462585449219 2.1624140739440917969 2.3695323467254638672 2.0647084712982177734 2.7086689472198486328 2.6521222591400146484 2.724517822265625 2.6333680152893066406 2.7502989768981933594 3.0692715644836425781 2.3999652862548828125 2.7303516864776611328 2.8882451057434082031 2.8278069496154785156 2.4369604587554931641 3.1801645755767822266 3.1313786506652832031 2.9904031753540039063 2.7987518310546875 3.1415345668792724609 3.0707628726959228516 2.6180388927459716797 2.3882818222045898438 2.494602203369140625 2.0511338710784912109 2.0731065273284912109 1.6120464801788330078 1.7399266958236694336 1.7800077199935913086 1.8215305805206298828 1.4369227886199951172 1.6264138221740722656 1.7696378231048583984 1.6781011819839477539 1.9273805618286132813 1.9849596023559570313 3.4669039249420166016 1.9273805618286132813 1.9273805618286132813 1.9273805618286132813 1.9849596023559570313 1.9273805618286132813 2.5116035938262939453 3.2110114097595214844 1.9273805618286132813 1.7788313627243041992 1.8802344799041748047 1.4551444053649902344 1.493291020393371582 1.06975555419921875 1.3693726062774658203 1.470072627067565918 1.32544708251953125 1.6360611915588378906 1.493291020393371582 1.6533498764038085938 1.6578775644302368164 1.7586873769760131836 1.6360611915588378906 1.6360611915588378906 1.7028762102127075195 1.5618631839752197266 1.6271665096282958984 1.720032811164855957 1.9512954950332641602 2.1051032543182373047 2.2734785079956054688 2.0555140972137451172 2.602542877197265625 2.7807278633117675781 1.9145613908767700195 2.4025804996490478516 2.4539411067962646484 2.6268453598022460938 2.9156129360198974609 2.6262366771697998047 2.5774772167205810547 2.4381284713745117188 2.3863456249237060547 2.0478696823120117188 2.6217052936553955078 8.5662946701049804688 2.4036250114440917969 2.0706677436828613281 2.4323985576629638672 2.4979572296142578125 2.9506692886352539063 
2.9675512313842773438 3.1184422969818115234 3.1708257198333740234 2.9618370532989501953 3.0958626270294189453 3.0542967319488525391 3.1253676414489746094 3.1506946086883544922 3.1514751911163330078 3.0453813076019287109 2.9807715415954589844 2.8411512374877929688 2.7568156719207763672 2.6899104118347167969 2.6964952945709228516 2.2612681388854980469 2.2610189914703369141 1.7487206459045410156 1.9762692451477050781 2.1026873588562011719 2.17107391357421875 2.2803034782409667969 2.1635632514953613281 2.3417775630950927734 2.5492179393768310547 2.4327476024627685547 2.5528476238250732422 3.176532745361328125 3.0738537311553955078 2.6954236030578613281 2.9576232433319091797 3.4119513034820556641 2.8332662582397460938 2.8327338695526123047 2.697277069091796875 2.6132001876831054688 2.9197986125946044922 2.3653326034545898438 2.7259557247161865234 2.4519677162170410156 2.3652150630950927734 2.0679459571838378906 2.0256659984588623047 1.8657454252243041992 1.7580354213714599609 1.329022526741027832 1 1.3179078102111816406 1.0112341642379760742 1.493291020393371582 1.493291020393371582 1.6360611915588378906 1.2865890264511108398 1.0496779680252075195 1.6360611915588378906 1.4707392454147338867 1.6360611915588378906 1.6264138221740722656 1.7788313627243041992 2.6419634819030761719 1.7904338836669921875 1.9273805618286132813 1.9273805618286132813 1.7644934654235839844 1.9273805618286132813 1.8112893104553222656 2.6419634819030761719 1.7788313627243041992 1.7904338836669921875 1.9830318689346313477 1.9273805618286132813 1.9273805618286132813 1.7904338836669921875 1.6264138221740722656 1.9273805618286132813 3.4669039249420166016 2.3157980442047119141 2.2283473014831542969 1.9619773626327514648 3.5202007293701171875 2.8407244682312011719 3.6951785087585449219 1.9697748422622680664 1.9273805618286132813 1.6264138221740722656 1.7788313627243041992 2.0344383716583251953 1.4083597660064697266 1.4984688758850097656 1.9370537996292114258 1.7125037908554077148 2.0586855411529541016 2.132999420166015625 1.9880030155181884766 2.0098350048065185547 2.9318671226501464844 2.5025753974914550781 2.1572568416595458984 2.341075897216796875 2.4017531871795654297 2.9745817184448242188 2.1889324188232421875 2.2214992046356201172 2.1452744007110595703 2.17840576171875 2.2335050106048583984 2.2607128620147705078 2.2901334762573242188 2.5448944568634033203 2.4659013748168945313 2.4024336338043212891 2.0689835548400878906 2.0587952136993408203 2.168193817138671875 2.4131178855895996094 2.3437511920928955078 2.6129040718078613281 2.5177586078643798828 2.8513743877410888672 2.8191897869110107422 2.9767415523529052734 3.3250820636749267578 2.78520965576171875 2.9441406726837158203 2.5150728225708007813 2.3827183246612548828 2.7301762104034423828 3.2228479385375976563 3.2092363834381103516 3.3275697231292724609 3.2901167869567871094 2.8745496273040771484 2.6635203361511230469 2.6113462448120117188 2.4638924598693847656 2.3989169597625732422 2.4822435379028320313 2.2095627784729003906 2.0572602748870849609 1.9202338457107543945 1.720742344856262207 1.6467367410659790039 1.267281651496887207 1.6360611915588378906 1.7788313627243041992 1.816876530647277832 1.8060287237167358398 2.4568207263946533203 2.8220388889312744141 1.9273805618286132813 1.7788313627243041992 2.6419634819030761719 2.0484960079193115234 1.7280544042587280273 2.1323306560516357422 1.7202570438385009766 1.7788313627243041992 1.6360611915588378906 1.6360611915588378906 1.7788313627243041992 1.493291020393371582 1.493291020393371582 1 1.1785908937454223633 1.7074462175369262695 1.493291020393371582 1.32544708251953125 1.6022152900695800781 1.6602389812469482422 1.4153246879577636719 1.6360611915588378906 1.6816344261169433594 1.7928307056427001953 1.8240228891372680664 2.2014942169189453125 1.5744066238403320313 1.6360611915588378906 1.9985342025756835938 2.2600095272064208984 2.6153929233551025391 2.8938577175140380859 2.2140469551086425781 2.562297821044921875 2.4656054973602294922 2.3965928554534912109 1.9706261157989501953 2.5190465450286865234 3.0836522579193115234 2.8651711940765380859 2.6815037727355957031 2.7550930976867675781 2.7770552635192871094 2.6214747428894042969 2.3852775096893310547 2.8404850959777832031 9.0354709625244140625 2.0741760730743408203 2.3037967681884765625 2.7289965152740478516 2.8450667858123779297 
2.9383203983306884766 3.2255928516387939453 2.9191813468933105469 2.7361941337585449219 3.2032542228698730469 3.0428092479705810547 3.2524700164794921875 3.2760241031646728516 3.1378622055053710938 3.0950727462768554688 2.48040008544921875 2.9604647159576416016 2.9125919342041015625 2.9661126136779785156 2.3684508800506591797 2.0988588333129882813 2.1906504631042480469 1.8771737813949584961 1.7972542047500610352 2.0007510185241699219 2.0504240989685058594 1.7788313627243041992 2.0260510444641113281 2.2095937728881835938 2.2353551387786865234 2.6211476325988769531 2.5297324657440185547 2.8259563446044921875 3.1375701427459716797 2.8526604175567626953 2.8117995262145996094 2.9947426319122314453 3.2221114635467529297 2.9549202919006347656 2.8552219867706298828 2.8265602588653564453 2.7886984348297119141 2.4067330360412597656 2.3702208995819091797 2.6800904273986816406 2.2913775444030761719 1.8255378007888793945 2.1007244586944580078 2.1571450233459472656 2.07584381103515625 1.6162254810333251953 1.2263094186782836914 1 1 1.493291020393371582 1.5646760463714599609 1.5646760463714599609 1 1.1749637126922607422 1.7788313627243041992 1.6360611915588378906 1.7788313627243041992 1.7788313627243041992 1.4629417657852172852 2.5417046546936035156 1.9273805618286132813 2.3852427005767822266 1.7696378231048583984 1.7788313627243041992 1.7788313627243041992 1.7788313627243041992 2.6419634819030761719 1.7788313627243041992 1.6578775644302368164 2.2214002609252929688 2.50002288818359375 3.2965180873870849609 2.8220388889312744141 3.2348196506500244141 4.6208863258361816406 2.2283473014831542969 2.2283473014831542969 3.9891257286071777344 2.0399518013000488281 2.2283473014831542969 2.4118311405181884766 2.2283473014831542969 3.6951785087585449219 1.9273805618286132813 2.2718164920806884766 3.0927255153656005859 1.9273805618286132813 1.7788313627243041992 1.6264138221740722656 1.7788313627243041992 1.7759581804275512695 2.0383205413818359375 2.5487179756164550781 1.9713934659957885742 2.3598113059997558594 2.0969457626342773438 3.2747108936309814453 4.1048259735107421875 2.4254767894744873047 2.9318671226501464844 2.4450602531433105469 2.4592313766479492188 2.4619228839874267578 2.4132623672485351563 2.4018702507019042969 2.2516629695892333984 2.2426877021789550781 2.7466361522674560547 2.5147461891174316406 2.5611891746520996094 2.0970056056976318359 1.9167869091033935547 2.1400704383850097656 2.4511425495147705078 2.4796292781829833984 1.9967794418334960938 2.2582030296325683594 2.3275294303894042969 2.4283320903778076172 2.3508265018463134766 3.2408959865570068359 2.8302564620971679688 3.3711764812469482422 2.7921783924102783203 3.5160539150238037109 2.5701520442962646484 3.2013568878173828125 2.4785282611846923828 3.2759034633636474609 3.0511901378631591797 3.4137613773345947266 2.5181894302368164063 2.5308680534362792969 2.2988734245300292969 1.8190038204193115234 2.7014322280883789063 1.9775785207748413086 1.6812539100646972656 2.1599252223968505859 1.5268089771270751953 1.493291020393371582 1.493291020393371582 1.3601235151290893555 1.6360611915588378906 1.7586873769760131836 1.7788313627243041992 1.7788313627243041992 2.6419634819030761719 1.7788313627243041992 1.7788313627243041992 1.7788313627243041992 1.7788313627243041992 1.7586873769760131836 2.2140893936157226563 1.7586873769760131836 1.7788313627243041992 1.7788313627243041992 1.32544708251953125 1.6360611915588378906 1.0439506769180297852 1.493291020393371582 1.0730701684951782227 1.3505208492279052734 1.4219058752059936523 1.493291020393371582 1.0244803428649902344 1.2027982473373413086 1 1.5551552772521972656 1.3360904455184936523 1.6558345556259155273 1.6210116147994995117 1.692596435546875 2.1991002559661865234 1.8193417787551879883 1.8192180395126342773 1.9558454751968383789 2.3950641155242919922 2.4152522087097167969 2.4728684425354003906 2.5095484256744384766 2.5417046546936035156 2.7390887737274169922 2.2962229251861572266 2.4115545749664306641 2.590240478515625 2.6699168682098388672 2.9271402359008789063 2.9711802005767822266 2.8762872219085693359 2.3945667743682861328 2.7156128883361816406 2.4442522525787353516 2.3178756237030029297 2.4750268459320068359 2.5273277759552001953 2.408802032470703125 2.352542877197265625 2.5137736797332763672 2.9995996952056884766 
2.6871037483215332031 3.2902402877807617188 3.1135296821594238281 3.3595740795135498047 3.2429955005645751953 3.3177125453948974609 3.3264284133911132813 3.4006228446960449219 3.3556721210479736328 2.9422750473022460938 2.3718194961547851563 2.5240626335144042969 2.3432765007019042969 2.5781550407409667969 2.20660400390625 2.1033260822296142578 2.6419634819030761719 2.2186765670776367188 2.0017862319946289063 2.1297776699066162109 2.4492661952972412109 2.3130252361297607422 2.4353444576263427734 2.3624923229217529297 2.3480374813079833984 2.3470485210418701172 2.7834990024566650391 2.64984130859375 2.8477721214294433594 2.57271575927734375 2.7762758731842041016 2.8041670322418212891 2.6968791484832763672 2.9873197078704833984 2.5439105033874511719 2.465305328369140625 2.9992649555206298828 2.6350855827331542969 2.5323157310485839844 2.6235184669494628906 2.2841088771820068359 1.973839879035949707 2.1840066909790039063 1.9809988737106323242 2.2548596858978271484 1.603982090950012207 1.3388870954513549805 1.3758335113525390625 1.493291020393371582 1.2153507471084594727 1.2917463779449462891 1.32544708251953125 1.2468166351318359375 1.2056266069412231445 1.4811452627182006836 1.5019289255142211914 1.6578775644302368164 1.7788313627243041992 2.0773510932922363281 1.7696378231048583984 2.9745817184448242188 1.9273805618286132813 1.7836997509002685547 1.6422827243804931641 1.7788313627243041992 1.7872604131698608398 1.7860915660858154297 1.9273805618286132813 1.7788313627243041992 1.7586873769760131836 2.0399518013000488281 2.0283679962158203125 3.2965180873870849609 3.2429821491241455078 2.6820814609527587891 3.6815922260284423828 3.6815922260284423828 2.4659085273742675781 3.4669039249420166016 3.0927255153656005859 3.6493880748748779297 3.2965180873870849609 3.6493880748748779297 2.2718164920806884766 3.2429821491241455078 2.2718164920806884766 1.9273805618286132813 1.694403529167175293 2.2140893936157226563 1.6264138221740722656 2.6419634819030761719 1.9273805618286132813 2.2919604778289794922 2.50002288818359375 1.9619773626327514648 2.3602986335754394531 2.8220388889312744141 4.26065826416015625 3.9891257286071777344 2.51409912109375 2.4971454143524169922 2.5066728591918945313 2.5600347518920898438 2.6242547035217285156 2.5670156478881835938 2.2652587890625 2.6039986610412597656 2.4430513381958007813 2.6934757232666015625 1.9493756294250488281 2.2222635746002197266 2.4036548137664794922 2.1978199481964111328 2.3791079521179199219 2.2553050518035888672 2.3846921920776367188 2.4489538669586181641 2.5083527565002441406 2.473148345947265625 2.5496447086334228516 2.7668442726135253906 2.9186091423034667969 3.1237120628356933594 2.9868872165679931641 2.6998720169067382813 3.0532865524291992188 3.1715364456176757813 3.2964389324188232422 3.3101224899291992188 2.5544073581695556641 2.0892260074615478516 2.8735125064849853516 2.5022840499877929688 2.6183917522430419922 2.5297496318817138672 2.4968750476837158203 2.1131284236907958984 1.878622889518737793 1.8930076360702514648 1.5174818038940429688 1.1690214872360229492 1.671513676643371582 1.7788313627243041992 1.7586873769760131836 1.6264138221740722656 1.7788313627243041992 1.6264138221740722656 1.6264138221740722656 2.1566908359527587891 1.4776235818862915039 1.6264138221740722656 1.7788313627243041992 2.2140893936157226563 1.7202570438385009766 2.6419634819030761719 1.9273805618286132813 1.6264138221740722656 1.4225240945816040039 1.4083597660064697266 1.493291020393371582 1 1 1 1 1 1 1.1363655328750610352 1 1.3264468908309936523 1.3505208492279052734 1.8480075597763061523 1.9306645393371582031 2.0065691471099853516 1.9161932468414306641 1.7892934083938598633 1.5479631423950195313 1.6574993133544921875 2.1456446647644042969 2.6709904670715332031 2.86066436767578125 2.3935098648071289063 2.7159414291381835938 2.5631265640258789063 2.7647221088409423828 2.7018768787384033203 2.81273651123046875 2.6414165496826171875 2.7013630867004394531 2.5412461757659912109 3.0735018253326416016 2.4962589740753173828 2.8392612934112548828 2.0135653018951416016 2.1772315502166748047 2.4777216911315917969 2.4962887763977050781 2.2897558212280273438 2.7108781337738037109 2.7592382431030273438 2.8971319198608398438 
2.6686186790466308594 2.7918677330017089844 3.3246271610260009766 3.4618823528289794922 2.9311871528625488281 3.5859074592590332031 3.1725246906280517578 3.3501214981079101563 3.1382381916046142578 3.0261697769165039063 2.5534372329711914063 2.5403342247009277344 2.8415377140045166016 2.5255601406097412109 2.6814467906951904297 2.57675933837890625 2.4672226905822753906 2.725002288818359375 2.4562227725982666016 2.1089258193969726563 2.1024088859558105469 2.4965798854827880859 2.4046118259429931641 2.5900695323944091797 2.8818590641021728516 2.5995008945465087891 3.078060150146484375 2.8743984699249267578 2.8565263748168945313 2.7817332744598388672 3.040252685546875 2.7415592670440673828 2.6396760940551757813 3.2514574527740478516 2.8471331596374511719 2.8376300334930419922 2.832782745361328125 2.6290957927703857422 2.5624380111694335938 2.3980662822723388672 2.1127972602844238281 1.8285790681838989258 2.0916807651519775391 2.1866576671600341797 2.0478839874267578125 1.523898005485534668 1.2599533796310424805 1.2966053485870361328 1.32544708251953125 1.212374567985534668 1.493291020393371582 1.32544708251953125 1.32544708251953125 1.041880488395690918 1.6360611915588378906 1.6360611915588378906 1.7788313627243041992 1.6264138221740722656 1.7122943401336669922 2.5577118396759033203 1.7586873769760131836 1.9273805618286132813 1.9273805618286132813 1.7788313627243041992 1.9273805618286132813 1.7788313627243041992 1.9684967994689941406 1.6960996389389038086 1.6422827243804931641 1.7788313627243041992 2.0033643245697021484 2.0283679962158203125 2.0283679962158203125 3.2965180873870849609 3.6815922260284423828 3.4669039249420166016 3.4669039249420166016 3.2965180873870849609 3.0711941719055175781 2.2283473014831542969 2.2786147594451904297 2.986942291259765625 3.4669039249420166016 2.2718164920806884766 3.2429821491241455078 2.2129473686218261719 1.9273805618286132813 2.6419634819030761719 1.7788313627243041992 1.9273805618286132813 1.9273805618286132813 2.2129473686218261719 3.4669039249420166016 4.1875715255737304688 2.6820814609527587891 2.2283473014831542969 2.336757659912109375 3.6815922260284423828 3.9891257286071777344 3.2965180873870849609 2.9505789279937744141 2.4599347114562988281 2.7127981185913085938 2.3965790271759033203 2.7137041091918945313 2.6366322040557861328 2.8733394145965576172 2.3820297718048095703 2.6068093776702880859 2.5843806266784667969 2.3360013961791992188 2.5024628639221191406 2.7616450786590576172 2.5571827888488769531 2.5865733623504638672 2.5598602294921875 2.3555169105529785156 2.9334146976470947266 2.8709435462951660156 2.5621416568756103516 2.4021799564361572266 2.6230607032775878906 2.7418131828308105469 2.4992449283599853516 3.07733917236328125 2.8156952857971191406 2.9568040370941162109 2.8154530525207519531 2.872028350830078125 2.7524445056915283203 2.7781169414520263672 2.897274017333984375 2.906036376953125 2.286754608154296875 1.9866945743560791016 2.2815582752227783203 1.6511478424072265625 1.9873460531234741211 1.7474471330642700195 1.493291020393371582 1.493291020393371582 1.6970913410186767578 1.6360611915588378906 1.7788313627243041992 1.9273805618286132813 1.6264138221740722656 1.7147555351257324219 1.4776235818862915039 1.6264138221740722656 1.5175237655639648438 1.6360611915588378906 1.4811452627182006836 1.6264138221740722656 1.6264138221740722656 1.7860915660858154297 2.8220388889312744141 1.9794325828552246094 1.7788313627243041992 1.6360611915588378906 1.493291020393371582 1 1.0649803876876831055 1 1 1 1.0649803876876831055 1 1.2077505588531494141 1.2077505588531494141 1.2077505588531494141 1.4555131196975708008 1.263013005256652832 1.626271367073059082 1.8798875808715820313 1.9033627510070800781 2.1299176216125488281 1.8276325464248657227 2.1494061946868896484 2.8450362682342529297 2.6099200248718261719 2.4417564868927001953 2.5667233467102050781 2.6793818473815917969 2.9475204944610595703 2.6491570472717285156 3.0502078533172607422 3.0041360855102539063 2.8251459598541259766 2.8125751018524169922 2.95662689208984375 2.9639086723327636719 2.6645677089691162109 2.4637119770050048828 2.5014600753784179688 2.3558087348937988281 2.9120194911956787109 2.9095909595489501953 2.5702033042907714844 2.6887011528015136719 2.8492479324340820313 
2.5557336807250976563 3.2052996158599853516 3.0817582607269287109 3.6141877174377441406 3.2284185886383056641 3.3811161518096923828 3.4598314762115478516 3.2027828693389892578 3.1504004001617431641 3.3051695823669433594 2.6037561893463134766 2.7896387577056884766 2.9163277149200439453 2.4696385860443115234 2.3289382457733154297 2.3852581977844238281 2.4033918380737304688 2.0916156768798828125 2.1228373050689697266 2.2212498188018798828 2.0981955528259277344 2.4476900100708007813 2.1720070838928222656 2.4560635089874267578 2.8511376380920410156 2.8461802005767822266 2.944942474365234375 2.9329288005828857422 2.9317574501037597656 3.0736451148986816406 3.2095367908477783203 3.1270494461059570313 3.2253847122192382813 3.1845600605010986328 3.1070845127105712891 3.1271259784698486328 2.9704928398132324219 2.477092742919921875 2.3852698802947998047 1.8748804330825805664 2.1391515731811523438 1.7120529413223266602 1.9581840038299560547 1.8099436759948730469 1.5953958034515380859 1.3319342136383056641 1.2607413530349731445 1.6360611915588378906 1.32544708251953125 1.32544708251953125 1.2865890264511108398 1.6360611915588378906 1.4551444053649902344 1.7147555351257324219 1.3817012310028076172 1.6360611915588378906 1.7788313627243041992 1.7788313627243041992 1.7788313627243041992 1.6578775644302368164 1.6264138221740722656 1.7788313627243041992 1.7074462175369262695 1.7788313627243041992 1.7788313627243041992 1.7788313627243041992 1.6500800848007202148 1.7904338836669921875 1.5718882083892822266 1.7046622037887573242 2.2129473686218261719 3.4669039249420166016 2.2718164920806884766 2.2718164920806884766 1.9541800022125244141 3.2429821491241455078 2.2718164920806884766 2.0283679962158203125 2.9318671226501464844 2.2919604778289794922 1.9444774389266967773 2.2718164920806884766 3.6493880748748779297 4.6208863258361816406 1.9849596023559570313 1.9273805618286132813 1.9273805618286132813 2.8220388889312744141 2.8938577175140380859 2.1723401546478271484 1.9273805618286132813 3.4669039249420166016 3.2429821491241455078 3.2965180873870849609 2.3064684867858886719 4.1445622444152832031 4.1048259735107421875 3.6951785087585449219 2.4330153465270996094 2.5374975204467773438 3.4669039249420166016 2.7550806999206542969 2.7662198543548583984 2.9640777111053466797 2.6903300285339355469 2.2644107341766357422 2.5048274993896484375 2.3052260875701904297 2.0948755741119384766 2.3714392185211181641 2.3116629123687744141 2.6281893253326416016 2.4630956649780273438 2.7798695564270019531 2.2153019905090332031 2.7645559310913085938 2.4935317039489746094 2.9402892589569091797 2.9085612297058105469 2.7256319522857666016 2.4912276268005371094 2.4374623298645019531 2.3660171031951904297 2.41669464111328125 2.5964052677154541016 2.5592865943908691406 2.8499205112457275391 3.1792509555816650391 2.9600431919097900391 2.6666960716247558594 2.799289703369140625 2.8957602977752685547 2.8489809036254882813 2.5044567584991455078 2.4868714809417724609 3.1147153377532958984 2.6111891269683837891 1.8682340383529663086 1.6360611915588378906 1.6360611915588378906 1.7941230535507202148 1.4776235818862915039 1.4998508691787719727 1.7788313627243041992 1.7788313627243041992 1.7788313627243041992 1.6360611915588378906 1.32544708251953125 1.6360611915588378906 2.2140893936157226563 1.6264138221740722656 1.6264138221740722656 2.6419634819030761719 2.3852427005767822266 1.7766367197036743164 1.7788313627243041992 1.7788313627243041992 1.7788313627243041992 1.493291020393371582 1.0496779680252075195 1.2077505588531494141 1.2077505588531494141 1 1.0649803876876831055 1 1 1.0244803428649902344 1.3505208492279052734 1 1 1.3505208492279052734 1.4236772060394287109 1.8226679563522338867 2.0362117290496826172 2.1146028041839599609 2.0827984809875488281 2.0130670070648193359 2.0387284755706787109 2.7870330810546875 2.5804989337921142578 2.4483115673065185547 2.2635564804077148438 2.2020208835601806641 2.5807852745056152344 2.6782305240631103516 2.8641963005065917969 2.8764891624450683594 3.1816210746765136719 2.8463575839996337891 3.0858886241912841797 2.9296464920043945313 2.6138479709625244141 2.8126223087310791016 2.4285860061645507813 3.1442391872406005859 3.0235080718994140625 2.8065235614776611328 2.7274277210235595703 2.9415531158447265625 2.7018485069274902344 
2.5724604129791259766 3.0955631732940673828 3.1143467426300048828 3.2445290088653564453 3.3284821510314941406 3.3076539039611816406 3.5750517845153808594 2.9903273582458496094 3.3151988983154296875 3.0511503219604492188 2.9424502849578857422 2.9792349338531494141 2.6436755657196044922 2.4772119522094726563 2.6662907600402832031 2.7694966793060302734 2.1087331771850585938 2.0785264968872070313 2.3852427005767822266 2.1037976741790771484 2.2864003181457519531 2.3443083763122558594 2.4358081817626953125 2.5799102783203125 2.6422569751739501953 2.9837639331817626953 3.3608019351959228516 2.9173243045806884766 3.2599840164184570313 3.3442912101745605469 3.2187635898590087891 3.2191627025604248047 3.2503261566162109375 2.9508585929870605469 2.5849163532257080078 2.7877190113067626953 2.5089955329895019531 2.0895564556121826172 2.0014588832855224609 2.0009729862213134766 2.0982799530029296875 2.0361242294311523438 1.8289715051651000977 1.8982319831848144531 1.7074462175369262695 1.6360611915588378906 1.3464390039443969727 1.32544708251953125 1.32544708251953125 1.6360611915588378906 1.6360611915588378906 1.6360611915588378906 1.7788313627243041992 1.7788313627243041992 1.6360611915588378906 1.7301197052001953125 1.6360611915588378906 1.3927649259567260742 1.4776235818862915039 1.3693726062774658203 1.6360611915588378906 1.7788313627243041992 1.3771700859069824219 1.6360611915588378906 1.6360611915588378906 1.6360611915588378906 1.6360611915588378906 1.7788313627243041992 1.7788313627243041992 1.7788313627243041992 1.9619773626327514648 2.0399518013000488281 2.2129473686218261719 1.9336783885955810547 1.9273805618286132813 1.9273805618286132813 2.0399518013000488281 3.6951785087585449219 2.3157980442047119141 2.8407244682312011719 3.4669039249420166016 2.2129473686218261719 1.9574986696243286133 3.4669039249420166016 1.9273805618286132813 1.9273805618286132813 2.0399518013000488281 2.2718164920806884766 1.9273805618286132813 2.50002288818359375 5.0473923683166503906 2.2283473014831542969 3.2429821491241455078 3.2965180873870849609 2.8235731124877929688 3.8335995674133300781 4.6507844924926757813 3.2965180873870849609 2.2283473014831542969 3.2965180873870849609 4.2202396392822265625 2.7109751701354980469 2.4589929580688476563 2.6450879573822021484 2.4687595367431640625 2.5041396617889404297 2.3655922412872314453 2.2650802135467529297 2.5438811779022216797 2.6807906627655029297 2.2458884716033935547 2.1034517288208007813 2.1311099529266357422 1.8622604608535766602 2.0846240520477294922 2.5420732498168945313 2.6365025043487548828 3.1429653167724609375 3.1552755832672119141 3.0367524623870849609 2.7076389789581298828 2.5265805721282958984 2.6779429912567138672 2.3326582908630371094 2.6891684532165527344 3.1533303260803222656 2.6173098087310791016 2.6569986343383789063 2.7184979915618896484 2.7685461044311523438 3.10211181640625 2.7521593570709228516 2.7327971458435058594 2.6212506294250488281 1.9807223081588745117 2.3367245197296142578 2.4013888835906982422 2.0021266937255859375 1.8301672935485839844 1.7162407636642456055 1.7788313627243041992 1.6360611915588378906 1.7788313627243041992 1.4941315650939941406 1.6264138221740722656 1.7788313627243041992 1.1749637126922607422 1.493291020393371582 1.6360611915588378906 1.0964624881744384766 1.6360611915588378906 1.1354496479034423828 1.1561478376388549805 1.7198120355606079102 1.6360611915588378906 1.7788313627243041992 1.7788313627243041992 1.6360611915588378906 1.493291020393371582 1.493291020393371582 1.493291020393371582 1 1 1.0649803876876831055 1 1.2077505588531494141 1.0244803428649902344 1.0913536548614501953 1.2077505588531494141 1.0292847156524658203 1.1644587516784667969 1.3505208492279052734 1.8241461515426635742 1.9670412540435791016 1.779645085334777832 2.131656646728515625 1.9042626619338989258 2.1944937705993652344 2.5907537937164306641 2.0326642990112304688 2.3302199840545654297 2.4537794589996337891 2.2409648895263671875 2.0979185104370117188 2.4145247936248779297 2.9728577136993408203 3.1431875228881835938 3.4909262657165527344 3.4269814491271972656 3.1812031269073486328 3.1718907356262207031 2.8012304306030273438 2.9509210586547851563 3.4116289615631103516 2.9044957160949707031 2.9487924575805664063 2.5195806026458740234 3.1122415065765380859 2.9872076511383056641 2.5570952892303466797 
2.2170960903167724609 2.6196136474609375 3.218807220458984375 3.1805219650268554688 3.2624115943908691406 3.2365839481353759766 3.3664093017578125 2.7808289527893066406 3.1853632926940917969 2.9658136367797851563 2.8319432735443115234 3.0621790885925292969 2.4283695220947265625 2.4577627182006835938 2.3710892200469970703 2.5577118396759033203 2.3780260086059570313 2.6153576374053955078 2.0270061492919921875 2.1287503242492675781 2.2189738750457763672 2.6201295852661132813 2.7623803615570068359 2.6547062397003173828 2.6291186809539794922 2.7646892070770263672 2.9384806156158447266 3.1975545883178710938 3.1895124912261962891 3.2799856662750244141 3.2583448886871337891 3.6589951515197753906 3.3424274921417236328 2.8950905799865722656 2.8817551136016845703 3.0340781211853027344 2.1475348472595214844 2.3739845752716064453 1.9241182804107666016 2.2677135467529296875 2.6419634819030761719 2.0994522571563720703 1.8582468032836914063 1.414248347282409668 1.8802344799041748047 1.7788313627243041992 1.6264138221740722656 1.6360611915588378906 1.6360611915588378906 1.3505305051803588867 1.493291020393371582 1.6360611915588378906 1.7788313627243041992 1.7788313627243041992 1.6578775644302368164 1.6360611915588378906 1.6360611915588378906 1.32544708251953125 1.6360611915588378906 1.6264138221740722656 1.7788313627243041992 1.6264138221740722656 1.5175237655639648438 1.6360611915588378906 1.6360611915588378906 1.32544708251953125 1.6360611915588378906 1.6360611915588378906 1.32544708251953125 1.32544708251953125 1.7644934654235839844 2.1317989826202392578 1.9121928215026855469 2.50002288818359375 1.9273805618286132813 3.4669039249420166016 2.2283473014831542969 2.2283473014831542969 4.6507844924926757813 2.8220388889312744141 1.9273805618286132813 2.2718164920806884766 2.2129473686218261719 2.0399518013000488281 1.9574986696243286133 2.8220388889312744141 1.9697748422622680664 2.0399518013000488281 3.8335995674133300781 3.8335995674133300781 3.9891257286071777344 2.7692322731018066406 3.4669039249420166016 2.2129473686218261719 1.9273805618286132813 1.9619773626327514648 1.9849596023559570313 2.986942291259765625 2.2376058101654052734 3.4669039249420166016 2.0729689598083496094 2.7140879631042480469 3.2395925521850585938 2.6419634819030761719 2.7484343051910400391 2.7003257274627685547 2.7763888835906982422 2.7625722885131835938 2.9100060462951660156 2.5200040340423583984 2.3987135887145996094 2.3765041828155517578 1.9000295400619506836 2.08548736572265625 2.2650110721588134766 2.9260981082916259766 2.8238124847412109375 2.9541270732879638672 3.0155646800994873047 2.7433071136474609375 2.8299343585968017578 2.7783410549163818359 2.4691462516784667969 2.4153940677642822266 2.7761926651000976563 2.8150181770324707031 2.9604127407073974609 2.780902862548828125 2.5243558883666992188 2.5728075504302978516 2.8530077934265136719 2.8243560791015625 2.6085958480834960938 2.4674296379089355469 2.2692520618438720703 2.6248955726623535156 2.5629174709320068359 1.6108753681182861328 1.7707046270370483398 1.6360611915588378906 1.4399900436401367188 1.5718882083892822266 1.32544708251953125 1.7788313627243041992 1.32544708251953125 1.6360611915588378906 1.493291020393371582 1.3505208492279052734 1.493291020393371582 1.0244803428649902344 1.32544708251953125 1 1.0244803428649902344 1.0244803428649902344 1.493291020393371582 1.493291020393371582 1.493291020393371582 1.6360611915588378906 1.493291020393371582 1.493291020393371582 1.493291020393371582 1.3505208492279052734 1.2077505588531494141 1 1.2077505588531494141 1.2791357040405273438 1.2106714248657226563 1.0244803428649902344 1 1 1.0649803876876831055 1.1053137779235839844 1.549103856086730957 1.7370942831039428711 1.7527879476547241211 1.9873524904251098633 2.0902006626129150391 1.9957212209701538086 2.16355133056640625 1.877063751220703125 2.3556222915649414063 2.5457763671875 2.2354815006256103516 2.043914794921875 2.5615293979644775391 2.7584578990936279297 2.9145073890686035156 2.8374254703521728516 3.3839595317840576172 3.0793845653533935547 3.3263368606567382813 3.0712149143218994141 3.2351813316345214844 3.2615826129913330078 2.8105943202972412109 9.5004434585571289063 2.5695269107818603516 2.7352492809295654297 2.5608651638031005859 2.7106604576110839844 
2.6664152145385742188 2.7811360359191894531 2.9062178134918212891 2.8247911930084228516 3.0585868358612060547 3.077693939208984375 3.0499837398529052734 2.9046254158020019531 2.8445837497711181641 3.0452294349670410156 2.3496456146240234375 2.7687022686004638672 2.5691812038421630859 2.7455196380615234375 2.3364288806915283203 2.5327503681182861328 2.7374091148376464844 2.3277394771575927734 2.5642087459564208984 2.4000544548034667969 2.4221050739288330078 2.9483265876770019531 2.9123036861419677734 3.0548682212829589844 2.8878397941589355469 2.8961670398712158203 2.6404943466186523438 2.8279983997344970703 3.5265138149261474609 3.3845067024230957031 3.5413632392883300781 3.2509365081787109375 2.9444932937622070313 3.0561516284942626953 2.6992752552032470703 2.2040359973907470703 2.0162382125854492188 1.7074314355850219727 2.0249602794647216797 2.1920208930969238281 2.2310795783996582031 2.0911440849304199219 1.6971708536148071289 1.6758942604064941406 1.6264138221740722656 1.7074462175369262695 1.7788313627243041992 1.7788313627243041992 1.7788313627243041992 1.6266878843307495117 1.6360611915588378906 1.6360611915588378906 1.7788313627243041992 1.6264138221740722656 1.7788313627243041992 1.32544708251953125 1.6360611915588378906 1.5158232450485229492 1.6360611915588378906 1.4785366058349609375 1.6360611915588378906 1.32544708251953125 1.3303854465484619141 1.3258135318756103516 1.6360611915588378906 1.3693726062774658203 1.493291020393371582 1.3505208492279052734 1 1.3474953174591064453 1.6734724044799804688 3.4669039249420166016 1.9408777952194213867 3.2429821491241455078 2.2718164920806884766 1.9273805618286132813 3.2965180873870849609 3.4669039249420166016 1.9273805618286132813 1.9849596023559570313 2.2129473686218261719 1.9273805618286132813 1.9273805618286132813 2.8220388889312744141 1.9541800022125244141 1.9574986696243286133 1.9849596023559570313 2.2283473014831542969 2.4659085273742675781 4.1048259735107421875 3.2429821491241455078 3.9891257286071777344 4.26065826416015625 3.4669039249420166016 4.1445622444152832031 2.9318671226501464844 2.9318671226501464844 3.2518346309661865234 2.4260423183441162109 3.4669039249420166016 2.3558084964752197266 2.5380349159240722656 2.4932394027709960938 2.5703349113464355469 2.4193286895751953125 2.7497768402099609375 2.9536244869232177734 2.6882271766662597656 2.6529760360717773438 2.3830726146697998047 2.0128331184387207031 1.8990706205368041992 2.2440335750579833984 2.0944285392761230469 2.1615555286407470703 2.6453497409820556641 2.6969614028930664063 2.7691550254821777344 3.0084722042083740234 2.7153573036193847656 3.1122505664825439453 2.9904749393463134766 2.7281374931335449219 3.1318609714508056641 2.7017984390258789063 2.8292315006256103516 2.8165769577026367188 2.591991424560546875 2.1364259719848632813 2.3152942657470703125 2.9782214164733886719 2.8075108528137207031 2.9478726387023925781 2.6223390102386474609 2.4546322822570800781 2.5368752479553222656 2.318927764892578125 2.2682385444641113281 1.6284846067428588867 1.32544708251953125 1.6203050613403320313 1.6264138221740722656 1.4187121391296386719 1.32544708251953125 1.32544708251953125 1.0439506769180297852 1 1 1.493291020393371582 1.493291020393371582 1.0730701684951782227 1.3505208492279052734 1 1.3505208492279052734 1.493291020393371582 1.6360611915588378906 1.422367095947265625 1.400562286376953125 1.6360611915588378906 1.2077505588531494141 1.0244803428649902344 1 1.3505208492279052734 1 1.2077505588531494141 1.0244803428649902344 1 1.3505208492279052734 1 1 1.0220358371734619141 1.2110502719879150391 1.7269786596298217773 1.4582172632217407227 1.7640078067779541016 1.7941988706588745117 2.150238037109375 2.4519526958465576172 2.1690165996551513672 2.1054899692535400391 2.4835600852966308594 2.1572701930999755859 2.3195490837097167969 2.3462734222412109375 2.6675009727478027344 2.4742259979248046875 2.7201659679412841797 2.8982248306274414063 3.1153299808502197266 2.7684342861175537109 2.9700040817260742188 2.9702615737915039063 3.2224915027618408203 3.3199570178985595703 2.9953105449676513672 2.9893145561218261719 2.5824460983276367188 2.3493306636810302734 2.6951329708099365234 2.7722985744476318359 
2.2231860160827636719 2.6246142387390136719 2.7797946929931640625 2.7134716510772705078 3.1395282745361328125 2.9350497722625732422 2.8615305423736572266 2.9187548160552978516 2.9749009609222412109 3.3393533229827880859 2.9299325942993164063 2.8834581375122070313 2.8450644016265869141 2.670642852783203125 2.3495543003082275391 2.7064924240112304688 2.6630077362060546875 2.6419634819030761719 2.5047664642333984375 2.5475761890411376953 2.5956933498382568359 2.7872910499572753906 3.0154311656951904297 3.3923218250274658203 3.2533380985260009766 3.3548901081085205078 2.9467792510986328125 3.3511667251586914063 3.2811725139617919922 3.5117189884185791016 3.5065088272094726563 3.2216546535491943359 2.9447226524353027344 3.0533587932586669922 2.5210690498352050781 2.3948638439178466797 1.8868147134780883789 2.2647454738616943359 2.25437164306640625 2.1927473545074462891 2.6594743728637695313 1.809389948844909668 1.8144758939743041992 1.9792325496673583984 1.6360611915588378906 1.6360611915588378906 1.7074462175369262695 1.7586873769760131836 1.6264138221740722656 1.6425864696502685547 1.7788313627243041992 1.6264138221740722656 1.4707392454147338867 1.7788313627243041992 1.6264138221740722656 1.6360611915588378906 1.3381829261779785156 1.6360611915588378906 1.6360611915588378906 1.6360611915588378906 1.0244803428649902344 1.32544708251953125 1.493291020393371582 1.0878245830535888672 1.3459802865982055664 1.6360611915588378906 1.493291020393371582 1.493291020393371582 1.6360611915588378906 1.6360611915588378906 1.7788313627243041992 1.7198120355606079102 1.9273805618286132813 2.8220388889312744141 2.0283679962158203125 3.6493880748748779297 1.9336783885955810547 1.9336783885955810547 3.2429821491241455078 1.9619773626327514648 1.9273805618286132813 1.9273805618286132813 1.9273805618286132813 3.2965180873870849609 1.9336783885955810547 2.3064684867858886719 3.2429821491241455078 3.6493880748748779297 3.9891257286071777344 2.2283473014831542969 2.2283473014831542969 3.8335995674133300781 2.2718164920806884766 1.9697748422622680664 1.9849596023559570313 1.9697748422622680664 2.8220388889312744141 2.3295331001281738281 2.8220388889312744141 1.9992345571517944336 3.0927255153656005859 3.6951785087585449219 2.6517469882965087891 3.8335995674133300781 2.3071558475494384766 2.7840752601623535156 2.74723052978515625 2.7431607246398925781 2.3053033351898193359 2.2071104049682617188 2.0102622509002685547 2.1402351856231689453 1.8728795051574707031 2.1983990669250488281 2.6464977264404296875 2.7181127071380615234 3.0345952510833740234 3.2189352512359619141 3.0517711639404296875 2.9324438571929931641 3.1049938201904296875 3.0100405216217041016 2.3928048610687255859 2.4202997684478759766 2.7026369571685791016 2.4298291206359863281 2.5534169673919677734 2.4892108440399169922 2.0286393165588378906 2.6637959480285644531 2.8060925006866455078 2.7947950363159179688 2.7345225811004638672 2.7347223758697509766 2.1815900802612304688 2.3317015171051025391 1.8868134021759033203 1.9224019050598144531 1.5616807937622070313 1.6360611915588378906 1.8059865236282348633 1.7191399335861206055 1.4421354532241821289 1.7212169170379638672 1.493291020393371582 1 1.2077505588531494141 1 1.3505208492279052734 1.4219058752059936523 1.0645740032196044922 1.3505208492279052734 1 1.493291020393371582 1 1.32544708251953125 1.6360611915588378906 1.4776235818862915039 1.4219058752059936523 1.2081929445266723633 1.0244803428649902344 1 1.3505208492279052734 1.2077505588531494141 1.2077505588531494141 1.0027761459350585938 1.2077505588531494141 1 1.3505208492279052734 1.3070180416107177734 1.2749447822570800781 1.0762953758239746094 1.4309579133987426758 1.6001096963882446289 1.6524142026901245117 1.9560054540634155273 2.4628415107727050781 2.5048794746398925781 2.4159085750579833984 2.5681684017181396484 2.3501629829406738281 2.0517232418060302734 2.1407849788665771484 2.0994679927825927734 1.9632261991500854492 2.6746277809143066406 2.6458303928375244141 2.9921584129333496094 2.8273549079895019531 2.9296030998229980469 2.8187344074249267578 2.6999330520629882813 3.0771188735961914063 2.9060831069946289063 2.7597575187683105469 2.986232757568359375 3.1490185260772705078 2.8712766170501708984 2.5409674644470214844 2.5952680110931396484 
2.5892002582550048828 2.6598649024963378906 2.3769688606262207031 2.4479744434356689453 2.3246247768402099609 2.3899776935577392578 2.9332914352416992188 2.8073208332061767578 2.9559655189514160156 2.8822543621063232422 3.0851244926452636719 2.7310569286346435547 2.9122858047485351563 2.3230664730072021484 2.4733462333679199219 2.8049380779266357422 2.9492902755737304688 2.7813177108764648438 2.6748037338256835938 2.5779805183410644531 2.8150527477264404297 2.7783656120300292969 3.0916795730590820313 3.0439648628234863281 3.1307623386383056641 3.1166727542877197266 3.1019186973571777344 3.1817169189453125 3.1508200168609619141 3.3158011436462402344 3.3684468269348144531 3.1178863048553466797 2.8640995025634765625 2.6067028045654296875 2.5426836013793945313 2.2474167346954345703 2.2140965461730957031 2.3852698802947998047 2.4145197868347167969 1.8555768728256225586 2.1785371303558349609 1.7788313627243041992 1.7788313627243041992 1.694403529167175293 1.6360611915588378906 1.6264138221740722656 1.6360611915588378906 1.7788313627243041992 1.6734724044799804688 1.6264138221740722656 1.6264138221740722656 1.6360611915588378906 1.6264138221740722656 1.7788313627243041992 1.6264138221740722656 1.3927649259567260742 1.493291020393371582 1.0244803428649902344 1.0244803428649902344 1.4219058752059936523 1 1.3505208492279052734 1 1.493291020393371582 1.5646760463714599609 1.1957230567932128906 1.6360611915588378906 1.2706056833267211914 1.3601235151290893555 1.4357621669769287109 1.7788313627243041992 1.9273805618286132813 2.6419634819030761719 3.4669039249420166016 2.50002288818359375 1.9619773626327514648 2.2129473686218261719 2.8430445194244384766 3.0927255153656005859 1.9849596023559570313 2.6419634819030761719 1.9273805618286132813 2.2129473686218261719 1.9273805618286132813 1.9273805618286132813 1.9849596023559570313 3.2965180873870849609 2.3157980442047119141 2.0399518013000488281 2.7692322731018066406 4.26065826416015625 3.0927255153656005859 2.986942291259765625 1.9273805618286132813 3.4669039249420166016 2.2129473686218261719 1.9273805618286132813 2.1465158462524414063 1.9424921274185180664 3.6493880748748779297 2.5041582584381103516 2.2283473014831542969 5.0473923683166503906 3.6951785087585449219 2.8220388889312744141 1.9865688085556030273 2.3193712234497070313 2.4971349239349365234 2.2741935253143310547 2.3123903274536132813 2.3290624618530273438 2.1573870182037353516 2.2727153301239013672 2.2608189582824707031 2.7567579746246337891 2.6404087543487548828 2.9798936843872070313 2.7361214160919189453 2.6904444694519042969 2.8945631980895996094 2.7367656230926513672 2.6024615764617919922 2.6519010066986083984 2.7149522304534912109 2.7104125022888183594 2.8115494251251220703 2.7640440464019775391 2.4577741622924804688 2.9340941905975341797 3.1427185535430908203 2.87763214111328125 2.5311291217803955078 2.4298017024993896484 2.0260984897613525391 2.3431563377380371094 2.6161425113677978516 2.0972418785095214844 1.9760261774063110352 1.7539499998092651367 1.7018792629241943359 1.1907995939254760742 1.6873557567596435547 1.7413107156753540039 1.8100897073745727539 1.3505208492279052734 1.3505208492279052734 1.4492403268814086914 1 1.3505208492279052734 1.254918217658996582 1.3505208492279052734 1.2077505588531494141 1.3505208492279052734 1 1.6215499639511108398 1.3209409713745117188 1.6360611915588378906 1.0730701684951782227 1.3505208492279052734 1 1.3505208492279052734 1 1.3505208492279052734 1 1.2077505588531494141 1 1.2077505588531494141 1.1152762174606323242 1.2657579183578491211 1.2520253658294677734 1 1 1.1391142606735229492 1.3696751594543457031 1.9406646490097045898 2.2662301063537597656 2.4788978099822998047 2.5119218826293945313 2.40850830078125 2.3111572265625 2.2172837257385253906 2.2669653892517089844 2.0093982219696044922 2.4997425079345703125 2.3077404499053955078 2.2541036605834960938 2.1858532428741455078 2.5035517215728759766 2.3320550918579101563 2.7958202362060546875 2.8897194862365722656 2.8419766426086425781 3.0034923553466796875 9.6079893112182617188 2.8558838367462158203 2.8780050277709960938 9.6615686416625976563 2.8618979454040527344 2.9560506343841552734 2.4854607582092285156 
2.9798939228057861328 2.7988092899322509766 2.2905116081237792969 2.20716094970703125 2.1237676143646240234 2.4423358440399169922 2.4177987575531005859 2.4255678653717041016 2.5330998897552490234 2.3939275741577148438 2.4304234981536865234 2.6587078571319580078 2.9422423839569091797 2.7090868949890136719 2.5853056907653808594 3.2030560970306396484 2.9907696247100830078 3.1300997734069824219 3.0754449367523193359 2.7903733253479003906 2.3593599796295166016 3.1739313602447509766 3.2152788639068603516 3.2610852718353271484 3.3073966503143310547 3.1183226108551025391 3.1285238265991210938 3.0544281005859375 3.2204265594482421875 3.4151892662048339844 3.1924355030059814453 3.3277666568756103516 2.813442230224609375 2.7448983192443847656 2.7099044322967529297 2.2853100299835205078 1.7993999719619750977 2.1252505779266357422 1.7441443204879760742 2.0364711284637451172 1.7860915660858154297 1.6293581724166870117 1.7788313627243041992 1.7788313627243041992 1.6264138221740722656 1.9560384750366210938 1.7788313627243041992 1.6293581724166870117 1.7046622037887573242 1.8802344799041748047 1.4083597660064697266 1.6425864696502685547 1.3474953174591064453 1.6360611915588378906 1.6360611915588378906 1.3303854465484619141 1.0439506769180297852 1.5111093521118164063 1.0244803428649902344 1.3505208492279052734 1.2077505588531494141 1.2077505588531494141 1 1 1.6360611915588378906 1.6360611915588378906 1.6360611915588378906 1.6360611915588378906 1.32544708251953125 1.6425864696502685547 1.6264138221740722656 1.7788313627243041992 1.9273805618286132813 1.9273805618286132813 2.6419634819030761719 1.9273805618286132813 1.9273805618286132813 1.9681315422058105469 2.0399518013000488281 2.8220388889312744141 1.9273805618286132813 1.9273805618286132813 1.9273805618286132813 1.9273805618286132813 1.9273805618286132813 1.9444774389266967773 1.9849596023559570313 3.6493880748748779297 2.3157980442047119141 5.0473923683166503906 1.9697748422622680664 2.0399518013000488281 2.2718164920806884766 2.0033643245697021484 3.4669039249420166016 2.9745817184448242188 1.8138262033462524414 2.0033643245697021484 1.9273805618286132813 3.6493880748748779297 2.2283473014831542969 2.2283473014831542969 2.2718164920806884766 1.9697748422622680664 2.2129473686218261719 2.1491262912750244141 2.4828722476959228516 2.0663824081420898438 1.9589115381240844727 2.3416535854339599609 1.950984954833984375 2.2368798255920410156 2.0998444557189941406 2.3316092491149902344 2.4639134407043457031 2.390056610107421875 2.0975666046142578125 2.9187867641448974609 2.4626519680023193359 2.2346551418304443359 2.3086230754852294922 2.4644749164581298828 2.330905914306640625 2.6261572837829589844 2.4707040786743164063 2.8360297679901123047 3.1203446388244628906 2.9292852878570556641 3.2143428325653076172 2.9348151683807373047 3.1693758964538574219 2.8427662849426269531 3.0467896461486816406 2.2751421928405761719 1.7748092412948608398 2.3073544502258300781 1.5858097076416015625 1.4759910106658935547 2.0750811100006103516 2.1026537418365478516 1.1518018245697021484 1.2978900671005249023 1.3577808141708374023 1.9268401861190795898 1.571313023567199707 1.3505208492279052734 1.5355551242828369141 1.364551544189453125 1.3505208492279052734 1.1927406787872314453 1.1989274024963378906 1 1.1435681581497192383 1.5554075241088867188 1.3505208492279052734 1.3505208492279052734 1.3505208492279052734 1.3505208492279052734 1.4526933431625366211 1.548970341682434082 1.3930579423904418945 1 1.3505208492279052734 1.0225081443786621094 1.1850146055221557617 1.2875784635543823242 1.2000592947006225586 1.296017765998840332 1.6691545248031616211 1.4728046655654907227 1.3735883235931396484 1.4202334880828857422 1.4856358766555786133 1.5535682439804077148 1.6062935590744018555 2.2152035236358642578 2.3155906200408935547 2.3492529392242431641 2.0675005912780761719 2.5428850650787353516 2.6637661457061767578 2.3289849758148193359 2.3204221725463867188 2.0501236915588378906 2.313892364501953125 2.1285271644592285156 2.3328163623809814453 2.2292470932006835938 2.2827765941619873047 2.8166117668151855469 2.7191622257232666016 2.6905810832977294922 2.7839095592498779297 2.9927489757537841797 9.5791759490966796875 3.1467401981353759766 3.0811414718627929688 2.7564177513122558594 2.9138662815093994141 2.9440054893493652344 
3.2041013240814208984 2.7082006931304931641 2.8100957870483398438 2.8333916664123535156 2.8068180084228515625 2.2677710056304931641 2.2641119956970214844 2.2950334548950195313 2.2331421375274658203 2.4333164691925048828 2.4729363918304443359 2.4165623188018798828 2.787616729736328125 3.149303436279296875 2.6970684528350830078 3.4913613796234130859 2.713253021240234375 2.7163584232330322266 2.7473266124725341797 2.843109130859375 2.92990875244140625 2.9314675331115722656 3.29804229736328125 3.3713197708129882813 2.9578557014465332031 2.7513880729675292969 2.7729861736297607422 2.842071533203125 2.7066068649291992188 3.1445477008819580078 3.7617733478546142578 3.3368854522705078125 3.1791589260101318359 2.7857432365417480469 2.8304800987243652344 2.5018253326416015625 2.131317138671875 2.1803143024444580078 1.9308958053588867188 2.1098875999450683594 1.9502855539321899414 1.7990747690200805664 1.7282527685165405273 2.1566908359527587891 1.7788313627243041992 1.5498743057250976563 1.332532048225402832 1.7788313627243041992 1.6264138221740722656 1.6555681228637695313 1.6264138221740722656 1.6360611915588378906 1.6360611915588378906 1.32544708251953125 1.5646760463714599609 1.2865890264511108398 1 1.493291020393371582 1 1.2077505588531494141 1 1.0244803428649902344 1 1.2791357040405273438 1.3505208492279052734 1.493291020393371582 1.6360611915588378906 1.4759304523468017578 2.1179823875427246094 1.6360611915588378906 1.6360611915588378906 1.7904338836669921875 1.7788313627243041992 1.9372781515121459961 1.9273805618286132813 1.9273805618286132813 1.9273805618286132813 2.2718164920806884766 2.0283679962158203125 2.8220388889312744141 1.9273805618286132813 1.9273805618286132813 1.9273805618286132813 1.9273805618286132813 2.4766926765441894531 1.9273805618286132813 1.9273805618286132813 2.2283473014831542969 2.2283473014831542969 3.6815922260284423828 1.9541800022125244141 1.9273805618286132813 2.6419634819030761719 1.9273805618286132813 2.6414442062377929688 1.9849596023559570313 1.9541800022125244141 1.9943124055862426758 1.9273805618286132813 3.2518346309661865234 4.1445622444152832031 5.0473923683166503906 2.2129473686218261719 1.9408777952194213867 1.9273805618286132813 1.9273805618286132813 2.0823016166687011719 2.5958118438720703125 2.2198951244354248047 2.2746133804321289063 2.2647318840026855469 2.2769820690155029297 2.4598364830017089844 2.4540433883666992188 2.1503617763519287109 2.2840819358825683594 2.7339189052581787109 2.6104254722595214844 2.4345378875732421875 2.17142486572265625 2.2720875740051269531 2.3442273139953613281 2.4692482948303222656 2.9207611083984375 2.8555908203125 2.8594901561737060547 2.9379875659942626953 3.1872525215148925781 2.9894306659698486328 3.0097317695617675781 3.0620944499969482422 3.1617426872253417969 3.0865304470062255859 2.4774043560028076172 1.8353506326675415039 1.8538825511932373047 1.6360611915588378906 1.7182585000991821289 1.4933369159698486328 1.8061500787734985352 1.493291020393371582 1.5324110984802246094 1.493291020393371582 1.7156465053558349609 2.0484697818756103516 1.493291020393371582 1.3155949115753173828 1.4702266454696655273 1.9071735143661499023 1.2744145393371582031 1.2508502006530761719 1.3013868331909179688 1.7399408817291259766 1.5588506460189819336 1 1.2015967369079589844 1.3505208492279052734 1.6006231307983398438 1.6916216611862182617 1.4536149501800537109 1.5477401018142700195 1.3505208492279052734 1.2077505588531494141 1.4828777313232421875 1 1.5151392221450805664 1.5789051055908203125 1.6491657495498657227 1.573199152946472168 1.6161168813705444336 1.6798583269119262695 2.0533611774444580078 2.1412005424499511719 2.5531427860260009766 8.8365449905395507813 2.2911777496337890625 2.3725271224975585938 2.1593062877655029297 2.5305078029632568359 2.1100847721099853516 2.2146356105804443359 2.4223124980926513672 2.3732571601867675781 2.4803256988525390625 2.3291156291961669922 2.3104579448699951172 2.1940484046936035156 2.4259331226348876953 2.8417880535125732422 2.7276513576507568359 2.7516627311706542969 2.84879302978515625 2.8184962272644042969 2.9276030063629150391 9.9164667129516601563 3.1030929088592529297 3.1104075908660888672 3.0699994564056396484 3.1807055473327636719 2.638973236083984375 
2.7430908679962158203 2.6934838294982910156 2.6056194305419921875 2.6917803287506103516 2.7520794868469238281 2.7860689163208007813 2.6472544670104980469 2.1899943351745605469 2.3584361076354980469 2.3796899318695068359 2.4259150028228759766 2.8121390342712402344 2.8026950359344482422 2.9619135856628417969 2.7727985382080078125 3.2145438194274902344 2.7516167163848876953 2.7034394741058349609 2.5126907825469970703 3.0612928867340087891 3.1377513408660888672 3.0924479961395263672 3.1195671558380126953 2.9147539138793945313 2.5671432018280029297 2.7381732463836669922 2.4720098972320556641 2.3819568157196044922 2.8368206024169921875 3.0898835659027099609 3.5769867897033691406 3.3928296566009521484 3.1186280250549316406 2.758266448974609375 2.6630651950836181641 2.1946218013763427734 2.2093083858489990234 1.8935543298721313477 2.0220472812652587891 1.6953833103179931641 1.8566635847091674805 2.1817402839660644531 1.6360611915588378906 1.6360611915588378906 1.7324749231338500977 1.7129253149032592773 1.9926146268844604492 1.6266878843307495117 1.8792455196380615234 1.3505305051803588867 1.6264138221740722656 1.6360611915588378906 1.7788313627243041992 1.6360611915588378906 1.3608940839767456055 1.1588419675827026367 1.493291020393371582 1.3505208492279052734 1 1.3505208492279052734 1 1 1.0649803876876831055 1.2077505588531494141 1 1.3505208492279052734 1.493291020393371582 1.6360611915588378906 1.6360611915588378906 1.0730701684951782227 1.5646760463714599609 1.32544708251953125 1.4785366058349609375 2.6419634819030761719 2.4411988258361816406 2.2305238246917724609 1.9273805618286132813 1.7788313627243041992 3.2348196506500244141 2.6419634819030761719 3.4669039249420166016 1.9849596023559570313 3.2348196506500244141 1.9273805618286132813 1.9273805618286132813 2.2718164920806884766 3.6493880748748779297 5.0473923683166503906 2.6967334747314453125 2.986942291259765625 1.9273805618286132813 1.9574986696243286133 1.9273805618286132813 1.9273805618286132813 4.5609211921691894531 2.2129473686218261719 1.9849596023559570313 1.9273805618286132813 2.2129473686218261719 3.0927255153656005859 3.6951785087585449219 2.2283473014831542969 2.2283473014831542969 2.986942291259765625 2.2129473686218261719 2.8220388889312744141 4.1445622444152832031 2.6419634819030761719 2.6419634819030761719 2.4468438625335693359 2.2210226058959960938 2.1759638786315917969 2.3107089996337890625 2.344928741455078125 2.3190257549285888672 2.0952138900756835938 2.1690752506256103516 2.5124158859252929688 2.3533053398132324219 2.8762369155883789063 2.5108425617218017578 2.5574102401733398438 2.3198575973510742188 2.7659249305725097656 2.595699310302734375 2.4307072162628173828 2.7717788219451904297 2.7002530097961425781 3.3444871902465820313 3.2691881656646728516 3.2284021377563476563 2.9566698074340820313 2.8646366596221923828 2.9105267524719238281 2.4669849872589111328 2.0575737953186035156 1.6425864696502685547 1.6360611915588378906 2.0170524120330810547 1.6360611915588378906 1.6462790966033935547 1.3505208492279052734 1.493291020393371582 1.3703808784484863281 1.9278411865234375 1.4954680204391479492 1.7441165447235107422 1.3529508113861083984 1.8324326276779174805 1.4927495718002319336 1.86226654052734375 1.2007187604904174805 1.6867852210998535156 1.4670991897583007813 1.6692310571670532227 1.5608112812042236328 1.8082212209701538086 1.6469522714614868164 1.8489477634429931641 2.0451190471649169922 1.5285329818725585938 1.6153645515441894531 1.2077505588531494141 1.2783521413803100586 1.1016088724136352539 1.3323180675506591797 1.2318979501724243164 1.5434554815292358398 1.8763940334320068359 2.1565635204315185547 1.9280278682708740234 2.1539392471313476563 2.5920436382293701172 2.5421795845031738281 2.3871562480926513672 2.5743708610534667969 2.5991704463958740234 2.1627202033996582031 2.6691281795501708984 2.4036593437194824219 2.4592328071594238281 2.1911013126373291016 2.2127947807312011719 2.1321022510528564453 2.2564671039581298828 2.1161196231842041016 2.5202841758728027344 2.4459517002105712891 2.4913015365600585938 9.2547292709350585938 2.766437530517578125 3.1560201644897460938 2.7668411731719970703 3.2737183570861816406 2.9297966957092285156 3.0154318809509277344 2.8723492622375488281 2.6769742965698242188 2.8539514541625976563 3.2100293636322021484 
2.6466877460479736328 2.6896748542785644531 2.6311974525451660156 2.6683428287506103516 2.8302037715911865234 2.6982603073120117188 2.4356057643890380859 2.6147174835205078125 2.7984652519226074219 2.6263806819915771484 2.4412801265716552734 2.2408573627471923828 2.8397588729858398438 2.7871856689453125 2.4227888584136962891 2.5193765163421630859 2.6419634819030761719 2.8441185951232910156 2.8844151496887207031 3.3110623359680175781 3.2546672821044921875 3.3221442699432373047 3.1736238002777099609 2.7211718559265136719 2.6656644344329833984 2.9238097667694091797 2.8093998432159423828 2.8378591537475585938 3.1168689727783203125 3.2618756294250488281 3.2421028614044189453 3.0716283321380615234 3.0548036098480224609 2.9532802104949951172 2.6419634819030761719 2.3314971923828125 1.9471775293350219727 1.9149097204208374023 1.9458487033843994141 1.9439853429794311523 2.4902510643005371094 2.2083098888397216797 2.1180109977722167969 1.7529008388519287109 1.6263141632080078125 1.4797934293746948242 1.8102124929428100586 1.7868973016738891602 1.6653543710708618164 1.6264138221740722656 1.4189243316650390625 1.5346662998199462891 1.6264138221740722656 1.1276929378509521484 1 1.3505208492279052734 1.3459802865982055664 1.0244803428649902344 1.2791357040405273438 1.3505208492279052734 1 1 1 1 1.3505208492279052734 1.5646760463714599609 1.493291020393371582 1.6360611915588378906 1.3927649259567260742 1.3771700859069824219 1.6360611915588378906 1.7525779008865356445 1.7202570438385009766 1.6264138221740722656 1.6578775644302368164 1.7872604131698608398 1.7788313627243041992 1.9273805618286132813 2.6419634819030761719 2.8938577175140380859 2.2718164920806884766 1.9273805618286132813 1.7696378231048583984 1.7644934654235839844 2.8220388889312744141 2.7390532493591308594 3.2965180873870849609 3.4669039249420166016 1.9619773626327514648 2.986942291259765625 1.9619773626327514648 3.4669039249420166016 3.7028245925903320313 3.4669039249420166016 3.6815922260284423828 3.6493880748748779297 2.2718164920806884766 1.9273805618286132813 2.1039917469024658203 3.4669039249420166016 3.6815922260284423828 2.6967334747314453125 2.4118311405181884766 3.6674742698669433594 2.8220388889312744141 2.8871884346008300781 3.4669039249420166016 2.5525403022766113281 2.5847141742706298828 2.7023274898529052734 2.8162789344787597656 2.1562178134918212891 2.1997029781341552734 2.4720814228057861328 1.9454320669174194336 2.0811872482299804688 2.0212359428405761719 2.6130454540252685547 2.5722026824951171875 2.41434478759765625 1.921904444694519043 2.3714797496795654297 2.3063600063323974609 2.9039318561553955078 2.8187558650970458984 2.6018807888031005859 2.915973663330078125 2.7134747505187988281 2.8836092948913574219 2.748973846435546875 2.6531467437744140625 2.8071172237396240234 2.5922009944915771484 2.4084613323211669922 2.1891348361968994141 2.1248483657836914063 1.7656244039535522461 1.6273993253707885742 1.2884047031402587891 1.5402903556823730469 1.8329756259918212891 2.5484254360198974609 1.5978147983551025391 1.9353662729263305664 1.718466639518737793 2.3385014533996582031 2.4111244678497314453 2.3542368412017822266 2.1361076831817626953 1.9353510141372680664 1.8494334220886230469 2.0593252182006835938 1.6255875825881958008 1.2793647050857543945 2.0824177265167236328 1.6505267620086669922 1.7210423946380615234 1.994095921516418457 2.4245190620422363281 2.1781351566314697266 1.5694445371627807617 1.8883072137832641602 1.7465465068817138672 1.4147092103958129883 1.4612597227096557617 1.6230252981185913086 1.5940186977386474609 1.9736427068710327148 2.0604355335235595703 1.8049508333206176758 1.9793061017990112305 2.4701211452484130859 2.6661746501922607422 2.7075142860412597656 2.6338410377502441406 2.7478375434875488281 2.7758998870849609375 9.3270635604858398438 2.6716506481170654297 2.5795450210571289063 2.1271238327026367188 1.6831908226013183594 1.8931143283843994141 1.9195104837417602539 2.1001842021942138672 2.5493988990783691406 2.4402623176574707031 2.1967005729675292969 2.2878870964050292969 2.3613302707672119141 2.5521147251129150391 3.1447794437408447266 2.3132040500640869141 3.1591546535491943359 3.1951305866241455078 3.1031091213226318359 2.9775662422180175781 2.4281265735626220703 2.8715271949768066406 2.7749814987182617188 
2.3325324058532714844 2.4087500572204589844 2.0692808628082275391 2.3476009368896484375 2.3505382537841796875 2.6969025135040283203 2.5973308086395263672 2.6425757408142089844 2.8275685310363769531 2.9026856422424316406 2.0815548896789550781 2.1866633892059326172 2.4902052879333496094 2.3638849258422851563 2.6419634819030761719 2.3721888065338134766 2.8938577175140380859 2.6059329509735107422 2.9546904563903808594 3.2331435680389404297 3.3469033241271972656 3.0704846382141113281 2.9759821891784667969 2.6831462383270263672 2.4680941104888916016 2.6354031562805175781 2.9362173080444335938 2.7429456710815429688 2.7978167533874511719 3.1568419933319091797 3.2790453433990478516 3.1344623565673828125 3.1971764564514160156 2.7437777519226074219 2.6903235912322998047 2.3846650123596191406 1.781193852424621582 1.8334861993789672852 1.5052243471145629883 2.2807581424713134766 2.5412945747375488281 1.9080888032913208008 1.9383845329284667969 2.0689096450805664063 1.9002469778060913086 1.4430385828018188477 1.8077667951583862305 1.493291020393371582 1.7011594772338867188 1.301849365234375 1.2876794338226318359 1.6360611915588378906 1.7074462175369262695 1 1.6536011695861816406 1.2077505588531494141 1.32544708251953125 1.6360611915588378906 1.4219058752059936523 1.4219058752059936523 1.3505208492279052734 1.3505208492279052734 1 1 1.493291020393371582 1.32544708251953125 1.32544708251953125 1.6360611915588378906 1.6360611915588378906 1.6360611915588378906 1.6360611915588378906 1.6360611915588378906 1.6264138221740722656 3.2110114097595214844 3.5047473907470703125 1.7788313627243041992 2.2129473686218261719 2.3852427005767822266 1.9273805618286132813 2.6419634819030761719 1.9273805618286132813 1.9273805618286132813 1.9273805618286132813 1.7788313627243041992 1.9273805618286132813 1.9273805618286132813 2.1723401546478271484 2.6419634819030761719 1.9273805618286132813 2.2283473014831542969 1.9273805618286132813 3.4669039249420166016 3.2429821491241455078 1.9697748422622680664 5.0473923683166503906 1.9681315422058105469 3.4669039249420166016 1.9481258392333984375 2.3064684867858886719 3.0927255153656005859 3.2429821491241455078 3.4669039249420166016 2.6414442062377929688 2.9318671226501464844 2.0558729171752929688 2.8220388889312744141 2.2860903739929199219 2.1283097267150878906 1.9973198175430297852 2.3889000415802001953 2.5178041458129882813 2.3635220527648925781 2.2775793075561523438 1.952588200569152832 2.4181931018829345703 1.8610106706619262695 1.9904733896255493164 2.4232375621795654297 2.3911914825439453125 2.4627120494842529297 2.1444864273071289063 2.2602059841156005859 2.2146503925323486328 2.3056542873382568359 2.8839163780212402344 2.8873865604400634766 2.7347652912139892578 2.4793827533721923828 2.6774454116821289063 2.3299956321716308594 2.3806421756744384766 2.4112257957458496094 2.2123072147369384766 1.9891186952590942383 1.5646760463714599609 1.888112187385559082 1.4653650522232055664 1.8032908439636230469 1.7504191398620605469 1.5500164031982421875 1.8122880458831787109 1.8935207128524780273 1.526105046272277832 1.8771756887435913086 1.8080511093139648438 1.8926438093185424805 1.9791364669799804688 2.2682559490203857422 2.3278369903564453125 1.9339146614074707031 2.0567080974578857422 2.1365778446197509766 1.7337586879730224609 1.4464386701583862305 2.2740187644958496094 1.6655504703521728516 1.8200658559799194336 2.5508203506469726563 2.5623035430908203125 2.5449793338775634766 1.7300281524658203125 1.9170136451721191406 1.7002505064010620117 1.3208419084548950195 1.3337327241897583008 1.8913419246673583984 2.1863827705383300781 2.2958331108093261719 2.368862152099609375 1.8933168649673461914 1.9947224855422973633 2.128170013427734375 2.4389181137084960938 2.6426246166229248047 2.2280752658843994141 2.5397939682006835938 2.3286151885986328125 2.5448229312896728516 2.6351404190063476563 2.4006161689758300781 2.2277047634124755859 2.0143728256225585938 1.8288257122039794922 1.8080550432205200195 2.4397852420806884766 2.4282903671264648438 2.6184875965118408203 2.463390350341796875 2.0893144607543945313 1.73369598388671875 8.7662401199340820313 2.5766923427581787109 2.5234007835388183594 2.5962560176849365234 2.842132568359375 2.8874540328979492188 2.7553837299346923828 2.7200865745544433594 2.5252776145935058594 2.6938259601593017578 
2.6378417015075683594 2.290653228759765625 2.5994944572448730469 2.4348700046539306641 2.5975389480590820313 2.7743520736694335938 2.975139617919921875 2.4328927993774414063 3.0040879249572753906 2.7630062103271484375 2.7164812088012695313 2.5754156112670898438 2.657932281494140625 2.8230412006378173828 2.6419634819030761719 2.5035991668701171875 2.1817297935485839844 2.5187947750091552734 3.2599523067474365234 3.4904105663299560547 3.0323822498321533203 3.0136618614196777344 3.1590552330017089844 2.8447759151458740234 2.8869040012359619141 2.6687123775482177734 2.7319180965423583984 3.0919601917266845703 3.0495851039886474609 3.1751930713653564453 3.2851996421813964844 3.2043600082397460938 2.9358389377593994141 2.9858884811401367188 2.6403114795684814453 2.5725650787353515625 2.099781036376953125 1.8350566625595092773 1.9274721145629882813 2.8391892910003662109 2.4164686203002929688 2.5168147087097167969 2.6018147468566894531 2.4422228336334228516 1.8572487831115722656 1.459194183349609375 1.2973177433013916016 1.5180312395095825195 1.493291020393371582 1.2077505588531494141 1.2077505588531494141 1.3505208492279052734 1.1744368076324462891 1.3505208492279052734 1.3505208492279052734 1.2077505588531494141 1.0825957059860229492 1.1591179370880126953 1.493291020393371582 1.0496779680252075195 1.0244803428649902344 1.1744368076324462891 1.493291020393371582 1.6360611915588378906 1.32544708251953125 1.6360611915588378906 1.493291020393371582 1.1432471275329589844 1.32544708251953125 1.3505208492279052734 1.493291020393371582 1.4776235818862915039 1.6264138221740722656 1.6264138221740722656 1.9273805618286132813 1.9273805618286132813 2.2129473686218261719 1.9273805618286132813 2.2129473686218261719 1.8040344715118408203 1.9273805618286132813 1.9273805618286132813 1.9273805618286132813 1.9273805618286132813 2.8938577175140380859 1.7788313627243041992 2.6419634819030761719 2.9745817184448242188 2.4727737903594970703 4.6507844924926757813 1.9273805618286132813 2.0283679962158203125 3.2965180873870849609 1.9574986696243286133 3.2965180873870849609 2.2283473014831542969 3.2965180873870849609 1.9273805618286132813 1.7538987398147583008 2.0773510932922363281 3.4669039249420166016 3.6951785087585449219 2.3021738529205322266 1.786751866340637207 2.0353834629058837891 2.2740039825439453125 1.808375239372253418 2.2648684978485107422 2.0191695690155029297 1.9773918390274047852 2.0990433692932128906 2.4578835964202880859 2.2346575260162353516 1.9890457391738891602 2.0158586502075195313 2.0936341285705566406 2.3616993427276611328 2.46001434326171875 2.2015569210052490234 2.1772053241729736328 2.0940330028533935547 1.9660680294036865234 2.7721438407897949219 2.1314365863800048828 2.2621107101440429688 2.4819808006286621094 2.4525284767150878906 2.7290682792663574219 2.3083453178405761719 2.255046844482421875 2.2418208122253417969 2.628509521484375 1.9840700626373291016 1.8975229263305664063 1.722782135009765625 1.842850804328918457 1.7113233804702758789 1.5888265371322631836 1.7042441368103027344 1.7046651840209960938 1.7654008865356445313 1.8502734899520874023 1.5212159156799316406 2.0496416091918945313 2.2484145164489746094 2.5800414085388183594 2.5068314075469970703 2.1056172847747802734 1.7246268987655639648 1.73522186279296875 2.5118305683135986328 2.0303511619567871094 2.4158716201782226563 2.4103028774261474609 2.054523468017578125 1.9494484663009643555 1.9628617763519287109 2.4948582649230957031 2.3334181308746337891 2.5045728683471679688 2.1766991615295410156 1.9410555362701416016 1.6734573841094970703 1.7552962303161621094 2.0307981967926025391 1.7619986534118652344 2.0443682670593261719 2.1664569377899169922 8.828838348388671875 1.9913671016693115234 2.1438579559326171875 2.31394195556640625 2.5231804847717285156 2.1291851997375488281 2.2156538963317871094 2.6210846900939941406 2.5198931694030761719 2.4486563205718994141 2.3429315090179443359 1.8118776082992553711 2.4289219379425048828 1.7076917886734008789 1.644739985466003418 1.7499277591705322266 1.8605443239212036133 1.7357376813888549805 2.3116672039031982422 2.4435110092163085938 2.3553073406219482422 2.1267375946044921875 2.1650943756103515625 2.5513668060302734375 2.2178201675415039063 2.1849122047424316406 2.4652781486511230469 2.5420420169830322266 2.5227351188659667969 2.2396147251129150391 2.1595990657806396484 1.9774997234344482422 
2.406890869140625 2.7661159038543701172 2.7798216342926025391 2.7449460029602050781 2.6688747406005859375 3.0647251605987548828 2.8441216945648193359 3.1872704029083251953 2.7946228981018066406 2.4698514938354492188 2.3242211341857910156 2.8640439510345458984 2.7091474533081054688 2.1845257282257080078 2.455013275146484375 2.0102727413177490234 2.5603129863739013672 2.9852023124694824219 2.8966629505157470703 3.2415421009063720703 2.9867410659790039063 2.6729340553283691406 2.9873547554016113281 2.7562644481658935547 3.0021758079528808594 3.1517271995544433594 2.8680503368377685547 3.0656950473785400391 3.2187149524688720703 2.958538055419921875 3.0985872745513916016 2.9369649887084960938 2.8595824241638183594 2.9950127601623535156 2.4029536247253417969 2.2068867683410644531 1.8972352743148803711 2.0681147575378417969 1.9119302034378051758 2.0946080684661865234 2.6082727909088134766 2.4545946121215820313 2.4369294643402099609 1.9882797002792358398 1.5664553642272949219 1.4355710744857788086 1.5998872518539428711 1.4810390472412109375 1.2355914115905761719 1.3611671924591064453 1.0465166568756103516 1.3589800596237182617 1.0260201692581176758 1.0001578330993652344 1.2077505588531494141 1.3505208492279052734 1.2791357040405273438 1 1.493291020393371582 1.493291020393371582 1.493291020393371582 1.0244803428649902344 1.0244803428649902344 1.6360611915588378906 1.493291020393371582 1.6360611915588378906 1.6360611915588378906 1.6360611915588378906 1.493291020393371582 1.1017313003540039063 1.353777766227722168 1.32544708251953125 1.7788313627243041992 1.694403529167175293 1.9273805618286132813 1.9273805618286132813 1.9574986696243286133 1.9619773626327514648 2.6419634819030761719 1.7788313627243041992 1.694403529167175293 2.1723401546478271484 2.6419634819030761719 1.9273805618286132813 1.6264138221740722656 1.7766367197036743164 2.6419634819030761719 2.6419634819030761719 1.7788313627243041992 1.9619773626327514648 1.9273805618286132813 2.0837237834930419922 2.986942291259765625 2.2283473014831542969 3.8335995674133300781 3.0711941719055175781 3.2429821491241455078 1.9273805618286132813 2.1317989826202392578 1.9273805618286132813 2.8871884346008300781 3.2747108936309814453 2.4411988258361816406 2.0784649848937988281 2.6419634819030761719 1.6734724044799804688 2.6419634819030761719 1.8859698772430419922 1.6644815206527709961 1.6360611915588378906 2.4516112804412841797 1.8748955726623535156 1.7937233448028564453 2.2304010391235351563 2.2332000732421875 1.7059166431427001953 2.1461706161499023438 2.4615170955657958984 2.3564839363098144531 2.4610230922698974609 1.8382695913314819336 1.9504487514495849609 2.0928645133972167969 1.5898627042770385742 2.4277672767639160156 2.5839128494262695313 2.673854827880859375 2.4719882011413574219 1.9919649362564086914 2.0318648815155029297 2.3723871707916259766 1.9208314418792724609 1.8006639480590820313 1.6360611915588378906 2.1054830551147460938 1.6360611915588378906 1.6170167922973632813 1.1260075569152832031 1.6748949289321899414 1.9682275056838989258 1.7162407636642456055 1.5969893932342529297 1.4763190746307373047 1.5365518331527709961 1.493291020393371582 1.8787893056869506836 2.1623346805572509766 1.7827670574188232422 2.0312960147857666016 1.4387781620025634766 1.9405580759048461914 2.0830209255218505859 2.0400834083557128906 1.7010354995727539063 1.7143002748489379883 2.1140317916870117188 2.2033519744873046875 2.0654776096343994141 2.6936905384063720703 2.2114310264587402344 2.5430204868316650391 1.7951003313064575195 1.4083569049835205078 1.572629094123840332 8.3899679183959960938 1.6848644018173217773 2.1871597766876220703 9.1954679489135742188 1.5841298103332519531 2.1699268817901611328 1.9324723482131958008 2.1631703376770019531 1.8516182899475097656 1.914605259895324707 2.1544754505157470703 2.0654549598693847656 2.3342676162719726563 2.1304669380187988281 2.4748215675354003906 2.0241401195526123047 1.6289793252944946289 1.7097514867782592773 1.6647661924362182617 2.0671713352203369141 1.5341356992721557617 1.6449211835861206055 2.1269655227661132813 2.2730607986450195313 2.0876805782318115234 1.9173346757888793945 1.8555802106857299805 1.9052710533142089844 2.0352716445922851563 2.3186485767364501953 2.1794235706329345703 2.0163817405700683594 2.3288421630859375 1.987553715705871582 1.7759580612182617188 2.1353394985198974609 
2.5635886192321777344 2.8113737106323242188 2.6528525352478027344 2.4514424800872802734 2.7605130672454833984 2.3517205715179443359 3.0454118251800537109 2.777027130126953125 2.72614288330078125 3.0004889965057373047 2.7676331996917724609 2.5449597835540771484 2.3406059741973876953 2.4397499561309814453 2.2521135807037353516 2.5229969024658203125 2.2915451526641845703 2.4420919418334960938 2.3822855949401855469 2.8155002593994140625 2.4584064483642578125 2.7676422595977783203 2.9411525726318359375 2.7791717052459716797 3.2582852840423583984 3.6380369663238525391 3.3519372940063476563 3.1840884685516357422 3.1877381801605224609 2.5578329563140869141 2.6717944145202636719 2.9260051250457763672 3.1695435047149658203 2.5940878391265869141 2.6175389289855957031 2.6365983486175537109 1.8857133388519287109 1.9810453653335571289 2.2869503498077392578 2.4644935131072998047 2.9931530952453613281 2.7122817039489746094 2.4295186996459960938 1.7342047691345214844 2.498432159423828125 1.5792801380157470703 1.8051066398620605469 1.8205363750457763672 1.2960386276245117188 1.5550495386123657227 1.3874253034591674805 1.1543283462524414063 1 1 1 1 1.3505208492279052734 1.3505208492279052734 1.3505208492279052734 1.493291020393371582 1.493291020393371582 1.0244803428649902344 1.493291020393371582 1 1.493291020393371582 1.6360611915588378906 1.493291020393371582 1.32544708251953125 1.6360611915588378906 1.1165513992309570313 1.6360611915588378906 1.6264138221740722656 1.6264138221740722656 2.6440007686614990234 2.8871884346008300781 1.9697748422622680664 2.2718164920806884766 3.2965180873870849609 1.8502165079116821289 1.7788313627243041992 1.7788313627243041992 1.7788313627243041992 1.9273805618286132813 1.9273805618286132813 1.9273805618286132813 1.9469819068908691406 1.7046622037887573242 1.9273805618286132813 1.9273805618286132813 1.8951973915100097656 2.2630176544189453125 3.4669039249420166016 3.2348196506500244141 3.4669039249420166016 3.4669039249420166016 2.8220388889312744141 3.2965180873870849609 2.2129473686218261719 1.9273805618286132813 1.7875486612319946289 2.4766926765441894531 2.3172328472137451172 2.1817169189453125 2.2777447700500488281 2.3535678386688232422 2.3014900684356689453 2.3164618015289306641 2.1272015571594238281 2.1614208221435546875 2.0505378246307373047 1.8230030536651611328 1.5750761032104492188 2.0449471473693847656 2.1320910453796386719 1.7264049053192138672 1.590869903564453125 2.3063304424285888672 1.9807775020599365234 2.1405341625213623047 2.3552668094635009766 1.7740753889083862305 2.1859335899353027344 2.2006483078002929688 2.0408232212066650391 2.2712039947509765625 2.4496915340423583984 2.0236477851867675781 2.5377631187438964844 2.2237713336944580078 2.0842633247375488281 2.2849161624908447266 1.6360611915588378906 1.4776235818862915039 1.6264138221740722656 1.4941315650939941406 1.4776235818862915039 1.493291020393371582 1.4512385129928588867 1.931407928466796875 1.7736215591430664063 1.493291020393371582 1.6051670312881469727 1.6196447610855102539 1.8636661767959594727 1.7193007469177246094 2.0611300468444824219 1.697527766227722168 1.5890400409698486328 2.0501258373260498047 2.1157164573669433594 2.4418056011199951172 1.8726530075073242188 1.3902125358581542969 1.3082373142242431641 2.1280863285064697266 2.170154571533203125 2.1710255146026611328 1.9198738336563110352 2.1533374786376953125 1.8646196126937866211 1.6130870580673217773 1.6891406774520874023 2.1683175563812255859 1.5307142734527587891 1.8372778892517089844 1.900427699089050293 1.692030787467956543 1.5649737119674682617 1.7233961820602416992 2.0049881935119628906 1.6448264122009277344 1.7779179811477661133 1.6861741542816162109 1.9990406036376953125 1.665833592414855957 2.0020995140075683594 2.1212446689605712891 1.8454326391220092773 2.2213149070739746094 2.0468778610229492188 1.7349855899810791016 1.7690166234970092773 1.6160522699356079102 1.5654331445693969727 1.6540471315383911133 1.4991550445556640625 2.1320891380310058594 2.0419690608978271484 2.1252636909484863281 1.7988351583480834961 1.7639141082763671875 1.63885498046875 1.9353783130645751953 1.9895684719085693359 2.2244219779968261719 2.1798870563507080078 1.7533800601959228516 1.8447055816650390625 1.5161314010620117188 1.6149194240570068359 
2.6321742534637451172 2.6860980987548828125 2.9070951938629150391 2.7178378105163574219 2.8419489860534667969 3.0852885246276855469 3.1287462711334228516 2.7843115329742431641 3.1795823574066162109 2.8802244663238525391 2.6300611495971679688 2.4581480026245117188 2.8898813724517822266 2.3308746814727783203 2.5050377845764160156 2.0911602973937988281 2.0951716899871826172 2.0227146148681640625 1.8261495828628540039 1.940948486328125 2.0390686988830566406 2.2447600364685058594 2.3972687721252441406 2.8049435615539550781 3.0847320556640625 2.9819860458374023438 3.1718511581420898438 2.7488431930541992188 3.3522434234619140625 2.7712736129760742188 2.8194768428802490234 2.6365308761596679688 2.6037456989288330078 2.3525965213775634766 2.3671159744262695313 2.0937662124633789063 1.9840819835662841797 1.9225510358810424805 2.1514194011688232422 2.8693728446960449219 2.3368678092956542969 1.9009022712707519531 2.4866216182708740234 2.0862593650817871094 2.0717871189117431641 2.7074964046478271484 1.987069249153137207 1.6280374526977539063 1.7429642677307128906 1.7371618747711181641 1 1.6335923671722412109 1.200884699821472168 1.2655770778656005859 1 1.1505903005599975586 1.3166872262954711914 1 1.3505208492279052734 1.3505208492279052734 1.493291020393371582 1.0730701684951782227 1.0574753284454345703 1 1.0244803428649902344 1.493291020393371582 1.32544708251953125 1.422367095947265625 1.0964624881744384766 1 1.493291020393371582 1.4189243316650390625 2.0484960079193115234 1.9273805618286132813 1.9574986696243286133 1.9273805618286132813 3.4669039249420166016 1.9619773626327514648 2.6419634819030761719 1.9521150588989257813 1.7788313627243041992 1.6264138221740722656 2.8938577175140380859 2.0801854133605957031 1.7872604131698608398 1.9273805618286132813 1.9273805618286132813 1.9273805618286132813 2.50002288818359375 1.8063912391662597656 2.3852427005767822266 1.7872604131698608398 1.9273805618286132813 1.8502165079116821289 3.2965180873870849609 1.9541800022125244141 3.6564357280731201172 2.2129473686218261719 1.9697748422622680664 1.9273805618286132813 2.2305238246917724609 1.9273805618286132813 2.3736796379089355469 2.2860364913940429688 2.0440118312835693359 3.2110114097595214844 2.5246636867523193359 2.3046801090240478516 2.3528678417205810547 2.0413272380828857422 2.2188446521759033203 2.0953876972198486328 1.5808583498001098633 2.0071699619293212891 1.8753983974456787109 1.4945894479751586914 1.515501856803894043 2.47995758056640625 2.0211079120635986328 2.5235154628753662109 1.6993920803070068359 2.1057736873626708984 1.8313776254653930664 2.0663006305694580078 2.659984588623046875 2.5254800319671630859 2.1420092582702636719 2.0364925861358642578 1.9315990209579467773 1.7788313627243041992 1.8553692102432250977 1.7788313627243041992 1.7788313627243041992 1.7788313627243041992 1.7788313627243041992 1.7463436126708984375 1.6360611915588378906 1.8802344799041748047 1.6193101406097412109 2.1073114871978759766 1.9882808923721313477 1.6380510330200195313 1.4207463264465332031 1.5152631998062133789 1.5818234682083129883 2.4336633682250976563 2.1104981899261474609 2.0663049221038818359 1.6833865642547607422 1.9570006132125854492 1.8742066621780395508 2.0498759746551513672 1.600581049919128418 1.9958456754684448242 1.6968032121658325195 1.8018342256546020508 2.4314451217651367188 1.9477138519287109375 2.3618280887603759766 1.822330474853515625 1.7713692188262939453 2.1672160625457763672 2.0736997127532958984 1.9220497608184814453 2.0963773727416992188 1.8938335180282592773 1.8275978565216064453 2.2573606967926025391 1.9373600482940673828 8.8983526229858398438 8.7825193405151367188 2.1265239715576171875 1.9054672718048095703 2.0845229625701904297 1.7656164169311523438 1.7303993701934814453 1.5860397815704345703 1.5218144655227661133 1.880931854248046875 1.9003762006759643555 1.6894428730010986328 1.927280426025390625 1.6798944473266601563 1.80724334716796875 2.1557631492614746094 1.7578237056732177734 1.9479269981384277344 2.258785247802734375 1.9434866905212402344 1.633586883544921875 1.8277838230133056641 1.4032733440399169922 1.4461692571640014648 1.8231157064437866211 2.0306639671325683594 1.8358560800552368164 1.9723591804504394531 1.4717149734497070313 1.3389723300933837891 1.1215838193893432617 
3.3169119358062744141 2.6107518672943115234 2.7492971420288085938 3.0559742450714111328 3.2804358005523681641 3.4993789196014404297 3.2667253017425537109 3.1380338668823242188 3.1704170703887939453 2.9987559318542480469 2.9829883575439453125 2.8761973381042480469 2.6438698768615722656 2.2280278205871582031 2.1937091350555419922 2.3355798721313476563 2.2223544120788574219 2.1094801425933837891 2.0382819175720214844 1.9408509731292724609 2.3800599575042724609 2.3721721172332763672 2.4949533939361572266 2.7516438961029052734 2.8143727779388427734 3.0143322944641113281 2.9925448894500732422 2.7526297569274902344 2.9843754768371582031 2.7873387336730957031 2.6127464771270751953 2.8480432033538818359 2.2465240955352783203 2.1842489242553710938 1.9371391534805297852 1.8322508335113525391 1.8094866275787353516 1.982041478157043457 2.2627725601196289063 2.3675634860992431641 2.2973508834838867188 2.1060693264007568359 2.0454337596893310547 2.4318952560424804688 2.372112274169921875 1.5847818851470947266 1.9817310571670532227 1.8338705301284790039 1.5916141271591186523 1.5856314897537231445 1.2663106918334960938 1.3046780824661254883 1 1.258427739143371582 1.0943472385406494141 1.5471060276031494141 1.3505208492279052734 1 1.3505208492279052734 1 1 1.3505208492279052734 1 1.2077505588531494141 1.0244803428649902344 1.5646760463714599609 1.4219058752059936523 1.493291020393371582 1 1.3505208492279052734 1.0244803428649902344 1.7788313627243041992 1.6264138221740722656 2.2129473686218261719 1.9273805618286132813 2.2129473686218261719 1.9273805618286132813 1.7202570438385009766 1.686766505241394043 1.7074462175369262695 1.6360611915588378906 1.9521150588989257813 1.6822553873062133789 3.5284249782562255859 1.9729981422424316406 1.9541800022125244141 1.9273805618286132813 1.7280544042587280273 1.7904338836669921875 2.3852427005767822266 1.7904338836669921875 1.824938654899597168 1.7788313627243041992 1.9273805618286132813 1.9273805618286132813 1.9697748422622680664 3.0927255153656005859 3.6815922260284423828 2.0283679962158203125 2.2129473686218261719 2.1690011024475097656 2.4766926765441894531 2.6809275150299072266 2.6563997268676757813 2.4057166576385498047 2.2395689487457275391 2.3396904468536376953 2.5399794578552246094 2.4431788921356201172 2.5139982700347900391 2.3629794120788574219 2.0905683040618896484 2.1037306785583496094 1.5158245563507080078 1.6360611915588378906 1.7507175207138061523 2.1589486598968505859 2.1091578006744384766 2.0511543750762939453 2.20717620849609375 1.6651635169982910156 1.9128869771957397461 1.8095543384552001953 2.5899510383605957031 2.2370247840881347656 2.3445422649383544922 1.8379590511322021484 1.9709002971649169922 2.0737674236297607422 2.0596153736114501953 2.0252277851104736328 1.9416719675064086914 1.9115462303161621094 2.0837688446044921875 1.4189243316650390625 1.9010825157165527344 1.9193720817565917969 1.9297606945037841797 1.493291020393371582 1.6015018224716186523 1.8427773714065551758 1.895422816276550293 1.8608902692794799805 1.493291020393371582 1.530648350715637207 1.8320095539093017578 1.6898868083953857422 1.4018340110778808594 1.8148555755615234375 1.7197452783584594727 1.5903028249740600586 2.4331309795379638672 1.6506086587905883789 1.49346160888671875 2.075000762939453125 2.2228648662567138672 2.5515799522399902344 2.0354523658752441406 2.4017941951751708984 2.1990759372711181641 1.6521275043487548828 1.8154186010360717773 1.2409001588821411133 2.1773231029510498047 2.4875125885009765625 2.3847036361694335938 2.3438489437103271484 2.4668934345245361328 1.9715484380722045898 2.3787121772766113281 2.0556902885437011719 1.9977422952651977539 1.5568225383758544922 1.5061159133911132813 1.5370255708694458008 1.4100681543350219727 1.7627782821655273438 1.5950058698654174805 1.7196290493011474609 1.6629216670989990234 1.9321368932723999023 1.4929184913635253906 1.8155640363693237305 1.2901298999786376953 1.7189221382141113281 1.8027369976043701172 1.9582468271255493164 2.4234869480133056641 1.857478022575378418 1.6956380605697631836 1.6038862466812133789 1.7188125848770141602 1.6077647209167480469 1.7381055355072021484 2.1120162010192871094 2.1585853099822998047 1.8142856359481811523 1.7489526271820068359 1.3944334983825683594 1.2652202844619750977 
3.4303455352783203125 3.0303037166595458984 2.8428235054016113281 3.1969110965728759766 3.3732957839965820313 3.5785765647888183594 3.7736954689025878906 3.7602832317352294922 3.4386048316955566406 3.1194512844085693359 2.8901333808898925781 2.6811842918395996094 2.8709368705749511719 2.7575981616973876953 2.4551024436950683594 2.3917419910430908203 1.9682376384735107422 2.1088337898254394531 1.8736633062362670898 1.7133529186248779297 1.6556571722030639648 2.157745361328125 2.3310384750366210938 2.6267528533935546875 2.9391145706176757813 3.1098384857177734375 2.7447998523712158203 2.7974836826324462891 3.0565013885498046875 2.9506983757019042969 2.6973650455474853516 2.6141138076782226563 2.1386847496032714844 1.8768888711929321289 1.7105094194412231445 1.7242554426193237305 1.8807508945465087891 2.2140569686889648438 2.1827752590179443359 1.9250006675720214844 2.2242522239685058594 2.401912689208984375 2.1037850379943847656 2.2590932846069335938 2.34214019775390625 2.2770192623138427734 2.1193509101867675781 1.8569054603576660156 1.6545158624649047852 1.3753203153610229492 1.4013960361480712891 1 1.7129420042037963867 1.2151875495910644531 1.3000611066818237305 1 1.3731856346130371094 1.0649803876876831055 1.3505208492279052734 1 1 1.2077505588531494141 1.2077505588531494141 1.0649803876876831055 1.2791357040405273438 1.6360611915588378906 1.3505305051803588867 1.6360611915588378906 1.0244803428649902344 1.3505208492279052734 1.493291020393371582 1.7788313627243041992 1.6264138221740722656 1.7202570438385009766 1.6264138221740722656 1.6264138221740722656 1.694403529167175293 1.7296272516250610352 1.7122943401336669922 1.6425864696502685547 1.6360611915588378906 1.6264138221740722656 1.9454772472381591797 2.20816802978515625 2.6820814609527587891 1.9273805618286132813 1.9273805618286132813 2.2305238246917724609 2.6419634819030761719 1.885193943977355957 1.9273805618286132813 1.9273805618286132813 1.9273805618286132813 1.9273805618286132813 2.2718164920806884766 2.1956982612609863281 1.9295144081115722656 3.4669039249420166016 2.2718164920806884766 2.2502844333648681641 2.2169997692108154297 2.2129473686218261719 2.4513838291168212891 2.4057519435882568359 2.3173243999481201172 2.8938577175140380859 2.4810831546783447266 2.5071389675140380859 2.4355156421661376953 2.7223844528198242188 2.3819477558135986328 2.1990060806274414063 2.0754351615905761719 2.2765352725982666016 1.8054772615432739258 2.0242359638214111328 2.0913062095642089844 2.434112548828125 2.2232699394226074219 1.8587734699249267578 2.3165132999420166016 2.0048828125 2.2470850944519042969 2.1875162124633789063 2.1944146156311035156 1.6998611688613891602 1.9222536087036132813 1.8123579025268554688 1.9875605106353759766 1.9185853004455566406 2.0802056789398193359 2.0038292407989501953 1.7370342016220092773 1.5646760463714599609 1.5020493268966674805 1.3474953174591064453 1.594056248664855957 1.7461296319961547852 1.7723488807678222656 2.0128808021545410156 2.2685353755950927734 1.6985985040664672852 1.7250292301177978516 2.0261940956115722656 1.5741695165634155273 2.5743262767791748047 2.6228260993957519531 2.2464475631713867188 1.6367840766906738281 1.7669110298156738281 2.6643545627593994141 2.0078339576721191406 2.2330429553985595703 2.0131921768188476563 1.9625914096832275391 2.2030026912689208984 2.2232010364532470703 2.0540404319763183594 1.7260901927947998047 2.2299387454986572266 2.1311049461364746094 2.028842926025390625 2.3966085910797119141 1.9040971994400024414 1.9769974946975708008 2.6808810234069824219 2.7189984321594238281 2.5368819236755371094 1.9246996641159057617 2.0863292217254638672 2.1869723796844482422 2.1997432708740234375 1.5795085430145263672 8.49880218505859375 2.0377593040466308594 1.4089142084121704102 1.4923707246780395508 2.0730307102203369141 1.670795440673828125 1.7219873666763305664 1.5244573354721069336 1.6976180076599121094 1.7930326461791992188 1.3212934732437133789 1.6237679719924926758 1.8798590898513793945 1.9459329843521118164 2.0147814750671386719 1.5670663118362426758 1.7332658767700195313 1.8553577661514282227 1.7252025604248046875 1.7454073429107666016 1.8467648029327392578 1.733895421028137207 2.1412749290466308594 2.1292350292205810547 1.7609155178070068359 1.5612759590148925781 1.5521168708801269531 
3.3715996742248535156 3.0130434036254882813 3.0287368297576904297 3.4469163417816162109 3.5092010498046875 3.7623498439788818359 4.2316722869873046875 3.9572296142578125 3.6877546310424804688 3.4007256031036376953 3.0873384475708007813 2.6782674789428710938 2.5523104667663574219 2.5853407382965087891 2.9721300601959228516 2.7724082469940185547 2.4104707241058349609 1.8446304798126220703 2.1918852329254150391 1.9334497451782226563 1.3505208492279052734 2.0630102157592773438 2.25327301025390625 2.3660595417022705078 2.5779049396514892578 2.3688158988952636719 2.2622277736663818359 2.8084530830383300781 2.742900848388671875 3.2351558208465576172 2.3792901039123535156 2.9029409885406494141 2.6631951332092285156 2.3510572910308837891 1.9528052806854248047 1.7320351600646972656 2.1178903579711914063 2.1061658859252929688 2.2014284133911132813 2.0192661285400390625 1.9440125226974487305 1.88724517822265625 1.4346442222595214844 1.6126946210861206055 1.9135000705718994141 1.8676890134811401367 2.0967414379119873047 1.4945162534713745117 1.7227315902709960938 1.5401294231414794922 1.6698760986328125 1 1.0768060684204101563 1.1915254592895507813 1.3004099130630493164 1.2077505588531494141 1.2077505588531494141 1.0159600973129272461 1 1 1 1 1.0649803876876831055 1.2077505588531494141 1.0244803428649902344 1.493291020393371582 1.32544708251953125 1.6264138221740722656 1.0244803428649902344 1.32544708251953125 1.4811452627182006836 1.7788313627243041992 2.6419634819030761719 1.9273805618286132813 1.6264138221740722656 1.6360611915588378906 1.6360611915588378906 1.7788313627243041992 1.7788313627243041992 1.4776235818862915039 1.7788313627243041992 2.1179823875427246094 1.7788313627243041992 2.1712169647216796875 2.6419634819030761719 1.7788313627243041992 2.6419634819030761719 2.6419634819030761719 1.9273805618286132813 2.2129473686218261719 2.0554997920989990234 1.8427549600601196289 2.4786133766174316406 1.9444774389266967773 4.1445622444152832031 3.4669039249420166016 2.2630176544189453125 2.2129473686218261719 2.0365250110626220703 2.0206675529479980469 3.4669039249420166016 3.2965180873870849609 3.6493880748748779297 2.4106309413909912109 2.3703336715698242188 2.4212124347686767578 2.6419634819030761719 2.7337992191314697266 2.5256035327911376953 2.5725510120391845703 2.6877927780151367188 2.0471525192260742188 2.2956721782684326172 1.7074462175369262695 2.0372586250305175781 1.9444774389266967773 2.1714575290679931641 2.1499817371368408203 1.8323987722396850586 2.0940527915954589844 2.1300539970397949219 2.1329438686370849609 2.1061828136444091797 1.9480789899826049805 1.4707392454147338867 1.9167233705520629883 1.6738133430480957031 1.6234750747680664063 1.970930933952331543 2.2615048885345458984 1.7568739652633666992 1.6181941032409667969 1.6383908987045288086 1 1.3505208492279052734 1.4207956790924072266 1.7167760133743286133 1.7341326475143432617 2.0037579536437988281 1.80817413330078125 1.8282965421676635742 1.8525531291961669922 1.8888725042343139648 1.8624470233917236328 1.9494063854217529297 2.1614971160888671875 2.050006866455078125 2.151882171630859375 1.9916509389877319336 2.1207528114318847656 1.803471684455871582 1.8984872102737426758 1.9957053661346435547 2.2164592742919921875 2.1444375514984130859 2.2011771202087402344 2.7851133346557617188 2.2676343917846679688 2.2946796417236328125 2.0885028839111328125 2.2019567489624023438 1.9083176851272583008 2.5200250148773193359 2.6827340126037597656 2.0633513927459716797 3.1350374221801757813 2.6038408279418945313 2.7658317089080810547 2.9517743587493896484 2.0567958354949951172 2.5069234371185302734 1.8479433059692382813 8.5478410720825195313 1.7338302135467529297 1.6047279834747314453 1.4967565536499023438 1.7494946718215942383 1.9718793630599975586 1.9154942035675048828 2.0341801643371582031 8.3830738067626953125 2.3920953273773193359 1.3669737577438354492 8.1553668975830078125 1.5310671329498291016 1.4470595121383666992 1.8295803070068359375 1.641307830810546875 1.5790771245956420898 1.2888780832290649414 1.5442663431167602539 1.6184836626052856445 1.9856151342391967773 2.0279545783996582031 1.8459322452545166016 2.5629796981811523438 2.0707631111145019531 2.1586587429046630859 2.1785061359405517578 1.7019979953765869141 
2.8695185184478759766 2.6464362144470214844 2.7941913604736328125 3.2852072715759277344 3.5247225761413574219 3.9940421581268310547 3.7967505455017089844 3.7773525714874267578 3.4496600627899169922 3.4119937419891357422 3.3144500255584716797 3.071422576904296875 2.7833142280578613281 2.6329979896545410156 2.5202484130859375 2.4589238166809082031 2.3569664955139160156 2.2484545707702636719 2.2176735401153564453 1.9944090843200683594 1.7236859798431396484 2.2099504470825195313 2.5972664356231689453 2.6282510757446289063 2.5825436115264892578 2.5089678764343261719 2.2696528434753417969 2.4497663974761962891 2.441112518310546875 2.6134912967681884766 2.7932574748992919922 2.6657323837280273438 2.4429266452789306641 2.0657322406768798828 1.7547112703323364258 1.9655184745788574219 2.2263116836547851563 2.4636383056640625 2.1458046436309814453 1.8270978927612304688 1.8446429967880249023 1.7442849874496459961 2.0755162239074707031 1.5518220663070678711 1.6336889266967773438 1 1.6838462352752685547 1.6017473936080932617 1.5498851537704467773 1.2278215885162353516 1.4425650835037231445 1.8344087600708007813 1.3248918056488037109 1 1 1.3505208492279052734 1 1.1603922843933105469 1 1 1 1 1 1.0854599475860595703 1.2077505588531494141 1.0913536548614501953 1.6360611915588378906 1.3927649259567260742 1.6360611915588378906 1.6360611915588378906 1.6264138221740722656 2.2129473686218261719 1.9273805618286132813 1.7836997509002685547 1.7788313627243041992 1.6264138221740722656 1.7788313627243041992 1.7788313627243041992 1.6745015382766723633 1.6344852447509765625 1.7122943401336669922 1.7788313627243041992 1.6950902938842773438 1.8911130428314208984 1.6293581724166870117 1.7788313627243041992 1.7788313627243041992 1.9541800022125244141 2.2718164920806884766 3.2965180873870849609 2.1424503326416015625 1.8679208755493164063 1.9273805618286132813 1.9697374105453491211 2.6414442062377929688 1.9821665287017822266 1.7469068765640258789 2.0894081592559814453 1.9273805618286132813 2.2673006057739257813 3.4669039249420166016 3.4669039249420166016 3.4669039249420166016 2.1497170925140380859 2.6723077297210693359 2.4676108360290527344 2.6419634819030761719 2.7270004749298095703 2.7621564865112304688 2.3522422313690185547 2.3053960800170898438 3.8335995674133300781 2.2305238246917724609 2.0981047153472900391 1.9541800022125244141 2.2489545345306396484 2.1169066429138183594 2.3568856716156005859 2.2943942546844482422 2.4696044921875 2.1856868267059326172 2.2681443691253662109 2.2666814327239990234 2.6970822811126708984 2.0290727615356445313 1.9794875383377075195 2.4645833969116210938 2.4430932998657226563 2.25069427490234375 1.9059150218963623047 1.5198371410369873047 1.2520517110824584961 1.9690783023834228516 1.8625340461730957031 1.6085252761840820313 2.2287340164184570313 2.2114214897155761719 1.8516565561294555664 1.7357105016708374023 2.1942789554595947266 1.8119702339172363281 2.0653595924377441406 1.9457275867462158203 1.6728857755661010742 2.1387810707092285156 2.4970567226409912109 2.0898294448852539063 1.8178429603576660156 2.4561281204223632813 2.3029849529266357422 2.2176377773284912109 2.248615264892578125 2.1177012920379638672 1.9695628881454467773 2.3422555923461914063 2.0237205028533935547 2.5339334011077880859 2.6522641181945800781 2.8206055164337158203 2.9725813865661621094 2.1412439346313476563 2.2740588188171386719 2.3572432994842529297 3.2371666431427001953 3.1148335933685302734 3.1629986763000488281 2.6308522224426269531 3.0016305446624755859 2.8386247158050537109 1.9224829673767089844 2.4271185398101806641 2.7378978729248046875 1.8054534196853637695 1.3522371053695678711 1.5135077238082885742 1.8886839151382446289 1.9600683450698852539 1.7898459434509277344 2.1164853572845458984 1.7773249149322509766 1.654590606689453125 1.4485508203506469727 1.4607105255126953125 1.5917241573333740234 1.5836411714553833008 1.6530839204788208008 1.4584048986434936523 8.0627565383911132813 1.6362679004669189453 1.4884439706802368164 1.4625505208969116211 1.6736913919448852539 2.0156428813934326172 2.1470444202423095703 1.9178155660629272461 2.1569061279296875 1.9722094535827636719 1.9429941177368164063 1.7847284078598022461 1.5548194646835327148 
2.7522835731506347656 2.8128600120544433594 2.9462437629699707031 3.1376690864562988281 3.03836822509765625 3.2166996002197265625 3.9873125553131103516 3.6383707523345947266 3.1753938198089599609 3.2711439132690429688 3.0311591625213623047 2.6561574935913085938 2.6670830249786376953 2.4384379386901855469 2.5082623958587646484 2.5442550182342529297 2.6852190494537353516 2.72325897216796875 2.4649474620819091797 1.878144383430480957 2.0695903301239013672 2.1240599155426025391 2.5420923233032226563 2.4947409629821777344 2.9184534549713134766 2.4028971195220947266 2.3176403045654296875 2.4292557239532470703 2.3668742179870605469 2.3221526145935058594 2.7749664783477783203 2.6085293292999267578 2.4856739044189453125 1.9274121522903442383 2.1146099567413330078 1.7445315122604370117 2.1423420906066894531 2.1201310157775878906 2.2546632289886474609 1.9802687168121337891 1.9775846004486083984 1.6207464933395385742 1.5729299783706665039 2.3437182903289794922 1.4785896539688110352 1.3741780519485473633 1.9111175537109375 1.2773454189300537109 1.3505208492279052734 1.0950313806533813477 1.2157266139984130859 1.228794097900390625 1.1267293691635131836 1 1 1.1544892787933349609 1.1363655328750610352 1 1 1.0649803876876831055 1 1.3036413192749023438 1 1 1.2077505588531494141 1.0496779680252075195 1.0439506769180297852 1.4083597660064697266 1.4776235818862915039 1.9273805618286132813 1.9273805618286132813 1.9273805618286132813 1.9377654790878295898 1.9273805618286132813 2.0773510932922363281 1.9273805618286132813 1.7696378231048583984 1.7788313627243041992 1.9830318689346313477 1.8438133001327514648 2.5417046546936035156 2.1467847824096679688 1.8363363742828369141 2.5577118396759033203 1.8706643581390380859 1.9801903963088989258 1.8508507013320922852 2.1565530300140380859 1.9273805618286132813 2.50002288818359375 1.9481066465377807617 2.2293372154235839844 2.6419634819030761719 3.2395925521850585938 2.50002288818359375 1.9273805618286132813 1.9670518636703491211 1.8666894435882568359 1.81760406494140625 2.3154652118682861328 2.2965905666351318359 2.301052093505859375 2.5290341377258300781 2.6597573757171630859 2.9522163867950439453 2.6391086578369140625 2.6419634819030761719 2.7033493518829345703 2.7830977439880371094 2.9476249217987060547 2.6815195083618164063 2.6321346759796142578 2.8220388889312744141 2.3629369735717773438 2.6442244052886962891 2.0295276641845703125 2.0435605049133300781 1.7130144834518432617 2.2321882247924804688 2.8938577175140380859 1.8724930286407470703 2.4484593868255615234 2.8938577175140380859 2.3845486640930175781 2.1950523853302001953 2.7055294513702392578 1.9509456157684326172 2.3707768917083740234 2.5436606407165527344 2.0330104827880859375 1.9495995044708251953 1.854624629020690918 1.7961087226867675781 1.9749654531478881836 1.5771803855895996094 1.8787363767623901367 1.9786728620529174805 1.9712059497833251953 2.1294541358947753906 2.2922308444976806641 1.8165390491485595703 2.0416657924652099609 1.8817294836044311523 2.2618587017059326172 1.9535101652145385742 1.9221185445785522461 1.4951187372207641602 2.6337854862213134766 2.2785205841064453125 2.5590360164642333984 2.1059298515319824219 2.4879901409149169922 2.6458914279937744141 2.7731199264526367188 2.5126025676727294922 2.1427640914916992188 2.8940296173095703125 3.0181970596313476563 2.8297677040100097656 2.7057757377624511719 2.4750492572784423828 2.6917889118194580078 2.3433871269226074219 2.9400961399078369141 2.9770913124084472656 2.6139593124389648438 2.2154400348663330078 2.6185445785522460938 2.7268567085266113281 9.2467756271362304688 1.9864428043365478516 2.1918706893920898438 2.0035851001739501953 1.5349020957946777344 2.0385434627532958984 2.4668719768524169922 1.9631304740905761719 2.0824158191680908203 1.9782165288925170898 2.1989254951477050781 1.6965060234069824219 1.2290823459625244141 1.2886641025543212891 1.2588831186294555664 7.8598647117614746094 8.3751468658447265625 2.0034339427947998047 1.4282318353652954102 1.8350419998168945313 1.7112662792205810547 1.9416707754135131836 2.0330519676208496094 1.9749760627746582031 1.782616734504699707 1.8781810998916625977 1.9585697650909423828 2.3482408523559570313 2.2842276096343994141 1.7447419166564941406 1.6351807117462158203 
2.4095447063446044922 2.5457665920257568359 2.6885945796966552734 2.7015721797943115234 2.9400172233581542969 3.0623908042907714844 3.2406444549560546875 2.9053950309753417969 3.1609704494476318359 2.8059568405151367188 2.464321136474609375 2.4084177017211914063 2.3165266513824462891 2.1491360664367675781 2.2839372158050537109 2.9950914382934570313 2.3630023002624511719 2.5560617446899414063 2.0902204513549804688 2.0447025299072265625 2.2126533985137939453 2.2556869983673095703 2.4786989688873291016 2.4078502655029296875 2.2898957729339599609 2.4676258563995361328 2.3696584701538085938 2.4158315658569335938 2.2192924022674560547 2.2459409236907958984 2.6306393146514892578 2.3710019588470458984 2.3844430446624755859 2.1921720504760742188 2.1961765289306640625 2.5009961128234863281 2.4914994239807128906 2.3805811405181884766 2.2506999969482421875 2.3400321006774902344 2.4975519180297851563 1.8161814212799072266 1.8465114831924438477 1.7367498874664306641 1.7293261289596557617 2.166065216064453125 1.1805813312530517578 1.6989384889602661133 1.1791100502014160156 1.6152489185333251953 1.3505208492279052734 1.2077505588531494141 1 1.2077505588531494141 1.2077505588531494141 1.493291020393371582 1 1 1.2077505588531494141 1 1.0649803876876831055 1 1.0862029790878295898 1.2791357040405273438 1.0681543350219726563 1.5477775335311889648 1.1588770151138305664 1.5393730401992797852 1.7788313627243041992 1.9273805618286132813 1.9273805618286132813 1.694403529167175293 1.7788313627243041992 1.9273805618286132813 1.9273805618286132813 1.9273805618286132813 1.9273805618286132813 1.9273805618286132813 2.3852427005767822266 1.9684967994689941406 1.9220203161239624023 2.2638630867004394531 1.8413181304931640625 2.1385900974273681641 2.0298128128051757813 2.0158710479736328125 2.1702802181243896484 2.1179823875427246094 1.7708661556243896484 1.7677718400955200195 2.1723515987396240234 1.9401698112487792969 2.0859749317169189453 2.0930962562561035156 3.2965180873870849609 3.4669039249420166016 1.953037261962890625 2.6419634819030761719 1.9940477609634399414 2.0884339809417724609 2.3808751106262207031 2.3011488914489746094 2.5159897804260253906 2.7509236335754394531 2.8396844863891601563 2.8849632740020751953 2.9035944938659667969 3.2395925521850585938 3.0492653846740722656 3.1150565147399902344 3.4669039249420166016 2.8871884346008300781 2.4543330669403076172 2.3509960174560546875 2.4563171863555908203 2.8938577175140380859 2.1061022281646728516 1.8952325582504272461 2.3944909572601318359 1.9273805618286132813 2.0388052463531494141 2.6419634819030761719 2.1906499862670898438 2.5704343318939208984 2.3429417610168457031 2.5217545032501220703 2.131320953369140625 2.7117547988891601563 2.0789992809295654297 1.9775235652923583984 1.7871252298355102539 1.5222245454788208008 1.8995220661163330078 1.6010823249816894531 1.8901722431182861328 1.8923194408416748047 1.493291020393371582 1.6360611915588378906 2.1639611721038818359 2.5544793605804443359 1.9113397598266601563 2.1255447864532470703 2.1929247379302978516 1.6058704853057861328 1.7952482700347900391 2.0482449531555175781 2.4034619331359863281 2.4572083950042724609 2.1848590373992919922 2.3962702751159667969 2.3721880912780761719 1.9742901325225830078 2.4203014373779296875 2.7426512241363525391 2.1038250923156738281 2.4708533287048339844 2.9636390209197998047 2.8310933113098144531 3.0435681343078613281 3.062366485595703125 2.6425845623016357422 2.7872822284698486328 1.7864822149276733398 2.469600677490234375 2.6493008136749267578 2.6761121749877929688 2.2113237380981445313 2.3467054367065429688 2.0153553485870361328 8.5622205734252929688 8.5241594314575195313 8.60051727294921875 1.6889951229095458984 2.1839735507965087891 2.2953531742095947266 8.04802703857421875 2.3108813762664794922 1.9594919681549072266 1.5011477470397949219 1.5393369197845458984 1.8469500541687011719 1.4668494462966918945 1.203202366828918457 1.2814917564392089844 1.799813389778137207 1.5438359975814819336 1.4513926506042480469 1.3706312179565429688 1.4036711454391479492 1.655368804931640625 1.9558861255645751953 1.9579001665115356445 1.8061783313751220703 1.5647104978561401367 2.1281170845031738281 1.7950887680053710938 1.8930201530456542969 1.9765244722366333008 2.0149104595184326172 1.8043825626373291016 
2.2991983890533447266 2.7090156078338623047 2.8423030376434326172 2.4200661182403564453 2.7979061603546142578 3.0995769500732421875 3.0922963619232177734 3.0410380363464355469 3.0643780231475830078 2.6443464756011962891 2.502994537353515625 2.4011270999908447266 2.4484608173370361328 2.3385169506072998047 2.2533032894134521484 2.5202219486236572266 2.2349674701690673828 2.2427084445953369141 2.1755068302154541016 2.3039438724517822266 2.4144041538238525391 2.4556498527526855469 2.5423939228057861328 2.3769769668579101563 2.4081821441650390625 2.6280457973480224609 2.1711697578430175781 1.9076497554779052734 1.9341169595718383789 2.0883207321166992188 2.3743419647216796875 2.2810518741607666016 2.3482463359832763672 2.3049826622009277344 2.3820853233337402344 2.6578156948089599609 2.4527869224548339844 2.7332050800323486328 2.6303272247314453125 2.2450428009033203125 2.2672486305236816406 2.2321271896362304688 1.9290915727615356445 2.0429980754852294922 1.6966751813888549805 1.5209627151489257813 1.3076922893524169922 1.6016647815704345703 1.3972340822219848633 1.2077505588531494141 1.2722885608673095703 1.7118396759033203125 1.2884765863418579102 1 1 1.3505208492279052734 1.3505208492279052734 1 1 1.0971739292144775391 1 1 1.0003006458282470703 1.2077505588531494141 1.284451603889465332 1.3505208492279052734 1.4187616109848022461 1.3878216743469238281 1.7788313627243041992 2.2140893936157226563 1.7788313627243041992 1.6264138221740722656 1.8028122186660766602 2.6419634819030761719 1.9273805618286132813 1.9273805618286132813 1.9273805618286132813 1.9273805618286132813 2.1317989826202392578 3.2110114097595214844 2.1096408367156982422 2.2060205936431884766 2.4766926765441894531 2.420291900634765625 2.7656824588775634766 2.3099904060363769531 1.6578775644302368164 1.5218715667724609375 1.6360611915588378906 1.8362351655960083008 2.0917716026306152344 3.5284249782562255859 1.9697748422622680664 3.0927255153656005859 2.2718164920806884766 2.0166273117065429688 2.2718164920806884766 2.0303809642791748047 2.8220388889312744141 2.007465362548828125 2.3921022415161132813 3.2747108936309814453 2.3019509315490722656 2.4234757423400878906 2.5238490104675292969 3.0148146152496337891 3.2965180873870849609 2.9285936355590820313 3.1139492988586425781 3.0159623622894287109 3.2523036003112792969 2.8124840259552001953 2.0501439571380615234 2.2058856487274169922 3.0405089855194091797 2.1943008899688720703 2.5417046546936035156 1.8276456594467163086 2.6419634819030761719 2.5619788169860839844 2.0169472694396972656 1.9253841638565063477 1.716942906379699707 2.0656039714813232422 1.9478993415832519531 2.2019326686859130859 2.2245860099792480469 2.6678009033203125 2.3753578662872314453 1.5733786821365356445 1.8699089288711547852 1.7933229207992553711 1.5284997224807739258 1.8585977554321289063 1.493291020393371582 1.7382889986038208008 2.192836761474609375 2.0938603878021240234 2.0769536495208740234 1.8736236095428466797 2.0036666393280029297 2.0598881244659423828 1.6088356971740722656 1.9950842857360839844 2.2277710437774658203 1.9815351963043212891 2.1413867473602294922 2.1548941135406494141 2.1771309375762939453 1.9194282293319702148 2.2005133628845214844 1.9609078168869018555 1.8744843006134033203 1.9349988698959350586 2.6298604011535644531 2.9719936847686767578 2.6170244216918945313 2.4620733261108398438 3.3251810073852539063 2.6990573406219482422 3.3501224517822265625 2.1526455879211425781 2.61731719970703125 2.3859956264495849609 2.4963114261627197266 2.2921323776245117188 2.43015289306640625 2.3189067840576171875 1.5954258441925048828 1.9397969245910644531 8.5628185272216796875 8.69464874267578125 2.2540256977081298828 2.2995686531066894531 2.1515753269195556641 1.7928982973098754883 1.7865301370620727539 8.1134061813354492188 1.7777363061904907227 1.4880206584930419922 1.8708505630493164063 2.1827869415283203125 1.8003536462783813477 1.8651300668716430664 1.9411178827285766602 1.7622338533401489258 8.6693258285522460938 1.9210677146911621094 1.6178876161575317383 1.6397761106491088867 1.8280085325241088867 2.1217291355133056641 2.0577023029327392578 2.0460171699523925781 1.7977024316787719727 2.2144238948822021484 1.9920963048934936523 1.9192162752151489258 1.8950183391571044922 1.6962773799896240234 
2.5260949134826660156 2.4993257522583007813 3.3408472537994384766 2.935993194580078125 3.0017948150634765625 3.2643640041351318359 3.3132522106170654297 3.5849022865295410156 3.3140671253204345703 3.2679305076599121094 2.7696835994720458984 2.4210560321807861328 2.4136872291564941406 2.4864897727966308594 1.9133828878402709961 2.4606375694274902344 2.3485288619995117188 1.9203732013702392578 2.1910848617553710938 2.4172549247741699219 2.1211245059967041016 1.8591175079345703125 2.3135008811950683594 2.2948868274688720703 2.1669621467590332031 2.1972157955169677734 2.3426771163940429688 1.9397541284561157227 2.4498536586761474609 2.1960818767547607422 2.31539154052734375 2.6931617259979248047 2.5817255973815917969 2.3685367107391357422 2.7785959243774414063 2.4310443401336669922 2.6203036308288574219 2.6464722156524658203 2.6477894783020019531 2.4160337448120117188 2.1956338882446289063 2.2372663021087646484 1.8781546354293823242 2.1672027111053466797 1.9924236536026000977 2.2001898288726806641 1.4227849245071411133 1.5521047115325927734 1.4434256553649902344 1.6155230998992919922 1.3505208492279052734 1.2910495996475219727 1.3634141683578491211 1.2168591022491455078 1.3505208492279052734 1.2077505588531494141 1.493291020393371582 1 1 1 1.3505208492279052734 1.493291020393371582 1.0244803428649902344 1 1.050030827522277832 1.3505208492279052734 1.3593428134918212891 1.4099775552749633789 1.400562286376953125 1.6360611915588378906 1.7788313627243041992 1.7788313627243041992 1.7788313627243041992 1.9273805618286132813 2.6419634819030761719 1.9351621866226196289 2.986942291259765625 3.4669039249420166016 2.2714166641235351563 2.6321346759796142578 2.8220388889312744141 2.4875538349151611328 2.3353040218353271484 2.3157284259796142578 2.5576622486114501953 2.3940217494964599609 1.8730535507202148438 1.875786900520324707 1.7788313627243041992 1.7930216789245605469 2.0785539150238037109 1.9273805618286132813 3.4669039249420166016 2.140262603759765625 3.4669039249420166016 2.2531831264495849609 2.2642486095428466797 2.26740264892578125 3.4669039249420166016 2.3346033096313476563 3.2965180873870849609 2.8220388889312744141 2.2129473686218261719 2.986942291259765625 2.9318671226501464844 2.7457189559936523438 3.6815922260284423828 2.8562345504760742188 3.6493880748748779297 3.6493880748748779297 3.2965180873870849609 2.5801327228546142578 2.5782310962677001953 2.4982969760894775391 2.2828416824340820313 2.3728747367858886719 1.9638036489486694336 1.8395713567733764648 2.6820814609527587891 2.0773510932922363281 2.6682903766632080078 2.3370535373687744141 1.9523912668228149414 1.8870306015014648438 2.8000361919403076172 2.45047760009765625 2.5053510665893554688 2.1919097900390625 2.3406684398651123047 1.668545842170715332 2.0895936489105224609 2.5468850135803222656 1.8876546621322631836 1.9129934310913085938 2.2398686408996582031 2.0411939620971679688 2.2409970760345458984 1.9452341794967651367 2.5988180637359619141 1.6451393365859985352 1.5239427089691162109 1.9313530921936035156 1.6262110471725463867 2.0577218532562255859 2.0462377071380615234 2.2972090244293212891 1.8008558750152587891 1.4064414501190185547 1.0737613439559936523 1.9503899812698364258 1.5030412673950195313 1.7637953758239746094 8.7976856231689453125 1.7839184999465942383 2.6662967205047607422 2.9896309375762939453 3.2613294124603271484 2.5209755897521972656 2.3844747543334960938 2.3609778881072998047 2.7080550193786621094 2.3004584312438964844 2.2092413902282714844 2.0374951362609863281 8.4945726394653320313 2.4098727703094482422 2.28409576416015625 2.6173009872436523438 2.0568337440490722656 8.5800123214721679688 2.2631316184997558594 8.4483652114868164063 2.3504989147186279297 1.6020750999450683594 1.8980405330657958984 2.7026488780975341797 1.7763003110885620117 1.5811786651611328125 1.9220899343490600586 1.7390930652618408203 1.7132815122604370117 1.6338942050933837891 1.7574268579483032227 1.5533140897750854492 1.9948362112045288086 2.2597479820251464844 2.0992255210876464844 1.9353042840957641602 1.8519159555435180664 1.8280786275863647461 1.906535029411315918 2.3175194263458251953 1.8520195484161376953 1.9556362628936767578 1.8774567842483520508 2.1829802989959716797 2.1713004112243652344 1.9296280145645141602 1.7702046632766723633 1.5976053476333618164 
2.4519672393798828125 2.4253323078155517578 2.5220398902893066406 2.3904204368591308594 2.7086327075958251953 2.6578834056854248047 2.7156956195831298828 3.0353000164031982422 3.2216165065765380859 3.0966188907623291016 2.9067270755767822266 2.8374457359313964844 1.8864840269088745117 1.8084694147109985352 2.2291989326477050781 2.3718199729919433594 2.1088516712188720703 2.4535837173461914063 2.0646312236785888672 2.0455183982849121094 1.9602968692779541016 1.7925982475280761719 1.9471536874771118164 2.1793863773345947266 2.3401427268981933594 2.376316070556640625 2.2051064968109130859 1.9182504415512084961 2.1548280715942382813 2.4111552238464355469 2.2941751480102539063 2.6358194351196289063 2.9378578662872314453 2.8488030433654785156 2.5493361949920654297 2.4814705848693847656 2.6221487522125244141 2.6778743267059326172 2.4866075515747070313 2.5372793674468994141 2.0975091457366943359 1.9599791765213012695 1.9508396387100219727 1.9439543485641479492 1.7530521154403686523 1.8415349721908569336 1.1541365385055541992 1.4956696033477783203 1.0649803876876831055 1.2561043500900268555 1 1 1.1305135488510131836 1 1.4219058752059936523 1 1.3505208492279052734 1 1 1 1.3505208492279052734 1.493291020393371582 1 1 1.3505208492279052734 1.4219058752059936523 1.493291020393371582 1.6360611915588378906 1.0913536548614501953 1.32544708251953125 1.6360611915588378906 2.6419634819030761719 2.6419634819030761719 1.8138262033462524414 1.7788313627243041992 2.6419634819030761719 2.1504931449890136719 3.4669039249420166016 2.2129473686218261719 3.4669039249420166016 1.9273805618286132813 3.4669039249420166016 2.2129473686218261719 1.9682427644729614258 2.5044806003570556641 2.3485326766967773438 2.2457969188690185547 2.1437664031982421875 1.7011579275131225586 1.9599157571792602539 2.2083020210266113281 1.9273805618286132813 1.9273805618286132813 2.2718164920806884766 2.0164716243743896484 1.9273805618286132813 4.1048259735107421875 2.6414442062377929688 2.0311057567596435547 3.2965180873870849609 2.2283473014831542969 3.6493880748748779297 2.2305238246917724609 2.5530982017517089844 2.4556376934051513672 3.6493880748748779297 3.6493880748748779297 3.5202007293701171875 5.0473923683166503906 3.4669039249420166016 3.1877729892730712891 3.6493880748748779297 3.4669039249420166016 5.0473923683166503906 2.7519605159759521484 3.6493880748748779297 3.4669039249420166016 2.1212477684020996094 2.2129473686218261719 1.6578775644302368164 1.8475737571716308594 1.8802344799041748047 1.7840117216110229492 2.0961627960205078125 2.3803958892822265625 2.1022818088531494141 2.2462029457092285156 2.4071316719055175781 2.4902408123016357422 1.8086211681365966797 1.6758036613464355469 1.5698472261428833008 1.6360611915588378906 1.5338578224182128906 1.6755162477493286133 1.5787273645401000977 1.9171830415725708008 2.2679624557495117188 2.3077983856201171875 1.4035924673080444336 1.3818749189376831055 1.9087091684341430664 2.1436669826507568359 1.8979896306991577148 2.418712615966796875 1.6496348381042480469 1.9218009710311889648 1.8186752796173095703 1.8485708236694335938 1.7626935243606567383 1.6336733102798461914 1.3090393543243408203 1.9426673650741577148 1.8067435026168823242 2.2650649547576904297 2.6289741992950439453 2.8077645301818847656 2.7586851119995117188 2.2023515701293945313 2.2447550296783447266 2.6682555675506591797 2.4555916786193847656 2.3698303699493408203 2.4941027164459228516 2.4574513435363769531 2.4663372039794921875 2.3411071300506591797 2.5405814647674560547 2.0633702278137207031 2.0755052566528320313 2.2903940677642822266 8.6040067672729492188 2.0331797599792480469 1.9311795234680175781 2.1690671443939208984 2.2953212261199951172 1.3654201030731201172 1.6401752233505249023 1.247170567512512207 1.4252781867980957031 1.3936083316802978516 1.7332345247268676758 1.7574117183685302734 1.8185350894927978516 2.1659698486328125 2.0340442657470703125 1.944432377815246582 2.0290515422821044922 8.8065767288208007813 2.5106456279754638672 2.2087078094482421875 2.0546426773071289063 1.9673901796340942383 1.7065627574920654297 2.1124410629272460938 2.1529643535614013672 2.1866908073425292969 2.6419634819030761719 1.6787145137786865234 1.7788313627243041992 
2.1910631656646728516 2.3789119720458984375 2.6050410270690917969 2.3660802841186523438 2.5800597667694091797 2.701824188232421875 2.6210074424743652344 2.6648759841918945313 2.6930716037750244141 3.0762872695922851563 2.6224045753479003906 2.8681943416595458984 2.9317345619201660156 2.6373553276062011719 2.6110317707061767578 2.5066981315612792969 2.3455438613891601563 2.4096493721008300781 2.2870807647705078125 1.6602389812469482422 1.7641938924789428711 1.902173161506652832 2.0348496437072753906 2.4877762794494628906 2.3223736286163330078 2.3013892173767089844 2.1316614151000976563 1.8521813154220581055 1.9887187480926513672 2.3518304824829101563 2.1523888111114501953 2.548583984375 2.7509772777557373047 3.1179654598236083984 2.3485515117645263672 2.2433605194091796875 2.9154703617095947266 2.7691791057586669922 2.5717403888702392578 2.3025178909301757813 2.2807064056396484375 2.1521544456481933594 2.2704112529754638672 1.6013965606689453125 1.4332147836685180664 1.9873405694961547852 1.8733974695205688477 1.4732381105422973633 1.1445833444595336914 1.22884368896484375 1.4038969278335571289 1.2290121316909790039 1.3505208492279052734 1.5685536861419677734 1 1.493291020393371582 1.3505208492279052734 1 1.0649803876876831055 1.0846908092498779297 1 1 1.2077505588531494141 1.2077505588531494141 1 1.2980916500091552734 1.493291020393371582 1.7788313627243041992 1.6264138221740722656 1.4776235818862915039 1.6360611915588378906 1.7788313627243041992 1.7586873769760131836 1.7788313627243041992 1.9273805618286132813 2.2305238246917724609 2.986942291259765625 2.2669694423675537109 1.9813574552536010742 2.2129473686218261719 2.1332154273986816406 1.9574986696243286133 4.6208863258361816406 1.9684967994689941406 2.0731513500213623047 2.0629131793975830078 2.2517688274383544922 2.0409517288208007813 1.6264138221740722656 1.9273805618286132813 2.6321346759796142578 2.7390532493591308594 3.6493880748748779297 3.6493880748748779297 1.9574986696243286133 3.4669039249420166016 3.2429821491241455078 4.218257904052734375 3.9891257286071777344 2.6820814609527587891 2.1855480670928955078 2.2188198566436767578 2.3574066162109375 2.5958425998687744141 3.4669039249420166016 3.8335995674133300781 3.6815922260284423828 2.9099938869476318359 2.7170460224151611328 3.0178933143615722656 3.4669039249420166016 2.584827423095703125 3.2965180873870849609 4.26065826416015625 2.3350765705108642578 3.8335995674133300781 2.0283679962158203125 1.9273805618286132813 1.9273805618286132813 1.7788313627243041992 1.493291020393371582 1.6360611915588378906 1.8153682947158813477 1.725449681282043457 1.672580718994140625 1.7149877548217773438 2.5954408645629882813 2.1007382869720458984 2.3641028404235839844 2.2771356105804443359 1.8244460821151733398 1.8590714931488037109 2.1593890190124511719 1.6650558710098266602 1.8256099224090576172 1.6878279447555541992 2.2648959159851074219 2.9033014774322509766 2.2037117481231689453 1.910802006721496582 2.0563490390777587891 2.1004881858825683594 2.1134152412414550781 1.6774594783782958984 2.1698210239410400391 2.0918843746185302734 1.432888031005859375 1.6158282756805419922 1.8429473638534545898 1.7307391166687011719 1.9312636852264404297 2.1461730003356933594 2.0073702335357666016 2.7195074558258056641 2.1719114780426025391 2.4151716232299804688 9.0892419815063476563 2.1723635196685791016 2.4956591129302978516 1.8524504899978637695 2.3947529792785644531 2.6121158599853515625 1.8705852031707763672 2.2237200736999511719 2.2864010334014892578 8.9336805343627929688 2.4922099113464355469 2.0017249584197998047 1.7847474813461303711 2.2722954750061035156 2.3685877323150634766 8.5300540924072265625 1.9641605615615844727 2.2538900375366210938 1.9092711210250854492 2.2712645530700683594 1.6113522052764892578 1.3739401102066040039 1.0649803876876831055 1.5303763151168823242 1.7062202692031860352 1.455462336540222168 1.5751549005508422852 2.091400146484375 2.2050652503967285156 8.9131593704223632813 8.7279949188232421875 8.5499124526977539063 8.4060840606689453125 2.0949420928955078125 1.8816561698913574219 1.8882510662078857422 1.6985329389572143555 1.9869633913040161133 2.1890063285827636719 2.2851946353912353516 2.1821923255920410156 2.4766926765441894531 1.7904338836669921875 2.6592471599578857422 
2.2501239776611328125 2.5252223014831542969 2.5158607959747314453 2.2963452339172363281 2.3888294696807861328 2.2846758365631103516 2.6992330551147460938 2.88306427001953125 2.5547246932983398438 2.6615731716156005859 2.8027830123901367188 2.865543365478515625 2.5533294677734375 2.7094941139221191406 3.0015306472778320313 2.5319797992706298828 2.433506011962890625 2.1867325305938720703 2.6251332759857177734 2.0251743793487548828 1.9585920572280883789 2.1621556282043457031 2.3005774021148681641 2.0784952640533447266 2.1918447017669677734 2.3846950531005859375 2.1287708282470703125 2.2065746784210205078 1.9303050041198730469 2.0728967189788818359 2.3207347393035888672 2.4977800846099853516 3.1565899848937988281 2.9111661911010742188 2.7692992687225341797 2.3988087177276611328 2.75032806396484375 2.6377089023590087891 2.8529198169708251953 2.2957882881164550781 2.4534094333648681641 1.9071134328842163086 2.2841517925262451172 2.1502928733825683594 1.6526817083358764648 1.7844960689544677734 1.0704466104507446289 1.5389319658279418945 1.4947712421417236328 1.8036048412322998047 2.0673630237579345703 1.1368485689163208008 1.3881210088729858398 1.2156914472579956055 1.3505208492279052734 1.3505208492279052734 1.493291020393371582 1.3505208492279052734 1.2077505588531494141 1 1.493291020393371582 1.0244803428649902344 1 1.3505208492279052734 1.1287527084350585938 1.493291020393371582 1.493291020393371582 1.3505305051803588867 1.6264138221740722656 1.7788313627243041992 1.7525779008865356445 1.3474953174591064453 1.6264138221740722656 2.4411988258361816406 1.9273805618286132813 1.9273805618286132813 2.0488841533660888672 1.9273805618286132813 1.9273805618286132813 2.0835103988647460938 2.2914130687713623047 2.3756649494171142578 2.8220388889312744141 2.5070652961730957031 2.1906938552856445313 2.2157077789306640625 1.7788313627243041992 2.030857086181640625 1.9273805618286132813 3.5047473907470703125 3.2965180873870849609 2.4659085273742675781 2.7692322731018066406 4.154010772705078125 2.0283679962158203125 3.6815922260284423828 2.2283473014831542969 2.4118311405181884766 2.2283473014831542969 2.4659085273742675781 2.2283473014831542969 3.6493880748748779297 2.4802682399749755859 3.4669039249420166016 4.1048259735107421875 2.9516263008117675781 3.6951785087585449219 3.8347759246826171875 3.2965180873870849609 2.6294305324554443359 3.0723652839660644531 2.7842402458190917969 3.6493880748748779297 2.9318671226501464844 3.6493880748748779297 1.9849596023559570313 2.0264003276824951172 1.9273805618286132813 1.9541800022125244141 2.1566908359527587891 1.6360611915588378906 1.2067902088165283203 1.5930852890014648438 1.9238790273666381836 1.7990949153900146484 2.1751084327697753906 1.8511798381805419922 2.2694950103759765625 2.0200562477111816406 2.482574462890625 1.5889769792556762695 1.4111776351928710938 1.6530170440673828125 1.9310451745986938477 1.4671722650527954102 1.9035446643829345703 2.5180068016052246094 2.224559783935546875 2.42484283447265625 1.5552598237991333008 1.8722633123397827148 2.1161706447601318359 2.0354967117309570313 2.1509506702423095703 2.2773911952972412109 2.1132066249847412109 2.3315351009368896484 2.3210735321044921875 2.1108021736145019531 2.0936162471771240234 2.1835412979125976563 1.9096522331237792969 2.3906018733978271484 2.6233599185943603516 2.7699816226959228516 2.5837876796722412109 1.6232254505157470703 2.4746854305267333984 1.8602730035781860352 2.1149523258209228516 2.6778581142425537109 2.1492452621459960938 2.3884549140930175781 9.1304368972778320313 2.0494132041931152344 1.95209503173828125 1.995585322380065918 2.5360319614410400391 2.0919051170349121094 9.398845672607421875 1.52889251708984375 1.8155380487442016602 1.794634699821472168 1.9449977874755859375 2.2421395778656005859 2.0017597675323486328 1.4086871147155761719 1.1559896469116210938 1.1615424156188964844 1.7983978986740112305 1.3611449003219604492 1.3280196189880371094 1.43682098388671875 1.8594508171081542969 1.9321242570877075195 1.7678267955780029297 1.6497961282730102539 1.781332850456237793 1.8906781673431396484 1.7888062000274658203 1.8230879306793212891 2.1502268314361572266 2.109760284423828125 1.8914253711700439453 2.0957150459289550781 2.3605458736419677734 1.9273805618286132813 1.9444774389266967773 1.9619773626327514648 2.8220388889312744141 
2.1773374080657958984 2.2508845329284667969 2.0949623584747314453 2.0844557285308837891 2.3054862022399902344 2.5058176517486572266 2.5947935581207275391 2.3559501171112060547 2.2988924980163574219 2.4811289310455322266 2.6917498111724853516 2.7669737339019775391 2.4188847541809082031 2.5089719295501708984 3.0872132778167724609 2.4612848758697509766 2.4418699741363525391 2.214733123779296875 1.6973588466644287109 1.7910127639770507813 1.7639272212982177734 1.95981597900390625 2.3358094692230224609 2.0997610092163085938 2.341522216796875 2.11565399169921875 2.4947886466979980469 2.4390490055084228516 1.9176435470581054688 1.7972089052200317383 1.9820444583892822266 2.1327877044677734375 2.4193289279937744141 2.5034289360046386719 2.7372353076934814453 2.7911245822906494141 2.7744491100311279297 2.9013829231262207031 2.0908429622650146484 1.9356715679168701172 2.0895049571990966797 1.8448418378829956055 1.9453690052032470703 1.5906672477722167969 2.1137907505035400391 1.9538738727569580078 2.0621690750122070313 1.8040357828140258789 1.7880266904830932617 1.343509674072265625 1.5747928619384765625 1.2409281730651855469 1.3355773687362670898 1.8008708953857421875 1.0912457704544067383 1.3505208492279052734 1.6360611915588378906 1.493291020393371582 1.3505208492279052734 1 1.0244803428649902344 1.2077505588531494141 1.493291020393371582 1.493291020393371582 1.1957230567932128906 1.6360611915588378906 1.493291020393371582 1.493291020393371582 1.6344852447509765625 1.7788313627243041992 1.6264138221740722656 1.6264138221740722656 1.6264138221740722656 1.7788313627243041992 1.9273805618286132813 1.9273805618286132813 1.7788313627243041992 1.9273805618286132813 1.9273805618286132813 2.0745522975921630859 2.2606589794158935547 3.2429821491241455078 3.2429821491241455078 2.3752939701080322266 2.6250302791595458984 1.9991765022277832031 1.8455517292022705078 1.9868513345718383789 2.8220388889312744141 2.2129473686218261719 2.2718164920806884766 4.1445622444152832031 2.3092439174652099609 3.0711941719055175781 2.3431479930877685547 2.2283473014831542969 2.7692322731018066406 3.8347759246826171875 3.4153168201446533203 2.4118311405181884766 3.2656826972961425781 2.6062388420104980469 3.0711941719055175781 2.4118311405181884766 2.8533642292022705078 3.9891257286071777344 2.7340238094329833984 2.3847799301147460938 2.5069580078125 5.0473923683166503906 2.3156950473785400391 2.5698504447937011719 3.2965180873870849609 2.3412470817565917969 3.6493880748748779297 2.0423228740692138672 1.9697748422622680664 1.9121928215026855469 2.0859570503234863281 1.7706348896026611328 1.8032609224319458008 1.6485337018966674805 1.957211613655090332 1.7979069948196411133 1.9619400501251220703 2.3280212879180908203 1.8485032320022583008 1.493291020393371582 1.7994447946548461914 1.7378317117691040039 1.8153699636459350586 2.1375138759613037109 2.2112951278686523438 1.665360569953918457 1.6884021759033203125 2.3713974952697753906 2.0487401485443115234 2.0123879909515380859 2.6575016975402832031 2.1490273475646972656 1.6540066003799438477 2.6097295284271240234 2.1886084079742431641 2.2365067005157470703 2.6676106452941894531 2.0376844406127929688 1.8586087226867675781 2.5324501991271972656 2.2637925148010253906 2.2105209827423095703 2.3253219127655029297 1.9431984424591064453 2.7025115489959716797 2.3590445518493652344 2.6965420246124267578 1.8400073051452636719 1.5274586677551269531 1.8931099176406860352 1.5610711574554443359 1.5998703241348266602 2.3261709213256835938 2.1928935050964355469 2.2243418693542480469 2.2193753719329833984 2.2497503757476806641 2.0572602748870849609 1.6594611406326293945 1.6680970191955566406 2.3441572189331054688 8.5784082412719726563 1.8039515018463134766 8.4741764068603515625 8.7227277755737304688 1.6897052526473999023 1.9186201095581054688 1.5803248882293701172 1.8324109315872192383 1.0649803876876831055 1.4112396240234375 1.3642396926879882813 1.3137617111206054688 1.7825517654418945313 1.6885173320770263672 1.5863541364669799805 1.5959572792053222656 1.691838383674621582 1.7206615209579467773 8.3883953094482421875 8.355144500732421875 8.5705060958862304688 2.0645918846130371094 2.3610718250274658203 2.3467774391174316406 2.3574557304382324219 2.1277680397033691406 1.9820257425308227539 2.50002288818359375 2.4118311405181884766 3.4669039249420166016 1.9273805618286132813 
2.0640943050384521484 2.2107722759246826172 2.003253936767578125 1.9166917800903320313 2.1982817649841308594 2.3287105560302734375 2.4642782211303710938 2.4489037990570068359 2.68180084228515625 2.5559461116790771484 2.6234924793243408203 2.7971391677856445313 3.011363983154296875 2.8926091194152832031 2.8382098674774169922 2.7468931674957275391 2.4275033473968505859 2.1105144023895263672 1.9558538198471069336 1.7064404487609863281 2.0233359336853027344 1.900832056999206543 2.3023447990417480469 2.2317321300506591797 2.3828628063201904297 2.4055428504943847656 2.4775309562683105469 2.6327300071716308594 1.9689524173736572266 2.0772867202758789063 1.9726852178573608398 2.3633444309234619141 2.3010110855102539063 2.6335816383361816406 2.2335855960845947266 2.5349850654602050781 2.5684485435485839844 2.962116241455078125 2.095935821533203125 2.4976909160614013672 1.9501005411148071289 1.4485212564468383789 1.4905279874801635742 1.8310164213180541992 1.904291987419128418 1.8403562307357788086 1.3714295625686645508 1.4219357967376708984 1.4089876413345336914 1.5539464950561523438 1.6761710643768310547 1.93316650390625 1.5026143789291381836 1.4057923555374145508 1.2732617855072021484 1.0523359775543212891 1.4209939241409301758 1.493291020393371582 1.0244803428649902344 1.2077505588531494141 1 1 1 1.493291020393371582 1.493291020393371582 1.2865890264511108398 1.493291020393371582 1.32544708251953125 1.6360611915588378906 1.8502165079116821289 1.6266878843307495117 2.6419634819030761719 1.7280544042587280273 1.9273805618286132813 2.0091226100921630859 2.986942291259765625 2.50002288818359375 2.2129473686218261719 2.1393759250640869141 2.2661812305450439453 2.4509847164154052734 2.6719710826873779297 3.8335995674133300781 2.6820814609527587891 2.0484960079193115234 1.9830318689346313477 1.7788313627243041992 1.6964681148529052734 3.5284249782562255859 3.2656826972961425781 3.6493880748748779297 2.2283473014831542969 2.3157980442047119141 2.4659085273742675781 3.8347759246826171875 2.2283473014831542969 3.8347759246826171875 4.4281702041625976563 3.8347759246826171875 2.2283473014831542969 2.7692322731018066406 3.0711941719055175781 2.4330153465270996094 2.3350765705108642578 2.6150879859924316406 4.1126537322998046875 2.3935251235961914063 2.2283473014831542969 2.8059461116790771484 3.6951785087585449219 2.4659085273742675781 2.4490251541137695313 2.2919604778289794922 3.4669039249420166016 2.0295433998107910156 2.6419634819030761719 1.9273805618286132813 1.9273805618286132813 1.9273805618286132813 1.7788313627243041992 1.7125682830810546875 2.2041265964508056641 2.1114358901977539063 2.301433563232421875 2.2364132404327392578 1.9180531501770019531 1.5904685258865356445 1.8296816349029541016 1.6393399238586425781 1.9172195196151733398 1.9093717336654663086 1.9342477321624755859 1.7658326625823974609 1.8748733997344970703 2.1805546283721923828 2.3876018524169921875 2.1193947792053222656 2.2760846614837646484 2.2599499225616455078 2.0895979404449462891 1.9987769126892089844 2.0215017795562744141 1.8927693367004394531 1.4406453371047973633 1.7721261978149414063 2.2998929023742675781 2.2671437263488769531 2.0776038169860839844 2.7257125377655029297 2.278217315673828125 2.0006756782531738281 2.4139447212219238281 2.8452548980712890625 2.8538391590118408203 1.7028104066848754883 1.6523548364639282227 1.5283349752426147461 1.5768963098526000977 1.5086061954498291016 1.7024822235107421875 2.0800499916076660156 1.9132633209228515625 8.603118896484375 2.2032363414764404297 2.1529324054718017578 2.2954962253570556641 2.2628302574157714844 2.0473203659057617188 1.7536380290985107422 1.4868869781494140625 1.6485253572463989258 1.440966486930847168 1.8239828348159790039 1.6142838001251220703 1.9473785161972045898 1.8282302618026733398 1.1500695943832397461 1.279866337776184082 1.3798738718032836914 1.2947022914886474609 1.2249215841293334961 1.7956559658050537109 1.6500840187072753906 1.6268824338912963867 1.8602449893951416016 2.0649359226226806641 8.57939910888671875 2.0747835636138916016 1.873226165771484375 1.8588831424713134766 2.1569492816925048828 2.3900501728057861328 2.2269203662872314453 2.2990312576293945313 2.2336790561676025391 2.5060126781463623047 2.0557038784027099609 3.8335995674133300781 2.2129473686218261719 2.6414442062377929688 
1.9624128341674804688 1.9965399503707885742 1.7788313627243041992 1.9918640851974487305 2.0455858707427978516 2.103488922119140625 2.1479766368865966797 2.4161603450775146484 2.6288845539093017578 2.6560437679290771484 2.6140012741088867188 2.8942365646362304688 2.6695215702056884766 2.8524196147918701172 2.7765381336212158203 2.7250630855560302734 2.4678080081939697266 2.2601497173309326172 2.0177462100982666016 2.0881915092468261719 2.0344297885894775391 1.6726840734481811523 1.675183415412902832 1.7143684625625610352 2.1273291110992431641 2.1469221115112304688 2.2137515544891357422 2.2125885486602783203 1.9050027132034301758 2.0226809978485107422 2.0280535221099853516 1.9689261913299560547 2.1667752265930175781 1.9417439699172973633 2.1376042366027832031 2.568958282470703125 2.5975458621978759766 2.5938882827758789063 1.9614186286926269531 1.7784395217895507813 1.9067299365997314453 1.6189036369323730469 1.6708909273147583008 1.9839676618576049805 1.3623058795928955078 1.6184898614883422852 1.7107765674591064453 1.5151780843734741211 1.2576678991317749023 1.3929340839385986328 1.5420764684677124023 1.7858605384826660156 1.4876329898834228516 1.1066954135894775391 1 1.0964624881744384766 1.3505208492279052734 1.5646760463714599609 1.493291020393371582 1 1 1 1 1 1 1.3505208492279052734 1.493291020393371582 1.3361316919326782227 1.6264138221740722656 1.7788313627243041992 1.9273805618286132813 2.6419634819030761719 1.9273805618286132813 1.9273805618286132813 2.2129473686218261719 2.6419634819030761719 1.9273805618286132813 1.9273805618286132813 2.6419634819030761719 2.4756305217742919922 2.400054931640625 3.6679477691650390625 3.2429821491241455078 2.6595785617828369141 2.4411988258361816406 2.0529799461364746094 1.9623798131942749023 2.1501457691192626953 2.8871884346008300781 2.2718164920806884766 2.2129473686218261719 2.3064684867858886719 2.2718164920806884766 2.986942291259765625 2.6062388420104980469 3.8347759246826171875 3.2866346836090087891 5.1796307563781738281 3.9891257286071777344 2.4118311405181884766 3.8347759246826171875 4.4281702041625976563 2.8059461116790771484 3.9891257286071777344 2.4726705551147460938 3.0050258636474609375 2.7408540248870849609 2.9447815418243408203 2.8955874443054199219 3.6493880748748779297 5.0473923683166503906 2.1860074996948242188 2.0409839153289794922 2.6419634819030761719 1.9444774389266967773 1.8502165079116821289 1.9273805618286132813 1.9273805618286132813 1.9273805618286132813 1.6908879280090332031 1.7023683786392211914 1.8791270256042480469 2.0059199333190917969 1.9589964151382446289 2.1392982006072998047 2.2820754051208496094 2.1551954746246337891 1.7234617471694946289 1.5209938287734985352 1.6507827043533325195 1.493291020393371582 1.7686016559600830078 1.5228885412216186523 1.5845847129821777344 1.7530765533447265625 1.8241797685623168945 2.1027557849884033203 1.7505123615264892578 2.4755909442901611328 1.9834357500076293945 2.366058349609375 2.1499614715576171875 2.3004674911499023438 1.9923774003982543945 1.8925673961639404297 2.3938083648681640625 2.0637650489807128906 2.4175703525543212891 2.8020815849304199219 2.4724063873291015625 2.5092332363128662109 2.3350009918212890625 2.0053739547729492188 2.6078133583068847656 2.0633215904235839844 1.6036729812622070313 1.7226155996322631836 1.6531765460968017578 1.5108283758163452148 2.278118133544921875 2.2944726943969726563 2.1851260662078857422 8.6072559356689453125 2.4783060550689697266 2.2211515903472900391 2.3840477466583251953 2.1898858547210693359 1.7634067535400390625 1.7982372045516967773 1.7534954547882080078 1.4149886369705200195 1 1.3688998222351074219 1.3853713274002075195 1.1127473115921020508 1.2752850055694580078 1.3175116777420043945 1.1619772911071777344 1.951237797737121582 1.2911241054534912109 1.3192431926727294922 1.4794867038726806641 1.6184152364730834961 1.5717576742172241211 1.6415120363235473633 2.094898223876953125 8.8104505538940429688 2.1851527690887451172 2.3298435211181640625 8.9858179092407226563 8.7398014068603515625 2.8976442813873291016 2.2223310470581054688 2.2246851921081542969 2.7795619964599609375 2.3639352321624755859 2.6419634819030761719 1.9273805618286132813 1.9273805618286132813 1.7644934654235839844 
2.13262939453125 2.0129935741424560547 1.6628471612930297852 1.8582822084426879883 1.7832704782485961914 2.0864315032958984375 2.0347375869750976563 1.7961218357086181641 1.934701085090637207 2.0782902240753173828 2.5917415618896484375 2.3853936195373535156 2.7425723075866699219 2.4492800235748291016 2.7056028842926025391 2.6780881881713867188 2.4024076461791992188 2.0741777420043945313 2.3485741615295410156 2.0303313732147216797 1.7013419866561889648 1.6288007497787475586 1.9404137134552001953 1.9496866464614868164 1.8855395317077636719 2.1530966758728027344 1.8527318239212036133 2.1511766910552978516 2.143604278564453125 1.893654942512512207 2.1443359851837158203 1.6579082012176513672 2.0807018280029296875 2.1211419105529785156 2.1883261203765869141 2.3478634357452392578 2.5369913578033447266 2.7725048065185546875 1.7288049459457397461 2.2169137001037597656 1.5567352771759033203 1.3420861959457397461 1.1521204710006713867 1.1862419843673706055 1.356104731559753418 1.747109532356262207 1.8266557455062866211 1.4422328472137451172 1.4679079055786132813 1.3548207283020019531 1.18206024169921875 1.4904569387435913086 1.3608686923980712891 1.1047781705856323242 1 1.2420570850372314453 1.2477474212646484375 1.4773763418197631836 1.5462080240249633789 1 1.0649803876876831055 1 1 1 1.0649803876876831055 1.3505208492279052734 1.32544708251953125 1.6360611915588378906 1.6264138221740722656 1.7788313627243041992 1.7860915660858154297 1.7788313627243041992 2.0344383716583251953 1.9273805618286132813 1.9273805618286132813 2.6419634819030761719 2.0271649360656738281 1.9492264986038208008 2.1327314376831054688 2.4651856422424316406 2.7105741500854492188 2.7586762905120849609 3.0196509361267089844 2.8498625755310058594 2.8066732883453369141 2.1720526218414306641 2.8220388889312744141 2.2718164920806884766 2.2718164920806884766 3.2429821491241455078 1.9849596023559570313 3.4669039249420166016 2.2129473686218261719 2.2283473014831542969 2.7519605159759521484 3.8347759246826171875 3.0110311508178710938 2.7692322731018066406 2.4659085273742675781 2.2283473014831542969 2.3157980442047119141 2.2283473014831542969 2.2283473014831542969 3.6951785087585449219 3.6951785087585449219 5.0473923683166503906 2.5853936672210693359 2.8585484027862548828 3.0209376811981201172 5.0473923683166503906 2.3532290458679199219 2.1397254467010498047 2.2319471836090087891 2.0317668914794921875 1.9121928215026855469 1.9541800022125244141 1.9273805618286132813 1.9509414434432983398 2.6419634819030761719 2.3241057395935058594 1.7203314304351806641 1.691079258918762207 1.493291020393371582 2.2834374904632568359 2.5257229804992675781 2.5920343399047851563 2.2442133426666259766 1.8868424892425537109 1.7445595264434814453 2.2094104290008544922 1.9516201019287109375 2.1708278656005859375 1.7788313627243041992 1.9623744487762451172 1.8540060520172119141 1.6360611915588378906 1.7788313627243041992 2.4339253902435302734 1.8077969551086425781 2.2500874996185302734 2.3852427005767822266 1.9992136955261230469 2.1566908359527587891 2.020320892333984375 2.1083314418792724609 1.9514544010162353516 2.2250499725341796875 2.1571149826049804688 2.377323150634765625 2.1944150924682617188 2.2878448963165283203 2.5228602886199951172 2.3912270069122314453 1.7264131307601928711 1.5076302289962768555 1.4380002021789550781 1.7504371404647827148 1.5304437875747680664 1.8264163732528686523 1.9661024808883666992 1.8912470340728759766 1.8912818431854248047 1.7811067104339599609 1.9052635431289672852 2.0409536361694335938 1.9391016960144042969 1.9920563697814941406 1.8587154150009155273 1.6290984153747558594 1.971636652946472168 1.9126111268997192383 1.5134166479110717773 1 1.0876901149749755859 1.7232586145401000977 1.4471118450164794922 1.5872579813003540039 1.0649803876876831055 1.1285912990570068359 1.2042733430862426758 1.1158832311630249023 1.1476426124572753906 1.7307007312774658203 1.8356065750122070313 8.6180315017700195313 1.9539234638214111328 8.7151765823364257813 2.2678520679473876953 2.1522743701934814453 2.2942769527435302734 2.2498147487640380859 2.2406105995178222656 1.7597156763076782227 2.2663319110870361328 2.0175101757049560547 1.9225293397903442383 2.0830535888671875 1.6960996389389038086 2.4766926765441894531 1.8820416927337646484 
2.0775997638702392578 1.7074462175369262695 1.6360611915588378906 1.8802344799041748047 1.6360611915588378906 1.7377073764801025391 1.493291020393371582 1.5895563364028930664 1.8066477775573730469 2.1278090476989746094 2.2354173660278320313 2.3761563301086425781 2.6495397090911865234 2.7815911769866943359 2.47599029541015625 2.4182612895965576172 2.0522189140319824219 2.2360370159149169922 1.7289148569107055664 1.9554529190063476563 1.7280119657516479492 1.7034044265747070313 1.6148760318756103516 1.654851078987121582 1.7309765815734863281 2.1058957576751708984 1.9207315444946289063 2.3035311698913574219 2.365619659423828125 1.9598654508590698242 2.1252908706665039063 1.9614000320434570313 1.7252624034881591797 1.9765801429748535156 2.2686524391174316406 2.8119676113128662109 2.8259267807006835938 2.4060485363006591797 2.0004370212554931641 1.8240638971328735352 1.9602017402648925781 1.5385792255401611328 1.7426341772079467773 1.8852998018264770508 1.9815189838409423828 1.8393304347991943359 1.9833947420120239258 1.9583984613418579102 1.5597580671310424805 1.4455559253692626953 1.3241837024688720703 1.0959520339965820313 1.3538283109664916992 1.6141736507415771484 1.3001004457473754883 1.1415849924087524414 1.6116757392883300781 1.9498010873794555664 1.7146466970443725586 1.3488173484802246094 1.3281793594360351563 1.415430903434753418 1.0649803876876831055 1 1 1 1.3505208492279052734 1.32544708251953125 1.4941315650939941406 1.6425864696502685547 1.7788313627243041992 1.9273805618286132813 1.6293581724166870117 1.9273805618286132813 2.0392689704895019531 1.8502165079116821289 2.0194327831268310547 2.1335451602935791016 2.2669827938079833984 3.4669039249420166016 3.0927255153656005859 3.6493880748748779297 2.8475034236907958984 2.6392545700073242188 4.1445622444152832031 2.7390532493591308594 2.986942291259765625 3.4669039249420166016 2.0758810043334960938 2.2129473686218261719 3.4669039249420166016 5.0473923683166503906 1.9574986696243286133 2.2283473014831542969 3.6493880748748779297 3.0711941719055175781 2.3350765705108642578 3.9891257286071777344 3.8347759246826171875 2.6414442062377929688 3.4669039249420166016 3.2429821491241455078 2.2283473014831542969 2.2283473014831542969 2.2718164920806884766 3.6493880748748779297 3.6493880748748779297 2.5825669765472412109 2.5980112552642822266 2.5539929866790771484 2.4604637622833251953 1.9567312002182006836 1.9154220819473266602 2.5577118396759033203 1.9273805618286132813 2.3116667270660400391 2.4766926765441894531 1.7957634925842285156 1.8232976198196411133 1.6360611915588378906 1.8892078399658203125 1.8232631683349609375 1.703284144401550293 1.9135196208953857422 2.0956254005432128906 2.1083388328552246094 2.1411757469177246094 1.9376211166381835938 2.0590152740478515625 1.9800167083740234375 1.8212001323699951172 2.0588040351867675781 1.7443929910659790039 2.0219554901123046875 2.3852427005767822266 1.6745015382766723633 2.3213939666748046875 2.6419634819030761719 2.2350964546203613281 2.6419634819030761719 2.0240483283996582031 1.9827845096588134766 2.4376759529113769531 2.0876331329345703125 1.7044618129730224609 1.7058696746826171875 1.863201141357421875 1.7725861072540283203 1.6976807117462158203 2.7393710613250732422 1.8336291313171386719 2.0402233600616455078 8.4264621734619140625 1.8532874584197998047 1.5628626346588134766 1.7545197010040283203 1.6399003267288208008 1.9399398565292358398 1.9193247556686401367 2.2055094242095947266 2.0695731639862060547 1.9277211427688598633 1.9417222738265991211 1.9770597219467163086 2.4646999835968017578 1.8016790151596069336 1.9590497016906738281 1.8029788732528686523 1.8358637094497680664 2.1514470577239990234 1.6058297157287597656 1.1936898231506347656 1.4158776998519897461 1.3677600622177124023 1.2326120138168334961 1.2077505588531494141 1.2273267507553100586 1.0649803876876831055 1 1 1.3093849420547485352 1.2652517557144165039 8.0445299148559570313 1.6385221481323242188 1.7392253875732421875 2.2129437923431396484 8.7216768264770507813 8.8688192367553710938 8.6468753814697265625 2.2201962471008300781 2.1905443668365478516 2.0487813949584960938 1.5989480018615722656 1.7329715490341186523 1.8952616453170776367 2.0875697135925292969 1.6578775644302368164 1.6422827243804931641 1.6264138221740722656 1.6264138221740722656 
2.4826688766479492188 1.9275492429733276367 1.6753566265106201172 1.7788313627243041992 1.6360611915588378906 1.6602996587753295898 1.493291020393371582 1.3771700859069824219 1.493291020393371582 2.0897002220153808594 2.2619357109069824219 2.3673806190490722656 2.1415989398956298828 2.1386251449584960938 1.9662500619888305664 2.1412518024444580078 1.9146938323974609375 1.9273805618286132813 1.8124128580093383789 2.0406255722045898438 1.7658954858779907227 2.1893928050994873047 2.1967020034790039063 1.8403240442276000977 1.7589186429977416992 1.4738351106643676758 1.5552351474761962891 2.222187042236328125 1.8654110431671142578 2.2908167839050292969 2.1074299812316894531 2.0501489639282226563 2.2760577201843261719 2.3675086498260498047 2.288501739501953125 2.7174966335296630859 2.9149265289306640625 2.7185163497924804688 2.4224238395690917969 2.1501436233520507813 2.1625640392303466797 2.339092254638671875 1.8941596746444702148 2.0263988971710205078 1.8966537714004516602 1.9513728618621826172 1.7945280075073242188 1.5435461997985839844 1.3516244888305664063 1.0274564027786254883 1.2077505588531494141 1.0951484441757202148 1.3558795452117919922 1.4741246700286865234 2.0226104259490966797 1.685622096061706543 1.8989412784576416016 1.8030356168746948242 2.1914544105529785156 1.5843060016632080078 1.2829157114028930664 1.0197737216949462891 1 1 1 1.2077505588531494141 1.2791357040405273438 1 1.2056266069412231445 1.7074462175369262695 1.9273805618286132813 1.6264138221740722656 1.4776235818862915039 2.4411988258361816406 2.3778810501098632813 1.6264138221740722656 2.6419634819030761719 2.2786147594451904297 3.4669039249420166016 2.2925026416778564453 3.2429821491241455078 2.6433725357055664063 2.5537362098693847656 4.0849785804748535156 3.2429821491241455078 3.4669039249420166016 3.2429821491241455078 5.0473923683166503906 2.2283473014831542969 3.4669039249420166016 2.0283679962158203125 3.4669039249420166016 3.4669039249420166016 2.4118311405181884766 2.4659085273742675781 2.3157980442047119141 2.4118311405181884766 3.9891257286071777344 2.2283473014831542969 3.6815922260284423828 1.9273805618286132813 2.6321346759796142578 3.6815922260284423828 3.8335995674133300781 2.0098114013671875 2.0967857837677001953 2.1317989826202392578 2.2129473686218261719 2.3008718490600585938 2.2329859733581542969 2.2028725147247314453 1.9635097980499267578 1.8313546180725097656 1.6264138221740722656 2.0805308818817138672 2.2026526927947998047 2.6419634819030761719 1.6756628751754760742 1.8564363718032836914 1.7558858394622802734 1.9584000110626220703 1.7071245908737182617 2.2148265838623046875 2.3398706912994384766 1.9046504497528076172 2.3518993854522705078 2.2614262104034423828 2.1697866916656494141 1.9914115667343139648 2.1376142501831054688 1.7846966981887817383 1.6264138221740722656 1.6264138221740722656 2.0773510932922363281 1.9273805618286132813 2.6419634819030761719 2.1118953227996826172 2.4167628288269042969 2.5777249336242675781 2.6419634819030761719 2.3965032100677490234 1.7788313627243041992 1.8892370462417602539 1.8442322015762329102 1.493291020393371582 1.6011507511138916016 1.3749051094055175781 1.5441809892654418945 1.7355018854141235352 1.9478106498718261719 2.0174493789672851563 1.7247768640518188477 1.4189726114273071289 1.7467637062072753906 2.2927241325378417969 1.6467393636703491211 1.7359893321990966797 1.5645285844802856445 2.4762265682220458984 2.0803072452545166016 2.0114810466766357422 2.1276106834411621094 1.8887904882431030273 8.492504119873046875 1.8116093873977661133 2.0782167911529541016 2.0109434127807617188 1.7619102001190185547 1.9022576808929443359 1.8459640741348266602 1.7693085670471191406 1.4694401025772094727 1.7200891971588134766 1.1366314888000488281 1.2665083408355712891 1.3461447954177856445 1.0649803876876831055 1.4789966344833374023 1.0442204475402832031 1.2610718011856079102 1.0386542081832885742 1.0588278770446777344 1.3810484409332275391 1.878228306770324707 1.7737118005752563477 2.0658097267150878906 2.2679650783538818359 8.72161865234375 2.0042407512664794922 2.02124786376953125 1.9917018413543701172 2.0216126441955566406 2.0195524692535400391 2.0041985511779785156 2.2530465126037597656 2.0227913856506347656 1.6360611915588378906 1.6264138221740722656 1.4811452627182006836 1.665675044059753418 
2.3155684471130371094 2.3725819587707519531 1.7788313627243041992 1.7788313627243041992 1.6264138221740722656 1.5646760463714599609 1.6360611915588378906 1.44474029541015625 1.0964624881744384766 1.6861617565155029297 2.0097417831420898438 2.6464419364929199219 2.0589101314544677734 2.0003936290740966797 2.0509679317474365234 2.2415418624877929688 1.8502165079116821289 1.7586873769760131836 2.0076558589935302734 1.6113129854202270508 1.6721343994140625 2.1308965682983398438 1.8731975555419921875 1.7545406818389892578 1.7859417200088500977 1.7468205690383911133 1.6890251636505126953 1.827671051025390625 2.0080647468566894531 2.1032145023345947266 1.9842805862426757813 1.9736382961273193359 2.3720462322235107422 2.0847685337066650391 2.3344225883483886719 2.7835919857025146484 2.4916346073150634766 2.6000409126281738281 2.5301260948181152344 2.3239014148712158203 1.9448899030685424805 1.9601384401321411133 2.0541167259216308594 1.9247052669525146484 2.0836551189422607422 1.9526872634887695313 1.2501517534255981445 1.8023761510848999023 1.490779876708984375 1.2933104038238525391 1.2855836153030395508 1.2750277519226074219 1.3666360378265380859 1.9747596979141235352 2.0195283889770507813 2.0051546096801757813 1.9716643095016479492 1.7335159778594970703 1.6444308757781982422 1.4320245981216430664 1.3304860591888427734 1.361697077751159668 1 1.2077505588531494141 1 1 1 1.3505208492279052734 1.2865890264511108398 1.7788313627243041992 1.6264138221740722656 1.7788313627243041992 1.6264138221740722656 2.0773510932922363281 1.6360611915588378906 1.7648103237152099609 1.7575316429138183594 1.963123321533203125 2.0467956066131591797 2.986942291259765625 4.6507844924926757813 2.4945085048675537109 3.2429821491241455078 3.2965180873870849609 2.6249940395355224609 2.8220388889312744141 4.218257904052734375 3.2965180873870849609 3.6493880748748779297 3.2965180873870849609 2.6820814609527587891 1.9849596023559570313 4.6507844924926757813 3.0711941719055175781 3.9891257286071777344 6.2630610466003417969 5.0948252677917480469 2.7692322731018066406 2.2283473014831542969 3.6815922260284423828 3.4669039249420166016 5.0473923683166503906 1.9927685260772705078 1.9849596023559570313 1.9273805618286132813 2.4411988258361816406 1.9250103235244750977 2.2854580879211425781 2.1776423454284667969 2.282733917236328125 2.1021816730499267578 1.6360611915588378906 1.8209886550903320313 1.4970978498458862305 1.8704329729080200195 2.8938577175140380859 2.0667119026184082031 2.1223254203796386719 1.6913305521011352539 1.9075645208358764648 2.1417434215545654297 1.8304151296615600586 1.8057647943496704102 1.7821493148803710938 2.1194758415222167969 2.4023530483245849609 2.0056772232055664063 1.9903677701950073242 1.8355021476745605469 1.7788313627243041992 1.7992250919342041016 1.8138262033462524414 2.2305238246917724609 1.9273805618286132813 1.9849596023559570313 1.9273805618286132813 2.6419634819030761719 2.6514644622802734375 2.5287158489227294922 2.2278239727020263672 2.4294788837432861328 2.1723935604095458984 2.0935368537902832031 1.7568269968032836914 1.5447936058044433594 1.7439435720443725586 1.3988972902297973633 1.9789841175079345703 2.4393088817596435547 2.0697627067565917969 1.7962071895599365234 2.1780354976654052734 1.5452028512954711914 1.6239187717437744141 2.1612639427185058594 1.7834982872009277344 1.997460484504699707 1.9096465110778808594 1.785036921501159668 2.0374925136566162109 1.6541138887405395508 1.9345827102661132813 1.9711743593215942383 2.0306942462921142578 2.0386416912078857422 2.0150244235992431641 2.0161371231079101563 2.0924265384674072266 1.8642580509185791016 1.8063606023788452148 1.5575311183929443359 1.9281039237976074219 1 1.2077505588531494141 1.0139009952545166016 1.1363655328750610352 1.1846554279327392578 1.3586320877075195313 1 1.2648825645446777344 1.5604040622711181641 1.3519667387008666992 1.929973602294921875 2.1638219356536865234 1.5763624906539916992 8.6627941131591796875 8.9141407012939453125 1.68129730224609375 2.0823974609375 2.1401910781860351563 2.0909774303436279297 2.2370712757110595703 2.058109283447265625 2.1908347606658935547 2.6123456954956054688 1.6997839212417602539 1.9160467386245727539 1.7446420192718505859 1.417429804801940918 1.7987046241760253906 
1.9916977882385253906 1.8969379663467407227 1.8951973915100097656 2.6419634819030761719 1.7788313627243041992 1.5175237655639648438 1.4024313688278198242 1.6360611915588378906 1.5189559459686279297 1.5780035257339477539 1.8782968521118164063 1.7980725765228271484 1.8282197713851928711 1.9282752275466918945 1.8212288618087768555 1.7099579572677612305 2.0290174484252929688 1.7586873769760131836 1.5800817012786865234 1.6794158220291137695 1.6616120338439941406 2.2152512073516845703 2.3693647384643554688 2.0344159603118896484 2.3727667331695556641 1.9034751653671264648 2.2267553806304931641 2.0355694293975830078 1.7289985418319702148 1.9396439790725708008 1.7933596372604370117 2.0861670970916748047 2.0742547512054443359 1.6432654857635498047 1.9846187829971313477 2.5934383869171142578 2.0892682075500488281 2.2608766555786132813 2.219036102294921875 2.1375353336334228516 2.4681987762451171875 2.5435245037078857422 2.7656495571136474609 2.239330291748046875 2.4608206748962402344 2.0046248435974121094 1.7670689821243286133 1.7205699682235717773 1.6405706405639648438 1.3585114479064941406 1.208966374397277832 1.2797180414199829102 1.1869693994522094727 1.8967262506484985352 2.1077506542205810547 1.9931428432464599609 2.0871937274932861328 1.6908544301986694336 1.5868035554885864258 1.4178680181503295898 1.7567163705825805664 1.2965866327285766602 1 1 1.0070629119873046875 1.0188825130462646484 1.2077505588531494141 1 1.493291020393371582 1.6425864696502685547 1.5171915292739868164 1.6360611915588378906 1.6360611915588378906 1.7788313627243041992 1.710207819938659668 1.6264138221740722656 1.9684967994689941406 1.9422630071640014648 2.2718164920806884766 2.339694976806640625 2.4580593109130859375 3.2429821491241455078 3.6493880748748779297 3.0711941719055175781 3.6493880748748779297 3.6815922260284423828 2.4874279499053955078 2.2283473014831542969 3.2965180873870849609 4.1445622444152832031 2.986942291259765625 3.2965180873870849609 2.2283473014831542969 2.2283473014831542969 3.3208189010620117188 3.5172533988952636719 2.2283473014831542969 2.2283473014831542969 3.6493880748748779297 2.2283473014831542969 2.2129473686218261719 1.9273805618286132813 2.9318671226501464844 1.9273805618286132813 2.986942291259765625 2.0562622547149658203 1.7280544042587280273 1.9612700939178466797 2.3227035999298095703 2.2339143753051757813 2.0891118049621582031 1.7149181365966796875 1.6360611915588378906 1.774593353271484375 1.7931270599365234375 1.687390446662902832 1.8963998556137084961 1.4753658771514892578 1.9340021610260009766 1.9562985897064208984 1.6540162563323974609 1.8292280435562133789 1.7166866064071655273 1.5010263919830322266 1.7559548616409301758 2.0544559955596923828 2.1445536613464355469 1.966217041015625 1.4582542181015014648 1.8554731607437133789 1.9273805618286132813 1.9273805618286132813 1.9849596023559570313 1.9273805618286132813 2.2129473686218261719 1.9273805618286132813 2.0681331157684326172 2.1922104358673095703 2.4003858566284179688 2.6419634819030761719 1.9273805618286132813 1.9800089597702026367 1.7788313627243041992 1.7917675971984863281 1.8052389621734619141 1.4219058752059936523 1.3402011394500732422 1.6325680017471313477 1.9218437671661376953 1.5411285161972045898 1.839751124382019043 1.9461237192153930664 1.6689697504043579102 2.3057515621185302734 1.7842333316802978516 1.9538041353225708008 2.5613050460815429688 2.2278885841369628906 1.623358607292175293 2.0491762161254882813 1.7139574289321899414 2.2841792106628417969 2.0764424800872802734 2.2688236236572265625 2.2249228954315185547 2.1255769729614257813 1.8745162487030029297 2.2226786613464355469 1.9120179414749145508 2.2230641841888427734 1.728229522705078125 1.2216993570327758789 1.4888838529586791992 1.493291020393371582 1.3505208492279052734 1 1.3012467622756958008 1.2077505588531494141 1.3688400983810424805 1.8276753425598144531 1.6860716342926025391 1.5209124088287353516 1.6588236093521118164 1.73070526123046875 8.5735902786254882813 2.1141510009765625 8.4614973068237304688 1.8212755918502807617 8.4994878768920898438 2.3330070972442626953 1.7394053936004638672 2.1213016510009765625 2.3824982643127441406 2.3124971389770507813 2.1501946449279785156 1.7586545944213867188 1.8506159782409667969 1.8973340988159179688 1.8302863836288452148 1.7601851224899291992 
2.270236968994140625 2.1441733837127685547 2.8220388889312744141 1.9273805618286132813 2.2305238246917724609 1.6414172649383544922 1.7074462175369262695 1.353777766227722168 1.6360611915588378906 1.3156200647354125977 1.7131891250610351563 1.6360611915588378906 1.7082556486129760742 1.8220696449279785156 2.2244808673858642578 1.6264138221740722656 1.6425864696502685547 1.7788313627243041992 2.0115597248077392578 1.7452818155288696289 1.7463761568069458008 1.9862638711929321289 2.0560843944549560547 2.1286404132843017578 2.0238516330718994141 1.9869050979614257813 1.7064838409423828125 1.6809126138687133789 1.8281748294830322266 2.2065525054931640625 1.955996394157409668 1.9346096515655517578 1.7944813966751098633 1.8883141279220581055 1.7963045835494995117 2.3698742389678955078 2.3624110221862792969 2.0625722408294677734 1.8035585880279541016 2.3315079212188720703 2.4003469944000244141 2.6332631111145019531 2.9372270107269287109 2.4979147911071777344 2.2460155487060546875 2.1749222278594970703 2.1266055107116699219 1.7838081121444702148 1.9131063222885131836 1.583321690559387207 1.2684062719345092773 1.3505208492279052734 1.9023560285568237305 1.3794463872909545898 1.9277571439743041992 1.7138133049011230469 2.0792114734649658203 1.8074328899383544922 1.287279963493347168 1.2750334739685058594 1.4068689346313476563 1.1398895978927612305 1 1.1312336921691894531 1.1512643098831176758 1.1658847332000732422 1.3585219383239746094 1 1.3505208492279052734 1.0244803428649902344 1.6264138221740722656 1.32544708251953125 1.6360611915588378906 1.7788313627243041992 1.7788313627243041992 1.6293581724166870117 2.0349578857421875 1.9163000583648681641 1.9273805618286132813 2.4766926765441894531 2.2718164920806884766 3.4669039249420166016 3.6493880748748779297 3.8347759246826171875 2.2341864109039306641 2.4358973503112792969 2.3721566200256347656 2.9318671226501464844 3.0927255153656005859 3.4669039249420166016 2.2718164920806884766 2.2283473014831542969 2.2283473014831542969 2.0283679962158203125 3.0711941719055175781 4.3626933097839355469 4.0849785804748535156 3.9891257286071777344 4.1048259735107421875 3.8335995674133300781 3.4669039249420166016 2.2718164920806884766 2.0399518013000488281 5.0473923683166503906 2.0283679962158203125 1.9742141962051391602 2.6419634819030761719 2.8938577175140380859 1.9604407548904418945 2.1022651195526123047 1.8956788778305053711 1.9364364147186279297 1.8458051681518554688 1.7721071243286132813 1.672308802604675293 1.4527442455291748047 1.44210052490234375 1.493291020393371582 1.8379621505737304688 2.017940521240234375 1.8523170948028564453 1.8952594995498657227 1.7429186105728149414 1.8636831045150756836 2.3225731849670410156 2.2597482204437255859 1.6069188117980957031 1.5675591230392456055 1.6360611915588378906 1.7788313627243041992 1.9273805618286132813 1.9273805618286132813 1.9273805618286132813 2.2129473686218261719 1.9849596023559570313 3.4669039249420166016 1.7799724340438842773 1.9935719966888427734 1.8962670564651489258 2.0352909564971923828 1.9273805618286132813 1.6264138221740722656 1.7858631610870361328 1.8865971565246582031 2.400905609130859375 2.1012206077575683594 1.5709030628204345703 1.39458465576171875 1.6415983438491821289 1.8331693410873413086 1.9574563503265380859 1.7206454277038574219 2.1962985992431640625 1.9661601781845092773 2.2042820453643798828 1.8277121782302856445 2.429965972900390625 2.3169112205505371094 2.2359852790832519531 2.1254994869232177734 1.7410047054290771484 1.7953088283538818359 2.2119181156158447266 2.3406910896301269531 2.3690173625946044922 2.4393644332885742188 2.2505259513854980469 2.2829184532165527344 1.8026094436645507813 2.0904989242553710938 1.6957888603210449219 1.3707643747329711914 1.3525264263153076172 1.493291020393371582 1.3684831857681274414 1.32544708251953125 1.0867924690246582031 1 1.6642220020294189453 1.9887567758560180664 1.767599940299987793 1.3794969320297241211 2.5384802818298339844 1.6759139299392700195 1.5321440696716308594 1.8293910026550292969 1.622027277946472168 1.9374309778213500977 2.0304586887359619141 2.1679060459136962891 1.8688014745712280273 1.9325082302093505859 2.1944792270660400391 2.3304967880249023438 2.5977215766906738281 2.2655768394470214844 1.8767485618591308594 1.8905572891235351563 2.0201544761657714844 2.1054301261901855469 
2.5577118396759033203 2.8220388889312744141 1.9273805618286132813 1.8063912391662597656 1.7788313627243041992 1.4776235818862915039 1.6360611915588378906 1.6360611915588378906 1.6360611915588378906 1.5540907382965087891 1.7788313627243041992 1.4811452627182006836 1.9068623781204223633 2.1258633136749267578 1.8583683967590332031 1.8065470457077026367 1.6344852447509765625 1.6360611915588378906 1.7788313627243041992 1.652382969856262207 1.6264138221740722656 1.9888257980346679688 2.0158619880676269531 2.1487407684326171875 1.9166535139083862305 2.0748877525329589844 1.7792848348617553711 1.493291020393371582 1.4261747598648071289 1.8607407808303833008 1.9604574441909790039 1.9861431121826171875 1.6804083585739135742 1.4895473718643188477 1.2803769111633300781 2.1650173664093017578 2.1922087669372558594 2.0779135227203369141 2.1439754962921142578 2.2981374263763427734 2.3983178138732910156 2.3513510227203369141 2.6952881813049316406 2.6163306236267089844 2.2923157215118408203 2.4249835014343261719 2.0428972244262695313 1.8665077686309814453 1.9059423208236694336 1.7131764888763427734 1.5401856899261474609 1.809551239013671875 2.0154705047607421875 1.6928907632827758789 1.7249841690063476563 1.9759335517883300781 2.2538168430328369141 1.5019479990005493164 1.4454734325408935547 1.5277369022369384766 1.459692835807800293 1.2680417299270629883 1.3689290285110473633 1.314892888069152832 1.4739675521850585938 1.8541368246078491211 1.3287804126739501953 1.155943751335144043 1.067238926887512207 1.493291020393371582 1.0244803428649902344 1.493291020393371582 1.5646760463714599609 1.6181588172912597656 1.7788313627243041992 2.8938577175140380859 1.8502165079116821289 1.9273805618286132813 2.0894346237182617188 2.8220388889312744141 1.9787690639495849609 3.6815922260284423828 3.6951785087585449219 3.9891257286071777344 2.5490767955780029297 2.3567323684692382813 3.2429821491241455078 2.6820814609527587891 4.6413059234619140625 5.0473923683166503906 3.8335995674133300781 3.2965180873870849609 3.6815922260284423828 3.2866346836090087891 6.2630610466003417969 4.1812615394592285156 5.0948252677917480469 5.1796307563781738281 2.2283473014831542969 2.3850030899047851563 2.5824069976806640625 3.6951785087585449219 5.0473923683166503906 3.9891257286071777344 3.2965180873870849609 1.8941375017166137695 1.9273805618286132813 2.1330051422119140625 2.1880118846893310547 1.8511298894882202148 2.0392298698425292969 1.6360611915588378906 1.592743992805480957 1.5868304967880249023 1.8894792795181274414 1.3693726062774658203 1.6215499639511108398 1.6140961647033691406 1.4398201704025268555 1.6268699169158935547 1.531351923942565918 1.5242717266082763672 1.4219058752059936523 1.7117910385131835938 1.7445162534713745117 1.8588203191757202148 1.5605337619781494141 1.6264138221740722656 1.7788313627243041992 1.9273805618286132813 2.2808842658996582031 1.9273805618286132813 2.2718164920806884766 2.2283473014831542969 2.2283473014831542969 3.2965180873870849609 1.9273805618286132813 2.1723260879516601563 2.2530870437622070313 2.4085142612457275391 2.0035440921783447266 1.7788313627243041992 1.6479784250259399414 2.0152122974395751953 1.9021756649017333984 1.8391298055648803711 1.6696553230285644531 1.7816704511642456055 1.7807542085647583008 1.5492141246795654297 2.361057281494140625 2.2922153472900390625 1.9664337635040283203 2.6089158058166503906 2.4235663414001464844 1.8480724096298217773 2.2580366134643554688 2.1176023483276367188 1.9554638862609863281 2.2363111972808837891 2.0503821372985839844 2.3942039012908935547 2.5389771461486816406 2.0629835128784179688 2.3944828510284423828 2.3934166431427001953 2.3278415203094482422 2.0885019302368164063 1.8726241588592529297 1.9856619834899902344 1.7728159427642822266 1.6196537017822265625 1.493291020393371582 1.6360611915588378906 1.7280507087707519531 1.6360611915588378906 1.0244803428649902344 1.1949954032897949219 1.1361714601516723633 1.8645720481872558594 2.0960690975189208984 1.6552131175994873047 2.2553615570068359375 2.1325802803039550781 1.5574603080749511719 1.4793546199798583984 1.6441786289215087891 1.7235275506973266602 2.0632674694061279297 1.9408396482467651367 1.9692438840866088867 2.1046607494354248047 2.2587604522705078125 2.6668274402618408203 2.1600916385650634766 2.3444054126739501953 2.24184417724609375 2.2364304065704345703 2.1969563961029052734 1.9269758462905883789 
2.3064684867858886719 1.9619773626327514648 1.9273805618286132813 1.9273805618286132813 1.7788313627243041992 2.2140893936157226563 1.7788313627243041992 1.7162407636642456055 1.4759304523468017578 1.7788313627243041992 1.8040344715118408203 2.2140893936157226563 2.0900638103485107422 1.9521150588989257813 1.9029173851013183594 1.8193275928497314453 1.6688708066940307617 1.6703526973724365234 1.6360611915588378906 1.7720730304718017578 1.6697968244552612305 2.2219789028167724609 2.0132160186767578125 2.1293075084686279297 2.0599119663238525391 1.5975571870803833008 1.6904768943786621094 1.2910668849945068359 1.4481335878372192383 1.5586251020431518555 1.735157012939453125 1.7069261074066162109 1.6026228666305541992 1.8488768339157104492 2.1960585117340087891 1.9424103498458862305 2.5857861042022705078 2.3868453502655029297 2.3635785579681396484 1.9860759973526000977 2.1645550727844238281 2.3520286083221435547 2.1963148117065429688 2.1336197853088378906 2.2796747684478759766 2.4541220664978027344 2.2094485759735107422 2.2943289279937744141 1.9456529617309570313 1.6920248270034790039 1.7138402462005615234 2.0311157703399658203 2.3970890045166015625 1.9348255395889282227 1.774439692497253418 1.8958866596221923828 1.9415874481201171875 1.777415156364440918 1.8020900487899780273 1.4172577857971191406 1.1782600879669189453 1.4558424949645996094 1.0169228315353393555 1.2077505588531494141 1.0011296272277832031 1.3152601718902587891 1.2771887779235839844 1.314259648323059082 1.0333651304244995117 1.0244803428649902344 1.3505208492279052734 1.5646760463714599609 1.7788313627243041992 1.4785366058349609375 1.6264138221740722656 1.9273805618286132813 1.9273805618286132813 1.9273805618286132813 2.0498323440551757813 2.0149235725402832031 1.9574986696243286133 2.7390532493591308594 2.2283473014831542969 3.0711941719055175781 2.4403464794158935547 2.4880166053771972656 3.4669039249420166016 1.9273805618286132813 3.2429821491241455078 3.0711941719055175781 1.9619773626327514648 3.4669039249420166016 2.2283473014831542969 2.4118311405181884766 5.0948252677917480469 3.9018232822418212891 6.2630610466003417969 3.5752635002136230469 3.9891257286071777344 2.4118311405181884766 3.0711941719055175781 3.6493880748748779297 2.2283473014831542969 2.4825520515441894531 4.1445622444152832031 1.9273805618286132813 1.9647771120071411133 2.1357922554016113281 2.3214383125305175781 1.7788313627243041992 1.6809189319610595703 1.665675044059753418 1.6287775039672851563 2.1915416717529296875 1.8291385173797607422 1.6030695438385009766 1.493291020393371582 1.8997433185577392578 1.7708743810653686523 1.6599618196487426758 1.7346385717391967773 1.795441746711730957 1.493291020393371582 1.493291020393371582 1.7016048431396484375 1.3459802865982055664 1.9179332256317138672 1.6264138221740722656 1.9273805618286132813 3.2965180873870849609 2.0033643245697021484 1.9574986696243286133 1.9444774389266967773 3.8335995674133300781 2.2718164920806884766 2.2283473014831542969 3.2747108936309814453 2.2399775981903076172 2.6820814609527587891 2.8685667514801025391 2.3013265132904052734 2.5290341377258300781 1.6264138221740722656 1.6765992641448974609 1.8560036420822143555 1.6383013725280761719 1.695147395133972168 1.7145305871963500977 1.493291020393371582 1.8127228021621704102 1.6349409818649291992 2.1697902679443359375 2.5995249748229980469 2.7355322837829589844 2.6038525104522705078 2.2358188629150390625 2.6641428470611572266 2.2018494606018066406 2.0613911151885986328 2.3437998294830322266 3.1926751136779785156 2.3750021457672119141 2.015796661376953125 2.7805542945861816406 2.7827391624450683594 3.0426285266876220703 1.84900665283203125 1.8329194784164428711 1.6304093599319458008 2.27828216552734375 1.8768302202224731445 1.9172115325927734375 1.493291020393371582 1.493291020393371582 1.4776235818862915039 1.32544708251953125 1.5646760463714599609 1.6106091737747192383 1.4264898300170898438 1.9246400594711303711 1.8766435384750366211 1.8781934976577758789 2.0234024524688720703 1.4722036123275756836 1.7806890010833740234 1.5789949893951416016 1.8172957897186279297 2.0355250835418701172 1.8659055233001708984 2.0546870231628417969 1.7680633068084716797 1.8260048627853393555 2.1523137092590332031 2.5511882305145263672 2.2052655220031738281 2.2621035575866699219 2.3800857067108154297 2.4602911472320556641 1.9688498973846435547 1.9827005863189697266 
2.0313873291015625 2.3524391651153564453 2.2305238246917724609 1.9273805618286132813 1.7872604131698608398 1.9273805618286132813 1.9273805618286132813 1.9273805618286132813 1.6266878843307495117 1.7788313627243041992 1.9684967994689941406 2.0196015834808349609 2.2379696369171142578 1.7791806459426879883 2.1771411895751953125 1.8728895187377929688 1.7379065752029418945 1.493291020393371582 1.5507974624633789063 1.4913910627365112305 2.0484132766723632813 2.1883175373077392578 2.0404539108276367188 1.8811103105545043945 1.7933671474456787109 1.6910789012908935547 1.6461910009384155273 1.4266445636749267578 1.2590965032577514648 1.9163302183151245117 1.0626076459884643555 1.5099256038665771484 1.5973896980285644531 1.6385275125503540039 1.9377222061157226563 1.9536995887756347656 8.62139129638671875 2.4051415920257568359 2.3036983013153076172 1.9020369052886962891 1.9724155664443969727 1.9167789220809936523 2.4419598579406738281 2.2738537788391113281 2.6484375 2.6903822422027587891 2.0542733669281005859 1.6553165912628173828 1.6878565549850463867 1.6354129314422607422 1.5684583187103271484 1.4548621177673339844 1.7722898721694946289 2.0119340419769287109 1.9510447978973388672 1.4999914169311523438 1.9871397018432617188 1.7402361631393432617 1.9833246469497680664 1.4884661436080932617 1.3663659095764160156 1.4171887636184692383 1.4533114433288574219 1.0418783426284790039 1.2502747774124145508 1.3505208492279052734 1.3296355009078979492 1.2601314783096313477 1 1.493291020393371582 1.493291020393371582 1.2775471210479736328 1.6184865236282348633 1.6266878843307495117 1.6264138221740722656 1.6264138221740722656 1.7788313627243041992 1.7788313627243041992 2.5290341377258300781 1.8502165079116821289 1.9273805618286132813 2.3064684867858886719 2.8220388889312744141 3.2518346309661865234 2.2621831893920898438 3.6493880748748779297 2.6414442062377929688 1.9697748422622680664 3.6815922260284423828 2.4659085273742675781 2.4659085273742675781 2.4659085273742675781 2.4118311405181884766 3.2866346836090087891 3.0110311508178710938 5.0948252677917480469 5.1796307563781738281 5.0948252677917480469 2.2283473014831542969 2.4118311405181884766 2.3740086555480957031 2.4030730724334716797 1.9444774389266967773 2.6820814609527587891 2.8220388889312744141 2.212619781494140625 2.0965681076049804688 1.9345608949661254883 2.2701866626739501953 2.0743401050567626953 1.6264138221740722656 1.6264138221740722656 1.9234606027603149414 1.9459913969039916992 1.6835266351699829102 1.7648572921752929688 1.6779515743255615234 2.0182576179504394531 1.7586567401885986328 1.7474126815795898438 1.6759140491485595703 1.6941933631896972656 1.2999641895294189453 1.493291020393371582 1.4304859638214111328 1.493291020393371582 1.6360611915588378906 1.6264138221740722656 1.7836997509002685547 2.6414442062377929688 1.9273805618286132813 1.8294210433959960938 2.0399518013000488281 3.2965180873870849609 3.4669039249420166016 3.4669039249420166016 2.1049299240112304688 4.6883144378662109375 3.2429821491241455078 2.3044667243957519531 2.2135975360870361328 2.5869727134704589844 2.1295580863952636719 1.725040435791015625 1.3600221872329711914 1.8505907058715820313 1.493291020393371582 1.2612897157669067383 1.6750752925872802734 1.5189937353134155273 1.5387214422225952148 2.1822059154510498047 2.6793889999389648438 2.3069701194763183594 2.8458790779113769531 1.9386563301086425781 1.5435645580291748047 2.2996726036071777344 2.3004179000854492188 2.0951755046844482422 2.2552552223205566406 2.6857237815856933594 2.4326214790344238281 3.3417656421661376953 3.2464854717254638672 2.4913990497589111328 2.5753138065338134766 2.0281584262847900391 1.9852179288864135742 1.9730104207992553711 2.0053782463073730469 1.4342854022979736328 1.4090082645416259766 1.21318817138671875 1.6586887836456298828 1.4019682407379150391 1.4188494682312011719 2.1689324378967285156 1.4985556602478027344 1.503823399543762207 2.1959919929504394531 1.831309199333190918 1.6571259498596191406 1.4353302717208862305 1.8408693075180053711 1.814503788948059082 1.7652689218521118164 2.3051519393920898438 1.9761145114898681641 1.9225744009017944336 2.2034313678741455078 1.9979069232940673828 2.0541622638702392578 2.2593853473663330078 2.2230594158172607422 2.3456084728240966797 2.3323779106140136719 2.4723386764526367188 2.1791021823883056641 2.1878521442413330078 
2.3624053001403808594 2.3067419528961181641 2.5796952247619628906 2.115203857421875 2.2718164920806884766 3.4669039249420166016 2.2129473686218261719 1.9273805618286132813 1.8591647148132324219 1.8008482456207275391 1.9684967994689941406 1.9136894941329956055 2.4538958072662353516 2.495819091796875 1.9240595102310180664 1.8845393657684326172 1.9468859434127807617 1.8424787521362304688 1.5869880914688110352 1.493291020393371582 1.8532198667526245117 1.8850598335266113281 1.7308428287506103516 1.8094083070755004883 1.7345451116561889648 1.6467411518096923828 1.493291020393371582 1.5960180759429931641 1.6484910249710083008 2.0385618209838867188 1.5226286649703979492 1.1941481828689575195 1.4385224580764770508 2.1111583709716796875 8.5163631439208984375 8.4164066314697265625 8.5276622772216796875 2.46729278564453125 2.2855703830718994141 2.3395962715148925781 1.954486846923828125 1.9145790338516235352 2.252719879150390625 2.76271820068359375 2.6948299407958984375 2.6763293743133544922 2.4323787689208984375 2.22834014892578125 1.7004997730255126953 1.7233468294143676758 1.6390912532806396484 1.1556415557861328125 1.3082029819488525391 1.8534789085388183594 1.8195037841796875 1.6360611915588378906 1.7952623367309570313 1.6717613935470581055 1.7366217374801635742 1.8021703958511352539 1.7172797918319702148 1.3505208492279052734 1.7879498004913330078 1.237093806266784668 1.3505208492279052734 1.252180933952331543 1.32544708251953125 1.422367095947265625 1.493291020393371582 1.6360611915588378906 1.6013427972793579102 1.493291020393371582 1.6360611915588378906 1.6578775644302368164 1.6264138221740722656 1.7788313627243041992 1.7788313627243041992 2.0219073295593261719 1.6264138221740722656 2.8938577175140380859 2.0033643245697021484 2.2718164920806884766 1.9273805618286132813 1.9866418838500976563 2.2718164920806884766 2.1277906894683837891 2.6414442062377929688 2.8220388889312744141 2.7519605159759521484 3.0711941719055175781 2.7692322731018066406 2.2283473014831542969 2.7692322731018066406 4.4222345352172851563 4.1812615394592285156 3.0110311508178710938 3.0110311508178710938 6.3364357948303222656 3.2866346836090087891 2.3350765705108642578 2.986942291259765625 2.5746850967407226563 1.9273805618286132813 2.0910921096801757813 1.9273805618286132813 2.0344383716583251953 1.9120872020721435547 2.1219182014465332031 1.79886627197265625 2.6419634819030761719 1.7788313627243041992 1.7788313627243041992 2.5290341377258300781 1.9242049455642700195 1.6728537082672119141 1.4044907093048095703 1.820796966552734375 1.6045719385147094727 1.7859717607498168945 1.5641762018203735352 1.304179072380065918 1.5237126350402832031 1.4702429771423339844 1.6425864696502685547 1.6360611915588378906 1.493291020393371582 1.5646760463714599609 1.7788313627243041992 1.7788313627243041992 2.2129473686218261719 2.6820814609527587891 3.6493880748748779297 2.2283473014831542969 1.9273805618286132813 3.4669039249420166016 3.2965180873870849609 2.0283679962158203125 3.2965180873870849609 4.218257904052734375 3.4669039249420166016 2.1759524345397949219 2.0338923931121826172 2.0112307071685791016 1.8046314716339111328 1.8340722322463989258 1.6360611915588378906 1.6002908945083618164 1.493291020393371582 1.5806480646133422852 1.5494154691696166992 1.0342336893081665039 1.6287361383438110352 2.2940385341644287109 1.8218120336532592773 2.00455474853515625 1.8784600496292114258 2.0048413276672363281 2.4729816913604736328 2.6369981765747070313 3.0247921943664550781 2.9559102058410644531 3.0803675651550292969 3.5671944618225097656 2.4274172782897949219 2.8158006668090820313 2.2631573677062988281 2.2590484619140625 2.695011138916015625 1.8503499031066894531 2.1506433486938476563 1.9025756120681762695 1.6266663074493408203 1.4916887283325195313 1.2111109495162963867 1.4471766948699951172 1.6360611915588378906 1.7380968332290649414 1.493291020393371582 1.093045353889465332 2.1849353313446044922 2.2727489471435546875 1.6984494924545288086 2.0342283248901367188 2.3840112686157226563 2.2871830463409423828 1.7192518711090087891 2.0676848888397216797 2.1528065204620361328 2.4174141883850097656 2.326763153076171875 2.4921059608459472656 2.4624867439270019531 2.3661692142486572266 2.1618134975433349609 2.5035049915313720703 2.5814156532287597656 2.3967533111572265625 2.5425319671630859375 1.980256199836730957 1.8431131839752197266 
3.6815922260284423828 2.1773865222930908203 2.2718164920806884766 2.2786147594451904297 3.6951785087585449219 2.50002288818359375 2.8220388889312744141 1.9244490861892700195 2.205810546875 2.0842182636260986328 2.2305238246917724609 2.389690399169921875 2.6419634819030761719 2.1887838840484619141 1.8951973915100097656 1.9359868764877319336 2.0752573013305664063 1.7331173419952392578 1.5748560428619384766 1.6638425588607788086 1.8106453418731689453 1.6238592863082885742 1.6253693103790283203 1.9465376138687133789 1.3691771030426025391 1.5646760463714599609 1.2628595829010009766 1.5152682065963745117 1.3198800086975097656 1.5732829570770263672 1.0919080972671508789 7.8943204879760742188 1.2703003883361816406 8.4532470703125 1.7159142494201660156 8.532001495361328125 8.378025054931640625 8.9692592620849609375 2.4874057769775390625 8.5178956985473632813 1.9249448776245117188 2.2760920524597167969 2.3784677982330322266 2.3364310264587402344 2.3696184158325195313 2.3147008419036865234 2.0776715278625488281 1.7350227832794189453 1.8401761054992675781 1.8304678201675415039 1.7582156658172607422 1.6614279747009277344 1.7482340335845947266 1.6605818271636962891 1.1969852447509765625 1.6360611915588378906 1.5476197004318237305 1.4470728635787963867 1.32544708251953125 1.6360611915588378906 1.5191503763198852539 1.3705846071243286133 1.493291020393371582 1.0766348838806152344 1.4090954065322875977 1.4430292844772338867 1.4928297996520996094 1.6460874080657958984 1.5186054706573486328 1.4551444053649902344 1.8094323873519897461 1.493291020393371582 1.3781895637512207031 1.6264138221740722656 1.6578775644302368164 1.9684967994689941406 1.7788313627243041992 1.7210832834243774414 1.9148051738739013672 2.5487179756164550781 1.9273805618286132813 1.9273805618286132813 1.9273805618286132813 1.8603080511093139648 2.0964860916137695313 3.6493880748748779297 2.3157980442047119141 2.2283473014831542969 3.9891257286071777344 2.8059461116790771484 2.8059461116790771484 5.7651181221008300781 5.1796307563781738281 5.0948252677917480469 3.8347759246826171875 3.2866346836090087891 3.8347759246826171875 3.0110311508178710938 2.4659085273742675781 2.5135419368743896484 4.1445622444152832031 2.4525372982025146484 2.8220388889312744141 2.3852427005767822266 2.2590618133544921875 1.8814996480941772461 1.8384420871734619141 2.0311589241027832031 2.6419634819030761719 1.6313054561614990234 1.6360611915588378906 1.7586873769760131836 1.8884296417236328125 1.8173980712890625 1.8024964332580566406 2.1267430782318115234 1.6959725618362426758 1.8418762683868408203 1.4358431100845336914 1.4010573625564575195 1.493291020393371582 1.6276068687438964844 1.506595611572265625 1.493291020393371582 1.493291020393371582 1.6360611915588378906 1.6360611915588378906 1.4902219772338867188 1.9273805618286132813 3.4669039249420166016 2.2283473014831542969 5.0473923683166503906 3.4669039249420166016 3.8335995674133300781 4.1875715255737304688 1.9273805618286132813 2.2129473686218261719 3.4669039249420166016 2.3064684867858886719 2.4809217453002929688 2.0719308853149414063 1.830981135368347168 2.1487164497375488281 1.6264138221740722656 1.6264138221740722656 2.2361757755279541016 1.8109163045883178711 2.2719349861145019531 1.9364820718765258789 1.4741586446762084961 1.6537858247756958008 1.7932393550872802734 2.1222386360168457031 1.9519641399383544922 2.1456246376037597656 1.9108871221542358398 1.8193527460098266602 2.3595869541168212891 2.4828183650970458984 2.8130080699920654297 3.1431121826171875 3.2453300952911376953 2.8402547836303710938 3.0456798076629638672 2.1418592929840087891 1.9734205007553100586 2.722198486328125 1.8283588886260986328 1.9458674192428588867 1.9020487070083618164 1.8001385927200317383 2.0967314243316650391 1.9396420717239379883 1.5586403608322143555 1.32544708251953125 1.9494524002075195313 1.9801998138427734375 1.7345310449600219727 1.7026311159133911133 2.2291557788848876953 1.7641956806182861328 2.0510106086730957031 2.3271999359130859375 2.0503215789794921875 2.0113060474395751953 1.8660053014755249023 1.7945994138717651367 2.3132004737854003906 2.3099770545959472656 2.4702711105346679688 2.5678348541259765625 2.3639788627624511719 2.5206615924835205078 2.6395440101623535156 2.5522351264953613281 2.4443352222442626953 2.3789038658142089844 2.3082935810089111328 2.073154449462890625 1.7801760435104370117 
3.6815922260284423828 3.6493880748748779297 3.2965180873870849609 3.4669039249420166016 2.2718164920806884766 2.2786147594451904297 3.4669039249420166016 2.0140461921691894531 2.8220388889312744141 2.2547230720520019531 2.4121463298797607422 2.0810229778289794922 2.3455858230590820313 1.9273805618286132813 1.9587384462356567383 1.9821903705596923828 1.7029099464416503906 1.8200830221176147461 1.6360611915588378906 1.8435570001602172852 1.7366279363632202148 1.5129497051239013672 1.400348663330078125 1.32544708251953125 1.8342117071151733398 1.2091479301452636719 1.3505208492279052734 1.708754420280456543 1.4275199174880981445 8.1748800277709960938 1.907740473747253418 8.4199457168579101563 8.2595224380493164063 8.302978515625 8.435413360595703125 8.2367944717407226563 1.8314858675003051758 2.1062154769897460938 2.4116022586822509766 1.9952003955841064453 1.784083247184753418 2.1158390045166015625 2.0530176162719726563 2.0088505744934082031 1.75379180908203125 1.8832939863204956055 2.0548264980316162109 1.9010975360870361328 2.0499455928802490234 1.8406162261962890625 1.714938044548034668 1.7507081031799316406 1.806452631950378418 1.7204303741455078125 1.6360611915588378906 1.8490110635757446289 1.6360611915588378906 1.6264138221740722656 1.6360611915588378906 1.4369227886199951172 1.6360611915588378906 1.2134239673614501953 1.6360611915588378906 1.7184354066848754883 1.4326559305191040039 1.6721291542053222656 1.63387298583984375 1.7017915248870849609 1.6360611915588378906 1.6360611915588378906 1.7788313627243041992 1.3721284866333007813 1.32544708251953125 1.3258135318756103516 1.6337444782257080078 1.7586873769760131836 1.6971616744995117188 1.7502381801605224609 2.1657221317291259766 2.8938577175140380859 1.9273805618286132813 1.9273805618286132813 2.2169446945190429688 2.6419634819030761719 1.9273805618286132813 3.4669039249420166016 3.0711941719055175781 2.2283473014831542969 3.8347759246826171875 3.8347759246826171875 2.3350765705108642578 5.8295397758483886719 5.1796307563781738281 3.9891257286071777344 3.2866346836090087891 2.6967334747314453125 2.8634116649627685547 2.3350765705108642578 3.2866346836090087891 2.3993561267852783203 2.9008259773254394531 2.1666021347045898438 2.0829653739929199219 1.9392169713973999023 2.1104669570922851563 2.2852101325988769531 2.3249268531799316406 2.2140893936157226563 1.7860915660858154297 1.7586873769760131836 1.7788313627243041992 1.7788313627243041992 1.8528952598571777344 2.4377880096435546875 2.1654922962188720703 1.4580744504928588867 1.9801664352416992188 1.3505208492279052734 1.32544708251953125 1.3043121099472045898 1.3468425273895263672 1.6480523347854614258 1.3133248090744018555 1.3732773065567016602 1.5646760463714599609 2.1179823875427246094 1.7788313627243041992 1.7788313627243041992 1.9273805618286132813 3.6951785087585449219 2.4118311405181884766 3.6951785087585449219 1.9273805618286132813 1.9273805618286132813 1.9273805618286132813 1.9574986696243286133 1.9273805618286132813 1.8502165079116821289 2.2718164920806884766 1.9273805618286132813 1.9273805618286132813 2.1317989826202392578 2.0250699520111083984 1.6870939731597900391 1.7788313627243041992 1.7042199373245239258 2.0172326564788818359 1.4454088211059570313 1.5328478813171386719 1.5646760463714599609 1.546324610710144043 1.7092913389205932617 1.7565931081771850586 1.7501659393310546875 2.1447310447692871094 1.8463190793991088867 2.4460544586181640625 2.7312233448028564453 3.0820317268371582031 3.3608410358428955078 2.9321758747100830078 3.1735992431640625 3.2471890449523925781 2.7053666114807128906 2.4915421009063720703 2.8096625804901123047 2.0664305686950683594 2.7143743038177490234 2.1021120548248291016 2.0607306957244873047 1.747017979621887207 2.2554171085357666016 1.9454243183135986328 1.7992216348648071289 2.4456250667572021484 2.4162266254425048828 2.2780756950378417969 1.9476886987686157227 1.8424052000045776367 1.8676657676696777344 2.5874056816101074219 2.0570414066314697266 2.8079152107238769531 2.489444732666015625 2.0787804126739501953 2.2891564369201660156 1.9599721431732177734 2.56389617919921875 2.8444066047668457031 2.5949900150299072266 2.1386513710021972656 2.3807077407836914063 2.6132328510284423828 2.6840090751647949219 2.7165355682373046875 2.7329473495483398438 2.5351746082305908203 2.2024359703063964844 1.9625148773193359375 2.0919189453125 
2.2283473014831542969 3.4669039249420166016 2.2283473014831542969 3.6493880748748779297 3.4669039249420166016 3.4669039249420166016 1.9273805618286132813 1.9273805618286132813 1.9273805618286132813 2.8339984416961669922 2.8938577175140380859 2.2243525981903076172 2.2570049762725830078 2.0425481796264648438 1.7806794643402099609 1.8483098745346069336 1.7788313627243041992 1.3944847583770751953 1.6256693601608276367 1.6189012527465820313 1.7299257516860961914 1.493291020393371582 1.2865890264511108398 1.4083597660064697266 1.6360611915588378906 1.0244803428649902344 1.3505208492279052734 1.0005791187286376953 1.2796599864959716797 1.1185103654861450195 8.28345489501953125 1.6836642026901245117 8.1746168136596679688 1.5101505517959594727 8.1037931442260742188 1.6901246309280395508 2.0240368843078613281 1.8009159564971923828 2.0641298294067382813 2.0932245254516601563 1.6160942316055297852 1.6319584846496582031 1.8969036340713500977 1.978287816047668457 2.3067941665649414063 1.7405906915664672852 1.9304208755493164063 2.0020270347595214844 1.9945969581604003906 1.9057476520538330078 1.3862913846969604492 1.0436040163040161133 1.5791811943054199219 1.8126016855239868164 1.6360611915588378906 1.6360611915588378906 1.3691771030426025391 1.7788313627243041992 1.7788313627243041992 1.5331187248229980469 1.4083597660064697266 1.6360611915588378906 1.7788313627243041992 1.6360611915588378906 1.9070109128952026367 1.6202607154846191406 1.6264138221740722656 2.0822618007659912109 1.7642439603805541992 1.493291020393371582 1.6360611915588378906 1.7074462175369262695 1.7788313627243041992 1.3921103477478027344 1.6360611915588378906 2.5577118396759033203 1.7788313627243041992 2.1582474708557128906 2.2140893936157226563 2.0086195468902587891 2.2839200496673583984 2.351421356201171875 2.0294966697692871094 1.9529020786285400391 2.9318671226501464844 5.0473923683166503906 3.9891257286071777344 2.2283473014831542969 2.6019158363342285156 5.0473923683166503906 3.2965180873870849609 2.4118311405181884766 2.2283473014831542969 2.4118311405181884766 2.2283473014831542969 2.2283473014831542969 2.3461828231811523438 2.3539476394653320313 2.4118311405181884766 3.2965180873870849609 3.7983632087707519531 2.4336404800415039063 1.9110563993453979492 1.7830321788787841797 2.1398465633392333984 2.5404150485992431641 2.8078141212463378906 2.5878083705902099609 1.9265034198760986328 2.6419634819030761719 1.7447316646575927734 2.1448221206665039063 1.8278222084045410156 2.1588010787963867188 1.7926735877990722656 1.7775144577026367188 1.8850755691528320313 1.5717628002166748047 1.3505208492279052734 1.0244803428649902344 1.2799423933029174805 1.4917379617691040039 1.3505208492279052734 1.6613466739654541016 1.6360611915588378906 1.8822224140167236328 1.7586873769760131836 1.9273805618286132813 3.4669039249420166016 2.4659085273742675781 3.6815922260284423828 3.2656826972961425781 2.8430445194244384766 2.8220388889312744141 3.6951785087585449219 1.9273805618286132813 3.2110114097595214844 2.4411988258361816406 1.9444774389266967773 2.4096071720123291016 2.6419634819030761719 2.5645844936370849609 1.8791093826293945313 2.3924512863159179688 2.0482182502746582031 1.9837546348571777344 2.5732338428497314453 2.3969614505767822266 1.4819151163101196289 1.493291020393371582 1 1.493291020393371582 1.2815355062484741211 1.7320092916488647461 2.1332304477691650391 2.7425374984741210938 2.1260497570037841797 2.6363887786865234375 2.9197754859924316406 3.0814738273620605469 2.7902164459228515625 3.08060455322265625 2.2320926189422607422 2.3917942047119140625 2.6325252056121826172 2.4481225013732910156 2.5855658054351806641 2.1844780445098876953 2.5477275848388671875 2.3115139007568359375 2.8212802410125732422 2.1665599346160888672 2.0351178646087646484 2.3737087249755859375 1.9055734872817993164 2.6052310466766357422 2.6250832080841064453 2.6709713935852050781 1.8283883333206176758 2.2719182968139648438 2.0856456756591796875 2.4371416568756103516 2.7056322097778320313 2.6969363689422607422 2.1308076381683349609 2.3979666233062744141 2.4763004779815673828 2.6239726543426513672 3.0183744430541992188 2.5974838733673095703 2.5600669384002685547 2.5608968734741210938 2.4089004993438720703 2.3503003120422363281 2.3685314655303955078 2.5896999835968017578 2.0856900215148925781 2.2911081314086914063 2.0897274017333984375 2.2762134075164794922 
2.2283473014831542969 3.2965180873870849609 2.2718164920806884766 3.6493880748748779297 2.2283473014831542969 2.0283679962158203125 2.2129473686218261719 2.2919604778289794922 2.2129473686218261719 2.50002288818359375 2.2052128314971923828 1.9517421722412109375 1.9319729804992675781 1.8369688987731933594 1.9731504917144775391 1.5429825782775878906 1.6264138221740722656 1.6360611915588378906 1.3456817865371704102 1.5986354351043701172 1.5275310277938842773 1.6773263216018676758 1.6360611915588378906 1.32544708251953125 1.6360611915588378906 1.493291020393371582 1.493291020393371582 1.3505208492279052734 1.0516073703765869141 1 7.955959320068359375 1.4696629047393798828 8.3313541412353515625 8.1161680221557617188 1.5095052719116210938 8.1573553085327148438 2.1057720184326171875 1.5561732053756713867 1.9967417716979980469 2.0988419055938720703 1.6242313385009765625 1.6066694259643554688 1.8215874433517456055 1.8024077415466308594 2.3911123275756835938 2.0187082290649414063 1.8332458734512329102 1.6782269477844238281 1.7457278966903686523 1.4793610572814941406 1.493291020393371582 1.7268154621124267578 1.8393651247024536133 1.9088786840438842773 1.6246150732040405273 1.6360611915588378906 1.7298538684844970703 1.9684967994689941406 1.7788313627243041992 1.6264138221740722656 1.7788313627243041992 1.8242665529251098633 1.7788313627243041992 1.7788313627243041992 1.6264138221740722656 1.8148982524871826172 1.9273805618286132813 1.9666934013366699219 1.6264138221740722656 1.6360611915588378906 1.6360611915588378906 1.7788313627243041992 1.6264138221740722656 1.6360611915588378906 1.7696378231048583984 1.7788313627243041992 2.4411988258361816406 2.3852427005767822266 1.9273805618286132813 1.9830318689346313477 2.0998654365539550781 2.1658413410186767578 2.8938577175140380859 1.9273805618286132813 3.2429821491241455078 5.0473923683166503906 5.0473923683166503906 2.2882814407348632813 2.2262437343597412109 2.3157980442047119141 2.0399518013000488281 2.4659085273742675781 3.9891257286071777344 3.0711941719055175781 3.9891257286071777344 2.4659085273742675781 3.6493880748748779297 3.6815922260284423828 2.3189797401428222656 2.2530491352081298828 2.0718858242034912109 2.2930767536163330078 1.920833587646484375 2.2321126461029052734 2.3062610626220703125 2.1482946872711181641 2.3746888637542724609 2.6341950893402099609 2.37070465087890625 2.6419634819030761719 2.5331804752349853516 1.8974869251251220703 2.0544741153717041016 1.9196813106536865234 2.5074012279510498047 2.3418908119201660156 1.5184212923049926758 1.3875051736831665039 1.4098007678985595703 1.3505208492279052734 1.4011095762252807617 1.3834189176559448242 1.4858928918838500977 1.458489537239074707 1.4027607440948486328 1.7074462175369262695 1.7788313627243041992 1.9541800022125244141 2.1257233619689941406 4.62298583984375 4.5609211921691894531 3.2429821491241455078 1.9273805618286132813 1.9444774389266967773 3.6493880748748779297 1.9541800022125244141 1.9273805618286132813 1.9273805618286132813 2.986942291259765625 2.2129473686218261719 2.1158657073974609375 1.9030808210372924805 2.4648900032043457031 2.2970156669616699219 2.1767041683197021484 2.1831758022308349609 2.3601279258728027344 1.6360611915588378906 1.2134239673614501953 1.8863376379013061523 1.493291020393371582 1.7288560867309570313 1.493291020393371582 1.8670264482498168945 2.4507436752319335938 2.2619473934173583984 2.5896561145782470703 2.3947265148162841797 2.3791730403900146484 2.3691842555999755859 2.2422413825988769531 2.9965939521789550781 2.8152523040771484375 2.6340548992156982422 2.75263214111328125 2.0189752578735351563 2.4210255146026611328 2.0905182361602783203 2.9201178550720214844 2.5322797298431396484 2.4966273307800292969 2.2700581550598144531 2.8572885990142822266 2.6538212299346923828 2.2848100662231445313 2.7600498199462890625 2.0958356857299804688 2.6859793663024902344 2.5145101547241210938 2.2770769596099853516 3.0041756629943847656 2.5655217170715332031 2.2574896812438964844 2.8151860237121582031 2.1469924449920654297 2.3021509647369384766 2.4673016071319580078 2.1497931480407714844 2.6859850883483886719 2.2543857097625732422 2.2672755718231201172 2.2624044418334960938 2.9161138534545898438 2.7158641815185546875 2.4096705913543701172 2.5881218910217285156 2.0950055122375488281 1.9245672225952148438 2.2137475013732910156 2.6266446113586425781 
7.0048313140869140625 2.2283473014831542969 2.6820814609527587891 2.986942291259765625 2.0283679962158203125 2.1104757785797119141 1.9849596023559570313 1.9273805618286132813 3.4669039249420166016 2.2718164920806884766 2.8220388889312744141 1.9273805618286132813 1.6260201930999755859 2.0414421558380126953 1.8009341955184936523 1.8991844654083251953 1.7788313627243041992 1.6500800848007202148 1.6360611915588378906 1.9425314664840698242 1.6667362451553344727 1.6360611915588378906 1.3691771030426025391 1.6264138221740722656 1.8802344799041748047 1.493291020393371582 1 1.0649803876876831055 1.3153759241104125977 1.3056718111038208008 1.2054038047790527344 1.2516248226165771484 1.5924918651580810547 1.228549957275390625 8.0462093353271484375 1.5313516855239868164 1.396996617317199707 1.6979303359985351563 1.9403387308120727539 1.9272284507751464844 1.6078544855117797852 1.8420435190200805664 1.4045789241790771484 1.8182628154754638672 1.6755951642990112305 1.9126769304275512695 1.8946411609649658203 1.9502681493759155273 1.892861485481262207 2.0557804107666015625 1.5315332412719726563 1.5190525054931640625 1.5549918413162231445 1.7497915029525756836 1.9646648168563842773 1.6360611915588378906 1.7788313627243041992 1.7696378231048583984 1.6745015382766723633 1.7717549800872802734 2.2140893936157226563 2.6419634819030761719 1.7788313627243041992 1.7788313627243041992 1.7788313627243041992 2.1836211681365966797 1.9273805618286132813 1.7872604131698608398 1.9273805618286132813 2.6419634819030761719 2.6419634819030761719 2.6419634819030761719 2.1897797584533691406 1.9273805618286132813 1.694403529167175293 2.6419634819030761719 1.7788313627243041992 2.006870269775390625 1.8502165079116821289 1.7788313627243041992 1.7324091196060180664 2.015705108642578125 1.694403529167175293 1.9273805618286132813 1.9697748422622680664 3.2429821491241455078 3.2429821491241455078 5.0473923683166503906 3.4669039249420166016 2.2283473014831542969 2.2283473014831542969 2.2283473014831542969 3.6815922260284423828 2.2283473014831542969 4.6208863258361816406 3.4669039249420166016 2.2610015869140625 3.6951785087585449219 2.8220388889312744141 2.2030813694000244141 2.0372245311737060547 2.2080078125 2.0891244411468505859 2.1025936603546142578 2.2518601417541503906 2.0260739326477050781 2.5722701549530029297 2.6847896575927734375 2.4861466884613037109 2.4556403160095214844 2.3162472248077392578 1.9740622043609619141 1.748925328254699707 1.7943121194839477539 1.7162407636642456055 1.6360611915588378906 1.4271587133407592773 1.2265534400939941406 1.1780807971954345703 1.0244803428649902344 1.1733156442642211914 1.0570122003555297852 1.493291020393371582 1.493291020393371582 1.7162407636642456055 1.6264138221740722656 1.712459564208984375 1.9273805618286132813 1.9372781515121459961 3.8335995674133300781 3.4669039249420166016 2.3064684867858886719 1.9697748422622680664 2.8220388889312744141 2.2129473686218261719 1.9273805618286132813 1.9273805618286132813 1.9273805618286132813 3.6951785087585449219 1.8063912391662597656 2.2305238246917724609 2.2305238246917724609 2.3140816688537597656 2.7828509807586669922 2.5526525974273681641 2.3937337398529052734 2.3687012195587158203 1.7981497049331665039 1.7414505481719970703 1.7175579071044921875 1.9273989200592041016 1.788534998893737793 1.6510186195373535156 1.9513403177261352539 2.3330359458923339844 2.0202813148498535156 2.2115797996520996094 2.1286892890930175781 2.4029028415679931641 2.6203823089599609375 1.9155184030532836914 2.0725102424621582031 2.9623196125030517578 3.0079991817474365234 2.4510087966918945313 2.3394002914428710938 2.1217801570892333984 2.4778006076812744141 2.5811207294464111328 2.7837364673614501953 2.8629803657531738281 2.7197492122650146484 2.4160215854644775391 3.8118920326232910156 2.7481820583343505859 2.3664376735687255859 2.3376827239990234375 2.6135897636413574219 3.1872313022613525391 2.6207480430603027344 2.4352638721466064453 3.2350594997406005859 2.5080480575561523438 2.8157305717468261719 2.9432880878448486328 2.7446880340576171875 2.441761016845703125 2.301494598388671875 2.2869975566864013672 2.0671050548553466797 2.6474637985229492188 2.6679859161376953125 2.6644339561462402344 2.5242159366607666016 2.6254374980926513672 2.2929968833923339844 2.5132203102111816406 2.3979828357696533203 2.6531941890716552734 2.4148278236389160156 
3.2866346836090087891 2.2283473014831542969 2.1566176414489746094 2.3439013957977294922 2.8220388889312744141 1.9273805618286132813 2.2718164920806884766 2.6414442062377929688 4.1640486717224121094 2.0997264385223388672 2.0947561264038085938 1.9619773626327514648 2.0385682582855224609 1.8726564645767211914 2.083934783935546875 2.2140893936157226563 2.6419634819030761719 2.6419634819030761719 1.8822635412216186523 1.7692176103591918945 1.7573992013931274414 1.6882085800170898438 1.5409160852432250977 1.7788313627243041992 1.3927649259567260742 1.0913536548614501953 1.0729297399520874023 1.4433580636978149414 1 1 1 1.287669062614440918 1.2540123462677001953 1.7945808172225952148 7.9490070343017578125 8.0039434432983398438 1.7629553079605102539 1.7915090322494506836 1.6248912811279296875 1.8107017278671264648 2.1051959991455078125 1.7067388296127319336 1.8707163333892822266 2.0355994701385498047 2.5254831314086914063 1.8486332893371582031 1.8288075923919677734 2.0335431098937988281 1.9668896198272705078 1.6099724769592285156 2.0054602622985839844 1.624230504035949707 1.4223116636276245117 1.4774963855743408203 1.3229917287826538086 1.5540462732315063477 1.9924780130386352539 1.993945002555847168 1.9936056137084960938 1.9699016809463500977 1.9684967994689941406 1.9273805618286132813 3.2110114097595214844 1.7788313627243041992 1.7788313627243041992 1.9273805618286132813 1.8502165079116821289 1.9541800022125244141 1.9849596023559570313 1.9273805618286132813 1.7788313627243041992 1.8502165079116821289 1.9273805618286132813 2.6419634819030761719 1.7788313627243041992 2.6419634819030761719 1.9273805618286132813 2.9827599525451660156 2.3852427005767822266 1.8502165079116821289 1.7788313627243041992 2.2079150676727294922 1.7788313627243041992 2.2129473686218261719 3.2110114097595214844 1.9273805618286132813 2.50002288818359375 3.2965180873870849609 2.6414442062377929688 3.4669039249420166016 3.2965180873870849609 2.8220388889312744141 1.9273805618286132813 2.2129473686218261719 2.986942291259765625 2.6414442062377929688 2.0577738285064697266 2.1122674942016601563 2.4411988258361816406 2.3972573280334472656 2.3714354038238525391 2.1753339767456054688 2.2863125801086425781 2.4270982742309570313 2.5278120040893554688 3.5284249782562255859 2.6699552536010742188 2.9508962631225585938 2.67874908447265625 2.6862304210662841797 2.3759062290191650391 2.2591602802276611328 1.8489204645156860352 1.5742255449295043945 1.5591437816619873047 1.493291020393371582 1.5873674154281616211 1.7823836803436279297 1.3803158998489379883 1.0244803428649902344 1.0244803428649902344 1.0324878692626953125 1.1354496479034423828 1.3488199710845947266 1.6264138221740722656 1.6344852447509765625 1.4811452627182006836 1.7872604131698608398 2.4766926765441894531 2.1219182014465332031 2.8871884346008300781 2.8220388889312744141 2.2129473686218261719 3.2518346309661865234 2.6414442062377929688 2.8938577175140380859 2.2305238246917724609 1.9273805618286132813 2.2718164920806884766 2.8871884346008300781 1.9273805618286132813 2.2127368450164794922 2.6610853672027587891 2.3656969070434570313 2.1394639015197753906 2.1192402839660644531 1.8547267913818359375 1.7232390642166137695 1.4936048984527587891 1.6593739986419677734 1.5682337284088134766 1.7230389118194580078 1.728313446044921875 2.2941362857818603516 1.8338084220886230469 1.6071817874908447266 2.0785861015319824219 1.8760627508163452148 1.983961939811706543 2.3422458171844482422 2.1738092899322509766 2.127166748046875 2.2070603370666503906 2.3726060390472412109 2.0256907939910888672 2.3831262588500976563 1.8661397695541381836 2.4035186767578125 2.7625112533569335938 2.4190549850463867188 2.6765170097351074219 2.8918924331665039063 2.4567470550537109375 2.4221439361572265625 3.0608077049255371094 2.5203313827514648438 2.5582222938537597656 3.0386703014373779297 2.5186665058135986328 2.2965023517608642578 3.1315963268280029297 3.2389650344848632813 2.6651437282562255859 2.6868925094604492188 2.6364245414733886719 2.9444546699523925781 2.1824831962585449219 2.2681486606597900391 2.0357413291931152344 2.6751971244812011719 2.7532980442047119141 2.3031356334686279297 2.1175494194030761719 2.4085414409637451172 2.3951780796051025391 2.4733147621154785156 2.4465684890747070313 3.0435872077941894531 2.3200283050537109375 2.4777154922485351563 
2.7692322731018066406 2.2283473014831542969 2.2283473014831542969 3.6493880748748779297 2.5771076679229736328 1.9273805618286132813 2.3064684867858886719 2.2718164920806884766 3.6951785087585449219 1.9389529228210449219 2.1543207168579101563 1.9273805618286132813 2.4411988258361816406 1.7586873769760131836 2.4411988258361816406 2.1237311363220214844 2.3651430606842041016 2.0378806591033935547 2.3651204109191894531 2.0044729709625244141 1.7788313627243041992 1.6264138221740722656 1.6264138221740722656 1.6360611915588378906 1.7788313627243041992 1.6360611915588378906 1.3505208492279052734 1.4924663305282592773 1.2077505588531494141 1 1.1435467004776000977 1.3640904426574707031 1.4043574333190917969 1.6493614912033081055 2.2717797756195068359 1.9045664072036743164 2.2554590702056884766 2.4143819808959960938 2.1178507804870605469 1.9138257503509521484 2.0760335922241210938 2.0082044601440429688 1.9583916664123535156 2.3583326339721679688 2.3105769157409667969 1.9695109128952026367 2.0155959129333496094 2.0113940238952636719 1.9139492511749267578 1.4776235818862915039 1.7074462175369262695 1.5361019372940063477 1.4357621669769287109 1.7331488132476806641 1.7043246030807495117 1.7321540117263793945 1.6360611915588378906 1.8034647703170776367 1.7788313627243041992 1.9273805618286132813 2.4766926765441894531 1.9619773626327514648 1.9273805618286132813 2.2129473686218261719 1.9273805618286132813 3.0927255153656005859 3.4669039249420166016 2.0399518013000488281 2.0399518013000488281 2.2129473686218261719 2.1189455986022949219 2.1723401546478271484 1.7904338836669921875 1.9273805618286132813 1.7788313627243041992 1.7788313627243041992 1.7046622037887573242 1.7788313627243041992 2.2305238246917724609 3.2395925521850585938 2.2140893936157226563 1.6264138221740722656 2.0178596973419189453 1.7539374828338623047 1.6853694915771484375 1.9273805618286132813 3.2965180873870849609 2.2283473014831542969 2.7390532493591308594 1.9273805618286132813 1.9619773626327514648 1.9273805618286132813 1.9273805618286132813 1.9273805618286132813 1.9273805618286132813 2.1003251075744628906 2.2305238246917724609 2.8938577175140380859 2.4604008197784423828 2.6370098590850830078 2.6304473876953125 2.7406096458435058594 2.2780401706695556641 2.6190028190612792969 2.6041579246520996094 3.0644207000732421875 2.9558308124542236328 3.0080509185791015625 3.1865484714508056641 2.6867129802703857422 2.3622183799743652344 1.9359914064407348633 2.0253322124481201172 1.8256070613861083984 1.6676044464111328125 1.4573667049407958984 1.3227486610412597656 1.4996178150177001953 1.3666666746139526367 1.5889214277267456055 1.3505208492279052734 1.3505208492279052734 1.1417688131332397461 1 1.32544708251953125 1.4776235818862915039 1.3691771030426025391 1.7788313627243041992 1.9684967994689941406 1.6960996389389038086 2.1723401546478271484 2.2129473686218261719 1.9273805618286132813 2.50002288818359375 2.1188180446624755859 1.9273805618286132813 1.7904338836669921875 1.9273805618286132813 3.0927255153656005859 1.9273805618286132813 2.4411988258361816406 1.9273805618286132813 2.0484960079193115234 2.3041415214538574219 2.3119022846221923828 2.3432664871215820313 2.1488888263702392578 1.8241034746170043945 1.5447547435760498047 1.5848238468170166016 1.493291020393371582 1.2517833709716796875 1.7452881336212158203 1.4301209449768066406 2.1566908359527587891 1.7735129594802856445 1.7597593069076538086 2.2140893936157226563 2.4766926765441894531 3.5284249782562255859 2.4766926765441894531 1.9273805618286132813 1.9865448474884033203 2.6419634819030761719 2.0779411792755126953 2.3575527667999267578 2.482410430908203125 2.7234346866607666016 2.9509472846984863281 3.051097869873046875 2.6932785511016845703 2.5888533592224121094 2.7981050014495849609 2.8230142593383789063 3.3576102256774902344 2.8334360122680664063 2.5674102306365966797 2.2451012134552001953 2.25006103515625 2.7634203433990478516 2.8095383644104003906 3.2082660198211669922 3.1297719478607177734 2.7626683712005615234 2.8114931583404541016 2.7203752994537353516 2.9722795486450195313 2.6413638591766357422 2.8610258102416992188 2.6504306793212890625 2.8529973030090332031 2.4076509475708007813 2.2357509136199951172 2.2559125423431396484 2.4432134628295898438 2.5080649852752685547 2.5981662273406982422 2.5987157821655273438 2.5704374313354492188 2.8228578567504882813 
3.8347759246826171875 3.9891257286071777344 3.8335995674133300781 2.4509534835815429688 3.2429821491241455078 2.6062388420104980469 2.2283473014831542969 3.2965180873870849609 3.4669039249420166016 2.0423440933227539063 1.9273805618286132813 1.9619773626327514648 1.9273805618286132813 1.7788313627243041992 2.2525131702423095703 2.8938577175140380859 2.2557318210601806641 2.23851776123046875 2.0624101161956787109 2.1182963848114013672 2.1675274372100830078 1.7788313627243041992 1.7788313627243041992 1.6360611915588378906 1.6264138221740722656 1.7788313627243041992 1.1315683126449584961 1.24469757080078125 1 1.1409604549407958984 1.5805264711380004883 1.5322147607803344727 1.5459879636764526367 1.8203237056732177734 2.7931139469146728516 1.870227813720703125 2.5385696887969970703 2.5852341651916503906 2.4073004722595214844 2.2771708965301513672 2.1077122688293457031 2.2960605621337890625 2.3628947734832763672 1.9434026479721069336 2.065334320068359375 2.2322468757629394531 1.6360611915588378906 1.7788313627243041992 1.7788313627243041992 1.859175562858581543 1.9273805618286132813 1.9684967994689941406 1.6360611915588378906 1.6360611915588378906 2.2945854663848876953 2.1094191074371337891 2.2871446609497070313 2.4297604560852050781 2.3069026470184326172 1.9273805618286132813 2.6414442062377929688 4.26065826416015625 1.7904338836669921875 2.6820814609527587891 1.9273805618286132813 3.2965180873870849609 3.0857267379760742188 3.6493880748748779297 1.9273805618286132813 1.9273805618286132813 1.7788313627243041992 2.6419634819030761719 2.1197257041931152344 2.6497347354888916016 2.0013926029205322266 1.9445589780807495117 1.6734724044799804688 1.7788313627243041992 1.7788313627243041992 1.7788313627243041992 1.7788313627243041992 1.8689570426940917969 2.8220388889312744141 1.9273805618286132813 2.2305238246917724609 2.8220388889312744141 4.26065826416015625 2.2283473014831542969 2.0399518013000488281 1.9273805618286132813 1.9273805618286132813 1.7788313627243041992 1.9121928215026855469 3.2110114097595214844 1.7046622037887573242 1.9273805618286132813 1.8502165079116821289 2.2129473686218261719 2.541748046875 2.6126890182495117188 2.8859350681304931641 3.0144166946411132813 3.2597239017486572266 2.9460799694061279297 3.2774095535278320313 2.8277580738067626953 2.730846405029296875 3.0613465309143066406 3.2418057918548583984 2.9797194004058837891 2.6899442672729492188 2.3570265769958496094 1.8281590938568115234 2.0226583480834960938 1.4091600179672241211 1.5296123027801513672 1.5553362369537353516 1.493291020393371582 1.7338607311248779297 1.4416996240615844727 1.2077505588531494141 1.1935031414031982422 1 1.2077505588531494141 1.5646760463714599609 1.6360611915588378906 1.6360611915588378906 1.4369227886199951172 1.7525779008865356445 1.7788313627243041992 1.6264138221740722656 1.5175237655639648438 1.694403529167175293 2.6419634819030761719 1.9273805618286132813 1.9273805618286132813 1.9273805618286132813 1.9995145797729492188 1.9734381437301635742 1.8971958160400390625 2.0773510932922363281 1.9273805618286132813 1.9273805618286132813 1.6903520822525024414 2.0164239406585693359 2.0157496929168701172 2.0066502094268798828 1.6556370258331298828 1.6873900890350341797 1.4566452503204345703 1.3056615591049194336 1.493291020393371582 1.493291020393371582 1.6900719404220581055 1.493291020393371582 1.6360611915588378906 1.8761445283889770508 1.9273805618286132813 1.9273805618286132813 2.4468259811401367188 2.2129473686218261719 2.0753343105316162109 1.9029370546340942383 1.9431779384613037109 2.0150995254516601563 2.0801546573638916016 2.4148890972137451172 2.6419634819030761719 2.8837330341339111328 2.8147125244140625 3.1692829132080078125 2.6488094329833984375 2.6392514705657958984 2.8175089359283447266 2.6664133071899414063 3.5169515609741210938 2.8970534801483154297 3.1070196628570556641 2.5074634552001953125 2.4270060062408447266 3.0230898857116699219 3.1336236000061035156 3.0572705268859863281 3.0519092082977294922 2.2441077232360839844 2.7248549461364746094 3.4170987606048583984 2.8911881446838378906 2.3204808235168457031 2.8669500350952148438 2.7403066158294677734 2.9259359836578369141 3.0028753280639648438 2.3758172988891601563 2.798244476318359375 2.7138047218322753906 2.6342778205871582031 2.4259426593780517578 2.5070965290069580078 2.6823494434356689453 
3.8347759246826171875 3.9891257286071777344 3.2965180873870849609 4.1048259735107421875 2.3085191249847412109 3.0711941719055175781 3.6815922260284423828 3.6493880748748779297 3.4669039249420166016 2.0399518013000488281 3.4669039249420166016 2.2718164920806884766 1.9444774389266967773 1.9273805618286132813 1.889317631721496582 1.9366736412048339844 2.1358501911163330078 2.2613337039947509766 1.9773236513137817383 2.0153956413269042969 1.6827828884124755859 1.7788313627243041992 1.5646760463714599609 1.6360611915588378906 2.1057736873626708984 1.493291020393371582 1.0446932315826416016 1.3505208492279052734 1 1.344704747200012207 1.2481186389923095703 1.5194001197814941406 1.6814309358596801758 1.6644455194473266602 2.2797682285308837891 2.2416884899139404297 2.5405108928680419922 2.4944579601287841797 2.3895177841186523438 2.4899337291717529297 2.1734404563903808594 2.0560383796691894531 1.5200694799423217773 1.7788313627243041992 1.6933013200759887695 1.6500800848007202148 1.6264138221740722656 1.6396877765655517578 1.7904338836669921875 2.3852427005767822266 1.9273805618286132813 2.0033643245697021484 1.9273805618286132813 1.9209599494934082031 2.3322503566741943359 2.2490944862365722656 2.3863599300384521484 2.5151624679565429688 2.5484843254089355469 3.4669039249420166016 2.2076253890991210938 2.8220388889312744141 2.6321346759796142578 3.2429821491241455078 2.0283679962158203125 2.2283473014831542969 2.4659085273742675781 2.4118311405181884766 3.6493880748748779297 1.9273805618286132813 2.1531822681427001953 1.9273805618286132813 1.9541800022125244141 3.0927255153656005859 1.996106266975402832 2.6419634819030761719 1.9133344888687133789 1.6266878843307495117 2.6419634819030761719 1.9121928215026855469 2.3852427005767822266 1.7788313627243041992 1.9273805618286132813 1.9273805618286132813 3.3607728481292724609 5.0473923683166503906 3.6679477691650390625 2.2129473686218261719 3.6951785087585449219 2.4652309417724609375 1.9273805618286132813 2.8938577175140380859 2.0697121620178222656 1.7932006120681762695 1.7788313627243041992 1.9368317127227783203 2.0204880237579345703 2.1756091117858886719 2.4723088741302490234 2.7036731243133544922 2.9840996265411376953 3.2475435733795166016 3.6208746433258056641 3.7877919673919677734 3.3672003746032714844 3.1505765914916992188 2.8934712409973144531 3.1218497753143310547 2.8310151100158691406 2.8924813270568847656 2.4033076763153076172 1.8805528879165649414 2.4117426872253417969 1.6360611915588378906 1.7600797414779663086 1.4179488420486450195 1.4210379123687744141 1.3971834182739257813 1.6717582941055297852 1.4726790189743041992 1.4623160362243652344 1.3245636224746704102 1.2077505588531494141 1 1.493291020393371582 1.6360611915588378906 1.493291020393371582 1.32544708251953125 1.6360611915588378906 1.6360611915588378906 1.7788313627243041992 1.6264138221740722656 2.0344383716583251953 1.6293581724166870117 1.9684967994689941406 2.2140893936157226563 2.6419634819030761719 1.7788313627243041992 1.7788313627243041992 1.9285519123077392578 2.2305238246917724609 2.2705841064453125 2.3037023544311523438 1.7586873769760131836 1.9684967994689941406 1.8551160097122192383 2.0170001983642578125 1.7086005210876464844 1.7521518468856811523 1.5392540693283081055 1.3677655458450317383 1.0244803428649902344 1.7525779008865356445 1.6360611915588378906 1.6264138221740722656 1.8951973915100097656 1.9273805618286132813 2.8220388889312744141 1.9273805618286132813 2.6414442062377929688 3.4669039249420166016 1.9541800022125244141 1.7788313627243041992 2.7972979545593261719 2.4574289321899414063 2.2630176544189453125 2.7704107761383056641 1.9232071638107299805 2.3529443740844726563 2.5135123729705810547 3.2986929416656494141 3.5064654350280761719 3.4177238941192626953 3.1000664234161376953 2.9135158061981201172 2.7413315773010253906 2.2343657016754150391 3.0889935493469238281 2.6235992908477783203 2.7672464847564697266 3.0565111637115478516 3.9426789283752441406 3.2112963199615478516 2.9588041305541992188 2.7788205146789550781 2.6999235153198242188 3.3795855045318603516 3.2934722900390625 3.0680518150329589844 2.7292129993438720703 3.0990800857543945313 3.0145807266235351563 2.8303129673004150391 2.5877945423126220703 2.4097256660461425781 2.7628920078277587891 2.5931277275085449219 2.4317479133605957031 2.3640680313110351563 2.5414841175079345703 
5.1796307563781738281 2.4118311405181884766 3.6815922260284423828 2.2283473014831542969 3.6679477691650390625 3.6493880748748779297 2.4118311405181884766 4.6883144378662109375 1.9960192441940307617 3.2429821491241455078 3.4669039249420166016 1.9444774389266967773 3.6951785087585449219 3.2429821491241455078 1.9047936201095581055 1.7747215032577514648 1.7788313627243041992 1.9559537172317504883 1.8794251680374145508 2.1179823875427246094 1.9516389369964599609 1.7257484197616577148 1.6617845296859741211 1.5460797548294067383 1.4551444053649902344 1.4357621669769287109 1.240473628044128418 1.1437096595764160156 1.3505208492279052734 1.4231249094009399414 1.5531562566757202148 1.721701502799987793 1.9949741363525390625 1.9240077733993530273 2.0693280696868896484 2.1522662639617919922 1.9158803224563598633 2.3927633762359619141 2.6323287487030029297 2.3121731281280517578 2.3757824897766113281 1.904986262321472168 1.6360611915588378906 1.7788313627243041992 1.6264138221740722656 1.7586873769760131836 1.7586873769760131836 1.9273805618286132813 2.0773510932922363281 1.7788313627243041992 1.9273805618286132813 2.6419634819030761719 2.8938577175140380859 1.8170288801193237305 2.6419634819030761719 2.6535913944244384766 2.2845284938812255859 2.1492784023284912109 3.2429821491241455078 2.986942291259765625 4.6208863258361816406 3.4669039249420166016 3.2348196506500244141 3.0711941719055175781 4.0849785804748535156 2.7805960178375244141 2.2283473014831542969 3.9891257286071777344 3.7362551689147949219 3.4669039249420166016 2.8220388889312744141 2.2718164920806884766 2.986942291259765625 2.986942291259765625 2.80794525146484375 2.6419634819030761719 2.000873565673828125 2.2140893936157226563 1.9273805618286132813 1.6344852447509765625 1.6500800848007202148 1.6578775644302368164 1.9273805618286132813 2.50002288818359375 3.2965180873870849609 3.2965180873870849609 3.2965180873870849609 2.3064684867858886719 3.6493880748748779297 3.4669039249420166016 2.2129473686218261719 1.9210356473922729492 2.0879549980163574219 1.9522225856781005859 1.8585989475250244141 1.924570918083190918 1.9273805618286132813 2.2157876491546630859 2.1365082263946533203 2.5518929958343505859 2.8368196487426757813 3.0944614410400390625 3.2421216964721679688 3.1383006572723388672 3.2044556140899658203 3.1023247241973876953 2.8227355480194091797 2.736919403076171875 2.1401746273040771484 2.2752416133880615234 2.3674452304840087891 1.5994457006454467773 1.493291020393371582 1.2263239622116088867 1.3505208492279052734 1.4417626857757568359 1.493291020393371582 1.6095945835113525391 1.6656103134155273438 1.0564596652984619141 1.3505208492279052734 1.3505208492279052734 1 1.493291020393371582 1.493291020393371582 1.6360611915588378906 1.4083597660064697266 1.493291020393371582 1.493291020393371582 1.6360611915588378906 1.7525779008865356445 1.6264138221740722656 1.6360611915588378906 1.6360611915588378906 1.6425864696502685547 1.8040344715118408203 1.7788313627243041992 1.6360611915588378906 1.5433734655380249023 2.1582715511322021484 1.7606594562530517578 1.9175786972045898438 2.4641211032867431641 2.2654669284820556641 2.1855719089508056641 1.6360611915588378906 1.9288969039916992188 2.0011565685272216797 1.5490140914916992188 1.4566172361373901367 1.3927649259567260742 1.6360611915588378906 2.3852427005767822266 1.7788313627243041992 1.7788313627243041992 3.0927255153656005859 1.9273805618286132813 1.9273805618286132813 1.9273805618286132813 2.0283679962158203125 3.2965180873870849609 1.9273805618286132813 1.9273805618286132813 1.9728112220764160156 1.9905457496643066406 2.5611064434051513672 2.3130290508270263672 2.6851079463958740234 2.6419634819030761719 2.9693601131439208984 3.0257065296173095703 3.1488680839538574219 2.9254567623138427734 3.0919828414916992188 2.8268523216247558594 3.0683665275573730469 3.0614917278289794922 3.2142865657806396484 3.1235404014587402344 3.0691592693328857422 3.2737374305725097656 3.4504146575927734375 3.1978135108947753906 2.9082379341125488281 3.1022012233734130859 2.9510860443115234375 3.58197784423828125 3.1457211971282958984 2.8294315338134765625 2.9364728927612304688 2.6866011619567871094 2.5712947845458984375 2.6365337371826171875 2.5420598983764648438 2.5319340229034423828 2.7263264656066894531 2.5098404884338378906 2.0507144927978515625 1.8716598749160766602 2.2626707553863525391 
4.5181612968444824219 2.7692322731018066406 3.9891257286071777344 6.0391330718994140625 4.1048259735107421875 1.9273805618286132813 3.2429821491241455078 2.0283679962158203125 2.0283679962158203125 2.4659085273742675781 3.8335995674133300781 2.2283473014831542969 2.2283473014831542969 3.2965180873870849609 2.8220388889312744141 1.9273805618286132813 1.9684967994689941406 1.6960996389389038086 1.8802344799041748047 2.0252871513366699219 1.8689721822738647461 1.8111681938171386719 1.5046318769454956055 1.624724268913269043 1.493291020393371582 1.3771700859069824219 1.3505208492279052734 1.493291020393371582 1.3505208492279052734 1.12255096435546875 1.3102623224258422852 1.552454829216003418 1.3173195123672485352 1.5888533592224121094 1.7547051906585693359 2.1398422718048095703 2.9015824794769287109 2.4888920783996582031 2.7472090721130371094 2.2489056587219238281 2.0979108810424804688 1.4721776247024536133 1.7417254447937011719 1.6918379068374633789 1.7788313627243041992 2.2140893936157226563 1.9273805618286132813 1.7788313627243041992 1.7788313627243041992 1.694403529167175293 1.9273805618286132813 1.9273805618286132813 1.9273805618286132813 1.9273805618286132813 2.8220388889312744141 2.2771615982055664063 3.2348196506500244141 4.1048259735107421875 2.9318671226501464844 2.2665002346038818359 2.2871243953704833984 3.4669039249420166016 3.6815922260284423828 3.8347759246826171875 2.2283473014831542969 4.4281702041625976563 2.2283473014831542969 2.8220388889312744141 2.2129473686218261719 2.2718164920806884766 1.9849596023559570313 3.2017323970794677734 2.2718164920806884766 2.6081564426422119141 2.2707898616790771484 2.4586131572723388672 2.0154731273651123047 2.1167242527008056641 2.6414442062377929688 1.9273805618286132813 1.9273805618286132813 3.2110114097595214844 2.986942291259765625 3.2965180873870849609 3.6815922260284423828 4.1445622444152832031 1.9697748422622680664 2.986942291259765625 3.2965180873870849609 3.6951785087585449219 2.3284196853637695313 2.431812286376953125 2.3395326137542724609 2.308498382568359375 2.1891152858734130859 1.9273805618286132813 1.7168732881546020508 1.9041771888732910156 2.1722888946533203125 2.0789542198181152344 2.2011003494262695313 2.3075134754180908203 2.9154415130615234375 2.5995242595672607422 2.4125838279724121094 2.5660583972930908203 3.0232098102569580078 2.4264442920684814453 2.2004103660583496094 2.4729557037353515625 2.5405292510986328125 1.8627381324768066406 1.4274183511734008789 1.3505208492279052734 1.0749659538269042969 1.3505208492279052734 1.6607468128204345703 1.7077486515045166016 1.0214862823486328125 1.0739393234252929688 1.2077505588531494141 1.2065234184265136719 1.0244803428649902344 1.0244803428649902344 1.3693726062774658203 1.4357621669769287109 1.0244803428649902344 1.5646760463714599609 1.493291020393371582 1.0244803428649902344 1.2460858821868896484 1 1.493291020393371582 1.037358403205871582 1.32544708251953125 1.3849674463272094727 1.7074462175369262695 1.7788313627243041992 1.7621443271636962891 1.9366426467895507813 1.6387740373611450195 2.1540668010711669922 2.1210379600524902344 1.7860989570617675781 2.0538952350616455078 1.4131462574005126953 1.4407330751419067383 1.5707784891128540039 1.3832557201385498047 1.7788313627243041992 1.9830318689346313477 2.0957150459289550781 1.7586873769760131836 1.7872604131698608398 2.8938577175140380859 1.9273805618286132813 1.9619773626327514648 3.2348196506500244141 3.4669039249420166016 1.9697748422622680664 1.9849596023559570313 2.6419634819030761719 2.0434076786041259766 1.8385120630264282227 2.2541072368621826172 2.6419634819030761719 2.6820714473724365234 2.1971921920776367188 3.3867337703704833984 2.3837635517120361328 2.9231946468353271484 3.1074283123016357422 2.7881758213043212891 2.5174591541290283203 3.2898070812225341797 2.6043136119842529297 2.4249036312103271484 3.5622847080230712891 2.7918808460235595703 3.0120904445648193359 3.3958253860473632813 3.5341334342956542969 3.6837313175201416016 3.2700212001800537109 3.6893260478973388672 3.5792956352233886719 3.6301696300506591797 3.3765308856964111328 2.7433469295501708984 3.1278645992279052734 2.7071127891540527344 2.4858484268188476563 2.5223550796508789063 2.5698680877685546875 2.7794287204742431641 2.4891879558563232422 2.194915771484375 1.9975858926773071289 2.2374575138092041016 1.92752838134765625 
3.8347759246826171875 2.2283473014831542969 3.2965180873870849609 1.9849596023559570313 2.2129473686218261719 1.8502165079116821289 2.50002288818359375 1.9849596023559570313 2.0283679962158203125 3.2965180873870849609 2.2283473014831542969 3.6493880748748779297 3.6493880748748779297 4.26065826416015625 1.9273805618286132813 1.9273805618286132813 1.9273805618286132813 1.6578775644302368164 1.7788313627243041992 1.6360611915588378906 1.7665941715240478516 1.5515042543411254883 1.6360611915588378906 1.3949183225631713867 1.5911612510681152344 1.2931878566741943359 1.3505208492279052734 1.4157314300537109375 1 1 1.4759258031845092773 1.1984535455703735352 1.4970855712890625 1.5436806678771972656 2.2288730144500732422 2.8711168766021728516 1.9260396957397460938 2.8268709182739257813 2.8236865997314453125 2.1134350299835205078 2.3214490413665771484 2.1432764530181884766 1.9939136505126953125 1.470072627067565918 1.6360611915588378906 1.6264138221740722656 1.9273805618286132813 2.5577118396759033203 1.7788313627243041992 2.0344383716583251953 1.8502165079116821289 1.7586873769760131836 1.7202570438385009766 1.7788313627243041992 1.7788313627243041992 1.9273805618286132813 4.1445622444152832031 3.2965180873870849609 3.6815922260284423828 2.3157980442047119141 3.9891257286071777344 2.2283473014831542969 2.4118311405181884766 6.2630610466003417969 5.70317840576171875 4.3144006729125976563 3.9891257286071777344 2.0283679962158203125 1.9541800022125244141 2.2129473686218261719 2.3715245723724365234 3.6493880748748779297 3.4669039249420166016 2.76747894287109375 3.2656826972961425781 3.6493880748748779297 2.50002288818359375 2.1495909690856933594 3.2348196506500244141 3.2965180873870849609 1.9273805618286132813 2.2129473686218261719 1.9697748422622680664 3.6493880748748779297 3.2429821491241455078 2.6414442062377929688 2.6074068546295166016 2.1367542743682861328 2.6024987697601318359 3.4669039249420166016 2.2543773651123046875 2.1246585845947265625 1.9235669374465942383 2.1249225139617919922 2.0927798748016357422 2.6419634819030761719 2.1391191482543945313 3.2110114097595214844 1.9273805618286132813 1.8063579797744750977 1.9404854774475097656 2.5577118396759033203 2.1828691959381103516 2.3499875068664550781 2.2318966388702392578 2.4556186199188232422 2.4215917587280273438 2.1960785388946533203 2.0604596138000488281 2.3209576606750488281 1.6591365337371826172 2.2272574901580810547 1.9812494516372680664 1.2077505588531494141 1.3566664457321166992 1.3040460348129272461 1.3024592399597167969 1.7376751899719238281 1.369111180305480957 1 1 1.0649803876876831055 1.2308406829833984375 1 1.0652728080749511719 1.0244803428649902344 1 1.2077505588531494141 1.4219058752059936523 1.493291020393371582 1.0685725212097167969 1.3617162704467773438 1.493291020393371582 1.493291020393371582 1.6360611915588378906 1.7788313627243041992 1.7070224285125732422 1.5646760463714599609 1.7003990411758422852 1.6899676322937011719 1.8511005640029907227 2.2006316184997558594 2.2231209278106689453 1.8398854732513427734 1.8276910781860351563 1.8745192289352416992 1 1.9858490228652954102 1.6360611915588378906 1.493291020393371582 1.6360611915588378906 1.6264138221740722656 1.6264138221740722656 2.0033643245697021484 2.2919604778289794922 2.0283679962158203125 2.6088836193084716797 2.8156025409698486328 1.9574986696243286133 2.6820814609527587891 3.4669039249420166016 2.50002288818359375 2.50002288818359375 2.5376186370849609375 1.7953268289566040039 2.5452160835266113281 2.1573810577392578125 3.2974476814270019531 2.8519775867462158203 3.2398455142974853516 3.3756504058837890625 3.3451943397521972656 3.3326551914215087891 3.3534200191497802734 3.5236141681671142578 3.0350315570831298828 2.4043090343475341797 2.4018077850341796875 2.9728879928588867188 2.8658924102783203125 3.2937963008880615234 3.1584019660949707031 3.9158928394317626953 2.9541935920715332031 3.5917570590972900391 4.21504974365234375 3.5413548946380615234 3.2355251312255859375 3.0564601421356201172 2.8540151119232177734 3.4202263355255126953 2.7892515659332275391 2.1616561412811279297 2.3497500419616699219 2.7325704097747802734 2.7693712711334228516 2.5700328350067138672 2.1212241649627685547 1.6362543106079101563 1.6360951662063598633 
2.2283473014831542969 2.2283473014831542969 2.2283473014831542969 5.0473923683166503906 2.9318671226501464844 1.9273805618286132813 1.9273805618286132813 3.0927255153656005859 3.2965180873870849609 1.9849596023559570313 3.2965180873870849609 2.2283473014831542969 3.0711941719055175781 2.2283473014831542969 2.6414442062377929688 2.2129473686218261719 3.4669039249420166016 1.6578775644302368164 1.7253677845001220703 1.6360611915588378906 1.8970450162887573242 1.5700027942657470703 1.5646760463714599609 1.4775718450546264648 1.5646760463714599609 1.32544708251953125 1.493291020393371582 1.3592858314514160156 1.488882899284362793 1.1367837190628051758 1.2077505588531494141 1.4568330049514770508 1.4884792566299438477 1.7665739059448242188 2.0104620456695556641 2.2966005802154541016 2.1207988262176513672 2.6175282001495361328 2.0576381683349609375 1.7342504262924194336 1.797015070915222168 2.1412432193756103516 1.87165069580078125 1.6360611915588378906 2.1031663417816162109 1.7788313627243041992 1.9273805618286132813 1.8502165079116821289 2.6419634819030761719 1.7768971920013427734 1.9574986696243286133 1.9619773626327514648 1.9273805618286132813 1.7788313627243041992 1.9273805618286132813 1.9697748422622680664 2.3715555667877197266 2.8407244682312011719 3.6815922260284423828 3.2429821491241455078 3.0711941719055175781 3.9891257286071777344 5.1796307563781738281 5.1796307563781738281 4.5181612968444824219 3.2866346836090087891 2.2283473014831542969 3.0711941719055175781 5.0473923683166503906 3.6679477691650390625 2.2908906936645507813 2.2180333137512207031 3.4669039249420166016 2.2283473014831542969 3.5202007293701171875 2.7901628017425537109 4.1445622444152832031 2.5603590011596679688 3.2965180873870849609 3.4669039249420166016 3.4669039249420166016 2.8220388889312744141 2.6419634819030761719 2.8220388889312744141 2.6414442062377929688 2.7429039478302001953 2.3399515151977539063 2.2275390625 2.4656162261962890625 2.9237434864044189453 2.3247892856597900391 1.8714486360549926758 1.7788313627243041992 1.7788313627243041992 1.6853694915771484375 1.9273805618286132813 1.876201629638671875 1.9273805618286132813 2.2630176544189453125 2.2129473686218261719 2.4766926765441894531 2.6025841236114501953 2.34915924072265625 2.2531998157501220703 2.2156710624694824219 2.4134476184844970703 2.1553661823272705078 2.2282891273498535156 2.2680649757385253906 2.2335400581359863281 2.5129070281982421875 1.806528925895690918 2.2864701747894287109 1.91559600830078125 1.5699548721313476563 1.2859483957290649414 1 1.2724547386169433594 1 1 1.1663788557052612305 1 1.0649803876876831055 1.3505208492279052734 1.3505208492279052734 1.0244803428649902344 1 1.2791357040405273438 1 1 1.493291020393371582 1.6360611915588378906 1.32544708251953125 1.493291020393371582 1.184945225715637207 1.0730701684951782227 1.6360611915588378906 1.3771700859069824219 1.6360611915588378906 1.7788313627243041992 1.6264138221740722656 1.8541953563690185547 1.6572318077087402344 1.7074462175369262695 1.493291020393371582 1.493291020393371582 1.2077505588531494141 1.2791357040405273438 1.6360611915588378906 1.32544708251953125 1.6360611915588378906 1.7788313627243041992 1.694403529167175293 1.9273805618286132813 3.2965180873870849609 3.6493880748748779297 3.4669039249420166016 3.6493880748748779297 3.2429821491241455078 3.4669039249420166016 3.4669039249420166016 2.6414442062377929688 1.9273805618286132813 2.8220388889312744141 2.6561486721038818359 2.6419634819030761719 2.9705042839050292969 2.8487193584442138672 3.4187967777252197266 3.4305613040924072266 2.7789945602416992188 3.1745526790618896484 3.3127408027648925781 3.7205941677093505859 4.1961417198181152344 3.7515101432800292969 3.5797369480133056641 3.2892689704895019531 3.0399367809295654297 3.0902969837188720703 3.1408431529998779297 3.3241662979125976563 3.0183713436126708984 3.3010857105255126953 3.1249480247497558594 3.8482449054718017578 3.7161402702331542969 3.3578364849090576172 2.9662289619445800781 3.1357717514038085938 3.0743057727813720703 2.8627817630767822266 2.5624499320983886719 2.6159224510192871094 2.77504730224609375 2.9357931613922119141 2.3648669719696044922 1.7874541282653808594 1.4817501306533813477 1.6424349546432495117 
5.1796307563781738281 2.2283473014831542969 4.4281702041625976563 2.4659085273742675781 2.2283473014831542969 3.4669039249420166016 2.2718164920806884766 3.4669039249420166016 3.6493880748748779297 2.2129473686218261719 2.7692322731018066406 2.7805960178375244141 2.2283473014831542969 2.6414442062377929688 2.2129473686218261719 2.0249571800231933594 1.9273805618286132813 1.6360611915588378906 1.561801910400390625 1.6561195850372314453 1.9368512630462646484 1.6656610965728759766 1.493291020393371582 1.493291020393371582 1.493291020393371582 1.6360611915588378906 1.493291020393371582 1.493291020393371582 1.3505208492279052734 1.35126495361328125 1.3311365842819213867 1.595572352409362793 1.6769771575927734375 1.605051875114440918 1.8483308553695678711 2.0938916206359863281 2.3244674205780029297 2.6288411617279052734 2.1572630405426025391 2.1656680107116699219 2.0439341068267822266 1.7440620660781860352 1.6625738143920898438 1.5646760463714599609 1.4668887853622436523 2.8938577175140380859 2.2140893936157226563 1.7788313627243041992 1.9273805618286132813 2.6419634819030761719 4.26065826416015625 3.4669039249420166016 3.4669039249420166016 2.3064684867858886719 2.2129473686218261719 3.6493880748748779297 1.9849596023559570313 3.5202007293701171875 2.2283473014831542969 2.4692032337188720703 5.8295397758483886719 3.8347759246826171875 2.2283473014831542969 2.2283473014831542969 5.0948252677917480469 4.4281702041625976563 2.3350765705108642578 2.3350765705108642578 2.3350765705108642578 3.6493880748748779297 2.2283473014831542969 3.6951785087585449219 5.0473923683166503906 2.2283473014831542969 3.5202007293701171875 2.6189682483673095703 3.2429821491241455078 2.2838530540466308594 1.9273805618286132813 3.8335995674133300781 2.8220388889312744141 2.030742645263671875 2.8220388889312744141 2.8938577175140380859 2.9055039882659912109 3.1609332561492919922 2.3757624626159667969 2.6835408210754394531 2.9472849369049072266 2.8178033828735351563 2.4563798904418945313 2.1514706611633300781 1.7586873769760131836 2.6419634819030761719 1.7836997509002685547 1.9444774389266967773 2.6419634819030761719 1.7939232587814331055 1.880440831184387207 2.8220388889312744141 2.0602176189422607422 1.9733777046203613281 2.5163893699645996094 1.9825119972229003906 2.5464692115783691406 2.6172182559967041016 2.3369896411895751953 2.2450168132781982422 2.0782806873321533203 2.5414636135101318359 2.3256003856658935547 2.045684814453125 2.1880679130554199219 1.8165870904922485352 1.6764178276062011719 1.0644234418869018555 1.1555559635162353516 1.0649803876876831055 1.2525427341461181641 1.0944103002548217773 1.2043795585632324219 1.1068179607391357422 1.0178838968276977539 1.2159698009490966797 1 1 1.0649803876876831055 1 1 1.493291020393371582 1.32544708251953125 1.6264138221740722656 1.6360611915588378906 1.6264138221740722656 1.6360611915588378906 1.1588419675827026367 1.4551444053649902344 1.32544708251953125 1.3693726062774658203 1.6264138221740722656 1.7788313627243041992 1.6360611915588378906 1.7788313627243041992 1.7788313627243041992 1.32544708251953125 1.0730701684951782227 1.4219058752059936523 1.0244803428649902344 1.493291020393371582 1.32544708251953125 1.7788313627243041992 1.7788313627243041992 1.9273805618286132813 3.4669039249420166016 2.2283473014831542969 2.2283473014831542969 2.1136622428894042969 3.4669039249420166016 2.986942291259765625 3.6815922260284423828 2.986942291259765625 1.9273805618286132813 1.9452953338623046875 2.3455784320831298828 1.9849596023559570313 1.9849596023559570313 2.3384089469909667969 2.6419634819030761719 2.4432318210601806641 2.8193426132202148438 2.6473593711853027344 2.9554946422576904297 2.6630978584289550781 3.6137077808380126953 3.7885832786560058594 4.1858410835266113281 3.5663013458251953125 3.6138372421264648438 3.4761068820953369141 2.8687391281127929688 3.0021457672119140625 3.1101982593536376953 2.5710904598236083984 2.9690845012664794922 3.5585505962371826172 3.3873097896575927734 3.6015415191650390625 3.4228501319885253906 3.1519672870635986328 2.8491740226745605469 2.8416008949279785156 2.8790440559387207031 2.7827560901641845703 2.5077564716339111328 2.6628158092498779297 2.6130793094635009766 2.2686724662780761719 1.8956775665283203125 1.4960051774978637695 1.5139540433883666992 
5.7651181221008300781 4.4281702041625976563 2.3350765705108642578 3.6815922260284423828 2.2283473014831542969 2.2283473014831542969 2.3909122943878173828 2.2283473014831542969 2.355365753173828125 2.0396780967712402344 2.2283473014831542969 3.9891257286071777344 2.3756649494171142578 1.9273805618286132813 2.8220388889312744141 1.9273805618286132813 1.7788313627243041992 1.6425864696502685547 1.573777318000793457 1.493291020393371582 1.6575386524200439453 1.2651234865188598633 1.1432471275329589844 1.493291020393371582 1.1666394472122192383 1.493291020393371582 1.4356256723403930664 1.3560039997100830078 1.1073075532913208008 1.2485898733139038086 1.3086440563201904297 1.5700545310974121094 1.9425730705261230469 1.5031187534332275391 1.6171355247497558594 2.1976065635681152344 2.4035904407501220703 2.1334323883056640625 2.0637922286987304688 1.9728139638900756836 1.4219058752059936523 1.6759113073348999023 1.7625614404678344727 1.493291020393371582 1.6360611915588378906 1.7496597766876220703 1.6597461700439453125 1.6264138221740722656 1.9271281957626342773 2.6419634819030761719 1.9273805618286132813 2.2718164920806884766 3.2429821491241455078 3.2965180873870849609 3.2965180873870849609 2.2283473014831542969 5.0473923683166503906 2.4330153465270996094 3.9891257286071777344 3.8347759246826171875 3.8347759246826171875 2.8059461116790771484 3.2866346836090087891 5.1796307563781738281 5.1796307563781738281 2.2283473014831542969 2.4118311405181884766 4.9933953285217285156 3.9891257286071777344 3.0711941719055175781 2.2283473014831542969 2.4684462547302246094 2.1764664649963378906 2.3680851459503173828 2.3512942790985107422 2.4118311405181884766 2.6036920547485351563 5.0473923683166503906 2.1846568584442138672 1.9273805618286132813 1.9273805618286132813 1.8317937850952148438 2.1193234920501708984 2.2904736995697021484 2.6621615886688232422 2.9296865463256835938 2.2325258255004882813 2.8193304538726806641 2.3284893035888671875 3.0568718910217285156 2.9081010818481445313 2.1860454082489013672 2.6419634819030761719 1.7788313627243041992 2.6419634819030761719 1.9273805618286132813 1.6960996389389038086 1.7788313627243041992 2.0747559070587158203 2.0472898483276367188 2.4711575508117675781 2.2618079185485839844 2.0940415859222412109 1.811999201774597168 1.8081916570663452148 1.9643377065658569336 2.0943045616149902344 2.14612579345703125 2.3583610057830810547 2.3136970996856689453 2.6684551239013671875 1.9355375766754150391 1.9304124116897583008 1.9613978862762451172 2.0508646965026855469 1.8338456153869628906 1.7883225679397583008 1.206309199333190918 1.0353624820709228516 1 1 1 1.1977251768112182617 1.0375969409942626953 1 1 1.0649803876876831055 1.3505208492279052734 1.493291020393371582 1.493291020393371582 1.4083597660064697266 1.4941315650939941406 1.4811452627182006836 1.6360611915588378906 1.6360611915588378906 1.4776235818862915039 1.6264138221740722656 1.6360611915588378906 1.493291020393371582 1.6360611915588378906 1.6425864696502685547 1.7788313627243041992 1.6734724044799804688 1.32544708251953125 1.2702655792236328125 1.5484681129455566406 1 1.493291020393371582 1.6360611915588378906 1.2244586944580078125 1.32544708251953125 1.694403529167175293 1.694403529167175293 1.9273805618286132813 2.8059461116790771484 2.2283473014831542969 5.0473923683166503906 2.986942291259765625 2.2129473686218261719 2.2718164920806884766 2.50002288818359375 1.9273805618286132813 1.8502165079116821289 2.8938577175140380859 1.9752048254013061523 1.8894457817077636719 2.6419634819030761719 2.2049741744995117188 2.1229658126831054688 2.5066382884979248047 2.4117300510406494141 2.5981359481811523438 3.1656558513641357422 3.5187666416168212891 3.5359342098236083984 3.2587606906890869141 3.1876275539398193359 3.1435379981994628906 3.008937835693359375 3.1751532554626464844 3.2211813926696777344 2.4145464897155761719 2.797760009765625 3.0112407207489013672 3.149707794189453125 3.2959837913513183594 3.2310266494750976563 3.1485700607299804688 3.034244537353515625 2.7555356025695800781 2.7766628265380859375 2.4191539287567138672 3.0701785087585449219 2.5649988651275634766 2.6149806976318359375 2.6653306484222412109 1.9543967247009277344 1.7737749814987182617 1.459710240364074707 1.6843955516815185547 
3.8347759246826171875 3.6493880748748779297 3.4669039249420166016 2.0399518013000488281 2.3431479930877685547 2.4330153465270996094 3.9891257286071777344 2.2283473014831542969 3.2965180873870849609 3.6951785087585449219 5.0473923683166503906 3.6493880748748779297 3.2429821491241455078 2.1024980545043945313 1.7872604131698608398 1.7788313627243041992 1.7788313627243041992 1.6288204193115234375 1.197829127311706543 1.493291020393371582 1.236596226692199707 1.4533494710922241211 1.493291020393371582 1.6360611915588378906 1.1342116594314575195 1.493291020393371582 1.3897658586502075195 1.4326146841049194336 1.3272891044616699219 1.2999064922332763672 1.7126792669296264648 1.5074599981307983398 1.8212406635284423828 2.0591809749603271484 1.7866835594177246094 1.7680429220199584961 2.3448996543884277344 2.7515239715576171875 2.1735372543334960938 2.1008701324462890625 1.5792241096496582031 1.9775254726409912109 1.8701039552688598633 1.493291020393371582 1.3999955654144287109 1.32544708251953125 1.6691188812255859375 1.6734724044799804688 1.6266878843307495117 1.7904338836669921875 1.9619773626327514648 3.2965180873870849609 3.6951785087585449219 2.2283473014831542969 3.6951785087585449219 3.6951785087585449219 3.0711941719055175781 4.4281702041625976563 3.9891257286071777344 2.2283473014831542969 6.2630610466003417969 5.1796307563781738281 3.0110311508178710938 4.4281702041625976563 8.2119503021240234375 4.9933953285217285156 3.0110311508178710938 5.0948252677917480469 3.8347759246826171875 2.2283473014831542969 2.4118311405181884766 2.3240211009979248047 2.2283473014831542969 2.4118311405181884766 3.0711941719055175781 3.2866346836090087891 6.0044336318969726563 2.2647755146026611328 5.0473923683166503906 3.4669039249420166016 2.6419634819030761719 1.9273805618286132813 2.4473743438720703125 1.8292535543441772461 2.9375321865081787109 2.2755532264709472656 2.6161646842956542969 2.8394002914428710938 2.8682320117950439453 3.1574206352233886719 3.0027179718017578125 2.5290341377258300781 2.2279727458953857422 1.8898912668228149414 1.8582086563110351563 2.2630176544189453125 2.0211725234985351563 2.5298364162445068359 2.2591395378112792969 2.0251598358154296875 1.7543913125991821289 2.3487188816070556641 2.1384046077728271484 2.1803832054138183594 2.7844583988189697266 2.2647736072540283203 2.2162699699401855469 2.1799206733703613281 2.1517889499664306641 2.7236537933349609375 2.8016026020050048828 2.4738504886627197266 2.308696746826171875 2.8218390941619873047 2.2454171180725097656 1.6296297311782836914 1.6937311887741088867 1 1 1.0813757181167602539 1.0244040489196777344 1.1339906454086303711 1.1370606422424316406 1.0009387731552124023 1 1 1 1 1 1.32544708251953125 1.32544708251953125 1.32544708251953125 1.5646760463714599609 1.6360611915588378906 1.6360611915588378906 1.6360611915588378906 1.764801025390625 1.493291020393371582 1.6360611915588378906 1.493291020393371582 1.6360611915588378906 1.7788313627243041992 1.6360611915588378906 1.6360611915588378906 1.32544708251953125 1.2151514291763305664 1 1.0808676481246948242 1.2212214469909667969 1.5175237655639648438 1.6360611915588378906 1.9684967994689941406 1.9273805618286132813 2.2129473686218261719 3.2429821491241455078 2.9318671226501464844 3.2965180873870849609 3.4669039249420166016 3.0927255153656005859 2.2283473014831542969 1.9444774389266967773 1.9273805618286132813 2.0773510932922363281 2.6419634819030761719 1.7586873769760131836 1.9994615316390991211 1.9684967994689941406 2.1818134784698486328 2.2729153633117675781 2.4545125961303710938 3.0472619533538818359 3.2456362247467041016 2.7919223308563232422 4.209087371826171875 3.2769415378570556641 3.8316087722778320313 3.5760567188262939453 3.3473637104034423828 3.5218393802642822266 3.4128689765930175781 2.7702174186706542969 3.1127076148986816406 3.3383636474609375 2.8857610225677490234 2.8648040294647216797 3.3028111457824707031 3.0729556083679199219 3.1170842647552490234 3.1474471092224121094 2.8429841995239257813 2.9902296066284179688 2.3472681045532226563 2.7820265293121337891 2.2759106159210205078 2.7859163284301757813 2.5209667682647705078 2.33467864990234375 2.4440817832946777344 2.0607199668884277344 2.0323317050933837891 
2.6820814609527587891 2.2129473686218261719 1.9273805618286132813 1.9273805618286132813 2.7390532493591308594 2.6967334747314453125 3.9891257286071777344 2.2283473014831542969 3.7850475311279296875 3.6493880748748779297 2.5116035938262939453 3.2429821491241455078 1.9273805618286132813 1.9273805618286132813 1.9273805618286132813 1.9684967994689941406 1.32544708251953125 1.6360611915588378906 1.4198298454284667969 1.6360611915588378906 1 1.4219058752059936523 1.2244586944580078125 1.5386004447937011719 1.493291020393371582 1.6174463033676147461 1.3505208492279052734 1.6494070291519165039 1.7421575784683227539 2.0200350284576416016 2.2105431556701660156 2.1820783615112304688 1.9789398908615112305 1.7829560041427612305 1.4892193078994750977 1.366212010383605957 1.951853632926940918 1.7817571163177490234 1.724132537841796875 1.9524425268173217773 2.1654362678527832031 2.1102366447448730469 1.9420671463012695313 1.9744125604629516602 1.5704859495162963867 1.3733347654342651367 1.3601235151290893555 1.7586873769760131836 1.7696378231048583984 1.7788313627243041992 1.9273805618286132813 1.9849596023559570313 3.6679477691650390625 2.0399518013000488281 5.6181230545043945313 4.4281702041625976563 3.2866346836090087891 6.2630610466003417969 2.2352170944213867188 2.4485712051391601563 2.7692322731018066406 7.0048313140869140625 5.8459849357604980469 5.0948252677917480469 5.1796307563781738281 5.7651181221008300781 3.0110311508178710938 4.9933953285217285156 3.2866346836090087891 4.6507639884948730469 4.3144006729125976563 2.3190021514892578125 3.9891257286071777344 3.6951785087585449219 2.4118311405181884766 3.9891257286071777344 2.5928318500518798828 2.6062388420104980469 2.2283473014831542969 3.0927255153656005859 1.7788313627243041992 1.9273805618286132813 2.115009307861328125 1.6293581724166870117 1.933320164680480957 2.62421417236328125 3.0691881179809570313 2.4766926765441894531 3.1691396236419677734 2.8968110084533691406 2.68489837646484375 2.8867418766021728516 2.3446223735809326172 1.9509049654006958008 1.7788313627243041992 2.6998846530914306641 2.5604026317596435547 2.5674586296081542969 2.4245877265930175781 2.8455951213836669922 2.2476089000701904297 2.2404487133026123047 2.8094058036804199219 2.7579195499420166016 2.4604449272155761719 2.5993187427520751953 2.262908935546875 2.4795322418212890625 2.6995317935943603516 2.9269664287567138672 3.0077517032623291016 2.7159366607666015625 2.7126119136810302734 2.2000713348388671875 1.8705661296844482422 2.1763904094696044922 1.8952425718307495117 1.4551199674606323242 1.3397128582000732422 1.0166300535202026367 1.0797227621078491211 1.2047774791717529297 1.0649803876876831055 1 1 1 1 1.0649803876876831055 1.0649803876876831055 1.3505208492279052734 1.493291020393371582 1 1.3505208492279052734 1.493291020393371582 1.6360611915588378906 1.4357621669769287109 1.488999485969543457 1.5646760463714599609 1.3204396963119506836 1.493291020393371582 1.6360611915588378906 1.6264138221740722656 1.6360611915588378906 1.493291020393371582 1.0964624881744384766 1.2056266069412231445 1 1.041880488395690918 1.6360611915588378906 1.6360611915588378906 1.7788313627243041992 1.9830318689346313477 1.9273805618286132813 2.986942291259765625 2.50002288818359375 1.9849596023559570313 2.4411988258361816406 2.5116035938262939453 2.2129473686218261719 3.4669039249420166016 1.9273805618286132813 1.7788313627243041992 2.6419634819030761719 2.9827599525451660156 2.8220388889312744141 1.981182098388671875 2.1529178619384765625 2.0398716926574707031 2.3201384544372558594 2.7197465896606445313 2.6762912273406982422 3.05240631103515625 2.8790256977081298828 3.8926453590393066406 3.9039587974548339844 3.4101610183715820313 2.5938019752502441406 2.1942448616027832031 2.6574249267578125 2.7262766361236572266 2.7508189678192138672 2.8973157405853271484 3.6759049892425537109 3.3222501277923583984 3.1667809486389160156 2.6878464221954345703 3.2802569866180419922 3.078624725341796875 3.0408465862274169922 2.7058851718902587891 2.7177519798278808594 2.5952138900756835938 2.3375818729400634766 2.7337789535522460938 2.6337349414825439453 2.7055289745330810547 2.4944870471954345703 2.5585768222808837891 1.7939348220825195313 1.6582518815994262695 
1.9273805618286132813 1.9273805618286132813 2.4568207263946533203 1.9273805618286132813 3.4669039249420166016 2.4118311405181884766 2.2283473014831542969 3.6815922260284423828 2.6414442062377929688 3.2747108936309814453 1.9121928215026855469 1.7788313627243041992 1.7811305522918701172 1.7788313627243041992 2.5577118396759033203 1.7586873769760131836 1.6360611915588378906 1.6004486083984375 1.7845683097839355469 1.6360611915588378906 1.5883264541625976563 1 1.3505208492279052734 1.4833709001541137695 1.0826810598373413086 1.6770453453063964844 1 1.565049290657043457 1.6517791748046875 2.0598468780517578125 2.1302783489227294922 2.1400094032287597656 2.3412549495697021484 1.896283268928527832 1.493291020393371582 1.493291020393371582 1.6786093711853027344 1.493291020393371582 1.8748277425765991211 1.6845080852508544922 2.2149200439453125 1.7923296689987182617 1.6533600091934204102 1.6295270919799804688 1.5904099941253662109 1.6376843452453613281 1.32544708251953125 1.6264138221740722656 1.6293581724166870117 2.2305238246917724609 1.9273805618286132813 2.2718164920806884766 3.6493880748748779297 3.6493880748748779297 5.0473923683166503906 2.2283473014831542969 2.7692322731018066406 2.4118311405181884766 5.0473923683166503906 3.9891257286071777344 4.4281702041625976563 6.3364357948303222656 8.2119503021240234375 8.2119503021240234375 5.1796307563781738281 2.8059461116790771484 4.4281702041625976563 3.9891257286071777344 3.8347759246826171875 2.2283473014831542969 3.0711941719055175781 3.6815922260284423828 3.2965180873870849609 3.6815922260284423828 3.0711941719055175781 3.2866346836090087891 3.9891257286071777344 2.2283473014831542969 3.9891257286071777344 3.6815922260284423828 1.9619773626327514648 1.9444774389266967773 3.4669039249420166016 2.6419634819030761719 1.8929288387298583984 3.1074650287628173828 2.4695467948913574219 2.4790003299713134766 2.5127172470092773438 2.3794751167297363281 3.0028159618377685547 2.9110805988311767578 2.6216289997100830078 2.6419634819030761719 2.4862189292907714844 2.4181680679321289063 2.6142685413360595703 2.4265711307525634766 2.2026810646057128906 2.0472486019134521484 2.3003211021423339844 3.0659160614013671875 2.7766063213348388672 2.7995908260345458984 3.0453906059265136719 3.0649123191833496094 3.1542327404022216797 2.2065134048461914063 2.6254138946533203125 2.9243400096893310547 2.7321555614471435547 3.0409030914306640625 2.0292305946350097656 2.1828818321228027344 2.0153803825378417969 1.7745245695114135742 1.6296672821044921875 1.366954803466796875 1.3702703714370727539 1.2077505588531494141 1.2077505588531494141 1.2077505588531494141 1.2077505588531494141 1.220489501953125 1.1363655328750610352 1 1 1 1.0649803876876831055 1.2791357040405273438 1 1.3505208492279052734 1 1.1238639354705810547 1.0964624881744384766 1.493291020393371582 1.6360611915588378906 1.493291020393371582 1.493291020393371582 1.493291020393371582 1.8279166221618652344 1.6360611915588378906 1.6360611915588378906 1.422367095947265625 1.1354496479034423828 1.4930655956268310547 1.6031579971313476563 1.32544708251953125 1.6360611915588378906 1.7788313627243041992 1.9273805618286132813 1.9273805618286132813 1.9273805618286132813 1.9574986696243286133 2.6419634819030761719 1.7811305522918701172 2.6419634819030761719 1.8063912391662597656 1.9273805618286132813 2.0399518013000488281 1.9845585823059082031 2.2470133304595947266 2.0338649749755859375 2.4883475303649902344 2.5735831260681152344 2.4448976516723632813 2.6153638362884521484 2.5860044956207275391 2.7320723533630371094 3.0381724834442138672 2.6939401626586914063 3.5699586868286132813 3.1612904071807861328 3.29754638671875 3.7714302539825439453 3.4363601207733154297 3.0673878192901611328 2.7781894207000732422 2.4374318122863769531 3.3203923702239990234 3.1622483730316162109 3.2419922351837158203 3.1981046199798583984 2.7131137847900390625 3.1591084003448486328 2.9057195186614990234 2.9747865200042724609 2.6946635246276855469 2.9137315750122070313 2.66654205322265625 2.6162848472595214844 2.7279267311096191406 2.6214511394500732422 2.4834239482879638672 2.5898821353912353516 2.7809953689575195313 2.5421223640441894531 2.5368187427520751953 2.1932446956634521484 2.5490026473999023438 
1.7788313627243041992 1.8040344715118408203 2.6419634819030761719 1.7788313627243041992 1.9273805618286132813 2.2283473014831542969 3.6564357280731201172 1.9273805618286132813 2.8871884346008300781 2.6419634819030761719 1.7788313627243041992 1.9273805618286132813 1.6264138221740722656 1.6360611915588378906 1.6360611915588378906 1.2976050376892089844 1.3707463741302490234 1.3774584531784057617 1.6543046236038208008 1.7693159580230712891 1.7029203176498413086 1.8498276472091674805 1.56217193603515625 1.3505208492279052734 1.2077505588531494141 1 1.5973755121231079102 1.5514084100723266602 1.719481348991394043 1.8753569126129150391 2.4303436279296875 2.1142973899841308594 2.0463888645172119141 1.6543804407119750977 1.493291020393371582 1.36087799072265625 1.5902628898620605469 1.7464735507965087891 1.6360611915588378906 1.6360611915588378906 2.162372589111328125 1.6360611915588378906 1.6782976388931274414 1.2668328285217285156 1.6360611915588378906 1.6969927549362182617 1.0244803428649902344 1.7589963674545288086 1.7472538948059082031 2.4411988258361816406 2.0798587799072265625 4.1126537322998046875 2.2283473014831542969 2.3157980442047119141 2.2283473014831542969 2.2283473014831542969 2.2283473014831542969 3.2965180873870849609 4.1904873847961425781 5.0473923683166503906 3.0711941719055175781 5.7651181221008300781 4.9933953285217285156 7.2105545997619628906 8.2119503021240234375 5.8295397758483886719 2.7692322731018066406 2.4659085273742675781 3.9891257286071777344 2.2283473014831542969 2.7692322731018066406 2.2283473014831542969 4.1048259735107421875 2.2283473014831542969 3.6951785087585449219 3.9891257286071777344 3.0110311508178710938 4.3626933097839355469 3.2866346836090087891 2.2283473014831542969 1.9849596023559570313 2.8871884346008300781 1.9273805618286132813 1.8138262033462524414 2.0864031314849853516 2.7152216434478759766 2.4481158256530761719 2.8090205192565917969 2.5750143527984619141 2.4584548473358154297 2.6440007686614990234 2.6709663867950439453 2.6419634819030761719 1.9269511699676513672 2.1319909095764160156 1.8242766857147216797 1.997638702392578125 2.4766271114349365234 1.6767425537109375 2.4997088909149169922 2.8330538272857666016 3.1733167171478271484 3.4686439037322998047 3.1614863872528076172 3.5315413475036621094 3.2523136138916015625 3.8078341484069824219 2.3710274696350097656 9.5899000167846679688 2.7036530971527099609 2.6669027805328369141 1.993390202522277832 1.695527195930480957 2.0933194160461425781 8.3287515640258789063 1.464257359504699707 2.0303812026977539063 1.7484511137008666992 1.2792615890502929688 1 1 1.2077505588531494141 1.689728856086730957 1.0416409969329833984 1.2005193233489990234 1 1 1 1 1 1.2791357040405273438 1 1.2077505588531494141 1 1.493291020393371582 1 1.3197185993194580078 1.1129516363143920898 1.493291020393371582 1.5646760463714599609 1.0964624881744384766 1.32544708251953125 1.6360611915588378906 1.3658533096313476563 1.6360611915588378906 1.493291020393371582 1.3604010343551635742 1.3505208492279052734 1.8802344799041748047 1.9684967994689941406 1.7872604131698608398 1.9273805618286132813 1.9273805618286132813 1.7696378231048583984 1.4357621669769287109 1.9830318689346313477 1.9273805618286132813 3.4669039249420166016 2.2129473686218261719 1.9273805618286132813 2.8220388889312744141 1.9273805618286132813 1.8502165079116821289 2.2808766365051269531 3.4615247249603271484 2.9337644577026367188 2.5867738723754882813 2.6296625137329101563 2.6201386451721191406 2.9118320941925048828 3.3006293773651123047 2.4426202774047851563 2.8631620407104492188 2.54985809326171875 3.2138895988464355469 2.5835311412811279297 2.9431433677673339844 3.5267310142517089844 2.7429223060607910156 2.7372198104858398438 2.9840419292449951172 3.461483001708984375 3.9441370964050292969 3.5689656734466552734 2.86539459228515625 2.3825249671936035156 3.1836500167846679688 2.6346943378448486328 2.7840781211853027344 2.6389684677124023438 2.7160747051239013672 2.9552106857299804688 2.4715819358825683594 2.7821605205535888672 2.7909376621246337891 3.0304026603698730469 2.3945367336273193359 2.4936728477478027344 2.3985354900360107422 2.3247525691986083984 
1.7788313627243041992 1.7074462175369262695 1.7788313627243041992 1.7788313627243041992 1.6960996389389038086 2.0033643245697021484 3.2965180873870849609 2.8220388889312744141 2.3064684867858886719 1.6655459403991699219 1.7074462175369262695 1.7788313627243041992 1.6500800848007202148 1.7788313627243041992 1.6360611915588378906 1.32544708251953125 1.7025151252746582031 2.0926594734191894531 2.0789496898651123047 2.3807306289672851563 1.9897025823593139648 1.5277547836303710938 1.8272768259048461914 1.3537565469741821289 1.2077505588531494141 1.3505208492279052734 1.5465985536575317383 1.493291020393371582 1.4580259323120117188 1.4985227584838867188 2.0771348476409912109 1.7843005657196044922 1.7880804538726806641 1.7052154541015625 1.2564243078231811523 1.32544708251953125 1.8154184818267822266 1.4248995780944824219 1.228587031364440918 1.6025860309600830078 1.8967945575714111328 1.4776235818862915039 1.7417191267013549805 1.5147589445114135742 1.6360611915588378906 1.2865890264511108398 1.493291020393371582 1.8095284700393676758 1.7788313627243041992 2.2129473686218261719 3.6951785087585449219 3.0711941719055175781 2.2283473014831542969 1.9849596023559570313 1.9541800022125244141 3.2429821491241455078 2.2718164920806884766 1.9273805618286132813 3.4669039249420166016 3.6951785087585449219 2.2283473014831542969 7.0048313140869140625 8.2119503021240234375 5.7478933334350585938 4.0777859687805175781 5.7936878204345703125 3.2866346836090087891 7.0614686012268066406 4.9933953285217285156 5.1796307563781738281 3.0711941719055175781 2.2283473014831542969 5.0473923683166503906 2.2283473014831542969 3.9891257286071777344 2.8059461116790771484 6.2630610466003417969 2.4659085273742675781 3.2965180873870849609 3.4669039249420166016 1.8028122186660766602 1.9273805618286132813 2.6419634819030761719 2.3992712497711181641 1.9727962017059326172 2.2129473686218261719 2.4133887290954589844 2.1326072216033935547 2.4674232006072998047 2.4411988258361816406 2.0755569934844970703 2.6419634819030761719 2.6419634819030761719 2.0332608222961425781 1.6264138221740722656 2.4154479503631591797 2.3174498081207275391 2.2040963172912597656 2.0282850265502929688 2.2574176788330078125 2.1812181472778320313 2.4713451862335205078 2.9415323734283447266 2.9816660881042480469 3.4860167503356933594 3.1171929836273193359 3.2728562355041503906 9.7700109481811523438 2.4594173431396484375 2.3717141151428222656 2.4279694557189941406 2.3242213726043701172 1.8672764301300048828 2.5114755630493164063 8.0872669219970703125 2.3136179447174072266 1.5396233797073364258 1.8195981979370117188 1.4304220676422119141 1.0649803876876831055 1.432847142219543457 1.5148453712463378906 1.2573722600936889648 1 1 1 1 1 1 1.0649803876876831055 1.3505208492279052734 1 1 1.493291020393371582 1 1.493291020393371582 1.4219058752059936523 1 1.32544708251953125 1.493291020393371582 1.1166129112243652344 1.3505208492279052734 1 1.6431690454483032227 1.3018490076065063477 1.6360611915588378906 1.5796509981155395508 1.3379575014114379883 1.6360611915588378906 1.7788313627243041992 1.9273805618286132813 1.9273805618286132813 1.7586873769760131836 1.6264138221740722656 1.7074462175369262695 2.0773510932922363281 3.2573487758636474609 2.9375321865081787109 2.1317989826202392578 1.9273805618286132813 1.9849596023559570313 1.8258668184280395508 2.2385129928588867188 2.8940408229827880859 2.3761687278747558594 3.2824888229370117188 3.1968286037445068359 2.8110957145690917969 3.0884683132171630859 2.8114752769470214844 2.4203448295593261719 2.8563070297241210938 2.6776168346405029297 2.6902115345001220703 2.0903232097625732422 2.9376077651977539063 3.0148885250091552734 3.3063068389892578125 3.1391582489013671875 2.8018636703491210938 3.3768031597137451172 3.6940336227416992188 3.3884449005126953125 3.3401522636413574219 2.9402852058410644531 2.7131502628326416016 2.8358392715454101563 2.4742512702941894531 2.8029005527496337891 2.9726781845092773438 3.0604462623596191406 3.1474878787994384766 2.4506733417510986328 2.7753708362579345703 2.8219687938690185547 3.0263559818267822266 3.1706476211547851563 2.7999613285064697266 2.4031910896301269531 2.7194869518280029297 
1.7788313627243041992 1.6814506053924560547 1.7872604131698608398 1.5331187248229980469 1.9273805618286132813 1.9273805618286132813 1.9273805618286132813 2.1317989826202392578 1.6360611915588378906 1.6360611915588378906 1.4408317804336547852 1.4776235818862915039 2.1179823875427246094 1.7122943401336669922 2.1566908359527587891 1.2283937931060791016 1.6360611915588378906 1.6360611915588378906 1.8402879238128662109 2.5334608554840087891 2.1457793712615966797 1.8183324337005615234 1.3969967365264892578 1.6989026069641113281 1.4228937625885009766 1.5003141164779663086 1.5695879459381103516 1.0244803428649902344 1.6304533481597900391 1.1822342872619628906 1.4231221675872802734 1.5059058666229248047 1.6427319049835205078 1.493291020393371582 1.4301487207412719727 1.0515575408935546875 1.5941936969757080078 1.3505208492279052734 1.6304506063461303711 1.4709627628326416016 1.1017313003540039063 1.5398836135864257813 1.2523829936981201172 1 1.6868259906768798828 1.3505208492279052734 1.493291020393371582 1.493291020393371582 1.6344852447509765625 2.6419634819030761719 3.6815922260284423828 3.6493880748748779297 3.2965180873870849609 3.4669039249420166016 2.0283679962158203125 3.2429821491241455078 3.6815922260284423828 2.6414442062377929688 3.6815922260284423828 2.2283473014831542969 2.2283473014831542969 6.3364357948303222656 5.9252114295959472656 4.1875715255737304688 5.7651181221008300781 4.1812615394592285156 7.0048313140869140625 4.3144006729125976563 2.2283473014831542969 2.2283473014831542969 3.9891257286071777344 2.4972825050354003906 3.6951785087585449219 2.7692322731018066406 3.9891257286071777344 2.7692322731018066406 3.0110311508178710938 3.6951785087585449219 2.6088836193084716797 3.4669039249420166016 3.2429821491241455078 2.4548807144165039063 2.0275716781616210938 2.4411988258361816406 1.9273805618286132813 1.7428672313690185547 2.4173271656036376953 2.0613033771514892578 1.9273805618286132813 2.4823317527770996094 1.8962177038192749023 1.8802243471145629883 2.4411988258361816406 1.6689589023590087891 1.7970721721649169922 1.7476694583892822266 2.2721195220947265625 2.2294151782989501953 2.1288366317749023438 2.4770720005035400391 1.7371385097503662109 2.6028714179992675781 3.5158412456512451172 3.8157832622528076172 3.0192072391510009766 3.1907243728637695313 3.3416018486022949219 2.496829986572265625 2.5406680107116699219 9.0497655868530273438 2.0383346080780029297 2.6436693668365478516 8.3584871292114257813 1.9772312641143798828 8.0477952957153320313 2.9671754837036132813 2.0185067653656005859 2.2917282581329345703 1.1840250492095947266 1.502980351448059082 1.5094048976898193359 1.4005185365676879883 1.3734490871429443359 1 1 1 1 1 1.1363655328750610352 1.2791357040405273438 1 1.493291020393371582 1.493291020393371582 1.493291020393371582 1.0244803428649902344 1 1 1.2791357040405273438 1.1452109813690185547 1.5018945932388305664 1.493291020393371582 1 1.0244803428649902344 1.6360611915588378906 1.6360611915588378906 1.6360611915588378906 1.5646760463714599609 1.493291020393371582 1.6360611915588378906 1.694403529167175293 2.2129473686218261719 1.9273805618286132813 2.3852427005767822266 1.6264138221740722656 1.7788313627243041992 2.8938577175140380859 2.4411988258361816406 1.7788313627243041992 1.9273805618286132813 1.6578775644302368164 1.8351106643676757813 2.0098104476928710938 2.4186398983001708984 2.0193257331848144531 2.893070220947265625 3.1190087795257568359 2.8067793846130371094 3.0166709423065185547 2.7257668972015380859 2.5576548576354980469 2.9905757904052734375 2.5558657646179199219 2.3817386627197265625 2.3277111053466796875 2.2670102119445800781 2.2689909934997558594 2.6996343135833740234 2.3741345405578613281 2.8849735260009765625 2.6367669105529785156 2.91892242431640625 2.9951736927032470703 2.7481367588043212891 2.7503132820129394531 3.0647344589233398438 2.5864968299865722656 3.0401155948638916016 2.5761711597442626953 2.7405548095703125 3.0862746238708496094 3.3549339771270751953 2.7546968460083007813 2.5711910724639892578 2.5608198642730712891 2.8696360588073730469 2.8193171024322509766 2.9631218910217285156 2.8998346328735351563 2.9487898349761962891 2.6216845512390136719 
1.7644934654235839844 2.0733575820922851563 1.9273805618286132813 2.1723401546478271484 2.3778810501098632813 1.9121928215026855469 1.7788313627243041992 1.6264138221740722656 1.353777766227722168 1.2876501083374023438 1.6360611915588378906 1.6360611915588378906 1.6360611915588378906 1.6360611915588378906 1.6360611915588378906 1 1.32544708251953125 2.1266651153564453125 1.7361470460891723633 2.0383372306823730469 2.1605618000030517578 1.6711462736129760742 1.493291020393371582 1.5646760463714599609 1.493291020393371582 1.8968092203140258789 1.5925394296646118164 1.3505208492279052734 1.1248965263366699219 1.3103127479553222656 1.3420200347900390625 1.6264975070953369141 1.368359684944152832 1.9583724737167358398 1.7485079765319824219 1.4342666864395141602 1.8067089319229125977 1.5157876014709472656 1.5244140625 1.0968183279037475586 1.0244803428649902344 1.59136962890625 1.0928246974945068359 1.3505208492279052734 1.3498489856719970703 1.3168462514877319336 1.1048746109008789063 1.5646760463714599609 2.0957150459289550781 1.7788313627243041992 2.6419634819030761719 1.9273805618286132813 2.6321346759796142578 1.9697748422622680664 2.0399518013000488281 2.8621454238891601563 2.2283473014831542969 2.2718164920806884766 2.2283473014831542969 2.2283473014831542969 3.8347759246826171875 5.0948252677917480469 7.1381573677062988281 4.0777859687805175781 8.2119503021240234375 5.0334177017211914063 4.1812615394592285156 3.9891257286071777344 5.1796307563781738281 3.0711941719055175781 2.2283473014831542969 3.6493880748748779297 5.0473923683166503906 2.6967334747314453125 3.0711941719055175781 3.9891257286071777344 2.2283473014831542969 2.0399518013000488281 3.6951785087585449219 2.50002288818359375 1.9273805618286132813 1.7872604131698608398 1.9273805618286132813 2.8938577175140380859 1.9273805618286132813 1.9806563854217529297 1.7167694568634033203 2.128204345703125 2.1338872909545898438 3.2110114097595214844 1.7788313627243041992 1.851276397705078125 1.8502165079116821289 1.7046622037887573242 1.9977153539657592773 1.6360611915588378906 1.6699165105819702148 1.9601006507873535156 1.702185511589050293 1.8949667215347290039 2.1741607189178466797 2.27555084228515625 3.4756009578704833984 3.5020852088928222656 3.2624752521514892578 9.8969449996948242188 3.0359432697296142578 2.6635651588439941406 8.8241052627563476563 9.6787996292114257813 1.7669165134429931641 8.4397907257080078125 8.424228668212890625 1.665583491325378418 1.7636322975158691406 2.0354206562042236328 2.2865309715270996094 1.7970038652420043945 1.2317336797714233398 1.0093159675598144531 1.7876495122909545898 1.6360611915588378906 1.5787829160690307617 1.3505208492279052734 1.0244803428649902344 1.1298277378082275391 1 1 1 1.493291020393371582 1.0661557912826538086 1.6215499639511108398 1.6360611915588378906 1.32544708251953125 1.4601144790649414063 1.32544708251953125 1.0439506769180297852 1.2865890264511108398 1.5646760463714599609 1.4083597660064697266 1.1720772981643676758 1.493291020393371582 1.5646760463714599609 1.5646760463714599609 1.4942193031311035156 1.32544708251953125 1.6360611915588378906 1.6360611915588378906 1.7788313627243041992 1.8294210433959960938 1.9273805618286132813 1.9273805618286132813 1.7788313627243041992 1.9273805618286132813 1.6578775644302368164 1.7788313627243041992 1.7788313627243041992 1.7788313627243041992 1.7872604131698608398 1.7696378231048583984 1.7788313627243041992 1.8593301773071289063 2.3055193424224853516 2.0691416263580322266 3.2833123207092285156 2.9038848876953125 3.186737060546875 3.5182139873504638672 3.6182749271392822266 2.8880200386047363281 2.6654262542724609375 2.9613585472106933594 2.657962799072265625 2.6045413017272949219 2.5391476154327392578 2.5943579673767089844 2.7306377887725830078 2.6808276176452636719 2.6318476200103759766 2.5190896987915039063 2.7661824226379394531 3.0596404075622558594 3.1348989009857177734 2.8621273040771484375 2.773494720458984375 2.6418194770812988281 2.6716482639312744141 2.7284517288208007813 2.8003597259521484375 3.3470175266265869141 2.7719786167144775391 2.8897929191589355469 2.8486266136169433594 2.2227978706359863281 3.043426513671875 2.8700957298278808594 2.6287288665771484375 2.8700656890869140625 3.0760347843170166016 2.7447421550750732422 
2.0698370933532714844 1.9273805618286132813 1.9273805618286132813 1.9273805618286132813 2.4411988258361816406 1.7696378231048583984 1.7788313627243041992 1.8924899101257324219 1.6360611915588378906 1.6360611915588378906 1.6360611915588378906 1.4933369159698486328 1.3691771030426025391 1.3524861335754394531 1.493291020393371582 1.3136466741561889648 1.5230730772018432617 1.6080199480056762695 1.926598668098449707 1.8303277492523193359 1.5394617319107055664 1.4768724441528320313 1.6471869945526123047 1.6360611915588378906 1.663865208625793457 1.6303579807281494141 1.493291020393371582 1.8384939432144165039 1.3505208492279052734 1.3505208492279052734 1.5637824535369873047 1.7033065557479858398 1.6630961894989013672 1.488475799560546875 1.7780148983001708984 1.5895431041717529297 1.5180050134658813477 1.3805314302444458008 1.126410365104675293 1.1052203178405761719 1.493291020393371582 2.2326333522796630859 1.1310960054397583008 1.493291020393371582 1.3505208492279052734 1.394054412841796875 1.3505208492279052734 1.493291020393371582 1.1326861381530761719 1.6360611915588378906 1.6264138221740722656 1.7788313627243041992 2.6419634819030761719 1.9541800022125244141 1.9273805618286132813 2.355365753173828125 4.6507639884948730469 2.6062388420104980469 3.0711941719055175781 2.3157980442047119141 3.8347759246826171875 5.7651181221008300781 3.3295886516571044922 8.5227537155151367188 8.2866992950439453125 5.7651181221008300781 6.2630610466003417969 3.0711941719055175781 3.0110311508178710938 4.5181612968444824219 2.7692322731018066406 3.6493880748748779297 3.6493880748748779297 2.4118311405181884766 2.2283473014831542969 3.8347759246826171875 5.1796307563781738281 3.6815922260284423828 1.9541800022125244141 2.6419634819030761719 1.9273805618286132813 3.2110114097595214844 1.9273805618286132813 1.9273805618286132813 1.9273805618286132813 1.9273805618286132813 1.9684967994689941406 1.9273805618286132813 1.8502165079116821289 1.9273805618286132813 1.7788313627243041992 1.9878722429275512695 1.9802136421203613281 2.5417046546936035156 1.7162407636642456055 1.3880045413970947266 1.9709124565124511719 1.951419830322265625 1.9136620759963989258 1.9632500410079956055 2.21749114990234375 2.3371210098266601563 2.3427469730377197266 2.2162468433380126953 3.2455699443817138672 3.0816512107849121094 2.5461342334747314453 2.4545714855194091797 9.3649034500122070313 8.5023088455200195313 8.722087860107421875 1.4536786079406738281 1.8262283802032470703 1.9473897218704223633 1.7900803089141845703 1.9347153902053833008 2.1772549152374267578 1.1842150688171386719 1.885041356086730957 1.4405065774917602539 1.3910700082778930664 1.4424035549163818359 1.5228172540664672852 1.5817420482635498047 1.4188293218612670898 1 1 1 1.3505208492279052734 1.0439506769180297852 1.32544708251953125 1.7788313627243041992 1.7788313627243041992 1.8040344715118408203 1.3693726062774658203 1.7788313627243041992 1.9625101089477539063 1.6264138221740722656 1.7788313627243041992 1.7788313627243041992 1.6264138221740722656 1.5409160852432250977 2.0930497646331787109 1.6360611915588378906 1.9521150588989257813 1.7788313627243041992 1.6360611915588378906 1.6497416496276855469 1.7586873769760131836 1.7788313627243041992 1.7427699565887451172 1.6264138221740722656 1.9273805618286132813 1.9121928215026855469 1.9273805618286132813 2.2305238246917724609 1.6360611915588378906 1.6266878843307495117 1.7788313627243041992 1.7586873769760131836 1.6360611915588378906 1.7310708761215209961 2.3070306777954101563 2.0106172561645507813 2.3764441013336181641 2.6831872463226318359 2.9488122463226318359 2.8446881771087646484 2.9145960807800292969 3.1570339202880859375 3.269969940185546875 2.6981909275054931641 2.4447031021118164063 2.6212227344512939453 2.9563577175140380859 3.1061267852783203125 3.3545258045196533203 3.5262370109558105469 2.8451087474822998047 2.7139832973480224609 3.0700755119323730469 3.4730243682861328125 3.0265028476715087891 3.1150777339935302734 2.5939021110534667969 3.2951209545135498047 2.7883193492889404297 2.7878434658050537109 2.7873792648315429688 3.5068295001983642578 3.4968574047088623047 2.6237721443176269531 2.4558916091918945313 2.7024376392364501953 2.9789185523986816406 2.8570055961608886719 2.6460437774658203125 2.6690473556518554688 2.7641370296478271484 2.8712215423583984375 
1.7788313627243041992 1.9740775823593139648 2.6134979724884033203 2.1192464828491210938 2.4766926765441894531 1.4785366058349609375 1.7788313627243041992 1.6264138221740722656 1.7788313627243041992 1.6264138221740722656 1.4161572456359863281 1.6360611915588378906 1.6360611915588378906 1.6360611915588378906 1.0913536548614501953 1.32544708251953125 1.9845708608627319336 1.3109364509582519531 1.8033479452133178711 1.3539762496948242188 1.7327978610992431641 1.8536932468414306641 1.9845497608184814453 1.9146152734756469727 1.493291020393371582 1.3505208492279052734 1.493291020393371582 1.6739448308944702148 1.363566279411315918 1.1376870870590209961 1.4620208740234375 1.3505208492279052734 1.735190272331237793 2.2298052310943603516 1.918278813362121582 1.5686488151550292969 2.1248400211334228516 1.2137197256088256836 1.0340830087661743164 1.493291020393371582 1.6360611915588378906 1.2524191141128540039 1.3575999736785888672 1.3910951614379882813 1.7780392169952392578 1.6360611915588378906 1.4161572456359863281 1.3505305051803588867 1.6360611915588378906 1.6264138221740722656 1.7788313627243041992 1.6421043872833251953 1.6264138221740722656 1.8502165079116821289 1.9273805618286132813 2.6820814609527587891 5.0473923683166503906 3.6493880748748779297 3.4669039249420166016 2.2283473014831542969 2.8059461116790771484 5.1796307563781738281 4.9933953285217285156 5.7651181221008300781 5.7478933334350585938 3.0110311508178710938 4.4222345352172851563 5.0792021751403808594 3.0110311508178710938 2.4659085273742675781 5.0473923683166503906 3.2429821491241455078 2.6414442062377929688 2.2283473014831542969 3.6815922260284423828 5.1796307563781738281 2.2283473014831542969 3.2429821491241455078 3.4669039249420166016 2.6419634819030761719 1.9273805618286132813 1.9574986696243286133 4.1624202728271484375 2.2129473686218261719 3.8335995674133300781 2.8220388889312744141 1.7766367197036743164 1.7788313627243041992 1.7788313627243041992 1.7586873769760131836 2.8938577175140380859 1.7008614540100097656 1.7788313627243041992 1.7186977863311767578 1.9164330959320068359 1.5034847259521484375 1.5428572893142700195 1.9144529104232788086 2.0363974571228027344 1.9014639854431152344 1.9707734584808349609 2.6305208206176757813 2.311126708984375 2.2498006820678710938 8.6441135406494140625 9.317584991455078125 1.9468303918838500977 8.6445245742797851563 8.8064441680908203125 8.2239198684692382813 1.7861703634262084961 8.57018280029296875 8.9131460189819335938 1.9092652797698974609 2.0091085433959960938 1.4605070352554321289 1.902289271354675293 2.1353850364685058594 1.5372196435928344727 1.5836082696914672852 1.7864079475402832031 1.6360611915588378906 1.8326021432876586914 1.8001067638397216797 1.041880488395690918 1.2077505588531494141 1 1.2791357040405273438 1 1.3505208492279052734 1.2056266069412231445 1.7788313627243041992 1.6264138221740722656 1.6264138221740722656 1.9830318689346313477 1.665675044059753418 1.7788313627243041992 3.2110114097595214844 3.5284249782562255859 1.694403529167175293 1.6264138221740722656 1.7788313627243041992 1.6590628623962402344 1.6360611915588378906 2.1566908359527587891 2.2630176544189453125 1.7788313627243041992 2.1339786052703857422 1.7525779008865356445 1.7788313627243041992 1.9273805618286132813 1.7788313627243041992 1.9273805618286132813 1.9273805618286132813 1.9273805618286132813 2.1723401546478271484 1.6293581724166870117 2.2124588489532470703 1.6264138221740722656 2.1179823875427246094 1.493291020393371582 1.5084862709045410156 2.1773078441619873047 2.1061489582061767578 3.18096923828125 2.0764136314392089844 2.7097384929656982422 2.6028528213500976563 2.9588818550109863281 3.4115476608276367188 2.9859218597412109375 3.1415047645568847656 2.9964826107025146484 3.1721618175506591797 2.9726409912109375 2.9510400295257568359 3.1129560470581054688 2.7188344001770019531 2.7150518894195556641 2.8509678840637207031 2.5514650344848632813 3.2216000556945800781 2.3743207454681396484 2.4008977413177490234 2.7687065601348876953 2.9070155620574951172 2.6985504627227783203 3.1579115390777587891 3.1014928817749023438 3.1793820858001708984 3.2026610374450683594 3.0827491283416748047 2.6275331974029541016 2.7261438369750976563 2.7298948764801025391 2.7573990821838378906 2.5297031402587890625 2.5090219974517822266 2.6726734638214111328 2.6089851856231689453 
1.9974131584167480469 2.2317380905151367188 2.1398286819458007813 1.6890980005264282227 2.4059605598449707031 2.0309460163116455078 2.0610868930816650391 1.6264138221740722656 1.6264138221740722656 1.7280507087707519531 1.32544708251953125 1.32544708251953125 1.6360611915588378906 1.9228563308715820313 1.6036825180053710938 1.4471126794815063477 1.4598073959350585938 1.9289290904998779297 1.8199898004531860352 1.8427350521087646484 2.1860964298248291016 2.0211594104766845703 2.3847603797912597656 1.950064539909362793 1.4914461374282836914 2.1596527099609375 1.6360611915588378906 1.3903821706771850586 1 1.2077505588531494141 1.5791227817535400391 1.493291020393371582 1.4624497890472412109 1.5928554534912109375 1.4072730541229248047 1.4935941696166992188 1.5948961973190307617 1.6360611915588378906 1.495604395866394043 1.6700088977813720703 1.6360611915588378906 1.8392034769058227539 1.6369402408599853516 1.3706735372543334961 1.6360611915588378906 1.7788313627243041992 1.505316615104675293 1.6293581724166870117 1.7788313627243041992 1.7788313627243041992 2.6419634819030761719 1.7788313627243041992 1.694403529167175293 3.2257735729217529297 2.2129473686218261719 3.4669039249420166016 3.0927255153656005859 3.6493880748748779297 2.3756649494171142578 2.0399518013000488281 2.2283473014831542969 5.1796307563781738281 4.4281702041625976563 8.2119503021240234375 8.2119503021240234375 10.615879058837890625 8.2119503021240234375 8.2119503021240234375 8.2119503021240234375 2.2283473014831542969 2.0283679962158203125 2.8220388889312744141 3.2965180873870849609 3.7362551689147949219 5.0473923683166503906 2.7692322731018066406 2.4659085273742675781 2.4659085273742675781 3.2965180873870849609 1.9273805618286132813 1.8138262033462524414 1.9273805618286132813 3.4669039249420166016 3.4669039249420166016 4.26065826416015625 3.5284249782562255859 2.126628875732421875 2.6419634819030761719 1.8502165079116821289 1.7280544042587280273 1.9684967994689941406 1.8148397207260131836 2.0010249614715576172 2.2383756637573242188 1.6000901460647583008 2.0382671356201171875 1.8208734989166259766 1.7618468999862670898 1.9588367938995361328 1.936596989631652832 1.6877436637878417969 2.1030671596527099609 2.2111811637878417969 2.1292846202850341797 8.3454351425170898438 1.6702668666839599609 2.1900930404663085938 8.3332386016845703125 8.54596710205078125 8.726779937744140625 8.330493927001953125 1.7222118377685546875 1.7442227602005004883 8.4025945663452148438 2.3376410007476806641 2.2265882492065429688 1.9160979986190795898 2.1403677463531494141 2.0166866779327392578 1.5860188007354736328 1.32544708251953125 1.7629281282424926758 1.32544708251953125 1.6360611915588378906 1.1462047100067138672 1.493291020393371582 1.3505208492279052734 1 1.1105161905288696289 1.0652728080749511719 1.493291020393371582 1.4933369159698486328 1.3258135318756103516 1.4776235818862915039 1.9830318689346313477 1.7788313627243041992 1.7046622037887573242 1.7788313627243041992 1.9273805618286132813 1.9273805618286132813 1.6781011819839477539 1.7766367197036743164 2.1527981758117675781 1.9684967994689941406 1.7788313627243041992 1.4811452627182006836 1.6293581724166870117 1.6264138221740722656 1.9886901378631591797 1.9273805618286132813 2.50002288818359375 2.6419634819030761719 1.7202570438385009766 2.6419634819030761719 1.9273805618286132813 2.6419634819030761719 1.6264138221740722656 1.9561896324157714844 1.9779722690582275391 2.0957150459289550781 1.493291020393371582 1.5558985471725463867 1.4170420169830322266 2.54000091552734375 2.583591461181640625 2.5328683853149414063 2.2563593387603759766 2.1138749122619628906 2.6821959018707275391 2.4401783943176269531 2.4912192821502685547 2.9021358489990234375 3.2955791950225830078 2.8129899501800537109 2.9040217399597167969 2.77144622802734375 2.6924645900726318359 2.7943990230560302734 2.3500983715057373047 2.4289367198944091797 2.6161806583404541016 2.4691972732543945313 2.1305141448974609375 2.2553951740264892578 2.5039982795715332031 3.1164898872375488281 2.8752393722534179688 2.6759274005889892578 3.1147210597991943359 3.4047031402587890625 3.4451358318328857422 3.2410953044891357422 3.3080337047576904297 2.7515342235565185547 1.9938658475875854492 2.0210931301116943359 2.4363465309143066406 2.1252827644348144531 2.3555555343627929688 2.5340731143951416016 
1.7323932647705078125 2.3821027278900146484 1.8845460414886474609 1.9951764345169067383 2.7143104076385498047 1.6700913906097412109 1.493291020393371582 1.201282501220703125 1.7788313627243041992 1.6264138221740722656 1.32544708251953125 1.3459802865982055664 1.6360611915588378906 1.353777766227722168 1.5972665548324584961 2.0334143638610839844 1.8119245767593383789 1.5738059282302856445 2.1182439327239990234 2.2491009235382080078 2.2663016319274902344 2.7141356468200683594 2.0749971866607666016 1.5067026615142822266 1.7122188806533813477 1.3961745500564575195 1.6360611915588378906 1 1.1363655328750610352 1.1845356225967407227 1.3924887180328369141 1.5940917730331420898 1.5682948827743530273 1.62438201904296875 2.1309599876403808594 1.5832055807113647461 2.0567343235015869141 1.330731511116027832 1.63513946533203125 1.8362711668014526367 1.8694179058074951172 1.8490940332412719727 1.6360611915588378906 1.6360611915588378906 1.3721284866333007813 2.0773510932922363281 1.8138262033462524414 1.9273805618286132813 1.8502165079116821289 1.8502165079116821289 2.9031255245208740234 2.2305238246917724609 1.7788313627243041992 2.1317989826202392578 1.9273805618286132813 4.26065826416015625 2.2283473014831542969 3.6951785087585449219 3.6815922260284423828 1.9273805618286132813 4.0418252944946289063 5.7651181221008300781 5.0334177017211914063 5.7651181221008300781 5.7478933334350585938 6.3364357948303222656 8.2119503021240234375 5.7651181221008300781 4.1812615394592285156 3.9891257286071777344 3.2429821491241455078 4.6208863258361816406 3.6815922260284423828 3.6493880748748779297 3.6493880748748779297 3.0857267379760742188 2.7692322731018066406 2.2283473014831542969 3.2965180873870849609 3.4669039249420166016 4.1445622444152832031 1.9273805618286132813 1.9574986696243286133 2.2718164920806884766 2.6414442062377929688 1.9849596023559570313 1.9849596023559570313 1.9273805618286132813 1.8260874748229980469 2.0025267601013183594 1.9554269313812255859 1.8013248443603515625 1.9462493658065795898 2.1125354766845703125 2.2336966991424560547 2.5394854545593261719 2.3282365798950195313 2.1320557594299316406 1.9448693990707397461 1.9020926952362060547 2.0961129665374755859 1.679886937141418457 2.0379438400268554688 1.784170985221862793 8.2743005752563476563 8.4352874755859375 8.5392045974731445313 8.1708307266235351563 8.3861131668090820313 1.2165344953536987305 1.9642148017883300781 8.9626522064208984375 2.2144083976745605469 8.6321191787719726563 2.2054851055145263672 2.6460642814636230469 2.8784489631652832031 2.3750619888305664063 1.932025909423828125 2.0872335433959960938 1.9020421504974365234 1.6336301565170288086 1.3476635217666625977 1.32544708251953125 1.6360611915588378906 1.493291020393371582 1.3505208492279052734 1.32544708251953125 1.6360611915588378906 1.493291020393371582 1.0340830087661743164 1.493291020393371582 1.353777766227722168 1.6360611915588378906 1.6264138221740722656 2.0773510932922363281 3.5047473907470703125 2.6419634819030761719 2.6419634819030761719 2.6419634819030761719 1.7280544042587280273 1.7788313627243041992 2.6419634819030761719 1.9273805618286132813 2.8220388889312744141 1.9273805618286132813 1.6960996389389038086 1.9684967994689941406 2.8938577175140380859 2.50002288818359375 1.8951973915100097656 1.7788313627243041992 1.7202570438385009766 1.75646209716796875 1.8559613227844238281 2.12187957763671875 1.8875442743301391602 1.7788313627243041992 2.0598213672637939453 1.7788313627243041992 1.6743680238723754883 1.6360611915588378906 1.6360611915588378906 1.6360611915588378906 1.6766458749771118164 2.0370669364929199219 2.0489666461944580078 2.4475777149200439453 2.3976900577545166016 2.2249004840850830078 2.4049787521362304688 2.6767029762268066406 2.6282887458801269531 2.7495114803314208984 2.5709888935089111328 2.7299020290374755859 2.8675446510314941406 2.4823906421661376953 2.0967762470245361328 2.1131851673126220703 2.517192840576171875 2.2733004093170166016 2.4080624580383300781 2.1929183006286621094 2.6571452617645263672 2.9757747650146484375 2.84949493408203125 3.0537166595458984375 2.6958577632904052734 3.0739407539367675781 2.7903635501861572266 2.8094007968902587891 2.3431222438812255859 2.5519564151763916016 2.7722733020782470703 1.9944471120834350586 2.2187323570251464844 2.271511077880859375 2.3896458148956298828 1.8969984054565429688 
1.7272650003433227539 1.6344696283340454102 1.7710258960723876953 2.0431079864501953125 2.0603187084197998047 1.4489121437072753906 1.6115179061889648438 1.7586873769760131836 1.7004723548889160156 1.5175237655639648438 1.4239546060562133789 1.32544708251953125 1.6360611915588378906 2.0434482097625732422 1.5415358543395996094 1.9339187145233154297 1.9974600076675415039 1.490664362907409668 2.2330739498138427734 1.9501839876174926758 2.3508386611938476563 2.2042629718780517578 1.306925654411315918 1.6500275135040283203 1.3505208492279052734 1.1530243158340454102 1.2865890264511108398 1 1.2077505588531494141 1.0649803876876831055 1.3243306875228881836 1.4445707798004150391 1.7988831996917724609 1.493291020393371582 1.692738652229309082 1.6002626419067382813 1.5285427570343017578 1.493291020393371582 1.6979780197143554688 1.4025940895080566406 1.6061310768127441406 1.0994405746459960938 1.493291020393371582 1.7074462175369262695 1.6264138221740722656 1.7860915660858154297 1.9273805618286132813 2.2129473686218261719 1.9574986696243286133 2.8220388889312744141 2.4766926765441894531 2.986942291259765625 2.8220388889312744141 4.1445622444152832031 3.4669039249420166016 3.2965180873870849609 3.6493880748748779297 2.0399518013000488281 1.9273805618286132813 3.2429821491241455078 2.7692322731018066406 5.0948252677917480469 5.0948252677917480469 4.1812615394592285156 8.2119503021240234375 5.0948252677917480469 4.1812615394592285156 3.5202007293701171875 3.0110311508178710938 2.2283473014831542969 2.2283473014831542969 3.6493880748748779297 3.4669039249420166016 2.3064684867858886719 3.6815922260284423828 2.6062388420104980469 3.9891257286071777344 2.2283473014831542969 3.6951785087585449219 2.986942291259765625 1.9541800022125244141 2.2718164920806884766 1.9574986696243286133 2.2718164920806884766 3.4669039249420166016 1.9574986696243286133 1.9273805618286132813 1.9273805618286132813 1.7872604131698608398 2.2140893936157226563 2.2358133792877197266 2.2174789905548095703 2.4811699390411376953 2.4057252407073974609 2.3961501121520996094 2.5260026454925537109 2.2718353271484375 2.0730102062225341797 1.9559459686279296875 2.0151484012603759766 2.0776572227478027344 1.6205043792724609375 1.4504103660583496094 1.6658837795257568359 2.096744537353515625 8.1330776214599609375 8.0977535247802734375 1.8402820825576782227 1.2436251640319824219 2.1218619346618652344 8.8465433120727539063 2.3758223056793212891 1.8405247926712036133 9.0428333282470703125 2.12102508544921875 2.5047235488891601563 2.2325282096862792969 2.1565916538238525391 1.8964111804962158203 1.7520780563354492188 1.9957275390625 1.5875852108001708984 1.6044715642929077148 1.6360611915588378906 1.4369227886199951172 1.6360611915588378906 1.6350966691970825195 1.9625101089477539063 1.6360611915588378906 1 1.3505208492279052734 1 1.493291020393371582 1.7162407636642456055 1.7788313627243041992 1.6344852447509765625 1.8502165079116821289 1.8502165079116821289 2.2305238246917724609 2.6419634819030761719 1.7788313627243041992 1.9273805618286132813 2.6414442062377929688 1.9273805618286132813 1.9273805618286132813 2.6414442062377929688 2.0238885879516601563 1.9273805618286132813 1.9273805618286132813 1.9273805618286132813 2.4766926765441894531 1.7788313627243041992 1.7788313627243041992 1.7929172515869140625 1.7788313627243041992 1.7788313627243041992 2.2655863761901855469 1.9096053838729858398 2.6419634819030761719 1.6264138221740722656 1.6360611915588378906 1.3771700859069824219 2.1566908359527587891 1.7815830707550048828 1.8384118080139160156 2.3064649105072021484 1.9463030099868774414 1.9239298105239868164 2.6162171363830566406 2.8608808517456054688 2.48914337158203125 2.1586682796478271484 2.4296061992645263672 2.2529814243316650391 2.3093619346618652344 2.4808015823364257813 2.3908257484436035156 2.4587035179138183594 2.3615906238555908203 2.0659406185150146484 2.3428273200988769531 2.4259212017059326172 2.2880623340606689453 2.4970166683197021484 2.6880128383636474609 2.4400897026062011719 2.5817608833312988281 2.5844783782958984375 2.8010981082916259766 2.5404601097106933594 2.6714251041412353516 2.868865966796875 2.9122219085693359375 2.7707986831665039063 2.1644399166107177734 1.8846254348754882813 9.0942697525024414063 2.1570076942443847656 2.1820158958435058594 2.2786731719970703125 
1.6694872379302978516 1.7486895322799682617 1.7073185443878173828 1.7423169612884521484 2.1566908359527587891 2.1566908359527587891 2.3852427005767822266 2.1614308357238769531 1.6360611915588378906 1.6360611915588378906 1.3505208492279052734 1.493291020393371582 1.6360611915588378906 1.3731690645217895508 1.3712098598480224609 1.2580800056457519531 2.1276226043701171875 2.2984061241149902344 2.2734160423278808594 2.4372549057006835938 1.9740800857543945313 2.0587918758392333984 1.6311337947845458984 1.3871322870254516602 1.041880488395690918 1.2383313179016113281 1.6360611915588378906 1.4219058752059936523 1.3505208492279052734 1.1363655328750610352 1.2530053853988647461 1.7885870933532714844 1.9277970790863037109 1.2508438825607299805 1.4775098562240600586 1.3171014785766601563 1.4286009073257446289 1.1659146547317504883 1.3996933698654174805 1.2969681024551391602 1.493291020393371582 1.434334874153137207 1.6360611915588378906 1.6360611915588378906 1.7788313627243041992 1.7904338836669921875 1.7788313627243041992 1.7860915660858154297 2.1317989826202392578 1.9273805618286132813 2.8430445194244384766 2.0399518013000488281 2.2283473014831542969 2.9318671226501464844 2.2129473686218261719 2.2283473014831542969 2.2283473014831542969 5.0473923683166503906 3.2965180873870849609 3.6815922260284423828 5.1796307563781738281 5.0334177017211914063 8.2119503021240234375 4.9933953285217285156 5.1796307563781738281 2.2283473014831542969 3.2866346836090087891 2.2283473014831542969 2.2283473014831542969 3.6815922260284423828 3.9891257286071777344 2.2283473014831542969 2.6414442062377929688 2.6414442062377929688 5.0473923683166503906 3.6679477691650390625 2.6820814609527587891 2.2283473014831542969 3.6815922260284423828 4.6507844924926757813 1.9273805618286132813 3.2348196506500244141 2.1225950717926025391 1.9273805618286132813 3.4669039249420166016 1.9619773626327514648 1.9273805618286132813 1.8711541891098022461 2.6419634819030761719 1.8739861249923706055 2.0546519756317138672 2.3446843624114990234 2.4603149890899658203 2.8383970260620117188 2.1275923252105712891 1.8318233489990234375 2.0733661651611328125 1.8749877214431762695 1.9438600540161132813 1.9462635517120361328 1.8441498279571533203 1.5655359029769897461 1.4952361583709716797 1.3912672996520996094 1.9445775747299194336 1.6011462211608886719 8.4992322921752929688 8.4785594940185546875 1.6188502311706542969 2.2482333183288574219 2.1493680477142333984 2.1184964179992675781 2.0444474220275878906 2.5294446945190429688 9.1131114959716796875 2.2973701953887939453 2.06353759765625 1.8971579074859619141 2.2488591670989990234 2.4790596961975097656 2.0065598487854003906 1.6753530502319335938 1.7788313627243041992 1.6264138221740722656 1.6360611915588378906 1.4629417657852172852 2.1179823875427246094 1.7788313627243041992 1.6264138221740722656 1.0244803428649902344 1 1 1.3505208492279052734 1.6360611915588378906 1.353777766227722168 1.32544708251953125 1.7162407636642456055 1.7788313627243041992 1.7788313627243041992 1.7788313627243041992 1.9273805618286132813 1.9444774389266967773 2.8871884346008300781 1.9273805618286132813 2.6321346759796142578 3.2965180873870849609 1.9336783885955810547 1.9273805618286132813 3.6679477691650390625 1.9619773626327514648 1.9273805618286132813 2.0773510932922363281 2.2140893936157226563 1.7788313627243041992 2.1689429283142089844 1.825290679931640625 1.7926355600357055664 1.6293581724166870117 1.7145850658416748047 1.7788313627243041992 1.6360611915588378906 1.6360611915588378906 1.32544708251953125 1.5086655616760253906 1.5676243305206298828 1.6405380964279174805 1.7938773632049560547 2.0608344078063964844 2.2833187580108642578 2.0409598350524902344 2.3426144123077392578 2.2905161380767822266 2.5377707481384277344 2.1313440799713134766 2.0244207382202148438 2.3332409858703613281 2.6873106956481933594 2.2978429794311523438 2.1914613246917724609 2.0146257877349853516 2.0644059181213378906 1.9868320226669311523 2.4752748012542724609 2.5808303356170654297 2.2902541160583496094 2.1992905139923095703 2.8199477195739746094 2.8999865055084228516 3.0263662338256835938 2.6724781990051269531 2.9666581153869628906 3.1535844802856445313 2.8966639041900634766 2.5375375747680664063 2.4527783393859863281 2.2906470298767089844 2.2796700000762939453 2.3544776439666748047 2.1901454925537109375 2.2083356380462646484 
1.6331387758255004883 2.3640239238739013672 1.1969692707061767578 1.5885226726531982422 1.8524147272109985352 1.8868150711059570313 2.0933592319488525391 1.64286041259765625 1.3086514472961425781 1.5147135257720947266 1.0244803428649902344 1.493291020393371582 2.2484138011932373047 1.6360611915588378906 1.487534642219543457 1.8079087734222412109 1.6381016969680786133 1.8885259628295898438 2.1427567005157470703 2.1386566162109375 1.9603888988494873047 1.7405130863189697266 1.5102838277816772461 1.5055938959121704102 1.6360611915588378906 1.1089959144592285156 1.0762572288513183594 1.0244803428649902344 1 1.0649803876876831055 1.3252712488174438477 1.5738593339920043945 1.2796535491943359375 1.4124130010604858398 1.8213267326354980469 1.7209137678146362305 1.6360611915588378906 1.2389012575149536133 1.3182350397109985352 1.2483121156692504883 1.6360611915588378906 1.32544708251953125 1.32544708251953125 1.4153246879577636719 1.7788313627243041992 2.6419634819030761719 1.9273805618286132813 1.9273805618286132813 1.9273805618286132813 2.3852427005767822266 2.2129473686218261719 2.8220388889312744141 3.4669039249420166016 2.2283473014831542969 2.2718164920806884766 2.2283473014831542969 2.7692322731018066406 3.6493880748748779297 3.9891257286071777344 3.2866346836090087891 8.2119503021240234375 8.2866992950439453125 6.510059356689453125 6.2630610466003417969 4.5871348381042480469 2.2283473014831542969 3.9891257286071777344 2.2283473014831542969 2.4118311405181884766 2.2283473014831542969 3.8335995674133300781 2.2718164920806884766 1.9273805618286132813 2.50002288818359375 5.0473923683166503906 1.9372781515121459961 2.3173081874847412109 3.2747108936309814453 2.2718164920806884766 2.8220388889312744141 1.9273805618286132813 2.2129473686218261719 1.9273805618286132813 1.9273805618286132813 1.9372781515121459961 1.9273805618286132813 1.982054591178894043 2.5577118396759033203 2.1241436004638671875 1.9510618448257446289 2.1740069389343261719 2.1566908359527587891 2.3721904754638671875 1.9226099252700805664 1.6129522323608398438 1.6397489309310913086 1.7535747289657592773 1.4600120782852172852 1.477970123291015625 1.5222418308258056641 1.3895560503005981445 1.2489548921585083008 1.071635127067565918 1.3233128786087036133 1.9574013948440551758 2.2861850261688232422 1.8061662912368774414 8.5734090805053710938 2.5740811824798583984 2.6270468235015869141 2.6399683952331542969 2.001216888427734375 2.4317953586578369141 8.4497957229614257813 2.7523303031921386719 2.2093598842620849609 2.2742037773132324219 1.819559931755065918 1.9691512584686279297 2.1280035972595214844 2.1818335056304931641 1.493291020393371582 1.6264138221740722656 1.7162407636642456055 1.7586873769760131836 1.477585911750793457 1.6360611915588378906 1.6360611915588378906 1.6360611915588378906 1 1 1 1.0244803428649902344 1.32544708251953125 1.6360611915588378906 1.7788313627243041992 1.7872604131698608398 1.6266878843307495117 2.6419634819030761719 1.6422827243804931641 2.8220388889312744141 1.9273805618286132813 2.2129473686218261719 1.9273805618286132813 1.9273805618286132813 1.9273805618286132813 1.8208304643630981445 3.2110114097595214844 1.9273805618286132813 2.4568207263946533203 1.9273805618286132813 2.4568207263946533203 2.2333281040191650391 1.9971425533294677734 1.9405887126922607422 1.7638841867446899414 1.5588904619216918945 1.6450186967849731445 1.6425864696502685547 1.6360611915588378906 1.3500323295593261719 1.4322082996368408203 1.493291020393371582 1.2865890264511108398 1.493291020393371582 1.6737143993377685547 1.7660050392150878906 1.7825471162796020508 1.9135661125183105469 2.0025119781494140625 2.1660542488098144531 2.4486792087554931641 2.2903287410736083984 2.2224078178405761719 2.3134059906005859375 2.3197991847991943359 2.4015016555786132813 2.1645257472991943359 2.0695116519927978516 2.6424269676208496094 2.2903850078582763672 2.2257645130157470703 2.3797125816345214844 2.2887604236602783203 2.0466511249542236328 2.6969292163848876953 2.507541656494140625 2.7939069271087646484 2.8166089057922363281 2.8539724349975585938 2.5247011184692382813 2.6039509773254394531 3.2215306758880615234 2.7161238193511962891 2.5885131359100341797 2.4525580406188964844 2.2225003242492675781 2.4768826961517333984 2.3426394462585449219 1.9527657032012939453 
1.5484994649887084961 1.8048630952835083008 1.7393901348114013672 1.8820929527282714844 1.4646958112716674805 2.3127186298370361328 2.0386054515838623047 1.9097865819931030273 1.7367634773254394531 1.3802556991577148438 1.0913536548614501953 1.1542012691497802734 1.493291020393371582 1.3322609663009643555 1.4988987445831298828 1.5391139984130859375 1.7652113437652587891 1.7168196439743041992 1.5748333930969238281 1.4269517660140991211 1.3505208492279052734 1.493291020393371582 1.5815873146057128906 1.8145923614501953125 1.6433712244033813477 1.32544708251953125 1.3505208492279052734 1.0851546525955200195 1.0244803428649902344 1 1.3505208492279052734 1.4332500696182250977 1.3505208492279052734 1.493291020393371582 1.493291020393371582 1.626200556755065918 1.2537018060684204102 1.4200659990310668945 1.2011973857879638672 1.160021662712097168 1.0244803428649902344 1.32544708251953125 1.3691771030426025391 1.6360611915588378906 1.4990062713623046875 1.8128461837768554688 1.6960996389389038086 2.4411988258361816406 1.9273805618286132813 1.9273805618286132813 1.9574986696243286133 2.6414442062377929688 2.2283473014831542969 2.8059461116790771484 4.62298583984375 3.2656826972961425781 2.4659085273742675781 2.2283473014831542969 3.9891257286071777344 4.9933953285217285156 8.5227537155151367188 5.7478933334350585938 7.2282242774963378906 3.0110311508178710938 3.2866346836090087891 3.5202007293701171875 2.4659085273742675781 4.2293381690979003906 2.2283473014831542969 4.1048259735107421875 2.5116035938262939453 1.9619773626327514648 1.9273805618286132813 1.9273805618286132813 2.9318671226501464844 2.0033643245697021484 2.2305238246917724609 2.6414442062377929688 2.0291945934295654297 1.9273805618286132813 1.9273805618286132813 2.2129473686218261719 1.9273805618286132813 1.8502165079116821289 1.7788313627243041992 2.2053492069244384766 1.7280544042587280273 1.9996963739395141602 1.4776235818862915039 1.9706848859786987305 2.2809135913848876953 1.9962744712829589844 1.6353591680526733398 1.6423608064651489258 1.4146574735641479492 1.6815210580825805664 1.64150238037109375 2.0460436344146728516 1.8716679811477661133 1.7281497716903686523 1.1455646753311157227 1 1.0395156145095825195 1.8007419109344482422 1.7667818069458007813 1.8796656131744384766 1.7006475925445556641 2.3266730308532714844 9.4208440780639648438 8.973674774169921875 2.0778400897979736328 2.3763427734375 1.9523675441741943359 2.3930680751800537109 2.2730803489685058594 1.9978045225143432617 1.7310736179351806641 1.8719872236251831055 1.5800404548645019531 1.9397187232971191406 2.1355159282684326172 1.6360611915588378906 1.6264138221740722656 2.1566908359527587891 1.3849674463272094727 1.7788313627243041992 1.4776235818862915039 1.0244803428649902344 1.493291020393371582 1 1.493291020393371582 1 1.3505208492279052734 1.6360611915588378906 1.4785366058349609375 1.7280544042587280273 1.9273805618286132813 1.7788313627243041992 1.353777766227722168 1.6264138221740722656 1.9273805618286132813 1.9273805618286132813 1.9273805618286132813 2.5116035938262939453 1.9273805618286132813 2.2435274124145507813 2.6419634819030761719 2.8938577175140380859 1.8866696357727050781 2.4462990760803222656 2.2256915569305419922 1.8031220436096191406 1.8605118989944458008 1.7788313627243041992 1.6572318077087402344 1.32544708251953125 1.422367095947265625 1.493291020393371582 1.2023833990097045898 1.493291020393371582 1.8042799234390258789 1.4392302036285400391 1.4904083013534545898 1.4961714744567871094 1.4360700845718383789 1.5448207855224609375 1.6330516338348388672 1.5933454036712646484 1.3913532495498657227 2.0311479568481445313 2.1707081794738769531 2.2671942710876464844 2.3137569427490234375 2.6765339374542236328 2.4285752773284912109 2.0077455043792724609 1.8495856523513793945 1.8741430044174194336 2.0119788646697998047 2.3624699115753173828 2.408779144287109375 2.31737518310546875 2.2588260173797607422 2.2310259342193603516 2.1671144962310791016 2.0376379489898681641 2.1540203094482421875 2.4924383163452148438 2.7686016559600830078 2.7101640701293945313 2.7126147747039794922 2.6333940029144287109 3.0242922306060791016 2.5036261081695556641 2.6912772655487060547 2.6377511024475097656 2.7438712120056152344 2.1677417755126953125 2.0680124759674072266 2.4733474254608154297 
2.1801195144653320313 1.803052067756652832 2.2146117687225341797 1.65543365478515625 2.2359516620635986328 2.2708413600921630859 2.4189929962158203125 1.5310719013214111328 1.2077505588531494141 1.2449804544448852539 1 1.1489325761795043945 1.4219058752059936523 1.493291020393371582 1.6208820343017578125 1.2588235139846801758 1.32544708251953125 1.493291020393371582 1.6070615053176879883 2.1562473773956298828 1.3081800937652587891 1.6043889522552490234 1.836582183837890625 1.8864747285842895508 1.4438203573226928711 1.5624943971633911133 2.0194385051727294922 1 1.3505208492279052734 1.5419533252716064453 1.4562714099884033203 1.3505208492279052734 1.493291020393371582 1.5278422832489013672 1.6574776172637939453 1.5216745138168334961 1.6761388778686523438 1.3742164373397827148 1.4382070302963256836 1.5287908315658569336 1.1432471275329589844 1.3459802865982055664 1.32544708251953125 1.6360611915588378906 1.6575132608413696289 1.8432021141052246094 1.7788313627243041992 1.9273805618286132813 1.9574986696243286133 2.50002288818359375 1.9273805618286132813 3.2429821491241455078 3.2437925338745117188 2.3350765705108642578 2.3350765705108642578 2.2283473014831542969 2.8059461116790771484 2.2283473014831542969 3.2866346836090087891 6.2630610466003417969 8.2119503021240234375 5.7478933334350585938 8.2119503021240234375 5.7651181221008300781 4.9933953285217285156 6.2630610466003417969 2.2283473014831542969 3.8347759246826171875 3.6493880748748779297 2.2283473014831542969 2.6321346759796142578 1.9794325828552246094 1.9273805618286132813 1.9273805618286132813 1.9273805618286132813 1.9442595243453979492 1.9849596023559570313 1.9273805618286132813 1.9273805618286132813 2.0033643245697021484 2.3146822452545166016 2.6820814609527587891 1.9273805618286132813 1.7202570438385009766 1.7788313627243041992 1.4776235818862915039 1.7788313627243041992 1.9535937309265136719 1.6360611915588378906 1.6360611915588378906 1.7074462175369262695 1.6194972991943359375 1.7788313627243041992 1.5755106210708618164 1.6375769376754760742 1.7566092014312744141 1.6802506446838378906 1.4371167421340942383 7.9807715415954589844 1.8301492929458618164 1 1.3021150827407836914 1.3660705089569091797 1.64608001708984375 1.4116610288619995117 2.0514278411865234375 2.1126742362976074219 1.6612668037414550781 2.460468292236328125 2.1508986949920654297 2.6730670928955078125 2.4700298309326171875 1.7698148488998413086 1.8247151374816894531 1.3047651052474975586 1.0312654972076416016 2.1131892204284667969 1.2519888877868652344 1.5319123268127441406 1.8911271095275878906 1.8194278478622436523 1.2159147262573242188 1.590096592903137207 1.7788313627243041992 1.6360611915588378906 1.6293581724166870117 1.6360611915588378906 1.0730701684951782227 1 1 1.5646760463714599609 1.6360611915588378906 1.1588419675827026367 1.1597474813461303711 1.6360611915588378906 1.7788313627243041992 1.764801025390625 1.6264138221740722656 1.6360611915588378906 1.6264138221740722656 2.6419634819030761719 1.9273805618286132813 1.9273805618286132813 1.9273805618286132813 1.8822194337844848633 2.6419634819030761719 1.6264138221740722656 1.9363939762115478516 1.6264138221740722656 1.7477433681488037109 1.8787254095077514648 1.7788313627243041992 1.7034615278244018555 1.7788313627243041992 1.6360611915588378906 2.1179823875427246094 1.493291020393371582 1.493291020393371582 1.4219058752059936523 1.3505208492279052734 1.8133405447006225586 1.8379462957382202148 1.7772268056869506836 2.0711200237274169922 2.2745792865753173828 1.9759021997451782227 1.5428551435470581055 1.3966608047485351563 1.602126002311706543 1.7939378023147583008 1.8819868564605712891 2.2620632648468017578 2.4376466274261474609 2.2553229331970214844 1.920880436897277832 1.9089866876602172852 1.9505014419555664063 1.903006434440612793 2.0017325878143310547 2.1838359832763671875 2.4560232162475585938 2.4468455314636230469 2.0319042205810546875 1.5901685953140258789 1.6163290739059448242 1.9817944765090942383 2.1750872135162353516 2.2684614658355712891 2.3845314979553222656 2.3709418773651123047 2.3879911899566650391 2.9436345100402832031 2.2154300212860107422 2.4569239616394042969 2.1085641384124755859 2.1130990982055664063 2.0165069103240966797 2.5361313819885253906 2.5451025962829589844 2.3817834854125976563 
1.5210413932800292969 1.999280095100402832 1.6705285310745239258 1.7163407802581787109 1.5645837783813476563 1.7658531665802001953 1.7002613544464111328 1.7394179105758666992 1.5338964462280273438 1.5533688068389892578 1.3753314018249511719 1.2817844152450561523 1.6601576805114746094 1.3505208492279052734 1.6688768863677978516 1.5058180093765258789 1.4867228269577026367 1.753697514533996582 1.493291020393371582 1.4023126363754272461 1.5435098409652709961 1.9680867195129394531 1.5913405418395996094 1.493291020393371582 1.0244803428649902344 1.073971867561340332 1.0244803428649902344 1.3505208492279052734 1.3505208492279052734 1.493291020393371582 1.5546019077301025391 1.493291020393371582 1.5646760463714599609 1.9204430580139160156 1.9802317619323730469 1.7586145401000976563 1.9062169790267944336 1.9748959541320800781 1.370535731315612793 1.384848475456237793 1.0528420209884643555 1.493291020393371582 1.3222734928131103516 1.6787929534912109375 1.7953748703002929688 1.6264138221740722656 1.6781011819839477539 1.9273805618286132813 2.4766926765441894531 2.1769566535949707031 2.986942291259765625 2.4330153465270996094 2.8059461116790771484 3.9891257286071777344 3.9891257286071777344 2.2283473014831542969 3.8347759246826171875 3.8347759246826171875 3.0110311508178710938 4.4281702041625976563 5.0334177017211914063 5.7478933334350585938 4.9933953285217285156 5.1796307563781738281 4.9933953285217285156 5.0948252677917480469 2.7692322731018066406 2.7692322731018066406 3.9891257286071777344 3.6493880748748779297 3.2965180873870849609 3.7983632087707519531 1.9273805618286132813 1.9273805618286132813 2.0773510932922363281 2.6419634819030761719 1.726047515869140625 1.7788313627243041992 1.7788313627243041992 1.7788313627243041992 1.6495660543441772461 1.6264138221740722656 1.7886843681335449219 1.7766367197036743164 1.6264138221740722656 1.6352658271789550781 1.6264138221740722656 1.6264138221740722656 1.7100658416748046875 1.4342223405838012695 2.0327692031860351563 1.56241607666015625 1.527497410774230957 1.7843542098999023438 1.5986953973770141602 2.0499532222747802734 1.7645938396453857422 1.6404888629913330078 1.5092084407806396484 1.2829608917236328125 1.2362179756164550781 1 1.2420706748962402344 1.2511190176010131836 1.4045176506042480469 1.9450353384017944336 1.9368346929550170898 2.5699207782745361328 2.3296749591827392578 2.0850729942321777344 1.7511851787567138672 2.0125172138214111328 1.5638757944107055664 2.0534923076629638672 8.7909641265869140625 1.3355009555816650391 7.8680357933044433594 1.3770513534545898438 1.2946594953536987305 1.4980384111404418945 1.5109353065490722656 1.4084531068801879883 1.4357621669769287109 1.7788313627243041992 1.7788313627243041992 2.6419634819030761719 1.6360611915588378906 1.6360611915588378906 1.493291020393371582 1.0439506769180297852 1.32544708251953125 1.3601235151290893555 1.6264138221740722656 1.7788313627243041992 1.7788313627243041992 2.6419634819030761719 1.6264138221740722656 1.6266878843307495117 1.6425864696502685547 1.6264138221740722656 1.9273805618286132813 1.9273805618286132813 1.694403529167175293 2.6419634819030761719 1.7788313627243041992 2.6419634819030761719 1.9628343582153320313 1.7788313627243041992 1.6360611915588378906 1.6360611915588378906 1.6500800848007202148 1.830981135368347168 1.712459564208984375 1.7788313627243041992 1.6360611915588378906 1.6360611915588378906 1.2259690761566162109 1.2493097782135009766 1.4083597660064697266 1.2573763132095336914 1.3307888507843017578 2.0839290618896484375 2.1074633598327636719 2.0199871063232421875 1.9997527599334716797 1.8282281160354614258 1.7256722450256347656 1.6827313899993896484 1.7218536138534545898 1.4147554636001586914 1.6012190580368041992 1.7957346439361572266 1.8393230438232421875 1.9098455905914306641 1.9457004070281982422 2.24536895751953125 1.700649261474609375 2.2242794036865234375 2.4793148040771484375 2.4196856021881103516 2.2456593513488769531 2.2002000808715820313 2.1463589668273925781 1.7200447320938110352 1.7779685258865356445 1.7129220962524414063 1.6253093481063842773 1.5323675870895385742 2.0041558742523193359 2.4173092842102050781 2.7268581390380859375 2.3528668880462646484 2.6958878040313720703 2.7797238826751708984 2.5085802078247070313 2.8391616344451904297 1.7187855243682861328 1.8937729597091674805 2.37696075439453125 2.2395305633544921875 
1.9507856369018554688 2.3995676040649414063 1.8704665899276733398 1.8837493658065795898 2.118648529052734375 1.36376190185546875 1.8983999490737915039 1.7084525823593139648 1.3373348712921142578 1.7260000705718994141 1.3397439718246459961 2.1147177219390869141 1.8273282051086425781 1.411562800407409668 1.3071796894073486328 1.8212778568267822266 1.493291020393371582 1.4124095439910888672 1.5960067510604858398 1.7234685420989990234 1.4109970331192016602 1.7246054410934448242 1.6779885292053222656 1.5260183811187744141 1.6360611915588378906 1.6360611915588378906 1.493291020393371582 1.5098465681076049805 1.5456786155700683594 1.32544708251953125 1.4776235818862915039 1.9068623781204223633 1.4418880939483642578 2.1814975738525390625 1.9606825113296508789 1.9890279769897460938 2.07010650634765625 1.9342641830444335938 1.7661123275756835938 1.6159813404083251953 1.493291020393371582 1.6695998907089233398 1.943146824836730957 1.9051719903945922852 1.9729716777801513672 1.9269808530807495117 1.754011988639831543 1.7788313627243041992 1.9273805618286132813 2.1704349517822265625 3.2429821491241455078 2.2283473014831542969 3.5202007293701171875 2.2283473014831542969 3.9891257286071777344 2.2283473014831542969 2.0399518013000488281 3.4669039249420166016 3.2866346836090087891 3.9891257286071777344 4.4281702041625976563 4.1812615394592285156 3.0110311508178710938 5.1796307563781738281 2.7692322731018066406 5.0473923683166503906 3.2866346836090087891 3.0711941719055175781 2.2283473014831542969 5.0473923683166503906 2.2283473014831542969 1.9541800022125244141 2.8220388889312744141 1.9273805618286132813 1.8502165079116821289 1.9273805618286132813 3.5284249782562255859 2.2630176544189453125 1.7280544042587280273 1.4153246879577636719 1.6360611915588378906 1.32544708251953125 1.6264138221740722656 1.6578775644302368164 1.4785366058349609375 1.6360611915588378906 1.4776235818862915039 1.7261992692947387695 1.126599431037902832 1.7350027561187744141 1.8570266962051391602 1.5585838556289672852 2.0511486530303955078 1.6929343938827514648 1.4917069673538208008 1.6444092988967895508 1.8191380500793457031 1.4682420492172241211 1.4375458955764770508 1.1696847677230834961 1.0649803876876831055 1.0966787338256835938 1.6879336833953857422 1.0250226259231567383 1.4377568960189819336 2.8531861305236816406 2.3979065418243408203 2.8569934368133544922 9.0201311111450195313 9.0937480926513671875 8.8367853164672851563 1.9930208921432495117 8.5522623062133789063 1.8444285392761230469 1.9333741664886474609 1.3047844171524047852 1.4957967996597290039 1 1 1.6229177713394165039 1.3505208492279052734 1.3505208492279052734 1.2341850996017456055 1.3459802865982055664 1.5175237655639648438 1.7788313627243041992 1.7788313627243041992 1.6360611915588378906 1.6360611915588378906 1.1666394472122192383 1.6360611915588378906 1.4759304523468017578 1.7525779008865356445 1.7696378231048583984 1.9121928215026855469 1.7586873769760131836 1.7788313627243041992 1.7788313627243041992 1.6264138221740722656 1.7788313627243041992 2.9745817184448242188 1.7788313627243041992 1.7788313627243041992 1.6264138221740722656 1.6360611915588378906 1.7586873769760131836 1.6264138221740722656 1.6264138221740722656 1.8040344715118408203 1.7586873769760131836 2.2630176544189453125 3.5284249782562255859 1.7788313627243041992 1.7788313627243041992 1.3794465065002441406 1.5294203758239746094 1.5119326114654541016 1.6620800495147705078 1.5646760463714599609 1.6360611915588378906 1.8758753538131713867 1.7570843696594238281 1.676433563232421875 2.2339112758636474609 2.0106565952301025391 2.3186180591583251953 1.9216074943542480469 1.9936478137969970703 1.3968195915222167969 1.1956188678741455078 1.4489206075668334961 1.7590336799621582031 1.7875814437866210938 1.5651040077209472656 1.711648106575012207 1.1700375080108642578 1.7429382801055908203 1.9836428165435791016 2.3657233715057373047 1.9011451005935668945 2.0265111923217773438 2.3554017543792724609 1.994816899299621582 1.8034300804138183594 1.8039747476577758789 1.4295853376388549805 1.3375552892684936523 1.4867519140243530273 1.929363250732421875 2.2324261665344238281 2.4660596847534179688 2.0357909202575683594 2.4154300689697265625 2.8118846416473388672 1.7385748624801635742 1.8558403253555297852 2.3377368450164794922 2.2211422920227050781 1.8871947526931762695 2.4380691051483154297 
8.4857664108276367188 1.7704318761825561523 2.2875163555145263672 1.920187830924987793 1.9596085548400878906 1.4082812070846557617 2.1585359573364257813 1.3505208492279052734 1.6091812849044799805 1.2964127063751220703 1.2791357040405273438 1.3873224258422851563 1.0649803876876831055 1.1816735267639160156 1.0627068281173706055 1.4569668769836425781 1.4759895801544189453 1.4998553991317749023 1.0244803428649902344 1.1706885099411010742 1.493291020393371582 1.3475080728530883789 1.3076742887496948242 1.32544708251953125 1.4707392454147338867 1.493291020393371582 1.0905280113220214844 1.3289324045181274414 1.2290188074111938477 1.4783115386962890625 1.6360611915588378906 1.6360611915588378906 1.2739672660827636719 2.0729472637176513672 2.1809465885162353516 2.0492508411407470703 2.0503735542297363281 1.9103369712829589844 1.8368427753448486328 1.7313666343688964844 1.827010035514831543 1.6185755729675292969 1.652438044548034668 2.0043795108795166016 2.2385456562042236328 2.1388792991638183594 1.8416632413864135742 2.1789200305938720703 1.932952880859375 2.3756649494171142578 2.8220388889312744141 3.2965180873870849609 2.2283473014831542969 2.9318671226501464844 2.4659085273742675781 5.0473923683166503906 3.6564357280731201172 3.0927255153656005859 2.2283473014831542969 2.2283473014831542969 4.1812615394592285156 4.1812615394592285156 4.9933953285217285156 3.5202007293701171875 2.4330153465270996094 2.4659085273742675781 3.5202007293701171875 2.2283473014831542969 3.9891257286071777344 2.8059461116790771484 2.2283473014831542969 1.9849596023559570313 1.9273805618286132813 1.9273805618286132813 1.6293581724166870117 1.6264138221740722656 1.7788313627243041992 1.7788313627243041992 1.32544708251953125 1.5076900720596313477 1.493291020393371582 1.6304287910461425781 1.3258135318756103516 1.7788313627243041992 1.7788313627243041992 1.7162407636642456055 1.6360611915588378906 1.5646760463714599609 1.493291020393371582 1.8973566293716430664 1.3505208492279052734 1.5481362342834472656 2.2425222396850585938 1.5862414836883544922 2.5645463466644287109 2.1412901878356933594 1.2184332609176635742 1.2885673046112060547 1.1799478530883789063 1.2791357040405273438 1.3505208492279052734 1.2077505588531494141 1.0207207202911376953 1.9968497753143310547 1.5382215976715087891 1.9568440914154052734 2.5272982120513916016 2.7354309558868408203 2.6100144386291503906 2.2472436428070068359 1.9807405471801757813 2.2457666397094726563 1.8820879459381103516 1.6298975944519042969 2.0415697097778320313 1.3450651168823242188 1.0622826814651489258 1.2617900371551513672 1.7516531944274902344 1.3666224479675292969 1.2610085010528564453 1.3505208492279052734 1.6360611915588378906 1.32544708251953125 1.7280544042587280273 1.7788313627243041992 2.5577118396759033203 1.7788313627243041992 1.6264138221740722656 1.6360611915588378906 1.493291020393371582 1.3505305051803588867 1.6264138221740722656 3.2573487758636474609 1.7872604131698608398 1.9273805618286132813 1.694403529167175293 2.6419634819030761719 2.0484960079193115234 1.6264138221740722656 1.7788313627243041992 3.2110114097595214844 1.7122943401336669922 1.3693726062774658203 1.5963572263717651367 1.6360611915588378906 2.1566908359527587891 2.0773510932922363281 1.6578775644302368164 1.7788313627243041992 2.6419634819030761719 2.0773510932922363281 1.7074462175369262695 1.5961763858795166016 1.7840137481689453125 1.6627407073974609375 1.4525237083435058594 1.4291280508041381836 1.3505208492279052734 1.4560172557830810547 1.5590746402740478516 1.6435828208923339844 1.7655731439590454102 2.1851859092712402344 1.945042729377746582 1.8158090114593505859 1.4024465084075927734 1.3820006847381591797 2.0081264972686767578 1.335473179817199707 1.25354766845703125 1.7602443695068359375 2.0509245395660400391 1.8724991083145141602 1.0233509540557861328 1.4302688837051391602 1.4984714984893798828 1.2313045263290405273 1.7987103462219238281 1.5964224338531494141 1.8342556953430175781 2.0907800197601318359 1.6687595844268798828 1.6027952432632446289 1.5284321308135986328 1.3050199747085571289 1.3925490379333496094 1.4051817655563354492 1.7485544681549072266 1.9528707265853881836 2.5694677829742431641 2.7569079399108886719 2.0615947246551513672 2.2496678829193115234 2.0316329002380371094 1.8127570152282714844 2.2060761451721191406 1.9063478708267211914 1.3475109338760375977 1.6027073860168457031 
8.3512811660766601563 2.3288588523864746094 2.0848042964935302734 2.7177951335906982422 2.2210354804992675781 2.1047558784484863281 1.5092661380767822266 2.0879437923431396484 1.6981214284896850586 1.3117235898971557617 1.0932900905609130859 1.2352876663208007813 1 1 1.0839798450469970703 1 1 1.2077505588531494141 1.1705598831176757813 1.4601144790649414063 1.6264138221740722656 1.493291020393371582 1.493291020393371582 1.32544708251953125 1.32544708251953125 1 1.4933369159698486328 1.493291020393371582 1.493291020393371582 1.4722771644592285156 1.6264138221740722656 1.32544708251953125 1.6562535762786865234 1.7729785442352294922 1.7527058124542236328 1.9596446752548217773 1.9942567348480224609 2.0147259235382080078 1.8154326677322387695 1.8100999593734741211 1.6792464256286621094 1.9630576372146606445 1.9228415489196777344 1.963950037956237793 1.7251131534576416016 1.9345014095306396484 1.9684946537017822266 1.8121172189712524414 1.9697748422622680664 1.9776084423065185547 1.9541800022125244141 2.4843986034393310547 3.2965180873870849609 3.2965180873870849609 2.2283473014831542969 3.6951785087585449219 4.1445622444152832031 3.4669039249420166016 5.0473923683166503906 2.2283473014831542969 5.8295397758483886719 3.0711941719055175781 3.9891257286071777344 3.6951785087585449219 2.4659085273742675781 3.2429821491241455078 3.6951785087585449219 3.2429821491241455078 2.3756649494171142578 1.9849596023559570313 3.4669039249420166016 1.8502165079116821289 1.9273805618286132813 1.7788313627243041992 1.7074462175369262695 1.6425864696502685547 1.6344852447509765625 1.6264138221740722656 1.6360611915588378906 1.493291020393371582 1.7062025070190429688 1.4222055673599243164 1.5646760463714599609 1.7074462175369262695 1.7108755111694335938 1.7788313627243041992 1.7788313627243041992 1.6360611915588378906 1.5935060977935791016 1.7932657003402709961 1.6760580539703369141 1.4995825290679931641 2.0160028934478759766 1.9536073207855224609 2.6187920570373535156 2.4492633342742919922 1.9947042465209960938 1.6388087272644042969 1.1940746307373046875 1.493291020393371582 1.493291020393371582 1.5802403688430786133 1.5005193948745727539 1.0973199605941772461 1.5209115743637084961 1.5266606807708740234 2.2605409622192382813 1.7641881704330444336 2.0305392742156982422 8.5549001693725585938 8.6105442047119140625 2.1007251739501953125 1.8993521928787231445 1.6292986869812011719 1.3368057012557983398 1 1.3454538583755493164 1 1 1 1 1 1.3505208492279052734 1.6360611915588378906 1.9684967994689941406 1.9273805618286132813 1.7904338836669921875 2.3852427005767822266 1.8138262033462524414 1.7074462175369262695 1.6264138221740722656 1.6264138221740722656 1.6360611915588378906 1.9273805618286132813 2.6419634819030761719 2.6419634819030761719 1.7788313627243041992 1.6264138221740722656 1.7696378231048583984 1.7788313627243041992 1.6264138221740722656 1.6264138221740722656 1.509726405143737793 1.6425864696502685547 1.3334769010543823242 1.6360611915588378906 1.6264138221740722656 1.9429186582565307617 2.6419634819030761719 2.3778810501098632813 1.7872604131698608398 1.9273805618286132813 1.7788313627243041992 1.752520442008972168 1.9312500953674316406 1.7815407514572143555 1.5396292209625244141 1.5107970237731933594 1.3505208492279052734 1.493291020393371582 1.6071568727493286133 1.4829064607620239258 1.544016718864440918 1.7745862007141113281 1.9403396844863891602 1.6840038299560546875 1.5038534402847290039 1.531985163688659668 1.3216946125030517578 1.4600040912628173828 1 1.4280328750610351563 1.70313262939453125 1.5042824745178222656 1.1094732284545898438 1.1549376249313354492 1.1292402744293212891 1.4681328535079956055 1.4447224140167236328 1.7891365289688110352 1.7356009483337402344 1.8756797313690185547 1.5936931371688842773 1.7814470529556274414 1.7690112590789794922 1.2558872699737548828 1.4609498977661132813 1.5163084268569946289 1.5373817682266235352 1.8496291637420654297 2.0374696254730224609 1.7692395448684692383 8.6337709426879882813 1.8112393617630004883 1.8730145692825317383 1.6822893619537353516 2.3483693599700927734 1.4139579534530639648 1.2863928079605102539 1.4405249357223510742 
8.809814453125 8.5410184860229492188 2.7359702587127685547 2.4154794216156005859 2.445526123046875 2.5343687534332275391 1.7832161188125610352 1.9373849630355834961 1.4652206897735595703 1.5627895593643188477 1.1020871400833129883 1 1.0480775833129882813 1 1 1.1363655328750610352 1.2077505588531494141 1.3505208492279052734 1.3505208492279052734 1.493291020393371582 1.4776235818862915039 1.493291020393371582 1.0439506769180297852 1.4013979434967041016 1.493291020393371582 1.493291020393371582 1.06975555419921875 1.493291020393371582 1.0404431819915771484 1.5004905462265014648 1.4239319562911987305 1.493291020393371582 1.4012429714202880859 1.4541221857070922852 1.754730224609375 1.9232780933380126953 1.826816558837890625 2.0573716163635253906 2.0281860828399658203 1.5386430025100708008 1.5053938627243041992 1.7497665882110595703 2.0544164180755615234 2.1870982646942138672 1.9860657453536987305 1.8239384889602661133 2.1704030036926269531 1.6578775644302368164 1.9444774389266967773 1.9697748422622680664 1.9619773626327514648 2.2718164920806884766 2.1106836795806884766 3.4669039249420166016 1.9697748422622680664 3.6951785087585449219 2.2283473014831542969 3.6815922260284423828 3.4669039249420166016 4.03348541259765625 3.6951785087585449219 3.6493880748748779297 1.9273805618286132813 1.9273805618286132813 3.2965180873870849609 3.2965180873870849609 1.9574986696243286133 4.1640486717224121094 2.2283473014831542969 3.6815922260284423828 1.9541800022125244141 1.8502165079116821289 1.9273805618286132813 2.6419634819030761719 1.7586873769760131836 1.7074462175369262695 1.6360611915588378906 1.7788313627243041992 1.6360611915588378906 1.493291020393371582 1.6360611915588378906 1.6360611915588378906 1.32544708251953125 1.4776235818862915039 1.6293581724166870117 1.7788313627243041992 1.6360611915588378906 1.8802344799041748047 1.4632703065872192383 1.6360611915588378906 1.5097589492797851563 1.9476995468139648438 1.8542374372482299805 2.1252191066741943359 2.3629636764526367188 1.9350768327713012695 1.6194238662719726563 1.4024938344955444336 1.3143315315246582031 1.2907265424728393555 1.2865890264511108398 1.1384491920471191406 1.2791357040405273438 1.0649803876876831055 1.6110625267028808594 1.3932960033416748047 1.1533563137054443359 1.8547422885894775391 2.1454215049743652344 2.1479222774505615234 2.2801940441131591797 8.8298482894897460938 1.9993712902069091797 1.9731590747833251953 1.5342338085174560547 1.215848088264465332 1 1 1.3505208492279052734 1.1363655328750610352 1.4363168478012084961 1 1 1.32544708251953125 1.6264138221740722656 1.7788313627243041992 1.6293581724166870117 1.9350010156631469727 1.7788313627243041992 1.7788313627243041992 1.7788313627243041992 1.6264138221740722656 1.6293581724166870117 1.7768971920013427734 1.9273805618286132813 1.7696378231048583984 2.1188180446624755859 1.8502165079116821289 1.7788313627243041992 2.6419634819030761719 1.6264138221740722656 2.6419634819030761719 1.4785366058349609375 1.6264138221740722656 2.6419634819030761719 1.7788313627243041992 1.7280544042587280273 1.6264138221740722656 1.8138262033462524414 2.2895081043243408203 1.6264138221740722656 1.9273805618286132813 1.7586873769760131836 1.9258474111557006836 2.0708830356597900391 1.6602466106414794922 1.8602241277694702148 2.1549003124237060547 2.1481568813323974609 1.7080224752426147461 1.7036184072494506836 1.901656031608581543 2.1271200180053710938 2.2858028411865234375 2.0283274650573730469 1.9254119396209716797 1.5916690826416015625 1.5380004644393920898 7.8979830741882324219 1.1528602838516235352 7.7383503913879394531 7.7862839698791503906 7.745025634765625 1.0250811576843261719 1 1.034836888313293457 1.3346829414367675781 1.6094281673431396484 1.6885678768157958984 2.0926358699798583984 1.6586548089981079102 1.8452892303466796875 1.8971308469772338867 1.5258042812347412109 1.3164026737213134766 1.4245330095291137695 1.4645529985427856445 1.7193458080291748047 2.0380640029907226563 1.742888331413269043 1.7712670564651489258 8.489048004150390625 1.5176520347595214844 2.1887900829315185547 2.3866410255432128906 2.0041179656982421875 1.7507314682006835938 1.5419774055480957031 1.5753921270370483398 1.0286765098571777344 
1.7274377346038818359 8.983974456787109375 2.877197265625 2.4989595413208007813 8.9019365310668945313 2.5407719612121582031 2.0136139392852783203 1.6728149652481079102 1.1924935579299926758 1.0144023895263671875 1 1.0649803876876831055 1 1 1 1.2077505588531494141 1 1.2077505588531494141 1.0244803428649902344 1.6360611915588378906 1.6360611915588378906 1.2435032129287719727 1.3505208492279052734 1.493291020393371582 1.141508936882019043 1.3505208492279052734 1.2077505588531494141 1.2453006505966186523 1.5646760463714599609 1.310292363166809082 1.6360611915588378906 1.7023899555206298828 1.493291020393371582 1.6215499639511108398 1.7805637121200561523 2.1106240749359130859 2.0062987804412841797 2.2691073417663574219 2.0787482261657714844 1.9346485137939453125 1.9110052585601806641 2.2511682510375976563 1.9887139797210693359 1.8802812099456787109 1.6056964397430419922 1.8068593740463256836 1.9830318689346313477 2.6419634819030761719 2.0399518013000488281 2.1317989826202392578 3.8335995674133300781 2.2786147594451904297 1.9849596023559570313 2.2718164920806884766 1.9273805618286132813 3.2429821491241455078 3.2656826972961425781 2.2129473686218261719 1.9273805618286132813 3.2965180873870849609 2.6820814609527587891 2.2718164920806884766 3.2429821491241455078 1.9273805618286132813 2.0283679962158203125 3.4669039249420166016 2.2283473014831542969 2.986942291259765625 1.9541800022125244141 1.9574986696243286133 2.2129473686218261719 1.9273805618286132813 1.7586873769760131836 1.6264138221740722656 1.4357621669769287109 1.32544708251953125 1.477585911750793457 1.5175237655639648438 1.6360611915588378906 1.5646760463714599609 1.3303854465484619141 1.32544708251953125 1.493291020393371582 1.0244803428649902344 1.7788313627243041992 1.4551444053649902344 1.6421043872833251953 1.6360611915588378906 1.493291020393371582 1.6298668384552001953 1.5560196638107299805 1.7392981052398681641 1.6928341388702392578 1.7982506752014160156 1.8787105083465576172 1.8419032096862792969 1.9172767400741577148 2.1339590549468994141 1.493291020393371582 1.422367095947265625 1.3473827838897705078 1.3505208492279052734 1.7663100957870483398 1.0649803876876831055 1.7571625709533691406 1.3440184593200683594 1.475558161735534668 8.335407257080078125 2.0524697303771972656 1.8120381832122802734 1.8996142148971557617 1.7669152021408081055 1.8627254962921142578 1.4915497303009033203 1.2364675998687744141 1.2011876106262207031 1 1 1.3505208492279052734 1.3505208492279052734 1 1.0972560644149780273 1.493291020393371582 1.2290188074111938477 1.4776235818862915039 2.1566908359527587891 1.3374807834625244141 1.7202125787734985352 1.9273805618286132813 2.3852427005767822266 2.3778810501098632813 1.7788313627243041992 1.7788313627243041992 2.4411988258361816406 1.9273805618286132813 3.2395925521850585938 1.9273805618286132813 2.3852427005767822266 1.7788313627243041992 1.9273805618286132813 1.7982313632965087891 2.6419634819030761719 1.7788313627243041992 2.2140893936157226563 2.5417046546936035156 1.9273805618286132813 1.7788313627243041992 1.9273805618286132813 1.9668636322021484375 2.2305238246917724609 1.8502165079116821289 1.9273805618286132813 1.7788313627243041992 2.1727190017700195313 2.1566908359527587891 1.8543046712875366211 1.984267115592956543 1.6594940423965454102 1.493291020393371582 1.5930194854736328125 1.8907856941223144531 1.7611621618270874023 2.11931610107421875 2.4557933807373046875 2.2061643600463867188 8.5341339111328125 8.01922607421875 1.168005824089050293 1.0815492868423461914 1 1.1894723176956176758 1.1201888322830200195 7.9673442840576171875 1.0574033260345458984 7.6339483261108398438 1 1.0687839984893798828 1.3194941282272338867 1.3442512750625610352 1.4592009782791137695 1.8030096292495727539 1.6596196889877319336 1.6542885303497314453 2.1281158924102783203 1.1736059188842773438 1.2386877536773681641 1.0585523843765258789 1.2580305337905883789 1.5955299139022827148 2.1364660263061523438 2.50203704833984375 8.5308713912963867188 2.0172870159149169922 1.5958212614059448242 1.7996689081192016602 1.9881569147109985352 1.7257782220840454102 1.7579472064971923828 1.2514744997024536133 1.1062961816787719727 
2.2722158432006835938 2.6140713691711425781 2.5641682147979736328 2.4825301170349121094 2.5116226673126220703 2.3416898250579833984 1.9738143682479858398 1.3335394859313964844 1.0243307352066040039 1 1 1 1.0649803876876831055 1 1.0649803876876831055 1 1.3505208492279052734 1.3505208492279052734 1.0244803428649902344 1.0244803428649902344 1.1105161905288696289 1.2396771907806396484 1.6360611915588378906 1.3505208492279052734 1.4219058752059936523 1.3505208492279052734 1 1.1351277828216552734 1.3505305051803588867 1.6425864696502685547 1.6360611915588378906 1.6264138221740722656 1.5019289255142211914 1.3694157600402832031 1.8061225414276123047 2.1174731254577636719 1.9676401615142822266 2.0018987655639648438 2.0937447547912597656 1.8990879058837890625 1.9299623966217041016 2.047969818115234375 1.6239447593688964844 1.3859277963638305664 1.5468828678131103516 1.7115499973297119141 1.7586873769760131836 1.7788313627243041992 1.9273805618286132813 1.9273805618286132813 2.2786147594451904297 2.2718164920806884766 3.4669039249420166016 2.8220388889312744141 1.9574986696243286133 1.9273805618286132813 2.2129473686218261719 1.8294210433959960938 1.9684967994689941406 1.9273805618286132813 3.2348196506500244141 3.2429821491241455078 3.4669039249420166016 3.2429821491241455078 1.9697748422622680664 2.6321346759796142578 3.4669039249420166016 2.8938577175140380859 1.9273805618286132813 1.9273805618286132813 1.9273805618286132813 1.9830318689346313477 1.5019289255142211914 1.6500800848007202148 1.6264138221740722656 1.6360611915588378906 2.4227647781372070313 1.7788313627243041992 1.7788313627243041992 1.6264138221740722656 1.6360611915588378906 1.32544708251953125 1.1582027673721313477 1.32544708251953125 1.7074462175369262695 1.6264138221740722656 1.8802344799041748047 1.4549844264984130859 2.0403599739074707031 1.493291020393371582 1.0182902812957763672 1.2589833736419677734 1.5130069255828857422 1.6587824821472167969 2.4692466259002685547 2.1507282257080078125 1.6952682733535766602 1.5557050704956054688 1.2368162870407104492 1.8123100996017456055 1.5427078008651733398 1.5426048040390014648 1.3693716526031494141 1.1007986068725585938 1.8421033620834350586 1.5570132732391357422 1.7057260274887084961 8.4862356185913085938 1.9849627017974853516 2.3100378513336181641 1.865176081657409668 2.052867889404296875 1.9909088611602783203 1.64522552490234375 1.1004065275192260742 1.2527055740356445313 1.0330590009689331055 1 1 1.3505208492279052734 1.0649803876876831055 1.0629938840866088867 1.3505208492279052734 1.1198548078536987305 1.32544708251953125 1.6360611915588378906 1.493291020393371582 1.3908588886260986328 1.6264138221740722656 1.6578775644302368164 1.6264138221740722656 1.7860915660858154297 2.6419634819030761719 1.9273805618286132813 2.5417046546936035156 2.5777106285095214844 2.0773510932922363281 1.6264138221740722656 1.6960996389389038086 1.9121928215026855469 1.7788313627243041992 1.8040344715118408203 1.7788313627243041992 1.7872604131698608398 1.6578775644302368164 2.9827599525451660156 1.9273805618286132813 2.2895081043243408203 1.9273805618286132813 2.6419634819030761719 1.9636733531951904297 1.8747192621231079102 2.3648419380187988281 1.931071162223815918 1.9287583827972412109 1.7788313627243041992 1.7280544042587280273 1.4629417657852172852 1.7788313627243041992 1.768774867057800293 1.8589545488357543945 1.8571202754974365234 1.996977686882019043 2.5450675487518310547 2.2063796520233154297 1.9392056465148925781 1.5248564481735229492 1.6042664051055908203 8.4083776473999023438 1.1938511133193969727 1.4130799770355224609 1.6837191581726074219 1.2453379631042480469 1 1.4246855974197387695 1.2219793796539306641 7.8447217941284179688 1.3353075981140136719 1.5118194818496704102 1.6804200410842895508 1.5946196317672729492 2.3796284198760986328 1.2995901107788085938 1.2850841283798217773 1.5107276439666748047 1.1801736354827880859 1 1.1194146871566772461 2.2355358600616455078 2.1109521389007568359 8.5199947357177734375 1.5413221120834350586 1.4383919239044189453 1.4500190019607543945 1.7699310779571533203 1.9513748884201049805 2.0692093372344970703 1.3599865436553955078 1.183979034423828125 1.2906135320663452148 
2.0457313060760498047 1.8711955547332763672 1.939402461051940918 2.1186833381652832031 2.2866649627685546875 1.8796925544738769531 1.7595462799072265625 1.5094522237777709961 1.4584583044052124023 1 1 1 1 1 1 1 1.2077505588531494141 1 1 1.0244803428649902344 1.6360611915588378906 1.32544708251953125 1.493291020393371582 1.0964624881744384766 1.493291020393371582 1.2156398296356201172 1.3505208492279052734 1.1775454282760620117 1.4768179655075073242 1.493291020393371582 1.6360611915588378906 1.5028319358825683594 1.3693726062774658203 1.7042826414108276367 1.8965265750885009766 2.2461788654327392578 2.2156748771667480469 1.8353561162948608398 1.9466986656188964844 1.7633875608444213867 2.1741356849670410156 2.0619211196899414063 1.8470801115036010742 1.7925890684127807617 1.6303328275680541992 1.8205252885818481445 1.6264138221740722656 1.9273805618286132813 1.9273805618286132813 2.6414442062377929688 2.9318671226501464844 3.4669039249420166016 2.0283679962158203125 2.2283473014831542969 3.2965180873870849609 2.9318671226501464844 1.9273805618286132813 2.0773510932922363281 1.9273805618286132813 1.9541800022125244141 3.4669039249420166016 2.6967334747314453125 2.2718164920806884766 2.5116035938262939453 2.50002288818359375 2.0399518013000488281 1.9273805618286132813 2.3852427005767822266 1.9121928215026855469 1.9273805618286132813 1.6264138221740722656 1.6360611915588378906 1.4811452627182006836 1.7872604131698608398 1.6264138221740722656 1.7788313627243041992 1.6264138221740722656 1.7788313627243041992 1.7788313627243041992 1.4083597660064697266 1.3693726062774658203 1.3303854465484619141 1.1588419675827026367 1.3691771030426025391 1.6264138221740722656 1.6266878843307495117 1.6360611915588378906 1.6360611915588378906 1.493291020393371582 1.493291020393371582 1.32544708251953125 1.4530513286590576172 1.2503637075424194336 1.4929720163345336914 1.6797204017639160156 2.3260929584503173828 2.2915782928466796875 1.6030099391937255859 1.8704100847244262695 1.8385248184204101563 1.9079835414886474609 1.5057886838912963867 1.5637918710708618164 1.4523780345916748047 1.3409914970397949219 1.3422814607620239258 1.5533584356307983398 8.237949371337890625 8.3336734771728515625 8.2834014892578125 1.8248116970062255859 2.2370100021362304688 2.0408191680908203125 1.7722810506820678711 1.6500583887100219727 1.4793536663055419922 1.0740926265716552734 1.2077505588531494141 1 1.3505208492279052734 1.3505208492279052734 1 1 1.0654752254486083984 1.493291020393371582 1.493291020393371582 1.6360611915588378906 1.501986384391784668 1.4698176383972167969 1.7788313627243041992 1.7788313627243041992 1.7788313627243041992 1.7788313627243041992 1.9794325828552246094 1.9684967994689941406 2.5417046546936035156 1.7788313627243041992 1.6960996389389038086 1.7788313627243041992 1.7872604131698608398 2.6419634819030761719 1.8502165079116821289 1.7046622037887573242 1.6360611915588378906 2.2630176544189453125 1.9273805618286132813 1.9849596023559570313 1.8138262033462524414 1.9273805618286132813 1.9273805618286132813 2.2585864067077636719 2.2492339611053466797 2.3093402385711669922 2.1806635856628417969 2.6419634819030761719 1.8235262632369995117 1.8951973915100097656 1.9273805618286132813 1.6264138221740722656 1.6509839296340942383 1.7834085226058959961 2.0009903907775878906 1.6635725498199462891 2.1340155601501464844 1.9796552658081054688 2.1515276432037353516 1.9251782894134521484 1.4140294790267944336 1.6883751153945922852 7.7408132553100585938 8.2870731353759765625 7.9964914321899414063 7.8440184593200683594 7.5085458755493164063 7.7804193496704101563 1.7115401029586791992 8.201389312744140625 2.24910736083984375 1.4058296680450439453 1.3417371511459350586 1.6070606708526611328 1.7915508747100830078 1.7926523685455322266 1.3095647096633911133 1.7492241859436035156 1.3176866769790649414 1.1727656126022338867 1.476708531379699707 1.7498717308044433594 8.0845193862915039063 1.5071649551391601563 1.2997719049453735352 1.1760991811752319336 1.3300728797912597656 1.0729365348815917969 1.6820163726806640625 1.5428642034530639648 1.3492782115936279297 1.3114981651306152344 1.3268312215805053711 
2.4948799610137939453 1.9467836618423461914 2.1369030475616455078 2.6734905242919921875 1.7979607582092285156 1.7794945240020751953 8.1590719223022460938 1.1926403045654296875 1.3341116905212402344 1.1748882532119750977 1 1 1 1 1.2077505588531494141 1 1.0649803876876831055 1.0532436370849609375 1.0184335708618164063 1.493291020393371582 1.0244803428649902344 1.32544708251953125 1.0244803428649902344 1.32544708251953125 1.041880488395690918 1.493291020393371582 1.2077505588531494141 1.3284231424331665039 1.5034208297729492188 1.450298309326171875 1.239762425422668457 1.0244803428649902344 1.493291020393371582 1.9128043651580810547 1.9067828655242919922 2.0929729938507080078 2.2063977718353271484 1.935591578483581543 2.1071138381958007813 1.6360611915588378906 1.7930814027786254883 1.7981836795806884766 1.6360611915588378906 1.6264138221740722656 1.6394405364990234375 1.7058359384536743164 2.1566908359527587891 1.7788313627243041992 2.9318671226501464844 1.9273805618286132813 2.2919604778289794922 3.4669039249420166016 3.6951785087585449219 2.3431479930877685547 3.6951785087585449219 2.2786147594451904297 1.9273805618286132813 1.9273805618286132813 2.6321346759796142578 2.0399518013000488281 5.0473923683166503906 2.2283473014831542969 3.8335995674133300781 2.2718164920806884766 1.9794325828552246094 1.9273805618286132813 1.8502165079116821289 1.7788313627243041992 1.7788313627243041992 1.7046622037887573242 2.8938577175140380859 1.6264138221740722656 1.6264138221740722656 1.6360611915588378906 1.4632703065872192383 1.6360611915588378906 1.493291020393371582 1.8802344799041748047 1.4776235818862915039 1.6360611915588378906 1.4206343889236450195 1.2865890264511108398 1.1198548078536987305 1.2865890264511108398 1.6360611915588378906 1.6360611915588378906 1.2865890264511108398 1.0574753284454345703 1.820796966552734375 1.1588419675827026367 1.0390890836715698242 1.3505208492279052734 1.2354536056518554688 1.4054902791976928711 1.9736536741256713867 2.06369781494140625 2.3118741512298583984 1.8186061382293701172 1.2056266069412231445 1.927977442741394043 2.0242562294006347656 1.493291020393371582 1.3505208492279052734 1.603209376335144043 1.6678024530410766602 1.6075742244720458984 1.3280125856399536133 1.7275755405426025391 8.82648468017578125 8.1202211380004882813 1.8024637699127197266 1.5956195592880249023 2.1862204074859619141 1.6970793008804321289 1.6172708272933959961 1.2688430547714233398 1.0479947328567504883 1.2077505588531494141 1.0244803428649902344 1.6215499639511108398 1.493291020393371582 1.493291020393371582 1.3505208492279052734 1.493291020393371582 1.3505208492279052734 1.0340830087661743164 1.0878245830535888672 1.5015748739242553711 1.32544708251953125 1.4369227886199951172 1.6264138221740722656 1.6266878843307495117 2.6419634819030761719 1.7586873769760131836 1.6288204193115234375 1.7788313627243041992 1.7788313627243041992 1.7788313627243041992 1.6264138221740722656 2.0773510932922363281 1.6422827243804931641 1.7074462175369262695 1.6360611915588378906 1.6360611915588378906 1.9273805618286132813 1.9849596023559570313 2.4766926765441894531 1.9273805618286132813 2.8938577175140380859 1.7788313627243041992 2.0668447017669677734 2.3125157356262207031 2.0991191864013671875 1.7788313627243041992 1.9830318689346313477 2.6419634819030761719 1.9273805618286132813 2.6419634819030761719 1.6360611915588378906 1.5600109100341796875 1.4244805574417114258 1.2652225494384765625 1.6773527860641479492 1.5954952239990234375 1.9296448230743408203 1.9497792720794677734 1.9271844625473022461 1.4968073368072509766 1.1595386266708374023 1.4431966543197631836 8.3053579330444335938 7.6813478469848632813 7.5956487655639648438 7.5543951988220214844 1 1.8008687496185302734 8.0537729263305664063 1.4959372282028198242 1.2496929168701171875 1.3937270641326904297 1.8425143957138061523 1.5580629110336303711 1.4215192794799804688 1.4436478614807128906 1.460259556770324707 7.9232931137084960938 1.0630420446395874023 1.5270899534225463867 1.7579642534255981445 1.5304926633834838867 8.2061891555786132813 1.0227292776107788086 1.0894378423690795898 1.0459645986557006836 2.1643927097320556641 2.2914991378784179688 2.2555203437805175781 1.5433114767074584961 1.552907109260559082 1.1793949604034423828 
1.5599564313888549805 1.7107207775115966797 1.8305917978286743164 1.6796860694885253906 1.6453727483749389648 1.6779806613922119141 1.2076934576034545898 1.3535969257354736328 1.5224373340606689453 1.0666100978851318359 1.2895189523696899414 1.0649803876876831055 1.2077505588531494141 1.1330665349960327148 1 1.0649803876876831055 1 1 1.0036833286285400391 1.3505208492279052734 1.493291020393371582 1.0439506769180297852 1 1 1 1 1.3505208492279052734 1.4630219936370849609 1.314869999885559082 1.5312371253967285156 1.493291020393371582 1.493291020393371582 1.32544708251953125 1.6780230998992919922 2.0644314289093017578 2.126995086669921875 1.627793431282043457 1.7095856666564941406 1.6310930252075195313 1.8883467912673950195 1.8070398569107055664 1.756964564323425293 1.5134683847427368164 1.6264138221740722656 1.7280507087707519531 1.8011391162872314453 2.6419634819030761719 2.8430445194244384766 3.2429821491241455078 2.9318671226501464844 3.8335995674133300781 3.2429821491241455078 2.4118311405181884766 2.2283473014831542969 2.2718164920806884766 3.6815922260284423828 1.9273805618286132813 1.9273805618286132813 3.7983632087707519531 2.2283473014831542969 2.2283473014831542969 3.2429821491241455078 2.50002288818359375 1.9273805618286132813 1.7788313627243041992 2.6419634819030761719 1.7696378231048583984 1.7788313627243041992 1.6360611915588378906 1.6264138221740722656 1.7788313627243041992 1.6264138221740722656 1.7788313627243041992 1.32544708251953125 1.6264138221740722656 1.6360611915588378906 1.0730701684951782227 1.493291020393371582 1.493291020393371582 1.6360611915588378906 1.6360611915588378906 1.0913536548614501953 1.0244803428649902344 1.1042599678039550781 1.32544708251953125 1.493291020393371582 1 1.0462354421615600586 1.32544708251953125 1 1.4219058752059936523 1.3505208492279052734 1.7050087451934814453 1.8068742752075195313 1.9743704795837402344 2.2780728340148925781 1.8434294462203979492 1.5805493593215942383 1.4583835601806640625 1.8479248285293579102 1.1813455820083618164 1.3298630714416503906 1.4539943933486938477 1.7882432937622070313 1.5607930421829223633 1.4795299768447875977 1.8255803585052490234 1.9482172727584838867 8.8834362030029296875 2.0292565822601318359 1.4657036066055297852 1.411992192268371582 1.4566810131072998047 1 1.107827305793762207 1.2077505588531494141 1.6774260997772216797 1.0487971305847167969 1.6360611915588378906 1.3927649259567260742 1.0244803428649902344 1.0439506769180297852 1.493291020393371582 1.1105161905288696289 1.493291020393371582 1.0244803428649902344 1.493291020393371582 1.493291020393371582 1.6360611915588378906 1.9684967994689941406 1.7788313627243041992 1.7788313627243041992 1.6264138221740722656 1.7586873769760131836 1.6960996389389038086 1.9273805618286132813 2.5290341377258300781 1.7788313627243041992 1.6264138221740722656 1.9684967994689941406 1.6344852447509765625 2.6419634819030761719 1.7788313627243041992 1.6745015382766723633 1.9273805618286132813 1.9273805618286132813 1.9273805618286132813 2.5417046546936035156 1.9726512432098388672 2.2343046665191650391 2.4633955955505371094 2.8266174793243408203 2.2305238246917724609 1.868621826171875 1.9684967994689941406 1.9273805618286132813 1.9273805618286132813 1.7788313627243041992 1.7788313627243041992 1.4776235818862915039 1.3625863790512084961 1.5800276994705200195 1.3813611268997192383 1.821854710578918457 1.9897855520248413086 1.9846018552780151367 2.0550212860107421875 2.1905999183654785156 1.6847378015518188477 1.5704684257507324219 8.0871429443359375 8.480411529541015625 7.5774922370910644531 7.5997171401977539063 8.3527278900146484375 7.5935811996459960938 1.1211806535720825195 8.170352935791015625 1.6591958999633789063 1.7744269371032714844 1.9126828908920288086 1.4173485040664672852 1.0703160762786865234 1 1.04396820068359375 7.6286029815673828125 1.3059141635894775391 8.1473360061645507813 1.5585740804672241211 1.1087703704833984375 7.8408365249633789063 7.8017630577087402344 1.0889229774475097656 1.069377899169921875 1.3189400434494018555 1.9203081130981445313 1.5220651626586914063 1.3581808805465698242 1.2710660696029663086 1.3167432546615600586 
1.6019403934478759766 8.0304136276245117188 8.6717081069946289063 1.4853483438491821289 1.5943613052368164063 1.4797629117965698242 1.1611254215240478516 1.2746348381042480469 1.1118997335433959961 1.0207828283309936523 1.1979097127914428711 1.2012455463409423828 1.0649803876876831055 1.0649803876876831055 7.6023421287536621094 1 7.7478656768798828125 1.0649803876876831055 1.2791357040405273438 1.3505208492279052734 1 1 1.2077505588531494141 1.2077505588531494141 1 1 1 1.3268734216690063477 1.3068056106567382813 1.2464330196380615234 1.1067408323287963867 1.4219058752059936523 1.557117462158203125 1.493291020393371582 1.8006966114044189453 1.800581812858581543 1.6983255147933959961 1.8680907487869262695 1.6955252885818481445 1.6122835874557495117 1.5315744876861572266 1.7381991147994995117 1.7567957639694213867 1.6360611915588378906 1.3505305051803588867 1.9253704547882080078 2.4568207263946533203 1.9273805618286132813 3.4669039249420166016 3.2965180873870849609 1.9273805618286132813 2.8220388889312744141 3.0110311508178710938 2.2283473014831542969 3.4669039249420166016 1.9849596023559570313 3.6951785087585449219 1.9697748422622680664 2.2718164920806884766 4.26065826416015625 2.0399518013000488281 1.8502165079116821289 1.9273805618286132813 2.8220388889312744141 2.1219182014465332031 1.6183191537857055664 1.6360611915588378906 1.6360611915588378906 1.4566172361373901367 1.7788313627243041992 1.6264138221740722656 1.7788313627243041992 1.7788313627243041992 1.4551444053649902344 1.4369227886199951172 1.3541301488876342773 1.1483951807022094727 1.32544708251953125 1.2290188074111938477 1.493291020393371582 1.5646760463714599609 1 1.493291020393371582 1.493291020393371582 1.1354496479034423828 1.6360611915588378906 1.3505208492279052734 1 1.493291020393371582 1.2077505588531494141 1.4518003463745117188 1.2308799028396606445 1.4919780492782592773 1.2077505588531494141 1.9020506143569946289 2.3552134037017822266 1.5663350820541381836 1.6360611915588378906 1.4759304523468017578 1.6425864696502685547 1.4776235818862915039 2.0304806232452392578 1.6892944574356079102 1.9370708465576171875 1.4721828699111938477 1.5088301897048950195 1.5793786048889160156 1.4302394390106201172 2.3653631210327148438 2.0582468509674072266 2.0673348903656005859 1.4825202226638793945 1.0592917203903198242 1 1.2180899381637573242 1.2319076061248779297 1.4596207141876220703 1 1.1054310798645019531 1.32544708251953125 1.6360611915588378906 1.1744368076324462891 1.32544708251953125 1.493291020393371582 1.493291020393371582 1.32544708251953125 1 1.4219058752059936523 1.1749637126922607422 1.4776235818862915039 1.6360611915588378906 1.6360611915588378906 1.3927649259567260742 1.6264138221740722656 1.7788313627243041992 2.6419634819030761719 2.6419634819030761719 1.694403529167175293 2.6419634819030761719 1.8502165079116821289 2.8339984416961669922 1.7788313627243041992 1.9273805618286132813 1.9273805618286132813 1.9273805618286132813 1.7788313627243041992 1.9273805618286132813 2.4411988258361816406 2.6419634819030761719 2.4025635719299316406 2.4978322982788085938 2.252117156982421875 1.9391949176788330078 2.6419634819030761719 2.2140893936157226563 1.9273805618286132813 2.2129473686218261719 1.9684967994689941406 2.1566908359527587891 1.3790895938873291016 1.4224932193756103516 1.4490125179290771484 1.9214652776718139648 1.757277369499206543 2.3785037994384765625 1.967938542366027832 2.0365705490112304688 1.6547464132308959961 1.4897258281707763672 8.1505746841430664063 8.0660295486450195313 8.02402496337890625 7.53838348388671875 7.5767960548400878906 8.1215343475341796875 7.956066131591796875 1.335895538330078125 1.9489542245864868164 8.1000804901123046875 1.2647393941879272461 1.2124601602554321289 1.4243242740631103516 1.1552224159240722656 1 1 1.2176549434661865234 1.0910670757293701172 1.6246523857116699219 1.7512263059616088867 1.3961050510406494141 7.6711564064025878906 1.2752317190170288086 1.1010692119598388672 1 1 1.5537534952163696289 1 1.1075226068496704102 1.247361302375793457 1.3289774656295776367 
1 7.733776092529296875 8.190288543701171875 8.1610994338989257813 1.1886557340621948242 1.3380644321441650391 1.3571685552597045898 1.0363628864288330078 1.0483038425445556641 1.8010184764862060547 1 1 1.1102092266082763672 1 1 1.1436723470687866211 1.2077505588531494141 1 1.0889003276824951172 1.2077505588531494141 1.1363655328750610352 1.2077505588531494141 1.3505208492279052734 1 1.3505208492279052734 1 1.493291020393371582 1.32544708251953125 1.3505208492279052734 1.0865957736968994141 1.493291020393371582 1.0439506769180297852 1.493291020393371582 1.6504218578338623047 1.5241132974624633789 1.5841492414474487305 1.6971516609191894531 1.8975934982299804688 1.7666425704956054688 1.8883953094482421875 1.7036150693893432617 1.8317171335220336914 1.6412070989608764648 1.8909792900085449219 1.733847498893737793 1.7920980453491210938 1.7586873769760131836 1.9273805618286132813 2.6414442062377929688 3.6493880748748779297 2.2129473686218261719 1.9273805618286132813 2.2283473014831542969 5.0473923683166503906 3.4669039249420166016 2.1317989826202392578 4.6507844924926757813 3.2429821491241455078 2.2718164920806884766 2.8220388889312744141 1.9273805618286132813 1.7788313627243041992 1.7788313627243041992 1.7872604131698608398 1.7644934654235839844 1.7788313627243041992 1.8802344799041748047 1.4062845706939697266 1.7788313627243041992 1.7586873769760131836 1.32544708251953125 1.4083597660064697266 1.7788313627243041992 1.6264138221740722656 1.3505305051803588867 1.7074462175369262695 1.3505208492279052734 1.1354496479034423828 1.6360611915588378906 1.2843507528305053711 1.3812974691390991211 1 1.3197084665298461914 1.0244803428649902344 1.3505208492279052734 1.493291020393371582 1 1.493291020393371582 1.493291020393371582 1.4037473201751708984 1.3505208492279052734 1.1704783439636230469 1 1.2077505588531494141 1.3809833526611328125 1.6240098476409912109 1.8940582275390625 1.6360611915588378906 1.7074462175369262695 1.4338629245758056641 1.6360611915588378906 1.6783607006072998047 2.5917081832885742188 1.3904159069061279297 1.7957561016082763672 1.6079746484756469727 1.5640413761138916016 1.8137822151184082031 1.6886330842971801758 1.6952439546585083008 1.8333221673965454102 1.4234919548034667969 1 1 1.2791357040405273438 1.0426790714263916016 1.3505208492279052734 1 1.3505208492279052734 1.493291020393371582 1.6360611915588378906 1.6264138221740722656 1.3927649259567260742 1.6360611915588378906 1.493291020393371582 1.0833659172058105469 1.3505208492279052734 1.0439506769180297852 1.0661557912826538086 1.32544708251953125 1.1957230567932128906 1.493291020393371582 1.6360611915588378906 1.4776235818862915039 1.6360611915588378906 2.0773510932922363281 1.7586873769760131836 1.9273805618286132813 2.2129473686218261719 3.2110114097595214844 2.6419634819030761719 1.9273805618286132813 1.9336783885955810547 1.8138262033462524414 1.9273805618286132813 2.4411988258361816406 2.4766926765441894531 1.7788313627243041992 2.6419634819030761719 2.4441723823547363281 2.4591231346130371094 2.0992665290832519531 1.9273805618286132813 1.7904338836669921875 1.9273805618286132813 1.9273805618286132813 2.0773510932922363281 1.7788313627243041992 1.6360611915588378906 1.6360611915588378906 1.6264138221740722656 1.7026629447937011719 1.7740737199783325195 2.1509058475494384766 2.1915349960327148438 2.3848731517791748047 1.4726890325546264648 1.3624677658081054688 1.0342592000961303711 7.926959991455078125 7.861438751220703125 7.9061522483825683594 1 7.537395477294921875 1.1435315608978271484 1 1.5273773670196533203 1.4955816268920898438 7.9980702400207519531 1.3642904758453369141 1.2839933633804321289 1 1.2239253520965576172 1.1978323459625244141 1.4190073013305664063 1.0406442880630493164 1 1.1528820991516113281 8.3392076492309570313 1.9230265617370605469 1.130776524543762207 1.4202277660369873047 1.1034429073333740234 1 1 1 1.0218336582183837891 1 1 1.0805526971817016602 
7.5889644622802734375 1 1 1.3099979162216186523 1.229541778564453125 1.1582740545272827148 1.1399670839309692383 1 1.0594199895858764648 1.1628527641296386719 1 1 1 7.6405644416809082031 1 1 1.1391520500183105469 1 1.0649803876876831055 1 1.0839786529541015625 1 1 1.3505208492279052734 1.3505208492279052734 1 1.0243307352066040039 1.3505208492279052734 1.2077505588531494141 1.2661530971527099609 1.211308598518371582 1.0578645467758178711 1.493291020393371582 1.493291020393371582 1.2677857875823974609 1.8028798103332519531 1.7741676568984985352 2.2620108127593994141 1.7345826625823974609 1.820796966552734375 1.7522478103637695313 1.7004461288452148438 2.0857210159301757813 1.5661379098892211914 2.2530183792114257813 1.8248633146286010742 1.7904338836669921875 1.9273805618286132813 2.2718164920806884766 2.0463521480560302734 2.1165747642517089844 1.9763182401657104492 2.8220388889312744141 2.0837237834930419922 1.9273805618286132813 1.9273805618286132813 1.8502165079116821289 2.0283679962158203125 1.9849596023559570313 1.9273805618286132813 2.6419634819030761719 1.7788313627243041992 1.7788313627243041992 1.7788313627243041992 1.6578775644302368164 1.7788313627243041992 1.3541301488876342773 1.3691771030426025391 1.6360611915588378906 1.6264138221740722656 1.6360611915588378906 2.1566908359527587891 1.3459802865982055664 2.1057736873626708984 1.6360611915588378906 1.6360611915588378906 1.493291020393371582 1.0244803428649902344 1 1.0244803428649902344 1.3505208492279052734 1 1.3505208492279052734 1 1.493291020393371582 1.0244803428649902344 1.6360611915588378906 1.422367095947265625 1.0652728080749511719 1.493291020393371582 1.3505208492279052734 1.4957031011581420898 1.3097597360610961914 1.2916225194931030273 1.4639906883239746094 1.9371206760406494141 1.7142134904861450195 1.7219048738479614258 1.7788313627243041992 1.6360611915588378906 1.6360611915588378906 1.5832426548004150391 1.8944429159164428711 1.6354928016662597656 1.3503172397613525391 1.7273107767105102539 1.6606360673904418945 1.86838531494140625 2.0627152919769287109 1.5898150205612182617 1.7875189781188964844 1.2120478153228759766 1.310061335563659668 1.2077505588531494141 1.2077505588531494141 1.2521136999130249023 1.2077505588531494141 1.3505208492279052734 1.3505208492279052734 1.0244803428649902344 1.493291020393371582 1.8802344799041748047 1.493291020393371582 1.6464523077011108398 1.493291020393371582 1.4219058752059936523 1.0872565507888793945 1.493291020393371582 1.3288396596908569336 1.6360611915588378906 1.6360611915588378906 1.3474953174591064453 1.7788313627243041992 1.4551444053649902344 1.6360611915588378906 1.6425864696502685547 1.6266878843307495117 1.7788313627243041992 2.6419634819030761719 1.9273805618286132813 1.9273805618286132813 1.7904338836669921875 2.6414442062377929688 3.4669039249420166016 2.8220388889312744141 2.8220388889312744141 1.7788313627243041992 1.7788313627243041992 2.5577118396759033203 2.3776910305023193359 2.2069821357727050781 2.1704866886138916016 2.6419634819030761719 1.9678363800048828125 2.6419634819030761719 2.1565530300140380859 1.9684967994689941406 1.7788313627243041992 1.8296566009521484375 1.9453979730606079102 1.6360611915588378906 1.7788313627243041992 1.7958532571792602539 1.8699166774749755859 1.8045830726623535156 1.7787427902221679688 1.5438530445098876953 1.4808231592178344727 1.1925531625747680664 7.8936018943786621094 1.8480974435806274414 1.6579746007919311523 7.9261507987976074219 7.733760833740234375 7.6454768180847167969 1.4425218105316162109 1.1772799491882324219 1.3645082712173461914 8.3343343734741210938 7.9794034957885742188 1.8044981956481933594 1.3546772003173828125 1 1.2173503637313842773 7.8537011146545410156 1.1599546670913696289 1.0579754114151000977 8.0968084335327148438 1.4565846920013427734 1.5974283218383789063 8.1109638214111328125 8.0562810897827148438 1.3718405961990356445 1.1608228683471679688 1 1 7.6131563186645507813 7.5396275520324707031 1.1165969371795654297 1.4255893230438232422 
1.092090606689453125 1 1 7.9544839859008789063 7.8005208969116210938 7.92038726806640625 1.4338200092315673828 1 1.095366358757019043 1.7964843511581420898 1 7.7220826148986816406 1 1 1 1 1.0649803876876831055 1.2077505588531494141 1.3505208492279052734 1.3505208492279052734 1 1 1.0565313100814819336 1.2077505588531494141 1.0825841426849365234 1 1 1.1490888595581054688 1.2273261547088623047 1.5066722631454467773 1.6137166023254394531 1.6215499639511108398 1.1976684331893920898 1.493291020393371582 1.6628738641738891602 1.8303887844085693359 2.2171046733856201172 1.9895414113998413086 2.0797650814056396484 2.1436524391174316406 1.7940984964370727539 1.8924238681793212891 1.8946434259414672852 2.0105149745941162109 2.4265296459197998047 2.2140893936157226563 2.6419634819030761719 1.9849596023559570313 2.2129473686218261719 2.1026930809020996094 1.7691558599472045898 2.6419634819030761719 1.9273805618286132813 1.9273805618286132813 1.7788313627243041992 2.6419634819030761719 1.7872604131698608398 2.1317989826202392578 1.7788313627243041992 1.9684967994689941406 1.7788313627243041992 1.3829275369644165039 1.6264138221740722656 1.7586873769760131836 1.7788313627243041992 1.7788313627243041992 1.8411703109741210938 1.6360611915588378906 1.6360611915588378906 1.4551444053649902344 1.8802344799041748047 1.6360611915588378906 1.4811452627182006836 1.493291020393371582 1.8411703109741210938 1.4776235818862915039 1.6360611915588378906 1.493291020393371582 1 1 1 1.0026159286499023438 1.3505208492279052734 1.493291020393371582 1.5646760463714599609 1.6360611915588378906 1.6360611915588378906 1.493291020393371582 1.32544708251953125 1.3505208492279052734 1.493291020393371582 2.0114014148712158203 1.8915385007858276367 1.493291020393371582 2.0741729736328125 2.1228950023651123047 2.1512570381164550781 1.6230219602584838867 1.4184252023696899414 1.32544708251953125 1.7473627328872680664 1.32544708251953125 1.6360611915588378906 1.7778277397155761719 1.7577251195907592773 1.793978571891784668 2.1865386962890625 1.5214823484420776367 1.0401724576950073242 1.2335021495819091797 1.6202412843704223633 1.1283109188079833984 1 1.1413171291351318359 1.0572580099105834961 1.1772826910018920898 1.1675918102264404297 1.0505803823471069336 1 1.3505208492279052734 1 1.493291020393371582 1.6360611915588378906 1.493291020393371582 1.0537014007568359375 1.5646760463714599609 1.2134239673614501953 1.493291020393371582 1.32544708251953125 1.493291020393371582 1.6360611915588378906 1.6360611915588378906 1.6264138221740722656 1.32544708251953125 1.6360611915588378906 1.6360611915588378906 1.7788313627243041992 1.6264138221740722656 1.7586873769760131836 1.7788313627243041992 3.0927255153656005859 1.9273805618286132813 1.9273805618286132813 1.9336783885955810547 2.9318671226501464844 1.9273805618286132813 1.6264138221740722656 1.8954507112503051758 1.8523187637329101563 1.9650422334671020508 2.1201410293579101563 1.7788313627243041992 1.9273805618286132813 1.8502165079116821289 2.1908016204833984375 2.6419634819030761719 2.4227647781372070313 1.6360611915588378906 1.5856783390045166016 1.7134559154510498047 1.6458104848861694336 1.7074462175369262695 1.4997382164001464844 1.6285387277603149414 1.8260461091995239258 1.5047299861907958984 1.4634383916854858398 1.5435858964920043945 1.4315755367279052734 1.1236869096755981445 1.582977294921875 1.3171712160110473633 1.0042166709899902344 1.1906588077545166016 1.1344727277755737305 1 1.2743781805038452148 1.1913459300994873047 1.3158081769943237305 1.6500852108001708984 1.2336667776107788086 1.0625777244567871094 1.1175340414047241211 1.602778315544128418 1.5558081865310668945 1.125418543815612793 7.6353940963745117188 8.0847072601318359375 2.2172956466674804688 8.4098711013793945313 1.4124393463134765625 7.9743356704711914063 8.0894250869750976563 1.3159500360488891602 1.583103179931640625 1.3674160242080688477 1.2040610313415527344 7.9603075981140136719 1.2224066257476806641 8.0801763534545898438 
1 1 1.193874359130859375 1 1.124725341796875 1 1.0575101375579833984 1 1.1335016489028930664 1 1.068720698356628418 1 1 1 1 1 1 1 1.3505208492279052734 1.3505208492279052734 1 1.2077505588531494141 1.4219058752059936523 1 1.0649803876876831055 1.2894570827484130859 1.2187939882278442383 1.5274331569671630859 1.3307735919952392578 1.5998913049697875977 1.7041097879409790039 1.5563625097274780273 1.3240009546279907227 1.3845844268798828125 1.667599797248840332 1.9730457067489624023 2.5491313934326171875 2.2059552669525146484 2.1733281612396240234 2.0785040855407714844 2.1560080051422119141 1.8501702547073364258 1.8356237411499023438 1.9926375150680541992 1.7788313627243041992 1.7872604131698608398 1.7586873769760131836 2.0033643245697021484 1.9619773626327514648 2.6419634819030761719 2.2630176544189453125 1.6500800848007202148 2.3852427005767822266 2.6419634819030761719 2.3778810501098632813 1.6264138221740722656 1.8950804471969604492 1.6360611915588378906 1.6425864696502685547 1.7788313627243041992 1.4811452627182006836 1.7525779008865356445 1.6360611915588378906 1.7788313627243041992 1.7788313627243041992 1.6264138221740722656 1.7788313627243041992 1.32544708251953125 1.6360611915588378906 1.5175237655639648438 1.7788313627243041992 1.7788313627243041992 1.7788313627243041992 1.6360611915588378906 1.6264138221740722656 1.6360611915588378906 1.6360611915588378906 1.0913536548614501953 1 1.0244803428649902344 1.0244803428649902344 1.278596043586730957 1.0244803428649902344 1.3505208492279052734 1.2865890264511108398 1.0244803428649902344 1.493291020393371582 1.32544708251953125 1.1198548078536987305 1.1510444879531860352 1.493291020393371582 1.493291020393371582 1.5235345363616943359 2.0035288333892822266 2.1850712299346923828 1.9125096797943115234 1.7909030914306640625 1.493291020393371582 1.493291020393371582 1.1260282993316650391 1.493291020393371582 1.493291020393371582 1.8676936626434326172 1.6390340328216552734 1.6332451105117797852 1.4780771732330322266 1.959257960319519043 1.1928863525390625 1.493291020393371582 1.2212214469909667969 1.4636489152908325195 1 1 1.0655677318572998047 1.2362018823623657227 1 1.2378396987915039063 1.2343345880508422852 1.0358633995056152344 1.2077505588531494141 1.2077505588531494141 1.2862764596939086914 1.32544708251953125 1.3505208492279052734 1.5646760463714599609 1.32544708251953125 1.6360611915588378906 1.1822342872619628906 1.2865890264511108398 1.6360611915588378906 1.5947005748748779297 1.3691771030426025391 1.493291020393371582 1.6360611915588378906 1.5646760463714599609 1.6360611915588378906 1.6360611915588378906 1.6264138221740722656 1.7586873769760131836 1.7696378231048583984 1.9273805618286132813 2.6419634819030761719 1.9273805618286132813 1.9273805618286132813 2.6414442062377929688 1.9273805618286132813 1.7074462175369262695 2.0087769031524658203 1.7482171058654785156 2.0508847236633300781 2.02152252197265625 1.9588509798049926758 2.0638549327850341797 1.7788313627243041992 2.0167114734649658203 1.7788313627243041992 1.7721085548400878906 1.7796181440353393555 1.6360611915588378906 1.3908588886260986328 1.7785056829452514648 1.7788313627243041992 1.8802344799041748047 1.8082644939422607422 1.6988576650619506836 1.3705003261566162109 1.4778541326522827148 1.4047483205795288086 1.2720625400543212891 1.3231716156005859375 1.1297411918640136719 1.0714505910873413086 1.1684209108352661133 1.0449721813201904297 1 1 1.2450175285339355469 8.4273624420166015625 1.4421390295028686523 1.7104381322860717773 1.4180881977081298828 1.1576372385025024414 8.0263967514038085938 1.3732546567916870117 1.4851011037826538086 1.5247690677642822266 1.2633608579635620117 1.6533294916152954102 1.8075450658798217773 8.6928834915161132813 8.4653730392456054688 1.9567676782608032227 1.7400887012481689453 8.0542154312133789063 1.1388634443283081055 1.1591985225677490234 7.8759899139404296875 7.7945270538330078125 1.3818510770797729492 2.0788576602935791016 
1 1.2250994443893432617 1.0551439523696899414 1 1.0572578907012939453 1.2484482526779174805 1.0676261186599731445 1 1 1.079388737678527832 7.5197601318359375 1.0819479227066040039 1 1 7.6477098464965820313 1 1.0649803876876831055 1.2077505588531494141 1.1118195056915283203 1 1.076247096061706543 1.2791357040405273438 1.1363655328750610352 1.0649803876876831055 1.0805360078811645508 1.3712240457534790039 1.3887913227081298828 1.619124293327331543 1.5690569877624511719 2.1637432575225830078 1.7808339595794677734 2.0013723373413085938 1.6245659589767456055 1.7517018318176269531 1.493291020393371582 1.9137488603591918945 1.8530136346817016602 2.1075549125671386719 2.3666510581970214844 2.3266322612762451172 2.2343809604644775391 1.7946376800537109375 1.6734075546264648438 1.9172887802124023438 2.0108644962310791016 1.7788313627243041992 2.0241062641143798828 1.7788313627243041992 2.1428461074829101563 2.3778810501098632813 1.6740421056747436523 1.764801025390625 1.7788313627243041992 1.6422827243804931641 1.9037609100341796875 1.7539275884628295898 1.9149786233901977539 1.6628717184066772461 1.477585911750793457 1.4852751493453979492 1.7788313627243041992 1.7788313627243041992 1.4811452627182006836 1.6360611915588378906 1.3298680782318115234 1.6360611915588378906 2.4300410747528076172 1.4776235818862915039 1.4785366058349609375 1.9121928215026855469 1.6264138221740722656 1.6360611915588378906 1.32544708251953125 1.9625101089477539063 1.4161572456359863281 1.6360611915588378906 1.6360611915588378906 1.0244803428649902344 1.0964624881744384766 1.493291020393371582 1.1588419675827026367 1.493291020393371582 1.0439506769180297852 1.1822342872619628906 1.1626136302947998047 1.3505208492279052734 1.2791357040405273438 1.6360611915588378906 1.2446137666702270508 1.6360611915588378906 1.4678424596786499023 1.7693954706192016602 2.3373224735260009766 2.351764678955078125 2.3399832248687744141 2.0418641567230224609 2.0839388370513916016 1.7671732902526855469 1.2019388675689697266 1.5083754062652587891 1.6342777013778686523 1.8668985366821289063 2.1778855323791503906 1.6948026418685913086 2.1763374805450439453 2.600009918212890625 2.0256531238555908203 2.5151553153991699219 1.6941608190536499023 1.3092380762100219727 1.4644488096237182617 1.1658225059509277344 1.2077505588531494141 1.2415969371795654297 1.2575260400772094727 1.3821200132369995117 1.9477131366729736328 1.3494141101837158203 1.3925843238830566406 1.3869500160217285156 1.4544035196304321289 1.2878246307373046875 1.4219058752059936523 1.493291020393371582 1.2882602214813232422 1.493291020393371582 1.0244803428649902344 1.493291020393371582 1.493291020393371582 1.493291020393371582 1.0244803428649902344 1.5646760463714599609 1.493291020393371582 1.0964624881744384766 1.1483951807022094727 1.2882602214813232422 1.32544708251953125 1.7788313627243041992 1.6264138221740722656 1.6264138221740722656 1.6264138221740722656 1.7788313627243041992 2.4766926765441894531 3.4669039249420166016 1.9273805618286132813 1.9273805618286132813 1.6264138221740722656 1.6360611915588378906 1.8564972877502441406 1.6364266872406005859 1.9003703594207763672 2.0945587158203125 1.9919047355651855469 1.9877932071685791016 2.2361218929290771484 2.6419634819030761719 2.0172493457794189453 1.6264138221740722656 1.3870661258697509766 1.4919314384460449219 1.6163699626922607422 1.7863961458206176758 1.698505401611328125 2.2630176544189453125 1.6360611915588378906 1.4064346551895141602 1.5784012079238891602 1.4042569398880004883 1.2596921920776367188 1 1 1 1 1.038077235221862793 1.0638384819030761719 1 1.2685075998306274414 1.4271395206451416016 1.2162920236587524414 1.4676908254623413086 2.3096985816955566406 1.5050407648086547852 1.2740082740783691406 1.8923993110656738281 1.4483561515808105469 1.4070698022842407227 1.6585855484008789063 1.7453426122665405273 2.3410017490386962891 2.3866274356842041016 2.3248050212860107422 8.1628389358520507813 1.50101470947265625 1.2819132804870605469 7.7577252388000488281 7.7230901718139648438 8.5039091110229492188 1.0792139768600463867 1.1732730865478515625 1.4788355827331542969 
1 1 1.1195585727691650391 1 1 1.0700820684432983398 1 1.0609337091445922852 1.4515476226806640625 7.6042304039001464844 1.2564629316329956055 7.5404987335205078125 1 1 1 1 1.1280771493911743164 1 1.1049840450286865234 1.0649803876876831055 1 1.2077505588531494141 1.2519625425338745117 1.4010580778121948242 1.1965944766998291016 1.3538877964019775391 1.4389090538024902344 1.5830905437469482422 1.68255615234375 1.7611449956893920898 1.9395033121109008789 1.5658354759216308594 1.3505208492279052734 1.4351017475128173828 1.7368357181549072266 2.2335898876190185547 2.0429213047027587891 2.2277996540069580078 2.4182527065277099609 2.2978398799896240234 1.848705291748046875 2.0876133441925048828 1.6000080108642578125 1.9549132585525512695 1.5452879667282104492 2.110172271728515625 1.7788313627243041992 2.6419634819030761719 1.9991501569747924805 1.6264138221740722656 1.7689439058303833008 2.0292572975158691406 1.6264138221740722656 1.6360611915588378906 1.92029571533203125 1.7387634515762329102 1.9740835428237915039 2.1856830120086669922 1.7788313627243041992 1.6578775644302368164 1.6264138221740722656 1.6344852447509765625 1.7788313627243041992 1.6360611915588378906 1.8109705448150634766 1.4785366058349609375 1.32544708251953125 1.6360611915588378906 1.32544708251953125 1.6360611915588378906 1.3849674463272094727 1.493291020393371582 1.6360611915588378906 1.32544708251953125 1.32544708251953125 1.0652728080749511719 1.32544708251953125 1.493291020393371582 1.4083597660064697266 1.6264138221740722656 1.7788313627243041992 1.4776235818862915039 1.3459802865982055664 1.493291020393371582 1.3505208492279052734 1.3505208492279052734 1 1.493291020393371582 1.1198548078536987305 1.6360611915588378906 1.4384969472885131836 1.3755846023559570313 1.7830735445022583008 2.0381562709808349609 2.2272965908050537109 2.0428857803344726563 1.9240785837173461914 2.1702888011932373047 1.9996336698532104492 2.107349395751953125 1.9179701805114746094 1.9640272855758666992 2.2616670131683349609 2.1710083484649658203 2.7732141017913818359 2.7246820926666259766 2.5260996818542480469 2.3653585910797119141 2.0980362892150878906 1.5322751998901367188 1.3732235431671142578 1.5344338417053222656 2.1674501895904541016 1.6381582021713256836 1.2961591482162475586 1.4274480342864990234 1.7875463962554931641 1.8327515125274658203 1.6740211248397827148 1.2903978824615478516 1.3505208492279052734 1.1787285804748535156 1 1 1.493291020393371582 1.493291020393371582 1.6360611915588378906 1 1.0274040699005126953 1.493291020393371582 1.1813455820083618164 1.32544708251953125 1.0605783462524414063 1.3505208492279052734 1.0244803428649902344 1.0529245138168334961 1.4941315650939941406 1.7788313627243041992 1.7586873769760131836 1.6360611915588378906 1.7788313627243041992 1.7046622037887573242 1.7872604131698608398 1.9273805618286132813 1.9273805618286132813 1.9273805618286132813 1.6360611915588378906 1.7788313627243041992 1.7280544042587280273 2.4270625114440917969 2.4076964855194091797 2.5417153835296630859 2.1753051280975341797 2.6419634819030761719 1.8817331790924072266 1.9273805618286132813 1.9273805618286132813 1.7046622037887573242 1.7788313627243041992 1.7074462175369262695 1.7677005529403686523 1.8164241313934326172 1.7599877119064331055 2.1717369556427001953 1.8815389871597290039 1.9632201194763183594 1.4666216373443603516 1.3476574420928955078 1.6497503519058227539 1.0177839994430541992 1 1.0699431896209716797 1.199988245964050293 1.0063571929931640625 1.1966478824615478516 1 1.2184545993804931641 1.1679434776306152344 1.3075853586196899414 2.3805611133575439453 8.6598176956176757813 1.9838006496429443359 1.7069374322891235352 1.3003339767456054688 8.0085601806640625 2.0950725078582763672 1.8880283832550048828 2.6937525272369384766 2.3124568462371826172 9.4684839248657226563 2.7381153106689453125 8.8497095108032226563 8.9373064041137695313 8.187595367431640625 7.5071797370910644531 1.186085820198059082 7.9114241600036621094 7.7642230987548828125 1.290736079216003418 1.6877230405807495117 
1.2695161104202270508 1 1.0160104036331176758 1 1.139716029167175293 1 1.2759839296340942383 1 1 1 1 1 1 1 1 1 1.1387465000152587891 1.0417255163192749023 1 1 1 1.0649803876876831055 1 1.3440768718719482422 1.5209614038467407227 1.5411242246627807617 1.6667468547821044922 1.595820307731628418 1.5835926532745361328 1.5823714733123779297 1.8880838155746459961 1.845090031623840332 1.4910027980804443359 1.2145248651504516602 1.5450394153594970703 1.8139420747756958008 2.2931494712829589844 2.5955998897552490234 2.4302256107330322266 2.1428415775299072266 1.972815394401550293 2.2361199855804443359 2.0824303627014160156 1.6519373655319213867 1.8500058650970458984 2.2019448280334472656 1.9684967994689941406 1.8040344715118408203 1.8073773384094238281 1.8917886018753051758 1.8046091794967651367 1.7410175800323486328 1.7447603940963745117 1.772187352180480957 2.1201429367065429688 2.0609228610992431641 2.1202309131622314453 1.6964714527130126953 1.7586873769760131836 1.7788313627243041992 1.7586873769760131836 1.6264138221740722656 1.7788313627243041992 1.6264138221740722656 1.6288204193115234375 1.7788313627243041992 1.5019289255142211914 1.493291020393371582 1.166202545166015625 1.493291020393371582 1.1061033010482788086 1.493291020393371582 1 1.0244803428649902344 1 1.0244803428649902344 1.3505208492279052734 1.493291020393371582 1.6360611915588378906 1.6360611915588378906 1.6745015382766723633 1.470072627067565918 1.6360611915588378906 1.32544708251953125 1.0244803428649902344 1.0244803428649902344 1.32544708251953125 1.493291020393371582 1.1588419675827026367 1.2065433263778686523 1.3139846324920654297 1.5540925264358520508 2.0304064750671386719 1.8108514547348022461 2.0824060440063476563 2.0948810577392578125 2.0493166446685791016 2.2474548816680908203 2.4365279674530029297 2.0834472179412841797 2.7408821582794189453 2.4007976055145263672 2.3095850944519042969 2.326282501220703125 3.4500362873077392578 2.9503095149993896484 2.5493502616882324219 2.9750998020172119141 2.0597243309020996094 1.6434899568557739258 1.7944148778915405273 1.7055982351303100586 1.6686856746673583984 1.8562694787979125977 2.2230768203735351563 1.4781010150909423828 1.7358516454696655273 1.6140967607498168945 1.9388898611068725586 2.1013257503509521484 1.4826693534851074219 1.3121004104614257813 1.3505208492279052734 1.0859948396682739258 1.0819523334503173828 1.6360611915588378906 1.0878245830535888672 1.6360611915588378906 1.128548741340637207 1.4357621669769287109 1.6264138221740722656 1.9684967994689941406 1.6360611915588378906 1.493291020393371582 1.0439506769180297852 1.3474953174591064453 1.7788313627243041992 1.6578775644302368164 1.7788313627243041992 1.7074462175369262695 1.7696378231048583984 1.7696378231048583984 1.6421043872833251953 2.8220388889312744141 1.7788313627243041992 1.9273805618286132813 1.9273805618286132813 2.4568207263946533203 1.7965295314788818359 1.9370864629745483398 2.312389373779296875 1.9986121654510498047 2.15727996826171875 2.0571210384368896484 1.9273805618286132813 2.986942291259765625 2.986942291259765625 3.4669039249420166016 1.9273805618286132813 2.0773510932922363281 1.7788313627243041992 1.8881043195724487305 1.9304114580154418945 2.2751679420471191406 2.2416007518768310547 2.1345574855804443359 1.6092751026153564453 1.2649666070938110352 1.2679667472839355469 1.4045952558517456055 1.1217589378356933594 1.0247451066970825195 1.1374176740646362305 1 1.1093925237655639648 1 1.1259036064147949219 1.5055543184280395508 1.5718979835510253906 1.9537841081619262695 1.7954844236373901367 1.6983807086944580078 1.9739023447036743164 8.1252145767211914063 1.5156232118606567383 8.1176738739013671875 2.5764522552490234375 3.306468963623046875 2.2114439010620117188 2.441600799560546875 2.5666635036468505859 2.1588687896728515625 1.6088789701461791992 1.1901752948760986328 1.1873079538345336914 1.1615234613418579102 7.7442851066589355469 1 8.4630594253540039063 1.6872206926345825195 
1.0768666267395019531 1 7.6204400062561035156 7.6733603477478027344 1 1 1.0428038835525512695 1 1 1 1 1 1 1 1 1.1427913904190063477 1 1 1 1.2077505588531494141 1 1.0346384048461914063 1 1.5036972761154174805 8.2401561737060546875 1.8647787570953369141 1.9014136791229248047 2.0594468116760253906 1.7860691547393798828 1.61724090576171875 1.6250733137130737305 1.8004753589630126953 1.3626004457473754883 1.6364654302597045898 1.5435320138931274414 1.6442912817001342773 2.3307957649230957031 2.2594230175018310547 2.3098609447479248047 2.4964888095855712891 2.5386018753051757813 2.7549424171447753906 2.4708504676818847656 1.9932751655578613281 1.8329010009765625 1.7348659038543701172 1.6360611915588378906 1.794094085693359375 1.7788313627243041992 1.7607092857360839844 1.7970257997512817383 1.9853491783142089844 1.8550659418106079102 1.8844519853591918945 2.1276919841766357422 2.5662252902984619141 2.1565134525299072266 1.831722259521484375 1.7788313627243041992 1.6264138221740722656 2.6419634819030761719 1.7788313627243041992 1.7788313627243041992 2.1566908359527587891 2.4411988258361816406 1.4941315650939941406 1.32544708251953125 1.2942078113555908203 2.1057736873626708984 1.1813455820083618164 1.3505208492279052734 1 1.2791357040405273438 1.3505208492279052734 1.3505208492279052734 1.0340830087661743164 1 1.2865890264511108398 1.6360611915588378906 1.6360611915588378906 1.7788313627243041992 1.6360611915588378906 1.6360611915588378906 1.3258135318756103516 1.037358403205871582 1.0730701684951782227 1.0244803428649902344 1.493291020393371582 1.493291020393371582 1.1520426273345947266 1.3415082693099975586 1.3505208492279052734 1.4685118198394775391 1.7120647430419921875 1.7394951581954956055 1.9635131359100341797 1.956760406494140625 1.8376719951629638672 1.8271530866622924805 2.2629387378692626953 2.0647575855255126953 2.6806302070617675781 2.6744830608367919922 2.7629513740539550781 3.3074805736541748047 3.4294428825378417969 3.1670053005218505859 2.5139684677124023438 2.1610314846038818359 2.2729153633117675781 1.9774293899536132813 2.2114977836608886719 1.7883956432342529297 1.6220912933349609375 1.6677900552749633789 2.1056075096130371094 1.8692317008972167969 1.7090954780578613281 1.5283961296081542969 1.6823841333389282227 1.3542476892471313477 1.0422086715698242188 1.1019260883331298828 1 1 1.2865890264511108398 1.3381829261779785156 1.0726969242095947266 1.6360611915588378906 1.6360611915588378906 1.4153246879577636719 1.6264138221740722656 1.764801025390625 1.6264138221740722656 1.6264138221740722656 2.6419634819030761719 1.7586873769760131836 2.4766926765441894531 1.6960996389389038086 2.6419634819030761719 1.7788313627243041992 1.7074462175369262695 1.7872604131698608398 1.9273805618286132813 2.1317989826202392578 2.6419634819030761719 1.7788313627243041992 1.7788313627243041992 1.7644934654235839844 1.9684967994689941406 1.7648627758026123047 2.0833075046539306641 2.1796619892120361328 2.0691633224487304688 2.3734531402587890625 2.181156158447265625 3.2965180873870849609 2.2034912109375 2.2718164920806884766 1.9273805618286132813 1.9273805618286132813 1.8852903842926025391 2.3727004528045654297 2.1057736873626708984 2.4215230941772460938 2.2810101509094238281 1.8310029506683349609 1.3151478767395019531 1.2610079050064086914 1.2736808061599731445 1.2099001407623291016 1.1527717113494873047 1.1554294824600219727 1 1 1.0791076421737670898 1.093912959098815918 1.4032475948333740234 1.3930289745330810547 1.8213123083114624023 1.7764593362808227539 1.6850614547729492188 1.5993165969848632813 1.7040086984634399414 8.58115386962890625 1.6828620433807373047 1.952465057373046875 1.9780348539352416992 2.3013215065002441406 2.6426606178283691406 2.1940281391143798828 1.9046378135681152344 1.762770533561706543 7.8850712776184082031 7.7565183639526367188 1.0137455463409423828 7.5779600143432617188 8.3166036605834960938 1.4815453290939331055 1.5064799785614013672 
1.2791357040405273438 1.2494581937789916992 1 1.427621006965637207 1.0199489593505859375 1.0051684379577636719 1 1 1.3031401634216308594 1.238686680793762207 1.1896814107894897461 1.0342721939086914063 1 1 1.0649803876876831055 1.2077505588531494141 1.2077505588531494141 1 1 1 1 1.0649803876876831055 1.0282042026519775391 1.2651555538177490234 1.3793604373931884766 1.7805234193801879883 1.7153322696685791016 1.8351531028747558594 1.6413210630416870117 1.836581110954284668 1.8321754932403564453 1.7972424030303955078 1.6255791187286376953 1.8341325521469116211 1.8755087852478027344 2.1016304492950439453 1.970013737678527832 2.4664909839630126953 2.2040638923645019531 2.5177550315856933594 2.6672048568725585938 2.2680382728576660156 2.5303430557250976563 2.3747327327728271484 2.2536549568176269531 2.0440399646759033203 2.0594954490661621094 2.1075043678283691406 2.1530573368072509766 1.7788313627243041992 1.8459475040435791016 2.4484221935272216797 1.9760465621948242188 2.0226697921752929688 1.9684834480285644531 2.2415015697479248047 2.3145387172698974609 1.7176073789596557617 1.7262692451477050781 1.6264138221740722656 1.7788313627243041992 1.6264138221740722656 1.4369227886199951172 1.6264138221740722656 1.6360611915588378906 1.4846290349960327148 1.493291020393371582 1.493291020393371582 1.2845070362091064453 1.4342668056488037109 1 1.3505208492279052734 1.2077505588531494141 1.0649803876876831055 1 1.0244803428649902344 1.4601144790649414063 1.6360611915588378906 1.2865890264511108398 1.7162407636642456055 1.4776235818862915039 1.32544708251953125 1.2600460052490234375 1.6360611915588378906 1.493291020393371582 1 1.1105161905288696289 1.0244803428649902344 1.0964026451110839844 1.493291020393371582 1.493291020393371582 1 1.2328613996505737305 1.3498418331146240234 1.4808624982833862305 2.2092983722686767578 2.0354342460632324219 1.6145108938217163086 1.2637152671813964844 2.0887341499328613281 2.7468104362487792969 2.7669253349304199219 2.8064062595367431641 2.6747829914093017578 3.0156793594360351563 3.6575958728790283203 3.1007537841796875 2.7500901222229003906 2.5300035476684570313 2.3979318141937255859 2.7326898574829101563 3.2862234115600585938 2.177734375 2.5861296653747558594 2.2963261604309082031 1.8342792987823486328 1.5222045183181762695 1.6795607805252075195 1.5634553432464599609 1.9171336889266967773 1.2077505588531494141 1.4362672567367553711 1.0407353639602661133 1 1.2683889865875244141 1.2913477420806884766 1.32544708251953125 1.6360611915588378906 1.7788313627243041992 1.6264138221740722656 1.470072627067565918 1.4083597660064697266 1.6425864696502685547 1.6781011819839477539 1.9273805618286132813 2.2305238246917724609 1.9273805618286132813 1.9273805618286132813 2.8220388889312744141 1.7788313627243041992 1.8802344799041748047 1.6264138221740722656 2.5290341377258300781 2.6419634819030761719 1.9273805618286132813 1.9697748422622680664 2.9745817184448242188 2.0773510932922363281 1.7872604131698608398 1.9273805618286132813 2.8621454238891601563 1.9372781515121459961 1.9273805618286132813 2.131008148193359375 2.1940310001373291016 2.4403247833251953125 2.6820814609527587891 2.6820814609527587891 3.6493880748748779297 1.8502165079116821289 1.7788313627243041992 2.2423391342163085938 2.3645174503326416016 1.9095760583877563477 2.3274078369140625 2.3246984481811523438 2.1297776699066162109 1.6621528863906860352 1.6750156879425048828 1.4241183996200561523 1 1.3275339603424072266 1.0639516115188598633 1 1.2802715301513671875 1.0649803876876831055 1.2028315067291259766 1.5428326129913330078 1.5114284753799438477 1.9038860797882080078 1.9803173542022705078 1.8818448781967163086 1.8873286247253417969 2.2764298915863037109 1.5070133209228515625 1.6012139320373535156 1.8608357906341552734 1.4953860044479370117 1.8483263254165649414 1.5927231311798095703 1.3879913091659545898 1.8036017417907714844 2.2064425945281982422 1.487980961799621582 1.1268682479858398438 1.167611241340637207 7.8486256599426269531 7.9451093673706054688 8.274444580078125 8.742992401123046875 
1 1 1 1 1.1791778802871704102 1.0649803876876831055 1 1.0930372476577758789 1.0890338420867919922 1.2523423433303833008 1 1.3505208492279052734 1 1.0649803876876831055 1.2077505588531494141 1.3505208492279052734 1 1 1.2077505588531494141 1.3505208492279052734 1 1.2077505588531494141 1 1.07056427001953125 8.0199642181396484375 2.2683291435241699219 8.3746175765991210938 1.7364572286605834961 1.4771381616592407227 1.6582146883010864258 1.8399193286895751953 1.5987453460693359375 1.6444803476333618164 1.6016967296600341797 1.9687458276748657227 1.9014884233474731445 2.2541203498840332031 2.0948009490966796875 2.1416327953338623047 2.3425493240356445313 2.3076462745666503906 2.5380535125732421875 2.1737258434295654297 2.2597708702087402344 2.3128046989440917969 2.1557896137237548828 2.5444200038909912109 2.0313613414764404297 2.1794152259826660156 1.7788313627243041992 2.1007859706878662109 2.2827000617980957031 1.7240461111068725586 1.9426268339157104492 2.0819401741027832031 1.6360611915588378906 1.8269411325454711914 1.8115783929824829102 1.7788313627243041992 1.5772633552551269531 1.8045821189880371094 1.7525779008865356445 1.7788313627243041992 1.7074462175369262695 1.5092645883560180664 1.6360611915588378906 1.5034428834915161133 1.6360611915588378906 1.2882610559463500977 1.3505208492279052734 1 1.2077505588531494141 1.0649803876876831055 1.0649803876876831055 1.0649803876876831055 1.2077505588531494141 1.1588419675827026367 1.493291020393371582 1.493291020393371582 1.493291020393371582 1.493291020393371582 1.493291020393371582 1.7891725301742553711 1.32544708251953125 1 1 1.493291020393371582 1.493291020393371582 1.4219058752059936523 1 1.2077505588531494141 1.4367388486862182617 1.4198240041732788086 1.3603850603103637695 1.8421181440353393555 1.9461990594863891602 1.855176091194152832 1.8680462837219238281 1.6315178871154785156 1.6929093599319458008 2.5046124458312988281 2.5205624103546142578 2.9214560985565185547 3.0005838871002197266 3.1790425777435302734 3.1408002376556396484 3.0109353065490722656 3.5374281406402587891 3.4441773891448974609 2.768035888671875 2.7953741550445556641 2.3718106746673583984 2.4842946529388427734 2.2138881683349609375 2.3938479423522949219 2.0096225738525390625 1.7831760644912719727 1.6445631980895996094 1.7424218654632568359 1.8139755725860595703 2.0249209403991699219 1.9236162900924682617 1.5328997373580932617 1.2319436073303222656 1.6873794794082641602 1.493291020393371582 1.493291020393371582 1.6360611915588378906 1.905163884162902832 1.7788313627243041992 1.6360611915588378906 1.6425864696502685547 1.7788313627243041992 1.9273805618286132813 1.9273805618286132813 2.2129473686218261719 1.9273805618286132813 1.9273805618286132813 1.9684967994689941406 1.4776235818862915039 1.6360611915588378906 1.5646760463714599609 1.6360611915588378906 1.7872604131698608398 1.9336783885955810547 2.2129473686218261719 1.6264138221740722656 2.5290341377258300781 1.7788313627243041992 1.8502165079116821289 1.9273805618286132813 3.044651031494140625 3.2257735729217529297 2.0802264213562011719 2.5669293403625488281 2.9807009696960449219 3.4669039249420166016 3.4669039249420166016 2.1127703189849853516 1.9418845176696777344 1.8992528915405273438 1.8516160249710083008 1.9684967994689941406 1.7179049253463745117 1.8007584810256958008 1.5723798274993896484 1.9427025318145751953 1.4673628807067871094 1.2256208658218383789 1.0087933540344238281 1.493291020393371582 1.1224939823150634766 1.4367988109588623047 1.0629254579544067383 1 1 1.0517368316650390625 1.7021682262420654297 8.2625360488891601563 2.0697751045227050781 2.19481658935546875 2.5130238533020019531 2.3318600654602050781 1.9912165403366088867 1.6654075384140014648 1.6458114385604858398 1.6099616289138793945 1.9314749240875244141 2.1397626399993896484 1.7134872674942016602 1.6644707918167114258 1.7374414205551147461 1.3965306282043457031 8.3072967529296875 8.0342464447021484375 1.0279227495193481445 1.1217722892761230469 7.9860982894897460938 8.191211700439453125 8.019245147705078125 
1.493291020393371582 1.3505208492279052734 1 1.2077505588531494141 1 1 1 1.3077245950698852539 1 1.3906533718109130859 1.2077505588531494141 1.3505208492279052734 1.0178530216217041016 1 1.2077505588531494141 1 1.0244803428649902344 1.3505208492279052734 1.0660130977630615234 1 1.0138545036315917969 1.2791357040405273438 1.006148219108581543 1.2609118223190307617 1.2298634052276611328 1.6064455509185791016 1.6378061771392822266 1.8092286586761474609 1.9019134044647216797 1.9558233022689819336 1.6162570714950561523 1.7335897684097290039 1.4695737361907958984 1.4201852083206176758 1.5322575569152832031 1.8628045320510864258 2.0816743373870849609 2.1402249336242675781 1.8240965604782104492 2.0613744258880615234 2.1467144489288330078 2.1971859931945800781 2.3885068893432617188 2.3796536922454833984 2.4679369926452636719 2.3861691951751708984 2.1738519668579101563 1.9244254827499389648 2.1099588871002197266 2.0367567539215087891 2.4309601783752441406 2.0773777961730957031 1.9211733341217041016 1.6740731000900268555 1.6360611915588378906 1.6360611915588378906 1.7162407636642456055 1.6360611915588378906 1.2865890264511108398 1.493291020393371582 1.4248205423355102539 1.3381829261779785156 1.7788313627243041992 1.7788313627243041992 1.4988038539886474609 1.5718882083892822266 1.8979294300079345703 1.6480635404586791992 1.7111694812774658203 1.0244803428649902344 1.3505208492279052734 1 1.1919273138046264648 1 1.0983533859252929688 1 1.3505208492279052734 1 1 1.3505208492279052734 1 1.3505208492279052734 1 1 1.2077505588531494141 1.0743209123611450195 1.3505208492279052734 1 1.2077505588531494141 1.2890217304229736328 1.5044492483139038086 1.4032588005065917969 1.3044830560684204102 2.2361292839050292969 1.6452195644378662109 2.4006500244140625 1.82025909423828125 1.9398896694183349609 1.7997393608093261719 1.9512840509414672852 2.1076238155364990234 2.4364171028137207031 2.4917044639587402344 3.0200836658477783203 3.0029017925262451172 3.7139918804168701172 3.6261212825775146484 3.363620758056640625 2.7898461818695068359 3.3069350719451904297 2.8736245632171630859 2.634517669677734375 2.2618379592895507813 1.9806275367736816406 2.0016272068023681641 2.4983284473419189453 2.09156036376953125 2.2831668853759765625 2.5526890754699707031 2.0272002220153808594 1.8714687824249267578 2.1161429882049560547 1.3505208492279052734 1.7222096920013427734 1.564641118049621582 1.4157937765121459961 1.8578348159790039063 1.0244803428649902344 1.32544708251953125 1.4632703065872192383 1.497805476188659668 1.6360611915588378906 1.4776235818862915039 1.7788313627243041992 1.7586873769760131836 1.9273805618286132813 1.6960996389389038086 1.6264138221740722656 1.6745015382766723633 1.6264138221740722656 1.6360611915588378906 1.493291020393371582 1.6360611915588378906 1.6578775644302368164 1.7586873769760131836 3.2110114097595214844 1.9273805618286132813 1.9273805618286132813 1.6344852447509765625 1.8502165079116821289 1.8951973915100097656 1.9191884994506835938 3.4669039249420166016 2.0204071998596191406 2.3604650497436523438 2.5097603797912597656 3.2429821491241455078 3.2965180873870849609 3.2965180873870849609 2.2718164920806884766 2.0061626434326171875 1.9273805618286132813 1.7766367197036743164 1.7788313627243041992 1.8679560422897338867 1.6360611915588378906 1.6360611915588378906 1.1908686161041259766 1.3505208492279052734 1.493291020393371582 1.493291020393371582 1.2306346893310546875 1.3971780538558959961 1.2812330722808837891 1.3497061729431152344 1.1083111763000488281 1.3589212894439697266 1.7210247516632080078 2.2546706199645996094 1.9591214656829833984 2.1706058979034423828 2.2960426807403564453 2.1793782711029052734 2.1095116138458251953 1.8586013317108154297 1.5606606006622314453 1.5120813846588134766 1.6525862216949462891 1.8121405839920043945 2.0116009712219238281 1.5576786994934082031 1.7105211019515991211 1.6347216367721557617 1.3612430095672607422 7.9830107688903808594 1.1034771203994750977 8.0002584457397460938 8.5941028594970703125 1.1795252561569213867 7.6346478462219238281 
1.0244803428649902344 1.493291020393371582 1.0507434606552124023 1.3505208492279052734 1.1637034416198730469 1 1 1.0158045291900634766 1 1 1.493291020393371582 1.0733551979064941406 1.422367095947265625 1.3505208492279052734 1.1900974512100219727 1.2077505588531494141 1.0723766088485717773 1.493291020393371582 1.2077505588531494141 1.1630138158798217773 1.1412221193313598633 1.1821734905242919922 1.1846225261688232422 1 1.081145167350769043 1.3359037637710571289 1.836668848991394043 2.0974736213684082031 1.8686887025833129883 1.4112703800201416016 1.3069195747375488281 1.4932383298873901367 1.4465731382369995117 1.5664380788803100586 1.6645828485488891602 1.853983759880065918 2.0137674808502197266 2.0909817218780517578 2.150058746337890625 2.0285277366638183594 1.8511487245559692383 1.7624077796936035156 2.2620973587036132813 2.5563378334045410156 2.1581418514251708984 2.3137507438659667969 2.0804255008697509766 2.0097637176513671875 1.893633723258972168 1.9103868007659912109 2.299518585205078125 2.1514995098114013672 2.0353267192840576172 1.668476104736328125 1.7444365024566650391 1.493291020393371582 1.6360611915588378906 1.4933369159698486328 1 1.0244803428649902344 1.4219058752059936523 1.3622634410858154297 1.4707392454147338867 1.6360611915588378906 1.6360611915588378906 1.4083597660064697266 1.4998906850814819336 1.7112486362457275391 1.3505208492279052734 1.1033263206481933594 1.3505208492279052734 1.2077505588531494141 1.0670932531356811523 1.0649803876876831055 1.1259529590606689453 1.3505208492279052734 1 1.2077505588531494141 1.0649803876876831055 1 1.2156242132186889648 1 1.2647897005081176758 1 1.0042731761932373047 1.069914698600769043 1.2017587423324584961 1.0800806283950805664 1.1137651205062866211 1.4340616464614868164 1.5580849647521972656 1.3747154474258422852 1.5670256614685058594 1.7748126983642578125 1.9408949613571166992 2.1777141094207763672 1.8894243240356445313 2.3750903606414794922 2.0225913524627685547 2.7141451835632324219 2.6853437423706054688 2.9388511180877685547 3.041996002197265625 3.4594385623931884766 3.6197748184204101563 3.6665761470794677734 3.2339050769805908203 3.12447357177734375 3.2379536628723144531 3.1795871257781982422 3.2982697486877441406 3.4107174873352050781 2.3386604785919189453 2.7223575115203857422 2.4908230304718017578 2.6105086803436279297 2.1342170238494873047 1.8906543254852294922 2.1787803173065185547 2.3201122283935546875 2.0833530426025390625 1.9537383317947387695 1.5378460884094238281 1.2586632966995239258 1.8538812398910522461 1.4924943447113037109 1.493291020393371582 1.2134239673614501953 1.5646760463714599609 1.32544708251953125 1.2865890264511108398 1.5161949396133422852 1.6360611915588378906 1.7074462175369262695 1.9273805618286132813 1.8951973915100097656 1.7788313627243041992 1.665675044059753418 1.7586873769760131836 2.6419634819030761719 1.6264138221740722656 1.6360611915588378906 1.6360611915588378906 1.5171915292739868164 1.6264138221740722656 1.9273805618286132813 2.2140893936157226563 2.6419634819030761719 3.2747108936309814453 1.9273805618286132813 1.9273805618286132813 2.2129473686218261719 3.2965180873870849609 4.26065826416015625 2.8220388889312744141 2.3299307823181152344 4.5609211921691894531 3.2965180873870849609 3.6815922260284423828 3.4669039249420166016 1.9273805618286132813 2.4411988258361816406 1.9273805618286132813 1.7788313627243041992 1.6360611915588378906 1.6425864696502685547 1.3327308893203735352 1.3330631256103515625 1.1749637126922607422 1.6360611915588378906 1.4437814950942993164 1.6796501874923706055 1.670176386833190918 1.7159619331359863281 1.4986912012100219727 2.0539534091949462891 1.9327428340911865234 2.0954308509826660156 1.3523318767547607422 1.6527166366577148438 1.7121534347534179688 1.9131773710250854492 1.5702129602432250977 1.8142454624176025391 1.8034651279449462891 1.4613139629364013672 1.3883463144302368164 2.3662633895874023438 1.6300941705703735352 1.9520978927612304688 1.5117020606994628906 1.8717671632766723633 1.5602113008499145508 1.3102657794952392578 1.4566545486450195313 1.231667637825012207 1.4308607578277587891 1.2375470399856567383 7.9715809822082519531 1.1359637975692749023 
1.0730701684951782227 1.1799793243408203125 1.6360611915588378906 1.493291020393371582 1 1.2077505588531494141 1.0047880411148071289 1.0649803876876831055 1 1.0244803428649902344 1.1257841587066650391 1.1891584396362304688 1 1.1231938600540161133 1.0217915773391723633 1.0649803876876831055 1.0994503498077392578 1.2077505588531494141 1 1.1679327487945556641 1.2077505588531494141 1.0700953006744384766 1 7.9733567237854003906 1.124373316764831543 1.0972865819931030273 1.5422517061233520508 1.903715968132019043 1.645758509635925293 1.0926719903945922852 1.1979812383651733398 1.3140318393707275391 1.1819093227386474609 1.2653210163116455078 1.5413483381271362305 1.9198457002639770508 1.8733361959457397461 1.7503923177719116211 2.2232127189636230469 2.3151447772979736328 1.9266005754470825195 1.9313406944274902344 2.1053829193115234375 2.4336729049682617188 2.3924777507781982422 1.493291020393371582 2.1289165019989013672 1.7340296506881713867 2.2228703498840332031 2.3955290317535400391 2.2287464141845703125 2.2206563949584960938 2.3424057960510253906 1.919546961784362793 1.6649504899978637695 1.493291020393371582 1.32544708251953125 1.0244803428649902344 1 1.493291020393371582 1.3505208492279052734 1.493291020393371582 1.4651062488555908203 1.493291020393371582 1.5072247982025146484 1.4632703065872192383 1.493291020393371582 1.094226837158203125 1.2133108377456665039 1.3519275188446044922 1.493291020393371582 1.0732785463333129883 1.2791357040405273438 1 1.0244803428649902344 1.3505208492279052734 1 1 1 1 1 1 1.0649803876876831055 1 1.0686011314392089844 1 1.262615203857421875 1.2581701278686523438 1.1370229721069335938 1.1667263507843017578 1.5279752016067504883 1.3980852365493774414 1.277973175048828125 1.7529811859130859375 2.2177133560180664063 2.5663692951202392578 2.3645436763763427734 2.6871089935302734375 2.0899825096130371094 2.6231086254119873047 2.7441699504852294922 3.0014910697937011719 3.0414500236511230469 3.1508271694183349609 2.9521203041076660156 3.1511785984039306641 2.8516068458557128906 3.3102893829345703125 2.7908768653869628906 3.1089999675750732422 3.3266689777374267578 3.08072662353515625 3.1163496971130371094 2.8694469928741455078 2.6374251842498779297 2.5285840034484863281 2.0013644695281982422 2.2733469009399414063 2.0406286716461181641 2.0898296833038330078 2.3677549362182617188 2.0635759830474853516 1.7651300430297851563 1.5912429094314575195 1.7774908542633056641 1.7418494224548339844 1.19153594970703125 1.0289566516876220703 1.2646982669830322266 1.6360611915588378906 1.7074462175369262695 1.3374320268630981445 1.6360611915588378906 1.4369227886199951172 1.7788313627243041992 2.2985715866088867188 1.6360611915588378906 1.9684967994689941406 1.7788313627243041992 1.7122943401336669922 1.6360611915588378906 1.6360611915588378906 1.6360611915588378906 1.4956450462341308594 1.7788313627243041992 1.7788313627243041992 1.7788313627243041992 1.7788313627243041992 2.6419634819030761719 1.9273805618286132813 1.9273805618286132813 1.8502165079116821289 2.986942291259765625 2.2786147594451904297 2.6414442062377929688 2.8220388889312744141 3.6815922260284423828 4.1048259735107421875 3.6493880748748779297 1.9273805618286132813 2.3337912559509277344 1.9697748422622680664 1.9541800022125244141 1.7788313627243041992 1.6360611915588378906 1.6500800848007202148 1.4256650209426879883 1.2244586944580078125 1.6360611915588378906 1.4437885284423828125 1.6360611915588378906 1.8880944252014160156 1.7399972677230834961 1.8807160854339599609 2.1628491878509521484 1.9405848979949951172 1.5234930515289306641 1.9045701026916503906 1.7024254798889160156 1.8806074857711791992 2.2463762760162353516 1.9390437602996826172 1.2819536924362182617 1.7335402965545654297 1.7755551338195800781 1.5878283977508544922 1.8835690021514892578 1.7743604183197021484 1.9615584611892700195 1.7653827667236328125 1.8208101987838745117 1.5689619779586791992 1.3286461830139160156 1.6963994503021240234 1.3473452329635620117 1.262500762939453125 1.1517584323883056641 1 1.0209226608276367188 1.140957951545715332 
1.6360611915588378906 1.6360611915588378906 1.1304154396057128906 1.2376512289047241211 1.1267098188400268555 1.0881124734878540039 1 1.3505208492279052734 1.0666601657867431641 1.493291020393371582 1 1 1 1.3505208492279052734 1 1.1328791379928588867 1.1363655328750610352 1.2077505588531494141 1.2024158239364624023 1.1636787652969360352 1.2791357040405273438 1.1840928792953491211 1.3191654682159423828 1.2011276483535766602 7.7022528648376464844 1.4394296407699584961 1.3191745281219482422 1.4826601743698120117 1.6226942539215087891 1.4843865633010864258 1.6480007171630859375 1.2150521278381347656 1.0676934719085693359 1.6209194660186767578 2.1207752227783203125 1.9618419408798217773 1.6541789770126342773 1.6823774576187133789 2.1087133884429931641 1.977217555046081543 2.0160098075866699219 2.1456964015960693359 2.5759339332580566406 2.0941126346588134766 2.4672131538391113281 2.0622789859771728516 2.0428888797760009766 1.8795777559280395508 2.1043715476989746094 2.4600305557250976563 2.4436278343200683594 2.5410139560699462891 2.0678195953369140625 2.2362608909606933594 1.6890249252319335938 1.4439816474914550781 1 1.32544708251953125 1.2865890264511108398 1.493291020393371582 1.0244803428649902344 1.493291020393371582 1.3174664974212646484 1.493291020393371582 1.6015599966049194336 1.32544708251953125 1.493291020393371582 1.6360611915588378906 1.6360611915588378906 1.2602086067199707031 1.493291020393371582 1.4632703065872192383 1 1.3505208492279052734 1 1.2077505588531494141 1.3505208492279052734 1 1 7.5960068702697753906 1 1 1.2499299049377441406 1 1.2671021223068237305 1 1.0376797914505004883 1.5642709732055664063 1 1.1794890165328979492 1.3366676568984985352 1.4902051687240600586 1.6086944341659545898 1.9403346776962280273 1.8607189655303955078 2.1085245609283447266 2.1273150444030761719 2.2229623794555664063 2.2767956256866455078 2.6657776832580566406 2.49831390380859375 3.6117229461669921875 3.4937725067138671875 3.3358786106109619141 3.3653638362884521484 3.1093397140502929688 3.3268549442291259766 3.3143484592437744141 3.0650069713592529297 2.9274933338165283203 3.0985777378082275391 3.0048463344573974609 3.4618506431579589844 2.7452905178070068359 3.4116232395172119141 2.1898136138916015625 2.0241301059722900391 2.229373931884765625 2.5312430858612060547 1.924111485481262207 2.1837294101715087891 2.2003278732299804688 2.0888123512268066406 1.6950565576553344727 2.3141398429870605469 1.7810083627700805664 1.8872071504592895508 1.659460902214050293 1.6277678012847900391 1.6797789335250854492 1.4300878047943115234 1.4785366058349609375 2.1057736873626708984 1.7788313627243041992 1.7586873769760131836 2.6419634819030761719 1.7788313627243041992 1.7788313627243041992 1.6264138221740722656 1.4306157827377319336 1.6360611915588378906 1.43145751953125 1.6360611915588378906 1.7525779008865356445 1.6264138221740722656 1.7788313627243041992 1.7788313627243041992 1.6264138221740722656 1.7202570438385009766 1.6734724044799804688 2.8938577175140380859 1.9273805618286132813 1.9273805618286132813 1.9273805618286132813 1.8502165079116821289 2.8220388889312744141 5.0473923683166503906 3.6815922260284423828 3.9891257286071777344 2.2129473686218261719 2.6414442062377929688 1.9273805618286132813 1.9273805618286132813 1.7586873769760131836 1.4927495718002319336 1.6360611915588378906 1.6360611915588378906 1.4551444053649902344 1.7074462175369262695 1.4552395343780517578 1.9203549623489379883 2.1855542659759521484 1.595245361328125 2.0103161334991455078 2.1144018173217773438 1.9069235324859619141 2.5326907634735107422 1.9089684486389160156 1.9472020864486694336 2.0181419849395751953 1.9629255533218383789 1.7549915313720703125 2.0902256965637207031 1.4188426733016967773 1.4617379903793334961 1.5453848838806152344 1.6520735025405883789 2.3258335590362548828 1.8614379167556762695 1.8272582292556762695 1.647248387336730957 1.3499776124954223633 1.2537857294082641602 1.2037217617034912109 1.1552039384841918945 1 1.1855233907699584961 1 1.2688597440719604492 1.2614597082138061523 
1.6360611915588378906 1.0244803428649902344 1.3505208492279052734 1.493291020393371582 1.169617772102355957 1.2075241804122924805 1.3505208492279052734 1.3505208492279052734 1.0844943523406982422 1.3505208492279052734 1.2077505588531494141 1.1684710979461669922 1.5331952571868896484 1 1.397003173828125 1 1 1 1.2077505588531494141 1.0365650653839111328 1.1867274045944213867 1.1363655328750610352 1.1902077198028564453 1.0556699037551879883 1 7.8703904151916503906 1.4773026704788208008 1.4764345884323120117 1.2347178459167480469 1.4257581233978271484 1.8179939985275268555 1.4029803276062011719 1.4614551067352294922 1.6071158647537231445 1.4823853969573974609 1.5032793283462524414 1.6111100912094116211 1.7964040040969848633 1.9464323520660400391 2.3884062767028808594 1.9694044589996337891 1.7877650260925292969 2.3309414386749267578 1.9275305271148681641 1.6499481201171875 2.2070257663726806641 2.0244286060333251953 2.1418604850769042969 2.1457183361053466797 2.3696463108062744141 2.5820713043212890625 2.9594085216522216797 2.2277212142944335938 2.3022747039794921875 1.6638245582580566406 1.493291020393371582 1.4810554981231689453 1.6602389812469482422 1.0439506769180297852 1.0244803428649902344 1.493291020393371582 1.1410366296768188477 1.3505305051803588867 1.6360611915588378906 1.6360611915588378906 1.6360611915588378906 1.6360611915588378906 1.6360611915588378906 1.3580299615859985352 1.6360611915588378906 1 1 1.3847855329513549805 1.0958597660064697266 1 1.3505208492279052734 1.1409213542938232422 1 1 1.2764592170715332031 7.6514887809753417969 7.6087565422058105469 7.5698952674865722656 7.5819139480590820313 1.3522822856903076172 1.2050110101699829102 1.0787116289138793945 1.4273256063461303711 1.1994740962982177734 1.2495898008346557617 1.1384756565093994141 1.3450046777725219727 1.5301660299301147461 1.5913870334625244141 1.4780708551406860352 1.955164790153503418 2.1805324554443359375 2.2714061737060546875 2.2918872833251953125 2.3701016902923583984 2.3897557258605957031 2.7938365936279296875 3.1715364456176757813 2.744602203369140625 2.9734592437744140625 2.8237221240997314453 2.6389391422271728516 3.1781160831451416016 2.8135354518890380859 2.9169301986694335938 9.5191392898559570313 2.9688737392425537109 2.6015636920928955078 2.4554696083068847656 2.6553084850311279297 2.4273474216461181641 2.2612097263336181641 2.4149940013885498047 2.2934472560882568359 2.7890400886535644531 2.3061821460723876953 1.9933890104293823242 1.9418582916259765625 1.9112920761108398438 2.0659055709838867188 2.0083239078521728516 2.0417020320892333984 1.931359410285949707 1.9833188056945800781 2.0188052654266357422 1.8578104972839355469 1.6360611915588378906 1.7802038192749023438 1.7172353267669677734 1.6360611915588378906 1.6264138221740722656 1.7788313627243041992 1.4369227886199951172 1.8564363718032836914 1.700638890266418457 1.6360611915588378906 1.4239546060562133789 1.5886877775192260742 1.6360611915588378906 2.2140893936157226563 2.6419634819030761719 1.6264138221740722656 1.6264138221740722656 1.7788313627243041992 1.6264138221740722656 2.6419634819030761719 3.2110114097595214844 2.8938577175140380859 1.9273805618286132813 1.7872604131698608398 1.9273805618286132813 4.5609211921691894531 3.2965180873870849609 4.62298583984375 1.9849596023559570313 1.9273805618286132813 1.6500800848007202148 1.7122943401336669922 1.7788313627243041992 1.7788313627243041992 1.6360611915588378906 1.7162407636642456055 1.470072627067565918 1.6360611915588378906 1.493291020393371582 1.4524234533309936523 1.7788313627243041992 1.6533888578414916992 2.3219614028930664063 1.9345520734786987305 2.1910903453826904297 1.9829690456390380859 2.2057094573974609375 2.1732301712036132813 2.1951036453247070313 2.0525603294372558594 2.2366635799407958984 2.5262577533721923828 1.7321921586990356445 1.4097948074340820313 1.9882272481918334961 1.8492162227630615234 2.3993046283721923828 2.2165770530700683594 2.015781402587890625 2.1943407058715820313 1.5977067947387695313 1.3573192358016967773 1.4338359832763671875 1.1220760345458984375 1.2630014419555664063 1 1 1 1.0493755340576171875 
1.493291020393371582 1.0982221364974975586 1 1 1.1583210229873657227 1.2791357040405273438 1.1028635501861572266 1.2077505588531494141 1.2077505588531494141 1.3511499166488647461 1.2193428277969360352 1 1.2443252801895141602 1.0776618719100952148 1.1925325393676757813 1 1.2701638936996459961 1.2077505588531494141 1.217464447021484375 1.2368447780609130859 1.0649803876876831055 1 1.023985743522644043 1.0023930072784423828 1 1.2541271448135375977 1.2536776065826416016 1.1146138906478881836 1.3538341522216796875 1.2304143905639648438 1.1932755708694458008 1.1439565420150756836 1.6640946865081787109 1.2554243803024291992 1.2921582460403442383 1.547713160514831543 1.7954655885696411133 1.8720136880874633789 2.0513896942138671875 2.0121538639068603516 1.9092304706573486328 2.377475738525390625 2.2107651233673095703 1.7308367490768432617 1.8242667913436889648 2.1730625629425048828 2.2896196842193603516 1.9982743263244628906 2.4569275379180908203 2.8735609054565429688 2.7740359306335449219 2.8486506938934326172 2.2694611549377441406 2.1790707111358642578 1.9586994647979736328 1.493291020393371582 1.422367095947265625 1.1129516363143920898 1.493291020393371582 1.2446137666702270508 1.6360611915588378906 1.6360611915588378906 1.3927649259567260742 1.6572318077087402344 1.7788313627243041992 1.7788313627243041992 1.6360611915588378906 1.6264138221740722656 1.32544708251953125 1.033130645751953125 1.0460640192031860352 1.1498054265975952148 1.3505208492279052734 1.0340830087661743164 1 1.1363655328750610352 1.0692561864852905273 1.0048028230667114258 1.2873293161392211914 1.0995323657989501953 7.7215976715087890625 1 1.0856325626373291016 8.0156335830688476563 1.1997880935668945313 1 1.2261948585510253906 1.1820654869079589844 8.014190673828125 1.1538105010986328125 8.081615447998046875 1.6791853904724121094 1.6050629615783691406 1.8127824068069458008 1.5815128087997436523 1.8318639993667602539 2.5373976230621337891 2.4353761672973632813 2.2761769294738769531 2.2027103900909423828 2.5387635231018066406 2.7140750885009765625 3.0376031398773193359 2.6359384059906005859 2.9226143360137939453 2.6911838054656982422 2.5976586341857910156 2.4571363925933837891 2.6939995288848876953 2.1044824123382568359 2.5216228961944580078 9.722137451171875 2.2338292598724365234 2.5142648220062255859 2.1605083942413330078 2.3449816703796386719 2.1576249599456787109 2.4796137809753417969 3.2875738143920898438 2.2920846939086914063 8.6607608795166015625 2.0595066547393798828 2.4361941814422607422 1.9020144939422607422 2.1657025814056396484 1.9784498214721679688 2.5355520248413085938 2.2115187644958496094 1.6261734962463378906 1.8457387685775756836 1.972962498664855957 2.0271444320678710938 1.944133758544921875 2.0211074352264404297 2.0540416240692138672 2.0612242221832275391 1.6015472412109375 1.4785366058349609375 1.3502149581909179688 1.2996736764907836914 1.3849674463272094727 1.6360611915588378906 1.493291020393371582 1.4042795896530151367 1.8040344715118408203 3.2110114097595214844 1.6360611915588378906 1.7788313627243041992 1.6264138221740722656 1.6264138221740722656 1.9273805618286132813 1.7788313627243041992 2.0773510932922363281 1.6264138221740722656 1.7788313627243041992 1.9273805618286132813 2.6414442062377929688 4.26065826416015625 3.6564357280731201172 1.9273805618286132813 1.9273805618286132813 1.6264138221740722656 1.6264138221740722656 1.6572318077087402344 1.4941315650939941406 1.4632703065872192383 1.6360611915588378906 1.6360611915588378906 1.32544708251953125 1.4776235818862915039 1.7872604131698608398 1.353777766227722168 2.0593059062957763672 2.0586175918579101563 2.0097897052764892578 2.6490385532379150391 2.0549290180206298828 2.8040654659271240234 2.9448823928833007813 2.6304082870483398438 2.4384415149688720703 2.6711986064910888672 2.1467940807342529297 1.89962005615234375 1.6233597993850708008 1.890758514404296875 1.7377997636795043945 2.0195794105529785156 2.3268649578094482422 2.6087312698364257813 2.1206698417663574219 1.5339053869247436523 1.2077505588531494141 1 1.2297246456146240234 1.2990298271179199219 1 1.4458301067352294922 1.0649803876876831055 1.0649803876876831055 
1.0194088220596313477 1.3505208492279052734 1.2959347963333129883 1.3505208492279052734 1.0244803428649902344 1 1 1.2077505588531494141 1 1.0854265689849853516 1 1 1 1 1.0156990289688110352 1 1.0649803876876831055 1 1.0913406610488891602 1.0254615545272827148 1.1250934600830078125 1.2233921289443969727 1.2939635515213012695 1.2791357040405273438 1.0649803876876831055 1.0994893312454223633 1.1162371635437011719 1.366223454475402832 1.5357772111892700195 1.5561369657516479492 1.2178852558135986328 1 1.0932841300964355469 1.3498615026473999023 1.3856084346771240234 1.6298990249633789063 1.4776071310043334961 2.1459250450134277344 2.0104191303253173828 2.2123458385467529297 2.3105342388153076172 2.4167182445526123047 2.2054288387298583984 2.2816846370697021484 1.9909453392028808594 1.9743704795837402344 2.36035919189453125 2.1222026348114013672 2.7102155685424804688 2.8286767005920410156 2.7075638771057128906 2.5778059959411621094 2.6373903751373291016 2.3620281219482421875 2.3394613265991210938 1.9223111867904663086 1.6360611915588378906 1.2474378347396850586 1.5646760463714599609 1.32544708251953125 1.6360611915588378906 1.7074462175369262695 1.7788313627243041992 1.6360611915588378906 1.7788313627243041992 1.7074462175369262695 1.3505305051803588867 1.6360611915588378906 1.6360611915588378906 1.2069447040557861328 1.4219058752059936523 1.1013642549514770508 1.3505208492279052734 1.3505208492279052734 1.2791357040405273438 1.1168177127838134766 1.0649803876876831055 1 1.5048238039016723633 1.0519800186157226563 1.3629107475280761719 1.468382716178894043 7.5977663993835449219 1 1 7.7315883636474609375 7.8086938858032226563 1.0908912420272827148 1.6807397603988647461 7.9075927734375 7.6956224441528320313 7.8754153251647949219 1.4685966968536376953 1.380894780158996582 1.7486505508422851563 2.0188436508178710938 2.1859529018402099609 2.4837827682495117188 2.2443435192108154297 2.2442581653594970703 1.8676564693450927734 2.2268772125244140625 2.7068886756896972656 2.5161945819854736328 2.6990337371826171875 2.0712924003601074219 2.0842440128326416016 2.3784086704254150391 2.0027415752410888672 2.1660091876983642578 2.932651519775390625 2.6091413497924804688 2.5209650993347167969 2.0437183380126953125 1.8823742866516113281 2.453525543212890625 2.5990540981292724609 2.933795928955078125 9.2088193893432617188 2.5773792266845703125 2.3563239574432373047 1.8197748661041259766 1.9285017251968383789 2.5342082977294921875 2.2190206050872802734 2.0782907009124755859 2.1568627357482910156 2.0599608421325683594 2.1211271286010742188 1.9887361526489257813 1.8021824359893798828 1.7599520683288574219 2.0716190338134765625 2.1586003303527832031 1.9737298488616943359 2.0562241077423095703 1.8560658693313598633 1.7890795469284057617 1.7761880159378051758 1.8356913328170776367 1.6360611915588378906 1.5678869485855102539 1.3506208658218383789 1.6360611915588378906 1.6266878843307495117 2.6419634819030761719 2.2305238246917724609 1.6360611915588378906 1.7788313627243041992 1.7788313627243041992 1.9121928215026855469 2.6419634819030761719 2.0033643245697021484 2.1104757785797119141 1.6264138221740722656 1.7788313627243041992 1.9372781515121459961 2.8220388889312744141 1.9273805618286132813 1.9273805618286132813 2.1723401546478271484 1.7788313627243041992 1.7788313627243041992 1.6264138221740722656 1.7788313627243041992 1.7074462175369262695 1.5646760463714599609 1.5019289255142211914 1.6287775039672851563 1.6360611915588378906 1.6360611915588378906 1.6360611915588378906 1.5575395822525024414 1.7553638219833374023 2.1079485416412353516 2.2579178810119628906 2.1956827640533447266 2.3601193428039550781 3.2378160953521728516 3.2728705406188964844 2.8459801673889160156 2.7973699569702148438 2.6434500217437744141 2.0289239883422851563 2.2544162273406982422 2.3440537452697753906 1.6478574275970458984 1.5207239389419555664 2.1884889602661132813 1.9510056972503662109 1.8991856575012207031 1.602274775505065918 1.3455202579498291016 1.5072532892227172852 1.0678869485855102539 1.0671571493148803711 1 1.2077505588531494141 1.2077505588531494141 1.0272599458694458008 
1.6360611915588378906 1.6360611915588378906 1.0265593528747558594 1.1200628280639648438 1.4219058752059936523 1.3505208492279052734 1 1.2077505588531494141 1 1.3306074142456054688 1 1.0830129384994506836 1.1838879585266113281 1 1.0295975208282470703 1.1434869766235351563 1 1.0068595409393310547 1.0649803876876831055 1 1 1.1009906530380249023 1.3505208492279052734 1.4927887916564941406 1.2130488157272338867 1.2669827938079833984 1.192011713981628418 1.422888636589050293 1.5876823663711547852 1.3058098554611206055 1.410030364990234375 1.2177816629409790039 1.1854784488677978516 1.041459202766418457 1.5911287069320678711 1.643214106559753418 2.0040898323059082031 1.9377890825271606445 2.2853262424468994141 2.1182444095611572266 2.2042715549468994141 2.6515586376190185547 2.4269239902496337891 2.73451995849609375 2.2522165775299072266 2.396389007568359375 2.5055360794067382813 2.5924451351165771484 2.4589002132415771484 2.6696596145629882813 2.5336446762084960938 2.5369067192077636719 2.5264832973480224609 2.6451382637023925781 2.3157291412353515625 2.2662274837493896484 1.8989000320434570313 1.6360611915588378906 1.951825261116027832 1.493291020393371582 1.4139444828033447266 1.6264138221740722656 1.7788313627243041992 1.7788313627243041992 1.6360611915588378906 1.6360611915588378906 1.7788313627243041992 1.6360611915588378906 1.1813455820083618164 1.2094608545303344727 1.0780924558639526367 1.493291020393371582 1.0730701684951782227 1.3505208492279052734 1.3505208492279052734 1 1 7.8405928611755371094 1.0748608112335205078 1 1.0426300764083862305 1.2302205562591552734 1.3033508062362670898 1.1815273761749267578 1 7.9536213874816894531 7.882671356201171875 1.7576881647109985352 8.012355804443359375 1.3566268682479858398 1.2979036569595336914 7.9582915306091308594 8.4978179931640625 7.765773773193359375 1.3332216739654541016 1.5789735317230224609 1.7307844161987304688 2.1125862598419189453 1.8694952726364135742 1.8504772186279296875 1.6401433944702148438 1.9132519960403442383 2.0875597000122070313 2.1275985240936279297 2.3863050937652587891 1.868625640869140625 1.8356039524078369141 1.6989889144897460938 1.9186263084411621094 2.7588717937469482422 2.5009858608245849609 8.8198595046997070313 2.8937635421752929688 2.1031885147094726563 2.1413617134094238281 2.5555090904235839844 2.5884141921997070313 3.1063396930694580078 2.81844329833984375 2.3449559211730957031 2.1338133811950683594 2.3665251731872558594 2.1612272262573242188 2.3393473625183105469 2.6247093677520751953 2.4612512588500976563 1.9978700876235961914 2.1861863136291503906 2.3439986705780029297 2.1662659645080566406 1.9756323099136352539 2.2166564464569091797 2.3808317184448242188 2.2856516838073730469 2.2245666980743408203 1.9244484901428222656 2.2221930027008056641 1.6360611915588378906 1.652087092399597168 1.6556825637817382813 1.6414674520492553711 1.8244937658309936523 1.493291020393371582 1.493291020393371582 1.6264138221740722656 1.9273805618286132813 1.9444774389266967773 1.6264138221740722656 1.7788313627243041992 1.6360611915588378906 1.6264138221740722656 1.8138262033462524414 1.7788313627243041992 1.7788313627243041992 1.9849596023559570313 2.2129473686218261719 1.9849596023559570313 1.9273805618286132813 2.2319471836090087891 1.9273805618286132813 1.7788313627243041992 1.6264138221740722656 1.6360611915588378906 1.7788313627243041992 1.6264138221740722656 1.6360611915588378906 1.3691771030426025391 1.6425864696502685547 1.6960996389389038086 1.6360611915588378906 1.32544708251953125 1.493291020393371582 1.368517756462097168 1.6663283109664916992 2.1501560211181640625 2.0996286869049072266 2.5880718231201171875 2.4825220108032226563 2.4114928245544433594 2.7174909114837646484 2.9287230968475341797 3.2424778938293457031 2.2093555927276611328 1.9688978195190429688 1.876204371452331543 2.0420546531677246094 1.5409526824951171875 1.6588104963302612305 1.8228925466537475586 1.7926628589630126953 1.6266442537307739258 1.089966893196105957 1.2387099266052246094 1.1473927497863769531 1.0302628278732299805 1.1904500722885131836 1.0072904825210571289 1.0649803876876831055 1.2077505588531494141 1 
1.4776235818862915039 1.1432471275329589844 1.3374320268630981445 1.493291020393371582 1.493291020393371582 1.2791357040405273438 1.073998570442199707 1.2077505588531494141 1 1.1935192346572875977 1.0649803876876831055 1 1 1 1.0506302118301391602 1 1.0555785894393920898 1.2801622152328491211 1.2077505588531494141 1.1513113975524902344 1 1.3505208492279052734 1.3505208492279052734 1.3585867881774902344 1.3505208492279052734 1.6543858051300048828 1.3668028116226196289 1.3505208492279052734 1.3317656517028808594 1.2480810880661010742 1.2402876615524291992 1.5858755111694335938 1.1517466306686401367 1.4748381376266479492 1.5361891984939575195 1.5831488370895385742 1.7787921428680419922 2.1760914325714111328 2.0759580135345458984 2.3806822299957275391 2.3536293506622314453 2.5695600509643554688 2.6728072166442871094 2.964263916015625 2.4484536647796630859 2.5125477313995361328 2.5143067836761474609 2.8207938671112060547 2.7577185630798339844 3.2154271602630615234 3.0235202312469482422 2.8201591968536376953 2.5884246826171875 2.9727129936218261719 2.2746150493621826172 2.4915537834167480469 1.9654277563095092773 1.7422965764999389648 1.8393093347549438477 1.6885164976119995117 1.7788313627243041992 1.7696378231048583984 1.6344852447509765625 1.6293581724166870117 1.7788313627243041992 1.4785366058349609375 1.7788313627243041992 1.32544708251953125 1.6425864696502685547 1.32544708251953125 1.493291020393371582 1.2973170280456542969 1.0244803428649902344 1.4219058752059936523 1.493291020393371582 1.3426406383514404297 1.2077505588531494141 1.1363655328750610352 1.2717719078063964844 1.3575273752212524414 1.0649803876876831055 1.1827341318130493164 1.0722033977508544922 1 1.0783599615097045898 1.0869957208633422852 8.1972589492797851563 8.0327243804931640625 1.3960856199264526367 8.23213958740234375 8.1847782135009765625 8.1313266754150390625 1.2519963979721069336 8.0811405181884765625 1.2387535572052001953 1.5293920040130615234 1.8273543119430541992 1.6366785764694213867 1.6355741024017333984 8.4387292861938476563 1.5406605005264282227 2.1398231983184814453 2.2657353878021240234 2.2344913482666015625 2.0592629909515380859 2.1818921566009521484 1.4721164703369140625 1.6559866666793823242 1.7805755138397216797 1.7528367042541503906 2.2163589000701904297 2.4404664039611816406 2.3073227405548095703 2.1098551750183105469 2.1500744819641113281 2.4800825119018554688 2.39229583740234375 3.046077728271484375 9.6130828857421875 2.5735313892364501953 2.9151537418365478516 2.7805068492889404297 2.8478186130523681641 2.2384977340698242188 2.5128035545349121094 2.0253820419311523438 2.0570948123931884766 2.5429406166076660156 2.5544557571411132813 2.2300467491149902344 2.6419634819030761719 2.7041134834289550781 2.5722165107727050781 2.7421483993530273438 2.6175503730773925781 2.4041893482208251953 1.9806349277496337891 2.1932146549224853516 1.6091972589492797852 1.7739647626876831055 1.8728151321411132813 1.9834897518157958984 1.4354883432388305664 1.6360611915588378906 1.7074462175369262695 1.7788313627243041992 1.9684967994689941406 1.9273805618286132813 1.9273805618286132813 1.6264138221740722656 1.7788313627243041992 1.3693726062774658203 1.6734724044799804688 1.8502165079116821289 2.4766926765441894531 1.9273805618286132813 1.9336783885955810547 3.4669039249420166016 2.2305238246917724609 1.7904338836669921875 1.7788313627243041992 1.7788313627243041992 1.7525779008865356445 1.5954098701477050781 1.6360611915588378906 1.5151550769805908203 1.6360611915588378906 1.6425864696502685547 1.32544708251953125 1.6360611915588378906 1.353777766227722168 1.493291020393371582 1.6457544565200805664 2.0311520099639892578 2.1739838123321533203 1.806674957275390625 2.1627469062805175781 2.2937898635864257813 2.3014812469482421875 2.4267690181732177734 2.1306135654449462891 2.2863268852233886719 1.8879774808883666992 1.6762965917587280273 2.0307471752166748047 1.7130713462829589844 2.1120555400848388672 1.8413585424423217773 1.6939765214920043945 1.8285741806030273438 1.8904608488082885742 1.6151196956634521484 1.1595468521118164063 1.212327122688293457 1.2303704023361206055 1.2515696287155151367 1.1576421260833740234 1.0112816095352172852 1 1.3890466690063476563 
1.32544708251953125 1.32544708251953125 1.4219058752059936523 1 1.2264153957366943359 1.0002244710922241211 1.293135523796081543 1.0649803876876831055 1.1086884737014770508 1.1334031820297241211 1 1.0267000198364257813 1 1.0787500143051147461 1.1438516378402709961 1 1.3268626928329467773 1 1.2077505588531494141 1.0368081331253051758 1.2077505588531494141 1.3505208492279052734 1.2233176231384277344 1.3505208492279052734 1.0921578407287597656 1.3848390579223632813 1.7110930681228637695 1.515132904052734375 1.7238332033157348633 1.6210019588470458984 1.4403135776519775391 1.2301616668701171875 1 1.2334026098251342773 1.4473710060119628906 1.5299645662307739258 1.5916291475296020508 2.1250982284545898438 2.7793629169464111328 2.7577812671661376953 3.0399680137634277344 2.5413770675659179688 2.7149991989135742188 2.5674254894256591797 2.5022499561309814453 2.8483428955078125 2.8284094333648681641 2.5720729827880859375 3.0846722126007080078 2.9093410968780517578 3.0993940830230712891 2.8655714988708496094 2.9981389045715332031 2.8550000190734863281 2.8938577175140380859 2.1627893447875976563 2.1238968372344970703 1.7449523210525512695 1.5646545886993408203 1.5737540721893310547 1.7788313627243041992 1.7788313627243041992 1.7280544042587280273 1.9273805618286132813 1.9273805618286132813 1.9273805618286132813 2.6419634819030761719 2.6419634819030761719 1.6264138221740722656 1.4933369159698486328 1.1588419675827026367 1.6360611915588378906 1.5075802803039550781 1.493291020393371582 1.2057106494903564453 1.3505208492279052734 1.3505208492279052734 1.4196555614471435547 1.3505208492279052734 1 1.1363655328750610352 1.2791357040405273438 1 1.0843746662139892578 1.3210828304290771484 1.531502842903137207 1.366013646125793457 1.4838510751724243164 7.9453039169311523438 8.2019529342651367188 8.2656297683715820313 1.6404652595520019531 1.4336091279983520508 1.4940377473831176758 8.0462617874145507813 1.4762759208679199219 1.965923309326171875 1.8786019086837768555 1.8069542646408081055 1.4265686273574829102 1.3875135183334350586 1.8873335123062133789 1.9811778068542480469 1.8549650907516479492 1.7940415143966674805 1.4697493314743041992 8.03414154052734375 1.4891375303268432617 1.5423396825790405273 1.7834060192108154297 1.8749477863311767578 3.0279510021209716797 2.0832571983337402344 1.8312282562255859375 1.9820237159729003906 2.147060394287109375 2.5274879932403564453 2.5467994213104248047 3.2593691349029541016 2.7351350784301757813 3.0581948757171630859 2.4838056564331054688 2.7346498966217041016 2.5559668540954589844 2.308727264404296875 2.3588433265686035156 2.0724318027496337891 2.2975637912750244141 2.3421497344970703125 2.0461747646331787109 2.1954176425933837891 2.6513881683349609375 2.8017077445983886719 2.6477599143981933594 2.9314017295837402344 2.5765955448150634766 2.4246251583099365234 2.2476735115051269531 1.8358229398727416992 1.9637328386306762695 1.8981004953384399414 2.0242624282836914063 1.8811309337615966797 1.5974829196929931641 1.6360611915588378906 1.6264138221740722656 2.4766926765441894531 1.9273805618286132813 1.6745015382766723633 1.6344852447509765625 1.8802344799041748047 1.6425864696502685547 1.7788313627243041992 2.6419634819030761719 1.9273805618286132813 1.9273805618286132813 1.9273805618286132813 1.7904338836669921875 1.7696378231048583984 1.7788313627243041992 1.9684967994689941406 1.7788313627243041992 1.7788313627243041992 1.5718882083892822266 1.32544708251953125 1.6360611915588378906 1.32544708251953125 1.3795071840286254883 1.3628213405609130859 1.5646760463714599609 1.5646760463714599609 1.5406339168548583984 2.2244656085968017578 2.0501637458801269531 2.0208539962768554688 2.1783258914947509766 1.9987766742706298828 1.962787628173828125 2.3934044837951660156 2.2697303295135498047 2.2465684413909912109 1.6140061616897583008 1.9538505077362060547 1.6330621242523193359 1.6194641590118408203 1.8396281003952026367 2.2763171195983886719 2.0401372909545898438 2.1186282634735107422 1.8404138088226318359 1.4166226387023925781 1.4105653762817382813 1.3940515518188476563 1.6566300392150878906 1.3464044332504272461 1.0649803876876831055 1.0507013797760009766 1.0649803876876831055 1.1867406368255615234 1 
1.493291020393371582 1.493291020393371582 1 1 1.1397670507431030273 1.2077505588531494141 1.0954489707946777344 1 1.210357666015625 1.0286926031112670898 1.2652912139892578125 1 1.2756097316741943359 1.2381467819213867188 1.1082233190536499023 1.0805474519729614258 8.0061349868774414063 1.0851002931594848633 1.2207205295562744141 1.3049795627593994141 1.3505208492279052734 1.2824256420135498047 1.493291020393371582 1.043097376823425293 1.2625463008880615234 1.6073952913284301758 1.7157882452011108398 1.6426144838333129883 1.9736719131469726563 1.7121905088424682617 1.1382048130035400391 1.2406891584396362305 1.3505208492279052734 1.2077505588531494141 1.2077505588531494141 1.3505208492279052734 1.6958684921264648438 1.7490625381469726563 2.4324955940246582031 2.5207660198211669922 2.7208268642425537109 2.6772508621215820313 2.6254916191101074219 2.6679503917694091797 2.3430447578430175781 2.596523284912109375 2.5099287033081054688 2.5807642936706542969 2.70345306396484375 2.5849468708038330078 3.0677895545959472656 2.5116784572601318359 2.4994025230407714844 2.4022164344787597656 2.0755803585052490234 2.1562950611114501953 1.9169431924819946289 1.6360611915588378906 1.6360611915588378906 1.6264138221740722656 2.2305238246917724609 1.7788313627243041992 1.6500800848007202148 1.8372185230255126953 1.9273805618286132813 1.9273805618286132813 2.5116035938262939453 1.9273805618286132813 1.6734724044799804688 1.2865890264511108398 1.6360611915588378906 1.6360611915588378906 1.493291020393371582 1.3505208492279052734 1.2756348848342895508 1.3505208492279052734 1.0730701684951782227 1.493291020393371582 1.493291020393371582 1.3505208492279052734 1.2036145925521850586 1.4219058752059936523 1.1750377416610717773 1.2845034599304199219 1.3801442384719848633 1.3084633350372314453 1.2077505588531494141 1.4785887002944946289 1.470927119255065918 1.4251770973205566406 1.638698577880859375 8.5456132888793945313 1.5593208074569702148 1.5341104269027709961 1.5491973161697387695 1.5063248872756958008 1.4696080684661865234 1.8087123632431030273 2.0184450149536132813 1.684334874153137207 1.4909323453903198242 1.7950967550277709961 8.371677398681640625 1.7842564582824707031 1.5194646120071411133 1.6010944843292236328 1.5053386688232421875 1.620142817497253418 1.2989139556884765625 1.4578702449798583984 1.161815643310546875 1.6714347600936889648 1.5958665609359741211 1.3618655204772949219 1.5650341510772705078 1.9732781648635864258 3.009372711181640625 2.5348668098449707031 2.8401887416839599609 3.0687055587768554688 2.7312743663787841797 2.6824724674224853516 2.5460381507873535156 3.1619040966033935547 2.3484146595001220703 2.54334259033203125 2.1975252628326416016 2.5087146759033203125 1.9361312389373779297 2.2235021591186523438 2.1960289478302001953 2.5484549999237060547 2.7824335098266601563 2.6509554386138916016 2.7547366619110107422 2.7965369224548339844 2.4381580352783203125 2.1704626083374023438 2.2228491306304931641 2.0463109016418457031 1.6953454017639160156 1.7337797880172729492 2.0022764205932617188 1.8999032974243164063 1.5646760463714599609 1.7788313627243041992 2.2140893936157226563 2.0344383716583251953 1.8502165079116821289 1.6960996389389038086 2.4411988258361816406 1.6264138221740722656 1.7788313627243041992 1.6264138221740722656 2.3852427005767822266 1.7788313627243041992 2.8938577175140380859 1.6960996389389038086 1.7788313627243041992 2.4766926765441894531 1.9273805618286132813 1.6264138221740722656 1.6360611915588378906 1.32544708251953125 1.332532048225402832 1.3453352451324462891 1.6360611915588378906 1.4707392454147338867 1.6360611915588378906 1.7788313627243041992 1.6360611915588378906 1.6278431415557861328 1.791237950325012207 1.9111138582229614258 2.0674495697021484375 2.3806159496307373047 2.0780560970306396484 2.0599026679992675781 1.9248863458633422852 2.0477719306945800781 2.2595224380493164063 1.7697114944458007813 1.9477150440216064453 1.9069643020629882813 1.5100551843643188477 1.5919243097305297852 1.8632357120513916016 1.8601801395416259766 2.1809773445129394531 1.69345855712890625 2.1459879875183105469 1.8213905096054077148 1.5235056877136230469 1.393563389778137207 1.0649803876876831055 1.0649803876876831055 1.1774038076400756836 1.0380164384841918945 1.2253096103668212891 1.1405740976333618164 
1.493291020393371582 1.4360177516937255859 1.2077505588531494141 1.0649803876876831055 1.2077505588531494141 1 1.5251418352127075195 1.0760558843612670898 1.0350794792175292969 1 1.0603768825531005859 1.3144419193267822266 1.3184074163436889648 1.0897012948989868164 1 1 1.237738490104675293 1.0959206819534301758 1 1 1 1.2077505588531494141 1.2998070716857910156 1 1.0404086112976074219 1.493291020393371582 1.493291020393371582 1.9408115148544311523 1.9365040063858032227 1.4856348037719726563 1.2077505588531494141 1.3505208492279052734 1.2077505588531494141 1.119235992431640625 1.558770298957824707 1.228047490119934082 1.4844033718109130859 1.821356654167175293 2.2841949462890625 2.2161006927490234375 2.0215814113616943359 1.965606689453125 2.4043104648590087891 2.4792737960815429688 2.0104038715362548828 2.1013262271881103516 1.9279551506042480469 2.1862962245941162109 2.5897624492645263672 2.3305940628051757813 2.9650373458862304688 2.6960375308990478516 2.8179671764373779297 2.2379288673400878906 2.1894042491912841797 1.9727715253829956055 2.1672403812408447266 1.7122943401336669922 1.7872604131698608398 1.9273805618286132813 2.9745817184448242188 1.9273805618286132813 1.9273805618286132813 1.9273805618286132813 2.4766926765441894531 1.9372781515121459961 4.1048259735107421875 1.9273805618286132813 1.9273805618286132813 1.7872604131698608398 1.6360611915588378906 1.5947005748748779297 1.6611026525497436523 1 1.3505208492279052734 1 1.493291020393371582 1.6360611915588378906 1.6602389812469482422 1.0875341892242431641 1.3771700859069824219 1.493291020393371582 1.1818708181381225586 1.3548233509063720703 1.4774014949798583984 1.3926542997360229492 1.1338547468185424805 1.1885744333267211914 1.6168321371078491211 1.3867510557174682617 1.411495208740234375 1.476678013801574707 8.80631256103515625 1.7326031923294067383 1.5226131677627563477 1.4270069599151611328 1.590092778205871582 1.7764743566513061523 1.8209295272827148438 1.8275498151779174805 1.514174342155456543 1.3807686567306518555 1.5246775150299072266 1.7240414619445800781 1.0505537986755371094 7.8886981010437011719 7.9913358688354492188 1.5157819986343383789 1.4099059104919433594 1.4112079143524169922 1.553422093391418457 1.4899789094924926758 1.4706499576568603516 1 1.4906227588653564453 1.9209939241409301758 2.3066375255584716797 2.3491294384002685547 3.0408470630645751953 3.0589885711669921875 3.005741119384765625 2.8017604351043701172 2.3337943553924560547 2.6581602096557617188 2.4230997562408447266 2.5562238693237304688 2.1730718612670898438 2.2043128013610839844 1.9221271276473999023 2.1942036151885986328 2.2510890960693359375 2.5374376773834228516 2.5607147216796875 2.8018624782562255859 3.0593183040618896484 2.8574779033660888672 2.5026829242706298828 2.4200804233551025391 2.2643637657165527344 1.6939728260040283203 1.7496423721313476563 1.9377510547637939453 1.864876866340637207 1.8533846139907836914 1.7839303016662597656 1.7482101917266845703 2.6419634819030761719 1.6266878843307495117 2.4766926765441894531 1.7644934654235839844 1.7788313627243041992 1.7788313627243041992 1.6264138221740722656 1.4692608118057250977 1.7788313627243041992 1.7202570438385009766 2.4411988258361816406 2.6419634819030761719 1.9273805618286132813 2.5417046546936035156 2.99475860595703125 2.0773510932922363281 1.7788313627243041992 1.6360611915588378906 1.32946014404296875 1.6360611915588378906 1.493291020393371582 1.6360611915588378906 1.6360611915588378906 1.6360611915588378906 1.493291020393371582 1.611255645751953125 1.6629736423492431641 1.8663599491119384766 2.4208669662475585938 1.8499261140823364258 2.0872008800506591797 2.3399875164031982422 2.5469543933868408203 2.3365354537963867188 2.16916656494140625 2.0905115604400634766 2.25910186767578125 2.0412464141845703125 1.6036187410354614258 1.8689746856689453125 1.8448158502578735352 1.8931049108505249023 2.0236372947692871094 1.7657700777053833008 1.6031315326690673828 1.5153775215148925781 1.3029140233993530273 1.2311408519744873047 1.2791454792022705078 1.237852931022644043 1.0449082851409912109 1.0649803876876831055 1.2077505588531494141 1.4027513265609741211 
1.1376768350601196289 1.294377446174621582 1.0649803876876831055 1 1.1991090774536132813 1 1.2887487411499023438 1.296356201171875 1.0841530561447143555 1.0776734352111816406 1.2467861175537109375 1.1294199228286743164 1.0721833705902099609 1 1 1.1271506547927856445 7.9135532379150390625 1.1434844732284545898 1 1.0173331499099731445 1.1850811243057250977 1.5652468204498291016 1.2653737068176269531 1.0905613899230957031 1.1078115701675415039 1.3715075254440307617 1.578699946403503418 1.500256657600402832 1.6469566822052001953 1.4536428451538085938 1.1958428621292114258 1.2483016252517700195 1.0783635377883911133 1.2207813262939453125 1.3474289178848266602 1.706952214241027832 1.5717656612396240234 2.0190355777740478516 2.0973107814788818359 2.0449559688568115234 1.7473838329315185547 2.0653147697448730469 1.6742041110992431641 1.7118417024612426758 1.6676138639450073242 1.8867794275283813477 1.8698842525482177734 2.024204254150390625 1.7904338836669921875 2.1780211925506591797 2.1660568714141845703 2.4974133968353271484 2.6497318744659423828 2.0876319408416748047 2.9745817184448242188 2.0520315170288085938 2.6419634819030761719 1.9273805618286132813 1.9444774389266967773 2.2283473014831542969 2.6820814609527587891 3.8335995674133300781 2.2129473686218261719 1.9849596023559570313 1.9273805618286132813 1.9273805618286132813 2.2718164920806884766 1.9273805618286132813 2.2140893936157226563 2.2630176544189453125 1.7788313627243041992 1.3381829261779785156 1.4141836166381835938 1.3505208492279052734 1.493291020393371582 1.493291020393371582 1.155142664909362793 1.6360611915588378906 1.6360611915588378906 1.6360611915588378906 1.32544708251953125 1.493291020393371582 1 1.493291020393371582 1.4683076143264770508 1.5858423709869384766 1.5437635183334350586 1.4447630643844604492 1.3306663036346435547 1.1354045867919921875 1.3402514457702636719 1.4971123933792114258 1.6747009754180908203 1.7105481624603271484 2.03851318359375 1.5406546592712402344 1.5399900674819946289 1.5449950695037841797 1.5413761138916015625 1.5630953311920166016 1.2974970340728759766 1.0471212863922119141 1.4292514324188232422 1.3039087057113647461 8.151470184326171875 1.4224854707717895508 1.4177001714706420898 1.5109847784042358398 1.2894018888473510742 8.0127325057983398438 1.7342814207077026367 1.6396414041519165039 1.2995734214782714844 1.7386215925216674805 1.6504787206649780273 2.1498203277587890625 2.5083272457122802734 2.4417445659637451172 2.5830681324005126953 2.9207699298858642578 2.9773776531219482422 2.4737262725830078125 2.5243384838104248047 2.1908481121063232422 2.1117415428161621094 2.1266717910766601563 1.7421116828918457031 1.9610017538070678711 2.5692918300628662109 2.5685489177703857422 2.5242705345153808594 2.4792437553405761719 2.4175608158111572266 2.4938755035400390625 2.5974676609039306641 2.9335179328918457031 2.8170518875122070313 2.3108592033386230469 2.3341410160064697266 1.7833329439163208008 1.6264138221740722656 2.0461375713348388672 2.1002683639526367188 2.0139167308807373047 1.9861731529235839844 1.7788313627243041992 1.7788313627243041992 1.7788313627243041992 1.4551444053649902344 1.7788313627243041992 1.6264138221740722656 1.751842498779296875 1.714260101318359375 2.3113999366760253906 1.8344072103500366211 1.8409632444381713867 2.6419634819030761719 1.9541800022125244141 1.7788313627243041992 2.9827599525451660156 1.7788313627243041992 2.0484960079193115234 1.6264138221740722656 1.6360611915588378906 1.493291020393371582 1.5646760463714599609 1.8802344799041748047 1.3258135318756103516 1.5557453632354736328 1.3572175502777099609 1.493291020393371582 1.7668983936309814453 1.6360611915588378906 1.7854861021041870117 1.8433537483215332031 1.8462733030319213867 2.0826578140258789063 2.4186673164367675781 2.2097065448760986328 2.1131012439727783203 1.9052530527114868164 1.9453313350677490234 1.8127200603485107422 1.69351959228515625 1.6360611915588378906 1.8437279462814331055 1.6163387298583984375 1.7433619499206542969 1.6887086629867553711 1.54632568359375 1.5178676843643188477 1.5218801498413085938 1.2638236284255981445 1.002446293830871582 1.1266767978668212891 1.3574979305267333984 1.198801875114440918 1.2077505588531494141 1.1130348443984985352 1.1239016056060791016 
1.2077505588531494141 1.4184403419494628906 1.2077505588531494141 1.0010113716125488281 1 1.436865687370300293 1 1.063687443733215332 1 1 1.2592476606369018555 1.1090435981750488281 1.1054490804672241211 1.2176036834716796875 1.0600503683090209961 1.1592365503311157227 1.2494530677795410156 7.6473035812377929688 7.7220325469970703125 1.1090923547744750977 1 1.5600354671478271484 1.3167570829391479492 1.2077505588531494141 1.0819116830825805664 1.2647861242294311523 1.6076833009719848633 1.6994459629058837891 1.7598596811294555664 1.3504290580749511719 1.037100672721862793 1.3041386604309082031 1.0005824565887451172 1.3574723005294799805 1.2599710226058959961 1.6589940786361694336 1.5838575363159179688 1.6488254070281982422 1.8726279735565185547 1.9971010684967041016 1.5214980840682983398 1.6360611915588378906 2.1179823875427246094 1.7586873769760131836 1.9273805618286132813 2.6419634819030761719 1.6960996389389038086 2.6419634819030761719 1.8450880050659179688 2.1313569545745849609 2.2972664833068847656 2.0323357582092285156 2.3938226699829101563 1.7788313627243041992 1.8138262033462524414 1.7046622037887573242 1.9273805618286132813 3.4669039249420166016 2.0399518013000488281 2.2283473014831542969 3.6679477691650390625 3.2965180873870849609 3.6493880748748779297 3.2429821491241455078 2.1583585739135742188 1.7788313627243041992 1.6264138221740722656 1.7788313627243041992 1.6960996389389038086 1.6266878843307495117 1.6360611915588378906 1.3693726062774658203 1.1837115287780761719 1.2143481969833374023 1.3505208492279052734 1.5646760463714599609 1.6360611915588378906 1.32544708251953125 1.3307727575302124023 1.0878245830535888672 1.0340830087661743164 1.2051830291748046875 1.3505208492279052734 1.5217336416244506836 1.493291020393371582 1.3961821794509887695 1.3830589056015014648 1.1359508037567138672 1.2568845748901367188 1.3316936492919921875 1.6438424587249755859 1.5285307168960571289 1.7793534994125366211 1.9721121788024902344 1.7753782272338867188 1.4572159051895141602 1.3484312295913696289 1.563321232795715332 1.3277046680450439453 1.4426257610321044922 1.1838124990463256836 1.2420744895935058594 1.2595361471176147461 1.2526241540908813477 1.4134351015090942383 1.6331976652145385742 1.4966771602630615234 1.6907737255096435547 1.5463845729827880859 7.86701202392578125 1.6785206794738769531 8.2638902664184570313 8.0523328781127929688 1.6024258136749267578 1.659894108772277832 2.0188970565795898438 2.6324388980865478516 2.2035064697265625 2.6817357540130615234 3.1483893394470214844 2.6606161594390869141 2.7193741798400878906 2.4070274829864501953 2.1007704734802246094 2.2448666095733642578 2.2050333023071289063 1.493291020393371582 1.7763041257858276367 1.8572793006896972656 2.0767650604248046875 2.5536851882934570313 2.3266749382019042969 2.1030499935150146484 2.0809967517852783203 2.2417435646057128906 2.5981383323669433594 2.4716725349426269531 2.7139599323272705078 2.3345041275024414063 2.195125579833984375 1.9993767738342285156 2.0125792026519775391 2.0846512317657470703 2.3249175548553466797 1.9684967994689941406 1.9548941850662231445 1.9896123409271240234 1.8626682758331298828 1.6360611915588378906 1.4785366058349609375 1.3396694660186767578 1.6360611915588378906 1.7857754230499267578 2.2367384433746337891 2.0836179256439208984 1.9176483154296875 2.1530368328094482422 2.0322773456573486328 2.3640463352203369141 1.8410673141479492188 1.9421314001083374023 1.6425864696502685547 1.7788313627243041992 1.6425864696502685547 1.32544708251953125 1.4776235818862915039 1.7074097394943237305 1.5676757097244262695 1.493291020393371582 1.3291341066360473633 1.6980695724487304688 1.5342516899108886719 1.7698379755020141602 1.9215209484100341797 1.9847618341445922852 2.3231406211853027344 2.202434539794921875 2.0550904273986816406 2.3390040397644042969 1.9619698524475097656 1.8163696527481079102 1.7337149381637573242 1.5971853733062744141 1.3821108341217041016 1.5528093576431274414 1.6541898250579833984 1.6573424339294433594 1.6459099054336547852 1.2551690340042114258 1.1978623867034912109 1.293896794319152832 1.2702020406723022461 1.2137856483459472656 1.1011433601379394531 1.4860112667083740234 1.1928898096084594727 1.3605023622512817383 1.189759373664855957 1.4282952547073364258 1.5100289583206176758 
1.4112656116485595703 1.2077505588531494141 1.0671944618225097656 1.569385528564453125 1.0851299762725830078 1 1.3149031400680541992 1.2961432933807373047 1 1.3071628808975219727 1 1 1.0356642007827758789 1.4447978734970092773 7.7006058692932128906 8.0706701278686523438 1.0015122890472412109 1.2984640598297119141 7.7514781951904296875 1.3958873748779296875 1.1033501625061035156 1.4839949607849121094 1 1.2456101179122924805 1.3437378406524658203 1 1.5546270608901977539 1.2594360113143920898 1.3966174125671386719 1.4871555566787719727 1.2880676984786987305 1.0799683332443237305 1.3505208492279052734 1.0649803876876831055 1.2506322860717773438 1.4747551679611206055 1.3086130619049072266 1.5658597946166992188 1.7061496973037719727 1.5431210994720458984 1.6310724020004272461 1.7074462175369262695 1.9273805618286132813 1.7904338836669921875 2.1317989826202392578 1.7788313627243041992 1.8625148534774780273 2.2305238246917724609 2.4766926765441894531 2.1583585739135742188 2.5417046546936035156 2.2457969188690185547 1.9754844903945922852 1.7788313627243041992 2.6419634819030761719 1.9619773626327514648 3.8335995674133300781 3.2429821491241455078 1.9697748422622680664 2.0399518013000488281 3.8335995674133300781 1.7788313627243041992 2.9745817184448242188 1.9273805618286132813 1.8138262033462524414 1.7788313627243041992 2.1566908359527587891 2.3475546836853027344 1.470072627067565918 1.6425864696502685547 1.6264138221740722656 1.5718882083892822266 1.1749637126922607422 1.493291020393371582 1.6360611915588378906 1.5646760463714599609 1.6360611915588378906 1.32544708251953125 1.6360611915588378906 1.0087759494781494141 1 1 1.3740439414978027344 1.493291020393371582 1.6467304229736328125 1.32544708251953125 1.3505208492279052734 1.5159279108047485352 1.3435347080230712891 1.3967807292938232422 1.8199417591094970703 1.8775002956390380859 1.3886351585388183594 1.8384068012237548828 2.087062835693359375 1.4988701343536376953 1.4965722560882568359 1.3542907238006591797 1.2078282833099365234 1.2690361738204956055 1.0769658088684082031 1.3243472576141357422 1.4568804502487182617 1.4810690879821777344 1.2707512378692626953 1.7210494279861450195 1.3091789484024047852 8.1137094497680664063 8.0763082504272460938 7.9202899932861328125 7.87667083740234375 8.123325347900390625 7.8022289276123046875 1.4990481138229370117 1.861451268196105957 1.9978444576263427734 2.0098688602447509766 2.0101189613342285156 2.3160960674285888672 3.1262171268463134766 3.0771892070770263672 2.7780728340148925781 2.5442762374877929688 2.1879940032958984375 1.7545632123947143555 1.8902261257171630859 1.5027426481246948242 1.4586989879608154297 1.3027215003967285156 1.7249505519866943359 1.8625254631042480469 2.0792722702026367188 2.4391069412231445313 1.6930234432220458984 2.1000003814697265625 2.6931099891662597656 2.7282865047454833984 2.7460165023803710938 2.6201355457305908203 2.5211937427520751953 2.4568448066711425781 2.4240512847900390625 2.4464311599731445313 2.0361819267272949219 1.7946552038192749023 2.4715313911437988281 2.1652121543884277344 1.9504816532135009766 1.6891710758209228516 1.6360611915588378906 1.32544708251953125 1.6190481185913085938 1.9939508438110351563 1.9195158481597900391 2.1471457481384277344 2.5639603137969970703 2.1506834030151367188 2.0640833377838134766 2.19272613525390625 1.7264471054077148438 1.8192561864852905273 1.7788313627243041992 2.2630176544189453125 1.7788313627243041992 1.32544708251953125 1.4616066217422485352 1.7892938852310180664 1.6823132038116455078 1.5081450939178466797 1.710396885871887207 1.9702700376510620117 2.0742185115814208984 1.8856929540634155273 2.0578012466430664063 1.9692270755767822266 2.0862398147583007813 2.1908605098724365234 1.8417228460311889648 2.2369089126586914063 1.9079738855361938477 2.1666219234466552734 1.4447362422943115234 1.4219058752059936523 1.3474953174591064453 1.4357621669769287109 1.493291020393371582 1.3505208492279052734 1.689561009407043457 1.4603643417358398438 1.2791357040405273438 1.3580250740051269531 1.3505208492279052734 1.1458446979522705078 1.4219058752059936523 1.3505208492279052734 1.3505208492279052734 1.3421733379364013672 1.6542563438415527344 1.7011072635650634766 1.8510191440582275391 
1.2077505588531494141 1.3451024293899536133 1 1.6630184650421142578 1.5551377534866333008 1.30889129638671875 1.0227240324020385742 7.7202367782592773438 8.0945587158203125 1.3331753015518188477 1.1031545400619506836 8.0050907135009765625 7.9718546867370605469 1.1327971220016479492 7.8627858161926269531 7.8083214759826660156 1.2017149925231933594 7.6098666191101074219 1.2009861469268798828 1.2590297460556030273 1.1647223234176635742 1 1.04532623291015625 1 1.3089182376861572266 1.2659040689468383789 1 1.162543177604675293 1.2443335056304931641 1.2119439840316772461 1.1717171669006347656 1.1555316448211669922 1.2477399110794067383 1.0255434513092041016 1.1443752050399780273 1.2613179683685302734 1.1923612356185913086 1.3983815908432006836 1.6233961582183837891 1.5039358139038085938 1.6090111732482910156 1.6360611915588378906 1.7788313627243041992 1.7766367197036743164 1.7046622037887573242 1.6264138221740722656 1.7788313627243041992 1.9273805618286132813 1.9273805618286132813 2.3337912559509277344 1.9484540224075317383 3.6815922260284423828 1.9541800022125244141 1.9444774389266967773 2.6419634819030761719 1.9273805618286132813 1.9273805618286132813 1.9273805618286132813 2.2718164920806884766 1.9273805618286132813 1.9273805618286132813 2.1710195541381835938 2.8938577175140380859 1.9366407394409179688 2.6419634819030761719 1.6264138221740722656 1.7422684431076049805 2.8938577175140380859 1.7788313627243041992 1.729066014289855957 1.6360611915588378906 1.6360611915588378906 1.6360611915588378906 1.3643319606781005859 1.3986731767654418945 1.6360611915588378906 1.6360611915588378906 1.7074462175369262695 1.0661557912826538086 1.5646760463714599609 1.493291020393371582 1.493291020393371582 1.3317501544952392578 1.32544708251953125 1.6350966691970825195 1.423276066780090332 1.2713010311126708984 1.3725374937057495117 1.2587304115295410156 1.2962100505828857422 1.6673069000244140625 1.3127859830856323242 1.4906430244445800781 1.5504914522171020508 1.6949779987335205078 1.639434814453125 1.248629450798034668 1.1235917806625366211 1.2879461050033569336 1.6946986913681030273 1.3606575727462768555 1.1184641122817993164 1.340000152587890625 1.2214636802673339844 1.5418589115142822266 1.2955584526062011719 1.3858973979949951172 1.4593549966812133789 8.0246858596801757813 7.7396945953369140625 7.9015445709228515625 7.8333101272583007813 1.3224216699600219727 1.6999974250793457031 1.8037748336791992188 1.2780576944351196289 1.6808247566223144531 1.8758662939071655273 2.6882410049438476563 2.6700420379638671875 2.4389486312866210938 2.5915935039520263672 2.2203044891357421875 1.9361209869384765625 1.5942111015319824219 1.8364969491958618164 1.7100312709808349609 1.4790198802947998047 1.4197112321853637695 1.6714046001434326172 1.8621695041656494141 2.0733919143676757813 1.9855331182479858398 2.2206268310546875 2.2858283519744873047 2.3623318672180175781 2.4640450477600097656 2.7309076786041259766 2.5280284881591796875 2.3173964023590087891 2.6143574714660644531 2.6747648715972900391 2.5554888248443603516 2.88907623291015625 2.4296543598175048828 2.18636322021484375 2.1556689739227294922 1.9881894588470458984 1.9272964000701904297 1.7652295827865600586 2.0454790592193603516 2.204345703125 2.3038241863250732422 2.1471450328826904297 2.0480883121490478516 2.1979320049285888672 2.2907152175903320313 2.6419634819030761719 1.8085633516311645508 1.7788313627243041992 1.7525779008865356445 2.2305238246917724609 1.3721284866333007813 1.7788313627243041992 1.6360611915588378906 1.3094642162322998047 1.346590876579284668 1.6175067424774169922 1.7660114765167236328 1.6487567424774169922 1.7508651018142700195 1.5550748109817504883 1.8421341180801391602 1.6511130332946777344 1.5781284570693969727 1.9060713052749633789 1.875874638557434082 1.6655030250549316406 1.5925822257995605469 1.7311786413192749023 1.4902679920196533203 1.5627126693725585938 1.4977116584777832031 1.2524111270904541016 1.6360611915588378906 1.6360611915588378906 1.3319033384323120117 1.3405535221099853516 1.4719320535659790039 1.5643680095672607422 1.2510812282562255859 1.2461316585540771484 1.3505208492279052734 1.493291020393371582 1.2014182806015014648 1.2791357040405273438 1.6766119003295898438 1.7132077217102050781 1.7056707143783569336 1.6628065109252929688 
1.1569734811782836914 1 1.4388246536254882813 1.2315117120742797852 1.1886510848999023438 1 1.2201575040817260742 1.2674200534820556641 7.8603425025939941406 7.7781610488891601563 1.3493386507034301758 7.7164311408996582031 1.0440658330917358398 1 7.5720453262329101563 7.4985890388488769531 7.9308199882507324219 7.8635854721069335938 7.7976284027099609375 8.086376190185546875 1.1123307943344116211 1.5208423137664794922 1.6369812488555908203 1.2621382474899291992 1.3766516447067260742 1 1 1.1595004796981811523 1.2729175090789794922 1.5404595136642456055 1.1363655328750610352 1.2956191301345825195 1.2077505588531494141 1.1632848978042602539 1.4270747900009155273 1.1760321855545043945 1 1.2077505588531494141 1.32544708251953125 1.353777766227722168 1.6360611915588378906 1.6264138221740722656 1.9684967994689941406 1.7904338836669921875 1.7586873769760131836 3.2395925521850585938 1.7904338836669921875 2.2718164920806884766 3.2429821491241455078 1.9849596023559570313 1.9336783885955810547 2.0399518013000488281 2.2718164920806884766 1.9541800022125244141 1.9273805618286132813 1.7788313627243041992 1.7788313627243041992 2.8938577175140380859 2.4766926765441894531 2.1662158966064453125 1.9273805618286132813 2.0173327922821044922 2.1610469818115234375 3.5284249782562255859 2.2305238246917724609 2.2140893936157226563 1.6578775644302368164 1.7696378231048583984 1.9273805618286132813 1.7788313627243041992 1.6360611915588378906 1.32544708251953125 1.5157907009124755859 1.4632703065872192383 1.6360611915588378906 1.3693726062774658203 1.4811452627182006836 1.764801025390625 1.6360611915588378906 1.6360611915588378906 1 1.1502783298492431641 1.6360611915588378906 1.493291020393371582 1.3558092117309570313 1.3503825664520263672 1.391657710075378418 1.3505208492279052734 1.1239048242568969727 1.1170449256896972656 1.3993525505065917969 1.3475259542465209961 1.4099831581115722656 1.4084619283676147461 1.6347522735595703125 1.4322068691253662109 1.3383533954620361328 1.1915563344955444336 1 1.3051763772964477539 1 1.1640083789825439453 1.2350420951843261719 1.1977150440216064453 1.2219727039337158203 1.3850196599960327148 1.2035374641418457031 1.1490525007247924805 1.0903083086013793945 7.911083221435546875 1.3974893093109130859 1.4225034713745117188 1.4497982263565063477 1.3211847543716430664 1.4550157785415649414 1.2449945211410522461 1.9582412242889404297 1.8573373556137084961 2.1574831008911132813 2.6096541881561279297 2.3498036861419677734 2.2663838863372802734 2.05245208740234375 1.8927013874053955078 1.3719772100448608398 1.5008990764617919922 1.7204364538192749023 1.196619868278503418 1.3505208492279052734 1.9503268003463745117 1.9466048479080200195 1.4684821367263793945 1.6598074436187744141 1.6935235261917114258 2.4201536178588867188 2.3079783916473388672 2.4380962848663330078 2.4194912910461425781 2.5890910625457763672 2.6440229415893554688 2.4537711143493652344 2.1977715492248535156 2.7648019790649414063 2.6068131923675537109 2.5264821052551269531 2.4632432460784912109 1.7810530662536621094 1.777179718017578125 2.6411633491516113281 2.6012284755706787109 2.6792266368865966797 2.3879094123840332031 2.4813802242279052734 2.0596506595611572266 2.295063018798828125 2.5133211612701416016 1.9929382801055908203 1.8802344799041748047 1.9306697845458984375 1.7788313627243041992 1.6577684879302978516 1.6264138221740722656 1.32544708251953125 1.6360611915588378906 1.4083597660064697266 1.493291020393371582 1.3934056758880615234 1.6170282363891601563 1.4740090370178222656 1.4251471757888793945 1.2949463129043579102 1.5036994218826293945 1.3903660774230957031 1.6925626993179321289 1.6128962039947509766 1.6187980175018310547 1.4683741331100463867 1.2885297536849975586 1.3505208492279052734 1.4627603292465209961 1.4112939834594726563 1.5259255170822143555 1.4899415969848632813 1.7788313627243041992 1.4776235818862915039 1.7788313627243041992 1.1749637126922607422 1.2044537067413330078 1.2973642349243164063 1.4063715934753417969 1.3724776506423950195 1.3505208492279052734 1.2864786386489868164 1.493291020393371582 1.2517606019973754883 1.462733149528503418 1.631193995475769043 1.6314759254455566406 1.2609219551086425781 1.3192824125289916992 
1.0515220165252685547 1.3466603755950927734 1.0582602024078369141 1 1.1312837600708007813 1.2344642877578735352 1.1245416402816772461 1.4975595474243164063 1.2917312383651733398 1.2876126766204833984 7.8458547592163085938 1.5033947229385375977 7.7955446243286132813 1.3104814291000366211 7.9866261482238769531 1.198225855827331543 8.1235170364379882813 8.1385288238525390625 7.7521834373474121094 7.6104826927185058594 1 1.0981986522674560547 1.2470974922180175781 1.3857060670852661133 1.5019277334213256836 1.1996829509735107422 1.2296216487884521484 1.3716562986373901367 1.1401447057723999023 1.3526480197906494141 1.0649803876876831055 1.0649803876876831055 1.4751416444778442383 1.4134496450424194336 1.2030463218688964844 1.1263334751129150391 1.3505208492279052734 1.0964624881744384766 1.4776235818862915039 1.6360611915588378906 1.32544708251953125 1.3988400697708129883 1.7198120355606079102 1.7788313627243041992 1.9273805618286132813 2.8220388889312744141 1.9273805618286132813 1.9273805618286132813 1.9849596023559570313 2.0399518013000488281 2.6967334747314453125 2.2283473014831542969 1.9849596023559570313 2.2718164920806884766 1.9273805618286132813 2.6419634819030761719 1.6264138221740722656 1.7198120355606079102 1.6264138221740722656 1.9629397392272949219 2.0010077953338623047 1.8644258975982666016 2.0773510932922363281 1.9156210422515869141 2.4411988258361816406 2.1608197689056396484 1.6264138221740722656 1.7788313627243041992 1.7788313627243041992 1.6264138221740722656 1.6264138221740722656 1.6425864696502685547 1.493291020393371582 1.4972221851348876953 1.6425864696502685547 1.7788313627243041992 1.6360611915588378906 1.3615751266479492188 1.493291020393371582 1.5718882083892822266 1.493291020393371582 1.422367095947265625 1.493291020393371582 1.493291020393371582 1.5369374752044677734 1.5140367746353149414 1.698352813720703125 1.493291020393371582 1.0730701684951782227 1.5646760463714599609 1.3927649259567260742 1.3505208492279052734 1.3505208492279052734 1.2077505588531494141 1.3902745246887207031 1.6485544443130493164 1.2996234893798828125 1.2548023462295532227 1.4453678131103515625 1.3113489151000976563 1.1758394241333007813 1.5352078676223754883 1.2057802677154541016 1.3001351356506347656 1.44203948974609375 8.1057758331298828125 1.2032274007797241211 1.4177904129028320313 1.4517310857772827148 8.116363525390625 1.6712197065353393555 1.7577152252197265625 1.7846064567565917969 1.3715329170227050781 1.6521291732788085938 1.365462183952331543 1.6422495841979980469 1.9782006740570068359 2.1244363784790039063 2.3110146522521972656 2.4509348869323730469 1.9765031337738037109 1.776867985725402832 1.9873763322830200195 1.6255437135696411133 1.7101011276245117188 1.3389812707901000977 1.2175697088241577148 1.3505208492279052734 1.5058729648590087891 1.7937730550765991211 1.9761465787887573242 1.7396571636199951172 1.8005765676498413086 2.0415761470794677734 2.2903082370758056641 2.0072193145751953125 2.5114569664001464844 2.7645406723022460938 2.6820688247680664063 2.205669403076171875 2.4598355293273925781 2.4788372516632080078 2.2947871685028076172 2.5430934429168701172 2.1733586788177490234 1.8687729835510253906 2.2381441593170166016 2.3659121990203857422 2.9809103012084960938 2.9921436309814453125 2.6227109432220458984 2.2382974624633789063 2.1525890827178955078 2.2950365543365478516 2.2793185710906982422 2.0612998008728027344 1.99568939208984375 1.5384743213653564453 1.6360611915588378906 2.2630176544189453125 1.6287775039672851563 1.1929144859313964844 1.6360611915588378906 1.32544708251953125 1.7074462175369262695 1.1497439146041870117 1.6158157587051391602 2.0749018192291259766 1.7656997442245483398 1.6007822751998901367 1.3505208492279052734 1.5325212478637695313 1.4946115016937255859 1.5704250335693359375 1.610737919807434082 1.2609821557998657227 1.1269611120223999023 1.4311891794204711914 1.32544708251953125 1.6360611915588378906 1.7788313627243041992 2.5290341377258300781 1.6264138221740722656 1.6264138221740722656 1.6293581724166870117 1.6360611915588378906 2.1566908359527587891 1.493291020393371582 1.4170525074005126953 1.493291020393371582 1.2791357040405273438 1.3808038234710693359 1.2201899290084838867 1.3764185905456542969 1.2222318649291992188 1.2595009803771972656 1.4500384330749511719 8.1900701522827148438 1.2943395376205444336 
1 1.3809003829956054688 1.4402611255645751953 1.1660438776016235352 1.1879638433456420898 1.2914538383483886719 1.4036909341812133789 1.312679290771484375 1.3068060874938964844 7.9973230361938476563 1.450375676155090332 7.5701289176940917969 1.3570573329925537109 8.1514215469360351563 1.2467560768127441406 7.9189653396606445313 1 7.7210216522216796875 7.6589040756225585938 1.6361573934555053711 1.0716263055801391602 1.6906665563583374023 1 1.5943770408630371094 1.1504008769989013672 1.2557842731475830078 1.2682785987854003906 1.3056252002716064453 1.240137934684753418 1.1047496795654296875 1.091833949089050293 1.2077505588531494141 1.493291020393371582 1.2907123565673828125 1.76911163330078125 1.493291020393371582 1.493291020393371582 1.4133130311965942383 1.6360611915588378906 1.5718882083892822266 1.6254820823669433594 1.6578775644302368164 1.8040344715118408203 2.4766926765441894531 3.4669039249420166016 2.2718164920806884766 2.9318671226501464844 1.9697748422622680664 1.9273805618286132813 3.0711941719055175781 3.9891257286071777344 3.4669039249420166016 1.9574986696243286133 3.2656826972961425781 2.2718164920806884766 1.9273805618286132813 1.6960996389389038086 1.9273805618286132813 2.2305238246917724609 1.8138262033462524414 2.0649955272674560547 1.7788313627243041992 2.6419634819030761719 1.9684967994689941406 1.6847271919250488281 1.6264138221740722656 1.6425864696502685547 1.6360611915588378906 1.493291020393371582 1.6360611915588378906 1.3459802865982055664 1.6360611915588378906 1.32544708251953125 1.4785366058349609375 1.6360611915588378906 1.655171513557434082 1.6264138221740722656 1.4776235818862915039 1.32544708251953125 1.4520716667175292969 1.0244803428649902344 1.493291020393371582 1.3496452569961547852 1.6310672760009765625 1.5603954792022705078 1.5814310312271118164 1.1863689422607421875 1.493291020393371582 1.3661751747131347656 1.6360611915588378906 1.3691771030426025391 1.5455952882766723633 1.339785456657409668 1.2324290275573730469 1.1959122419357299805 1.3505208492279052734 1.0301594734191894531 1.1551058292388916016 1.493291020393371582 1.0321422815322875977 1.1054493188858032227 1.3020830154418945313 1.1763384342193603516 1.1843951940536499023 1.2642045021057128906 1.3995209932327270508 7.8959126472473144531 8.0593137741088867188 7.8242964744567871094 7.9157757759094238281 1.4678961038589477539 1.8656332492828369141 1.6871998310089111328 1.8446180820465087891 1.7098395824432373047 1.4984742403030395508 1.5614817142486572266 1.7648791074752807617 2.1903929710388183594 2.0397617816925048828 1.7178206443786621094 1.493291020393371582 1.6575013399124145508 1.7277424335479736328 2.1440269947052001953 1.87323760986328125 1.4822189807891845703 1.1363655328750610352 1.2077505588531494141 1.6282384395599365234 1.7628197669982910156 2.0742328166961669922 1.9194190502166748047 1.5882105827331542969 1.6590292453765869141 2.0406849384307861328 1.820796966552734375 2.3003785610198974609 2.5670526027679443359 2.4486370086669921875 2.8628075122833251953 2.7030730247497558594 2.8203797340393066406 2.7192659378051757813 2.5955808162689208984 2.6717739105224609375 2.6364228725433349609 2.5215210914611816406 2.670925140380859375 3.3175680637359619141 2.8358542919158935547 2.5600347518920898438 2.4628002643585205078 2.1443610191345214844 2.2924695014953613281 1.8633542060852050781 1.9196623563766479492 1.6360611915588378906 1.6572318077087402344 1.7788313627243041992 1.7788313627243041992 1.6360611915588378906 1.493291020393371582 1.32544708251953125 1.5445244312286376953 1.4239546060562133789 1.4370446205139160156 1.7620935440063476563 2.1914961338043212891 1.9530466794967651367 1.9777121543884277344 1.493291020393371582 1.4219058752059936523 1.4003918170928955078 1.4708439111709594727 1.493291020393371582 1.3147180080413818359 1.3505208492279052734 1.3505208492279052734 1.3505208492279052734 1.4941315650939941406 1.7696378231048583984 1.6500800848007202148 1.9684967994689941406 2.6419634819030761719 1.6360611915588378906 1.6360611915588378906 1.6360611915588378906 1.6360611915588378906 1.6476438045501708984 1.5954602956771850586 1.3414684534072875977 1.3505208492279052734 1.5861589908599853516 1.3442963361740112305 1.2077505588531494141 1.2654088735580444336 1.1915858983993530273 1.1888628005981445313 1.2080454826354980469 
7.6351733207702636719 1.0358252525329589844 1.0644304752349853516 1 1.0283098220825195313 1.2160103321075439453 1.3587274551391601563 1.2467900514602661133 1.2445306777954101563 8.028820037841796875 7.8758764266967773438 8.1495904922485351563 7.5548686981201171875 1 7.866481781005859375 1.2980796098709106445 7.8663468360900878906 1.1700614690780639648 7.9427800178527832031 7.7832746505737304688 7.8365883827209472656 1.2445112466812133789 1.2213766574859619141 1.2532134056091308594 1.2020611763000488281 1.2004630565643310547 1.2776864767074584961 1.2932358980178833008 1.2094359397888183594 1.2492880821228027344 1.1141455173492431641 1.2183417081832885742 1.5025032758712768555 1.493291020393371582 1.493291020393371582 1.6360611915588378906 1.493291020393371582 1.4029763936996459961 1.6360611915588378906 2.2140893936157226563 1.8294210433959960938 1.9273805618286132813 1.9273805618286132813 1.9273805618286132813 3.4669039249420166016 3.2429821491241455078 2.8220388889312744141 2.50002288818359375 2.2129473686218261719 2.6967334747314453125 3.6493880748748779297 1.9541800022125244141 1.9273805618286132813 3.2747108936309814453 1.8502165079116821289 2.6414442062377929688 1.9273805618286132813 1.7280544042587280273 2.4568207263946533203 1.7788313627243041992 2.5417046546936035156 2.2140893936157226563 1.7074462175369262695 1.7788313627243041992 1.4776235818862915039 1.4759304523468017578 1.5026376247406005859 1.493291020393371582 1.3135387897491455078 1.6360611915588378906 1.3693726062774658203 1.6360611915588378906 1.493291020393371582 1.1957230567932128906 1.4835768938064575195 1.7788313627243041992 1.7788313627243041992 1.6360611915588378906 1.1508613824844360352 1.2128918170928955078 1.6360611915588378906 1.8802344799041748047 1.6360611915588378906 1.3989981412887573242 1.4152913093566894531 1.3505208492279052734 1.1065634489059448242 1.6360611915588378906 1.6360611915588378906 1.4776235818862915039 1.5348399877548217773 1.1045832633972167969 1.0605919361114501953 1.5056889057159423828 1.2077505588531494141 1.0061469078063964844 1.4531412124633789063 1.1774945259094238281 1.493291020393371582 1.6415015459060668945 1.2077505588531494141 1.0649803876876831055 1.2897362709045410156 1.3871110677719116211 1.2788662910461425781 1.4222028255462646484 1.3659431934356689453 1.1531997919082641602 1.1817992925643920898 1.3414025306701660156 8.1489782333374023438 1.5510284900665283203 1.6991671323776245117 1.9877279996871948242 1.6488275527954101563 1.6802976131439208984 1.7210149765014648438 1.8446995019912719727 1.7681097984313964844 1.6745940446853637695 1.4998104572296142578 1.493291020393371582 1.7486356496810913086 1.721421360969543457 1.5844887495040893555 1.5917013883590698242 1.5286043882369995117 1.5035604238510131836 1.5336710214614868164 1.6987885236740112305 1.5348384380340576172 1.8240925073623657227 1.8218588829040527344 1.806229710578918457 1.8168517351150512695 2.0254366397857666016 2.0474898815155029297 2.2530143260955810547 2.1796081066131591797 2.5102102756500244141 2.0813701152801513672 2.75705718994140625 2.7451829910278320313 2.6550099849700927734 2.5731880664825439453 2.9156355857849121094 2.6475775241851806641 2.5182130336761474609 3.0277805328369140625 3.2632105350494384766 2.9190344810485839844 2.5008213520050048828 2.2876365184783935547 2.2570364475250244141 1.7825902700424194336 1.8941570520401000977 1.6360611915588378906 1.4776235818862915039 1.6360611915588378906 1.6264138221740722656 1.7788313627243041992 1.3505305051803588867 1.6360611915588378906 1.6215499639511108398 1.32544708251953125 1.5682855844497680664 1.70453643798828125 2.0141277313232421875 2.0086297988891601563 1.8129570484161376953 1.6673145294189453125 1.493291020393371582 1.493291020393371582 1.493291020393371582 1.4219058752059936523 1.3396173715591430664 1.5683858394622802734 1.2077505588531494141 1.4189131259918212891 1.3505208492279052734 1.6360611915588378906 1.7788313627243041992 1.6781011819839477539 1.7788313627243041992 2.2305238246917724609 1.4785366058349609375 1.6360611915588378906 1.4083597660064697266 1.6360611915588378906 1.8545821905136108398 1.9415283203125 1.4168058633804321289 1.4109338521957397461 1.3505208492279052734 1.3800848722457885742 1.3505208492279052734 1.2791357040405273438 1.7574975490570068359 1.344454646110534668 1.1964857578277587891 
1.1836860179901123047 8.1075220108032226563 7.8318314552307128906 1.1330734491348266602 1.0941828489303588867 1.2320860624313354492 1 1.2780908346176147461 1.2108281850814819336 7.8163943290710449219 7.9377717971801757813 7.8170514106750488281 1 1.0726084709167480469 8.2419147491455078125 7.681995391845703125 7.7147002220153808594 7.8721647262573242188 7.5912141799926757813 1.0873441696166992188 1.2865123748779296875 1.1258679628372192383 1.0977820158004760742 1.0990457534790039063 1.43344879150390625 1.0606187582015991211 1.005245208740234375 1.3505208492279052734 1.3644233942031860352 1.6053702831268310547 1.5650649070739746094 1.493291020393371582 1.6360611915588378906 1.6360611915588378906 1.4632703065872192383 1.4140417575836181641 1.6360611915588378906 1.5175237655639648438 1.6360611915588378906 1.6264138221740722656 1.7788313627243041992 2.5577118396759033203 1.9273805618286132813 3.2747108936309814453 2.2718164920806884766 1.9273805618286132813 1.9273805618286132813 1.9273805618286132813 2.8220388889312744141 3.4669039249420166016 4.1904873847961425781 3.8335995674133300781 3.0927255153656005859 2.6414442062377929688 2.0033643245697021484 1.9273805618286132813 1.9273805618286132813 1.9273805618286132813 2.4766926765441894531 1.6264138221740722656 1.4083597660064697266 1.4776235818862915039 1.493291020393371582 1.493291020393371582 1.493291020393371582 1.6360611915588378906 1.6360611915588378906 1.32544708251953125 1.6360611915588378906 1.32544708251953125 1.493291020393371582 1.1883127689361572266 1.493291020393371582 1.6360611915588378906 1.493291020393371582 1.6360611915588378906 1.4776235818862915039 1.6360611915588378906 1.5646760463714599609 1.6360611915588378906 1.6143703460693359375 1.6264138221740722656 1.6360611915588378906 1.2865890264511108398 1.5307346582412719727 1.410406947135925293 1.4976629018783569336 1.32544708251953125 1.32544708251953125 1.6360611915588378906 1.2623025178909301758 1.0991929769515991211 1.3637927770614624023 1.3872932195663452148 1.2077505588531494141 1.478374481201171875 1.5176945924758911133 1.2791357040405273438 1.4868898391723632813 1.239776611328125 1.1001744270324707031 1.5395833253860473633 1.3523304462432861328 1.2608325481414794922 1.1610207557678222656 1.3955135345458984375 7.7196726799011230469 1.3338693380355834961 7.8438820838928222656 8.0054063796997070313 1.1693935394287109375 1.772256016731262207 1.5458112955093383789 1.4770958423614501953 1.7594418525695800781 1.8365896940231323242 2.0317089557647705078 2.1141290664672851563 2.0878293514251708984 1.7935236692428588867 1.496271967887878418 1.7415022850036621094 1.5745836496353149414 1.8671312332153320313 1.542441248893737793 1.5111136436462402344 1.8368036746978759766 1.6070508956909179688 1.6488426923751831055 1.7838567495346069336 1.6747709512710571289 1.8947302103042602539 1.6982526779174804688 2.0463817119598388672 1.685042262077331543 2.0650272369384765625 1.7471783161163330078 2.1765155792236328125 2.07453155517578125 2.0777461528778076172 2.0152552127838134766 2.3045630455017089844 2.5394721031188964844 1.9171226024627685547 2.0462219715118408203 2.5562570095062255859 2.6325635910034179688 2.2071223258972167969 2.6796991825103759766 2.6107547283172607422 2.578960418701171875 2.0343620777130126953 2.1994459629058837891 2.2556180953979492188 1.703745722770690918 1.8528844118118286133 1.7382248640060424805 1.32544708251953125 1.32544708251953125 1.581653594970703125 1.6360611915588378906 1.6425864696502685547 1.7788313627243041992 1.6360611915588378906 1.3505305051803588867 1.4926189184188842773 1.3258135318756103516 1.9625101089477539063 1.5695645809173583984 1.5959689617156982422 1.4529435634613037109 1.531848907470703125 1.3505208492279052734 1.493291020393371582 1.493291020393371582 1.3505208492279052734 1.493291020393371582 1.3505208492279052734 1.1526032686233520508 1.6526093482971191406 1.493291020393371582 1.493291020393371582 1.6425864696502685547 1.6264138221740722656 1.6264138221740722656 1.7788313627243041992 1.939324498176574707 1.9032093286514282227 1.5347506999969482422 1.9116604328155517578 1.9785960912704467773 1.7023115158081054688 1.5585821866989135742 1.7891328334808349609 1.3628008365631103516 1.1053460836410522461 1.6000919342041015625 1.3505208492279052734 1.0983484983444213867 1.2621943950653076172 
1.1331975460052490234 7.9144368171691894531 1.4668180942535400391 7.8781299591064453125 1.0782133340835571289 1.3948321342468261719 1.0280455350875854492 7.7274827957153320313 7.9375905990600585938 1 7.7434115409851074219 1.3548313379287719727 1.3406025171279907227 7.8210310935974121094 7.9163088798522949219 7.9595689773559570313 8.1075391769409179688 1.0178352594375610352 1.7552955150604248047 1.1945514678955078125 1.1126056909561157227 1.4144002199172973633 1.6320461034774780273 1.5268937349319458008 1.4018934965133666992 1.675246119499206543 1.1639531850814819336 1.129159092903137207 1.5152180194854736328 1.2653602361679077148 1.493291020393371582 1.4797317981719970703 1.6360611915588378906 1.6360611915588378906 1.7788313627243041992 1.4369227886199951172 1.4636175632476806641 1.7788313627243041992 1.6264138221740722656 1.7788313627243041992 1.9273805618286132813 2.2718164920806884766 3.2965180873870849609 3.6815922260284423828 3.6951785087585449219 1.9273805618286132813 1.9273805618286132813 1.7046622037887573242 1.9273805618286132813 5.0473923683166503906 2.2283473014831542969 4.1126537322998046875 3.2965180873870849609 1.9273805618286132813 1.9273805618286132813 3.0927255153656005859 2.6419634819030761719 3.2257735729217529297 1.6264138221740722656 1.6360611915588378906 1.493291020393371582 1.260272979736328125 1.493291020393371582 1.32544708251953125 1.6582392454147338867 1.6360611915588378906 1.3693726062774658203 1.6360611915588378906 1.7891725301742553711 1.6215499639511108398 1.3505208492279052734 1.4219058752059936523 1.5646760463714599609 1.5432809591293334961 1.6360611915588378906 1.9293272495269775391 1.7162407636642456055 1.6264138221740722656 1.32544708251953125 1.6360611915588378906 1.493291020393371582 1.4555126428604125977 1.6360611915588378906 1.3354040384292602539 1.5295792818069458008 1.6360611915588378906 1.32544708251953125 1.4336311817169189453 1.0244803428649902344 1.3505208492279052734 1.2934870719909667969 1.4521238803863525391 1.5063199996948242188 1.2077505588531494141 1.3796128034591674805 1.3505208492279052734 1.2077505588531494141 1.4957724809646606445 1.2077505588531494141 1.4814083576202392578 1.352106928825378418 1.1770013570785522461 1.2265532016754150391 1.4771350622177124023 1.1671603918075561523 1.1855623722076416016 1.1948806047439575195 1.203797459602355957 1.262157440185546875 1.3490821123123168945 8.3422517776489257813 1.3953889608383178711 1.5269489288330078125 1.5589566230773925781 1.2557545900344848633 1.8530454635620117188 1.9134856462478637695 2.0406939983367919922 1.9683955907821655273 1.7134264707565307617 1.5295804738998413086 1.3505208492279052734 1.493291020393371582 1.5407603979110717773 1.6067931652069091797 1.26709747314453125 1.6293358802795410156 1.772187352180480957 1.8773634433746337891 2.1610395908355712891 1.9747166633605957031 1.3505208492279052734 1.6050269603729248047 2.0795643329620361328 1.8532290458679199219 1.6416022777557373047 1.9452593326568603516 1.8675429821014404297 2.0762805938720703125 2.40103912353515625 2.4027118682861328125 2.2000522613525390625 1.7654886245727539063 1.8561248779296875 2.3269262313842773438 2.0429067611694335938 2.5191524028778076172 2.3324193954467773438 2.3047468662261962891 2.4552376270294189453 2.1960659027099609375 2.0658738613128662109 1.9866081476211547852 1.8111928701400756836 1.8175673484802246094 1.6195579767227172852 1.536368250846862793 1.32544708251953125 1.6425864696502685547 1.493291020393371582 1.1996543407440185547 1.7147555351257324219 1.6360611915588378906 1.6360611915588378906 1.6360611915588378906 1.0244803428649902344 1.6360611915588378906 1.3853602409362792969 1.6360611915588378906 1.493291020393371582 1.493291020393371582 1.4965003728866577148 1.7537227869033813477 1.4269202947616577148 1.289812922477722168 1.493291020393371582 1.4219058752059936523 1.6181473731994628906 1.3867985010147094727 1.6446666717529296875 1.5851219892501831055 2.1057736873626708984 1.7788313627243041992 1.6360611915588378906 1.7788313627243041992 1.7202003002166748047 2.0254714488983154297 1.8855702877044677734 1.7768229246139526367 1.5993688106536865234 1.5849021673202514648 1.4537417888641357422 1.520304560661315918 1.763438105583190918 1.493291020393371582 1.0821601152420043945 1.2038865089416503906 1.3051592111587524414 1.3855310678482055664 1.2077505588531494141 
1.2972077131271362305 1.0377420186996459961 1.3300338983535766602 1.0695128440856933594 1.1360931396484375 1 8.0867795944213867188 1.2881984710693359375 1 1.3927854299545288086 8.1344614028930664063 7.797756195068359375 1.251036524772644043 1.5570505857467651367 7.74260711669921875 7.7230377197265625 7.8634920120239257813 1.4519339799880981445 1.5652472972869873047 1.3494062423706054688 1.5551824569702148438 1.4710434675216674805 1.4395279884338378906 1.4383549690246582031 1.2200983762741088867 1.4568573236465454102 1.3505208492279052734 1.3615306615829467773 1.493291020393371582 1.493291020393371582 1.4097400903701782227 1.4521559476852416992 1.6360611915588378906 1.6360611915588378906 1.6264138221740722656 1.4914309978485107422 1.6360611915588378906 1.6264138221740722656 1.9273805618286132813 1.7904338836669921875 3.4669039249420166016 2.2786147594451904297 2.0399518013000488281 2.2283473014831542969 3.2965180873870849609 1.9273805618286132813 1.9541800022125244141 2.2129473686218261719 3.2429821491241455078 2.2283473014831542969 4.5871348381042480469 3.8335995674133300781 1.9697748422622680664 2.6414442062377929688 1.9273805618286132813 1.9273805618286132813 1.9273805618286132813 1.694403529167175293 1.7788313627243041992 1.7788313627243041992 1.6360611915588378906 1.6360611915588378906 1.2830507755279541016 1.6602383852005004883 1.6360611915588378906 1.7788313627243041992 1.6264138221740722656 1.7788313627243041992 1.6287775039672851563 1.4040853977203369141 1.5646760463714599609 1.3420876264572143555 1.4862139225006103516 1.4122115373611450195 1.493291020393371582 1.7788313627243041992 1.4077088832855224609 1.3824409246444702148 1.6425864696502685547 1.6360611915588378906 1.6360611915588378906 1.4464323520660400391 1.3196572065353393555 1.2364737987518310547 1.5762795209884643555 1.3857489824295043945 1.493291020393371582 1.5657176971435546875 1.493291020393371582 1.5094091892242431641 1.4277998208999633789 1.4236786365509033203 1.493291020393371582 1.3686259984970092773 1.3862700462341308594 1.3663666248321533203 1.1823155879974365234 1.2479541301727294922 1.29864501953125 1.4745104312896728516 1.8374080657958984375 1.4591734409332275391 1.5990790128707885742 1.4919124841690063477 1.3072364330291748047 1.4083706140518188477 1.6113426685333251953 1.411845088005065918 1.2854599952697753906 1.3146076202392578125 1.4253802299499511719 1.3505208492279052734 1.3700846433639526367 1.6453375816345214844 2.1115055084228515625 1.4129705429077148438 1.6360611915588378906 1.4417754411697387695 1.493291020393371582 1.6481660604476928711 1.4062215089797973633 1.4219058752059936523 1.3014707565307617188 1.5946877002716064453 1.6966079473495483398 1.4307904243469238281 1.7274827957153320313 1.8659415245056152344 1.6835967302322387695 1.7485243082046508789 1.750683903694152832 1.8733355998992919922 1.5373331308364868164 1.9743392467498779297 1.8722295761108398438 1.8472859859466552734 1.9057340621948242188 1.5783495903015136719 1.6798067092895507813 2.0678014755249023438 2.4670009613037109375 2.0439276695251464844 2.0284450054168701172 2.0392034053802490234 2.2427124977111816406 2.3864362239837646484 2.2863678932189941406 2.0891101360321044922 2.0061304569244384766 1.8839993476867675781 2.2584350109100341797 2.5323255062103271484 2.0413737297058105469 1.8501318693161010742 1.7820370197296142578 1.670096278190612793 1.6957620382308959961 1.6360611915588378906 1.6360611915588378906 1.493291020393371582 1.6360611915588378906 1.6360611915588378906 1.32544708251953125 1.6264138221740722656 1.5181025266647338867 1.3691771030426025391 1.4785366058349609375 1.2762746810913085938 1.5607475042343139648 1.0906784534454345703 1.6360611915588378906 1.5275896787643432617 1.4219058752059936523 1.3550276756286621094 1.3505208492279052734 1.4689815044403076172 1.6574667692184448242 1.6360611915588378906 1.3505208492279052734 1.4238545894622802734 1.6360611915588378906 1.7788313627243041992 2.1566908359527587891 1.6360611915588378906 1.8217518329620361328 1.6301304101943969727 1.9804980754852294922 2.3350090980529785156 2.1751129627227783203 1.7968754768371582031 1.493291020393371582 1.482273101806640625 1.7989732027053833008 1.4794965982437133789 1.5197075605392456055 1.2027618885040283203 1.4785366058349609375 1.1285316944122314453 1.2713550329208374023 1.2670698165893554688 
1.4695020914077758789 1.0157800912857055664 1.3129953145980834961 1.0823968648910522461 1.5044823884963989258 1.4761577844619750977 1.3980572223663330078 1.3253432512283325195 1.4395254850387573242 8.1030559539794921875 1.2998795509338378906 7.9451670646667480469 8.3105831146240234375 8.1652698516845703125 8.2422771453857421875 8.051128387451171875 8.1319513320922851563 7.7963099479675292969 1.0350999832153320313 1.3206319808959960938 1.26163482666015625 1.2068411111831665039 1.2585061788558959961 1.3161587715148925781 1.4093188047409057617 1.5326176881790161133 1.493291020393371582 1.1754961013793945313 1.2134191989898681641 1.5235276222229003906 1.5787280797958374023 1.3691735267639160156 1.6264138221740722656 1.6360611915588378906 1.6264138221740722656 1.7788313627243041992 1.6264138221740722656 1.7788313627243041992 1.7788313627243041992 1.9273805618286132813 1.9273805618286132813 1.9849596023559570313 1.9273805618286132813 1.9273805618286132813 2.8220388889312744141 1.9273805618286132813 1.9849596023559570313 2.8220388889312744141 3.6815922260284423828 2.2283473014831542969 2.9318671226501464844 5.0473923683166503906 3.8335995674133300781 1.9273805618286132813 1.9273805618286132813 2.3852427005767822266 1.9273805618286132813 1.9273805618286132813 1.9794325828552246094 1.9684967994689941406 1.6360611915588378906 1.6360611915588378906 1.493291020393371582 1.4241361618041992188 1.4314638376235961914 1.7788313627243041992 1.7696378231048583984 1.6360611915588378906 1.5764772891998291016 1.6982493400573730469 1.32544708251953125 1.121950984001159668 1.6360611915588378906 1.493291020393371582 1.493291020393371582 1.6360611915588378906 1.493291020393371582 1.6360611915588378906 1.6360611915588378906 1.493291020393371582 1.6014958620071411133 1.4219058752059936523 1.08043670654296875 1.6360611915588378906 1.493291020393371582 1.5019210577011108398 1.3169102668762207031 1.5345940589904785156 1.2968860864639282227 1.493291020393371582 1.6207728385925292969 1.493291020393371582 1.6360611915588378906 1.493291020393371582 1.4099328517913818359 1.262398838996887207 1.4613090753555297852 1.3505208492279052734 1.3554300069808959961 1.5327068567276000977 1.1657748222351074219 1.2077505588531494141 1.0226484537124633789 1.1781518459320068359 1.4527595043182373047 1.500499725341796875 1.385125279426574707 1.7907537221908569336 1.4562509059906005859 1.2706582546234130859 1.5502911806106567383 1.7145428657531738281 1.2865890264511108398 1.5370910167694091797 1.562643885612487793 1.4270082712173461914 1.4941315650939941406 1.422367095947265625 1.6264138221740722656 1.6264138221740722656 2.1179823875427246094 1.493291020393371582 1.5093939304351806641 1.330341339111328125 1.2719157934188842773 1.2280013561248779297 1.6047192811965942383 1.5196949243545532227 1.5644625425338745117 1.6608966588973999023 2.0743515491485595703 1.7500003576278686523 2.1436583995819091797 2.1146802902221679688 1.6818583011627197266 1.9654439687728881836 1.4956325292587280273 1.6221075057983398438 1.8169938325881958008 1.8479858636856079102 2.3958346843719482422 2.0432751178741455078 2.31688690185546875 1.9736047983169555664 2.2654080390930175781 2.3799395561218261719 1.996001124382019043 2.2042422294616699219 2.0273504257202148438 2.2150981426239013672 2.1851911544799804688 2.1697442531585693359 2.0059261322021484375 1.7460520267486572266 1.8366287946701049805 1.5805433988571166992 1.6360611915588378906 1.6118854284286499023 1.7788313627243041992 1.6360611915588378906 1.3957645893096923828 1.6425864696502685547 1.6360611915588378906 1.7788313627243041992 1.7788313627243041992 1.9521150588989257813 1.7061132192611694336 2.2720725536346435547 1.6120336055755615234 1.3392064571380615234 1.6360611915588378906 1.493291020393371582 1.493291020393371582 1.4391254186630249023 1.489683985710144043 1.4690849781036376953 1.6360611915588378906 1.1375068426132202148 1.4697933197021484375 1.6360611915588378906 1.32544708251953125 1.6215499639511108398 1.5443677902221679688 1.9964057207107543945 2.0708780288696289063 2.1788256168365478516 1.8172158002853393555 1.6931856870651245117 1.9922968149185180664 1.810741424560546875 1.5999389886856079102 1.6360611915588378906 1.542359471321105957 1.7246446609497070313 1.6287822723388671875 1.3459802865982055664 1.6360611915588378906 1.714202880859375 1.8041737079620361328 1.5804979801177978516 
1.1833232641220092773 1.2918854951858520508 1.7097289562225341797 7.91245269775390625 1.4250903129577636719 8.1863412857055664063 1.458332061767578125 8.02362823486328125 1.5957542657852172852 7.99582672119140625 7.99233245849609375 7.9483060836791992188 7.9210171699523925781 7.8213658332824707031 1.2147114276885986328 7.789211273193359375 8.15119171142578125 1.0962514877319335938 1.3276755809783935547 1.4037485122680664063 1.1846390962600708008 1 1.1668720245361328125 1.2077505588531494141 1.3505208492279052734 1.5427165031433105469 1.6360611915588378906 1.6360611915588378906 1.3505208492279052734 1.2535564899444580078 1.4780768156051635742 1.6360611915588378906 1.4996759891510009766 1.6264138221740722656 1.7696378231048583984 1.6264138221740722656 1.7074462175369262695 1.9273805618286132813 1.7766367197036743164 2.2305238246917724609 1.9273805618286132813 1.7788313627243041992 1.7788313627243041992 1.9273805618286132813 1.9273805618286132813 1.9273805618286132813 2.2718164920806884766 3.6951785087585449219 3.2965180873870849609 1.9849596023559570313 2.50002288818359375 1.9273805618286132813 1.7788313627243041992 1.9273805618286132813 1.9273805618286132813 1.7860915660858154297 1.7788313627243041992 2.4766926765441894531 1.6734724044799804688 1.7872604131698608398 1.7074462175369262695 1.6360611915588378906 1.4604305028915405273 1.6360611915588378906 1.6360611915588378906 1.7788313627243041992 1.7942707538604736328 1.7499146461486816406 1.3505208492279052734 1.6656699180603027344 1.5646760463714599609 1.6215499639511108398 1.387429356575012207 1.0391867160797119141 1.493291020393371582 1.493291020393371582 1.5482591390609741211 1.493291020393371582 1.493291020393371582 1.4219058752059936523 1.3385623693466186523 1.3505208492279052734 1.3913326263427734375 1.5646760463714599609 1.493291020393371582 1.5131815671920776367 1.493291020393371582 1.493291020393371582 1.6222404241561889648 1.6590162515640258789 1.7976189851760864258 1.6066579818725585938 1.5942564010620117188 1.4197721481323242188 1.424396514892578125 1.3078719377517700195 1.499018549919128418 1.493291020393371582 1.8267577886581420898 1.447207331657409668 1.493291020393371582 1.3704385757446289063 1.3505208492279052734 1.5247275829315185547 1.2077505588531494141 1.42955780029296875 1.3872984647750854492 1.4087299108505249023 1.5875943899154663086 1.4565360546112060547 1.5187574625015258789 1.7887269258499145508 1.6360611915588378906 1.5181157588958740234 1.6360611915588378906 1.400562286376953125 1.6360611915588378906 1.32544708251953125 1.7525779008865356445 2.3146822452545166016 1.6264138221740722656 1.4027183055877685547 1.5655393600463867188 1.6970913410186767578 1.3505208492279052734 1.1545312404632568359 1.3961745500564575195 1.4017400741577148438 1.3735020160675048828 1.4030879735946655273 1.8246824741363525391 1.6154700517654418945 2.3147480487823486328 2.2083683013916015625 1.8118777275085449219 1.6474469900131225586 1.585248112678527832 1.9569296836853027344 2.2457737922668457031 2.1283450126647949219 2.048740386962890625 2.1923108100891113281 2.1219074726104736328 2.1935102939605712891 2.2557842731475830078 2.4056630134582519531 2.3027250766754150391 2.0978367328643798828 2.4004151821136474609 2.2301638126373291016 2.5818531513214111328 2.3077170848846435547 1.8328505754470825195 1.9077140092849731445 1.8726816177368164063 1.4992188215255737305 1.7444893121719360352 1.6871217489242553711 1.5846168994903564453 1.6360611915588378906 1.32544708251953125 1.4781814813613891602 1.7788313627243041992 1.6264138221740722656 1.6264138221740722656 1.7788313627243041992 1.9530792236328125 2.1255180835723876953 1.6928887367248535156 1.5168431997299194336 1.3702580928802490234 1.493291020393371582 1.451081395149230957 1.4204796552658081055 1.3505208492279052734 1.6360611915588378906 1.6264138221740722656 1.7364619970321655273 1.4785366058349609375 1.6360611915588378906 1.32544708251953125 1.5646760463714599609 1.7339410781860351563 2.0539140701293945313 2.2066614627838134766 2.7415277957916259766 2.2678978443145751953 2.0846185684204101563 2.3375704288482666016 2.4114258289337158203 2.2051784992218017578 1.8598949909210205078 1.7644065618515014648 1.9084399938583374023 2.0921294689178466797 1.4369227886199951172 1.8072439432144165039 1.8706600666046142578 1.7570478916168212891 1.469076991081237793 
1 1.2758067846298217773 1.0838968753814697266 1.1065274477005004883 7.8466792106628417969 8.2422323226928710938 7.9581427574157714844 1.2892217636108398438 1.6849707365036010742 1.3849735260009765625 8.1137342453002929688 1.2520570755004882813 1.350577235221862793 1.3219002485275268555 7.8974995613098144531 8.0214710235595703125 8.2519512176513671875 1.1150449514389038086 1.4954804182052612305 1.6485375165939331055 1 1.575564265251159668 1.4596478939056396484 1.1275234222412109375 1.486536860466003418 1.6412594318389892578 1.32544708251953125 1.6360611915588378906 1.6371445655822753906 1.493291020393371582 1.1055486202239990234 1.493291020393371582 1.6360611915588378906 1.5029157400131225586 1.6264138221740722656 1.6264138221740722656 1.8822224140167236328 1.7696378231048583984 1.9121928215026855469 1.9273805618286132813 1.9273805618286132813 1.9273805618286132813 1.8951973915100097656 2.9318671226501464844 2.9318671226501464844 2.2129473686218261719 2.986942291259765625 3.6493880748748779297 4.6883144378662109375 1.9273805618286132813 1.9273805618286132813 1.9121928215026855469 1.694403529167175293 1.7788313627243041992 1.6264138221740722656 1.7586873769760131836 2.6419634819030761719 1.9625101089477539063 1.6742930412292480469 1.74698638916015625 1.8205897808074951172 1.6360611915588378906 1.4551444053649902344 1.4375647306442260742 2.2814834117889404297 1.6264138221740722656 1.4093953371047973633 1.5745947360992431641 1.1712042093276977539 1.4703686237335205078 1.493291020393371582 1.6971536874771118164 1.4738727807998657227 1.4259771108627319336 1.4008829593658447266 1.3991209268569946289 1.5230370759963989258 1.0886651277542114258 1.4960191249847412109 1.493291020393371582 1.5646760463714599609 1.5533547401428222656 1.5431437492370605469 1.3481920957565307617 1.7145099639892578125 1.7161158323287963867 1.6360611915588378906 1.1631891727447509766 1.493291020393371582 1.442969202995300293 1.7379901409149169922 1.6915786266326904297 1.7605718374252319336 1.4037948846817016602 1.5273672342300415039 1.3429646492004394531 1.6812616586685180664 1.4238945245742797852 1.6301512718200683594 1.6505447626113891602 1.6296582221984863281 1.493291020393371582 1.3776165246963500977 1.3888452053070068359 1.3505208492279052734 1.6544122695922851563 1.7370797395706176758 1.6167626380920410156 1.5674399137496948242 1.4241374731063842773 1.4410786628723144531 1.3884743452072143555 1.6360611915588378906 1.5404305458068847656 1.4430795907974243164 1.493291020393371582 1.6360611915588378906 1.6360611915588378906 2.0484960079193115234 1.7872604131698608398 2.0773510932922363281 1.7788313627243041992 1.6360611915588378906 1.7788313627243041992 1.6360611915588378906 1.493291020393371582 1.3505208492279052734 1.6434442996978759766 1.670882105827331543 1.8189808130264282227 1.8773245811462402344 2.6234076023101806641 2.1505670547485351563 2.0883002281188964844 1.8271534442901611328 1.8149690628051757813 1.5701056718826293945 1.8459360599517822266 1.9014183282852172852 1.9661393165588378906 1.601977229118347168 2.1197161674499511719 2.3373811244964599609 2.5756676197052001953 2.5939326286315917969 2.6454832553863525391 2.1685669422149658203 2.0951950550079345703 2.5627989768981933594 2.7171981334686279297 2.4416000843048095703 2.4595825672149658203 2.3060305118560791016 2.0246319770812988281 1.7514562606811523438 1.5792415142059326172 1.3921577930450439453 1.4127945899963378906 1.6392788887023925781 1.7788313627243041992 1.6360611915588378906 1.6360611915588378906 1.910449981689453125 1.6360611915588378906 1.6360611915588378906 1.6885267496109008789 1.861614227294921875 1.7990851402282714844 1.5078279972076416016 1.493291020393371582 1.4815876483917236328 1.8487229347229003906 1.6070544719696044922 1.348921656608581543 1.4430021047592163086 1.493291020393371582 1.493291020393371582 1.557125091552734375 1.5604224205017089844 1.7585012912750244141 1.6360611915588378906 1.7764952182769775391 2.1300237178802490234 2.5475382804870605469 2.6245188713073730469 2.5744404792785644531 2.4639539718627929688 2.5624170303344726563 2.5160882472991943359 2.5617170333862304688 2.3124577999114990234 1.9503977298736572266 1.9852415323257446289 2.4848287105560302734 2.0808813571929931641 2.105648040771484375 2.5290341377258300781 1.6342101097106933594 1.6360611915588378906 1.590391993522644043 
1.3715517520904541016 8.2479343414306640625 1.2603223323822021484 1.2781000137329101563 8.0992555618286132813 8.1308202743530273438 8.1092777252197265625 1.4208495616912841797 1.5626691579818725586 7.9966182708740234375 8.3140306472778320313 8.0784168243408203125 1.1697733402252197266 8.29103851318359375 8.0079774856567382813 1.3079071044921875 1.3733893632888793945 1.6609721183776855469 1.1759691238403320313 1.749172210693359375 1.6676120758056640625 1.3759257793426513672 1.3740689754486083984 1.2624303102493286133 1.4385747909545898438 1.635800480842590332 1.32544708251953125 1.3039456605911254883 1.3352696895599365234 1.5741438865661621094 1.6013623476028442383 1.5235904455184936523 1.6360611915588378906 1.8802344799041748047 1.7788313627243041992 1.4765250682830810547 1.7788313627243041992 1.7788313627243041992 2.0033643245697021484 1.9273805618286132813 2.2305238246917724609 2.8871884346008300781 2.2129473686218261719 3.4669039249420166016 3.7983632087707519531 1.9697748422622680664 3.4669039249420166016 2.6414442062377929688 2.2718164920806884766 2.2129473686218261719 1.9273805618286132813 1.9273805618286132813 3.2110114097595214844 1.6264138221740722656 1.7034357786178588867 1.6264138221740722656 1.7412164211273193359 1.7947478294372558594 2.1566908359527587891 1.7074462175369262695 2.0117695331573486328 1.7788313627243041992 1.6360611915588378906 1.8051825761795043945 1.493291020393371582 1.6360611915588378906 1.6360611915588378906 1.493291020393371582 1.6186197996139526367 1.2077505588531494141 1.2791357040405273438 1.493291020393371582 1.0518763065338134766 1.5035279989242553711 1.4543423652648925781 1.4712588787078857422 1.299719691276550293 1.3934017419815063477 1.3449424505233764648 1.493291020393371582 1.3478679656982421875 1.1730130910873413086 1.4124368429183959961 1.8255598545074462891 1.3505208492279052734 1.6902290582656860352 1.2865890264511108398 1.6360611915588378906 1.5262715816497802734 1.4488422870635986328 1.4429850578308105469 1.5433132648468017578 1.5234856605529785156 1.4873198270797729492 1.6807609796524047852 1.2620267868041992188 1.4458341598510742188 1.9792822599411010742 1.5010840892791748047 1.5669867992401123047 1.6109354496002197266 1.6121790409088134766 1.4888019561767578125 1.6824643611907958984 1.6144237518310546875 1.9418634176254272461 1.7449201345443725586 1.9649847745895385742 1.8010764122009277344 1.7067453861236572266 1.7074311971664428711 1.1894644498825073242 1.6360611915588378906 1.32544708251953125 1.4950157403945922852 1.3205014467239379883 1.4322316646575927734 1.7122943401336669922 1.6710814237594604492 2.6419634819030761719 1.8138262033462524414 1.9273805618286132813 1.9273805618286132813 1.7280544042587280273 1.5720208883285522461 1.493291020393371582 1.3749127388000488281 1.6677821874618530273 1.493291020393371582 1.6722900867462158203 2.1027681827545166016 2.4297378063201904297 1.8388351202011108398 2.1848444938659667969 1.961529850959777832 1.6156433820724487305 1.8433018922805786133 1.8094003200531005859 1.7413542270660400391 1.8801938295364379883 1.6052100658416748047 2.1056060791015625 2.3510346412658691406 2.3425402641296386719 2.5200090408325195313 2.7268290519714355469 2.2205748558044433594 2.4519174098968505859 2.5991735458374023438 2.1787035465240478516 2.2297470569610595703 2.2300336360931396484 1.9571975469589233398 1.6346617937088012695 1.7073637247085571289 1.4833072423934936523 1.7096893787384033203 1.8728348016738891602 1.4453576803207397461 1.6360611915588378906 1.6360611915588378906 1.6360611915588378906 1.6360611915588378906 1.5228899717330932617 1.6360611915588378906 1.6360611915588378906 1.6215499639511108398 1.5959603786468505859 1.7554761171340942383 1.1988310813903808594 1.6390318870544433594 1.6861560344696044922 1.7157016992568969727 1.5163673162460327148 1.4353033304214477539 1.6929728984832763672 1.4025427103042602539 1.6481412649154663086 1.5579687356948852539 1.7415792942047119141 2.1620390415191650391 1.9477376937866210938 2.2177460193634033203 2.5704255104064941406 2.7227392196655273438 2.3310606479644775391 2.8530600070953369141 2.5174038410186767578 2.7527053356170654297 2.8987386226654052734 2.7472999095916748047 2.417449951171875 2.1754727363586425781 2.2689723968505859375 2.674587249755859375 2.299465179443359375 1.9330168962478637695 1.6360611915588378906 1.5388704538345336914 1.7699903249740600586 
1.5793150663375854492 1.3825666904449462891 7.9964141845703125 8.3962602615356445313 1.0475060939788818359 1.3666640520095825195 1.4760247468948364258 7.9924993515014648438 8.1682939529418945313 1.5281629562377929688 1.3437993526458740234 8.3594732284545898438 7.9466004371643066406 8.1683025360107421875 8.0143060684204101563 8.07274627685546875 1.2921757698059082031 1.4845249652862548828 1.2994593381881713867 1.3994688987731933594 1.4725413322448730469 1.4978896379470825195 1.6612558364868164063 1.3505208492279052734 1.4219058752059936523 1.32544708251953125 1.6360611915588378906 1.1631811857223510742 1.745594024658203125 1.8853651285171508789 1.32544708251953125 1.0654336214065551758 1.7788313627243041992 1.8040344715118408203 1.7788313627243041992 1.6425864696502685547 1.6264138221740722656 1.9068623781204223633 1.6422827243804931641 1.7788313627243041992 1.7788313627243041992 1.9273805618286132813 2.2129473686218261719 2.8220388889312744141 1.8502165079116821289 2.0283679962158203125 1.9273805618286132813 2.4568207263946533203 2.2305238246917724609 3.2395925521850585938 2.6419634819030761719 1.9273805618286132813 1.8502165079116821289 1.6853694915771484375 1.6500800848007202148 1.7074462175369262695 1.867251276969909668 1.6689293384552001953 1.7599335908889770508 1.8162931203842163086 1.9951025247573852539 1.772778630256652832 1.6360611915588378906 1.6360611915588378906 1.6360611915588378906 1.6025677919387817383 1.6360611915588378906 1.369594573974609375 1.493291020393371582 1.4726270437240600586 1.4645221233367919922 1.4020372629165649414 1.176861882209777832 1.4723954200744628906 1.5882081985473632813 1.1171938180923461914 1.3505208492279052734 1.493291020393371582 1.3627693653106689453 1.493291020393371582 1.8194036483764648438 1.4219058752059936523 1.32544708251953125 1.1813455820083618164 1.3283703327178955078 1.493291020393371582 1.5102385282516479492 1.2971123456954956055 1.4213471412658691406 1.5054694414138793945 1.3070340156555175781 1.3946311473846435547 1.3095490932464599609 1.8384809494018554688 1.3704205751419067383 1.5981924533843994141 1.5643062591552734375 1.7157224416732788086 1.5788835287094116211 1.5660903453826904297 1.7080188989639282227 1.5834901332855224609 1.9598885774612426758 1.8465837240219116211 1.620816349983215332 1.7567535638809204102 1.5520561933517456055 1.6268000602722167969 1.8910419940948486328 1.8028364181518554688 1.6360611915588378906 1.3632007837295532227 1.3721284866333007813 1.4941315650939941406 1.32544708251953125 1.1964014768600463867 1.6360611915588378906 1.6360611915588378906 2.5577118396759033203 2.3852427005767822266 1.9273805618286132813 1.6371825933456420898 1.7788313627243041992 1.7788313627243041992 1.6360611915588378906 1.4249149560928344727 1.3376404047012329102 1.5477355718612670898 1.4086302518844604492 1.8383607864379882813 2.0713064670562744141 1.8095842599868774414 1.8844621181488037109 2.2632772922515869141 2.0973150730133056641 1.9722301959991455078 1.7341037988662719727 1.7100586891174316406 1.9320940971374511719 2.0341939926147460938 1.6899361610412597656 2.0292627811431884766 2.2772963047027587891 1.8781112432479858398 2.2726652622222900391 2.4798002243041992188 2.435230255126953125 2.2096955776214599609 2.0442719459533691406 2.0754222869873046875 2.1088979244232177734 2.3576068878173828125 1.8502427339553833008 1.4857742786407470703 1.7293773889541625977 1.5656406879425048828 1.5646760463714599609 1.5646760463714599609 1.493291020393371582 1.32544708251953125 1.7884508371353149414 1.6360611915588378906 1.3018617630004882813 1.4953436851501464844 1.414727330207824707 1.6197843551635742188 1.493291020393371582 1.3964030742645263672 1.4094026088714599609 1.5880330801010131836 1.5307484865188598633 1.6192945241928100586 1.8948354721069335938 1.9084841012954711914 1.9791200160980224609 2.0163080692291259766 1.7061791419982910156 1.6268124580383300781 1.8496174812316894531 2.0015406608581542969 1.9753915071487426758 2.191310882568359375 2.3095188140869140625 2.5130193233489990234 2.7412343025207519531 2.5966980457305908203 3.4149327278137207031 2.8121767044067382813 2.8429844379425048828 2.6038107872009277344 2.6691210269927978516 2.8778362274169921875 2.2881703376770019531 2.1607615947723388672 2.2361881732940673828 2.2653818130493164063 2.0421247482299804688 1.6485054492950439453 1.7788313627243041992 1.7586433887481689453 
1.4656249284744262695 1.1134351491928100586 1.4035770893096923828 1.4183084964752197266 7.9838633537292480469 7.9758362770080566406 1.3074079751968383789 1.5432121753692626953 1.2770230770111083984 8.2366619110107421875 1.3105044364929199219 7.7595667839050292969 7.9377741813659667969 8.2281103134155273438 1.2620607614517211914 1.2398612499237060547 7.9463858604431152344 8.47525787353515625 1.4330521821975708008 1.2219146490097045898 1.4448728561401367188 1.213461756706237793 1.7580145597457885742 1.3505208492279052734 1.4495780467987060547 1.5958594083786010742 1.6690859794616699219 1.32544708251953125 1.4406107664108276367 1.3693726062774658203 1.6319293975830078125 1.3757282495498657227 1.7788313627243041992 1.7788313627243041992 1.7788313627243041992 1.6425864696502685547 1.7788313627243041992 1.7788313627243041992 2.6419634819030761719 1.9273805618286132813 1.7280544042587280273 1.7046622037887573242 2.2129473686218261719 1.9273805618286132813 2.6419634819030761719 1.7788313627243041992 1.712459564208984375 1.7586873769760131836 1.7788313627243041992 1.6264138221740722656 2.1317989826202392578 2.1317989826202392578 1.6734724044799804688 1.6264138221740722656 1.7788313627243041992 1.6425864696502685547 1.4525038003921508789 1.6360611915588378906 1.9466080665588378906 2.0625581741333007813 1.7691990137100219727 1.7538865804672241211 1.6688883304595947266 1.6360611915588378906 1.6360611915588378906 1.8062961101531982422 1.7182968854904174805 1.7268270254135131836 1.3445830345153808594 1.3543006181716918945 1.5309588909149169922 1.4356410503387451172 1.3607133626937866211 1.3505208492279052734 1.4120752811431884766 1.0680364370346069336 1.4219058752059936523 1.4244295358657836914 1.4429666996002197266 1.4860640764236450195 1.5456718206405639648 1.2532031536102294922 1.407091975212097168 1.40610504150390625 1.4219058752059936523 1.4219058752059936523 1.2325789928436279297 1.534415125846862793 1.5654762983322143555 1.669979095458984375 1.2366659641265869141 1.7063529491424560547 1.6053422689437866211 1.0810755491256713867 1.6215347051620483398 1.7460858821868896484 1.6398612260818481445 1.7230864763259887695 1.758036494255065918 1.6029021739959716797 1.7750324010848999023 1.820097804069519043 1.7478656768798828125 2.1710813045501708984 1.6981997489929199219 1.4948873519897460938 1.6091723442077636719 1.6855107545852661133 1.6304490566253662109 1.6215499639511108398 1.6548595428466796875 1.7017174959182739258 1.61907196044921875 1.8377010822296142578 1.4599989652633666992 1.4424145221710205078 1.4551444053649902344 1.7788313627243041992 1.7788313627243041992 1.7788313627243041992 1.7788313627243041992 1.7788313627243041992 1.7788313627243041992 1.7788313627243041992 1.279179692268371582 1.493291020393371582 1.4818040132522583008 1.579869389533996582 1.6544183492660522461 1.530956268310546875 1.6987280845642089844 1.716948390007019043 1.8696292638778686523 1.8344980478286743164 1.8827441930770874023 1.6360611915588378906 1.7255388498306274414 1.8730731010437011719 2.092708587646484375 1.8234601020812988281 2.2299878597259521484 2.1298093795776367188 2.2241923809051513672 1.8290482759475708008 2.165073394775390625 2.1396937370300292969 2.0256686210632324219 2.5775396823883056641 2.0835011005401611328 2.3007955551147460938 2.4643921852111816406 2.4086141586303710938 2.0764930248260498047 1.5655741691589355469 1.536936640739440918 1.5646760463714599609 1.493291020393371582 1.4760406017303466797 1.6041531562805175781 2.1057736873626708984 1.3471927642822265625 1.493291020393371582 1.172526240348815918 1.6404130458831787109 1.7919924259185791016 1.4174668788909912109 1.4258246421813964844 1.5828399658203125 1.7004668712615966797 1.2398254871368408203 1.4688206911087036133 1.6875700950622558594 1.6908395290374755859 1.9086763858795166016 2.0582356452941894531 2.0923027992248535156 2.200626373291015625 1.9095700979232788086 2.2717618942260742188 2.0226502418518066406 1.974408268928527832 2.0219793319702148438 2.1072301864624023438 2.4015157222747802734 2.2913303375244140625 2.4542760848999023438 2.6019561290740966797 2.8352808952331542969 2.8097314834594726563 2.6224091053009033203 2.5582358837127685547 3.0772509574890136719 2.6419634819030761719 2.3625030517578125 2.3380863666534423828 2.4371004104614257813 2.0603952407836914063 1.6553081274032592773 1.6422827243804931641 1.6360611915588378906 
1.3912886381149291992 1.2420471906661987305 1.478575587272644043 1.7433751821517944336 1.347408294677734375 7.9943289756774902344 8.0939054489135742188 14.720910072326660156 1.2345298528671264648 8.1555156707763671875 1.0973497629165649414 7.8030638694763183594 8.0845775604248046875 7.9411401748657226563 1.5415089130401611328 1.3300784826278686523 8.2766466140747070313 1.1610655784606933594 1.6041344404220581055 1.1985067129135131836 1.700034022331237793 1.0737433433532714844 1.5142418146133422852 1.443332672119140625 1.6604559421539306641 1.493291020393371582 1.6360611915588378906 1.2602086067199707031 1.493291020393371582 1.6360611915588378906 1.32544708251953125 1.6360611915588378906 1.4357621669769287109 1.7788313627243041992 1.6360611915588378906 1.4759304523468017578 2.1566908359527587891 1.6360611915588378906 1.7696378231048583984 1.7788313627243041992 1.7788313627243041992 1.7074462175369262695 1.9273805618286132813 2.6419634819030761719 1.7644934654235839844 1.9684967994689941406 1.6500800848007202148 1.4776235818862915039 1.6523711681365966797 2.5290341377258300781 1.7788313627243041992 1.6264138221740722656 1.6264138221740722656 1.6360611915588378906 1.7061651945114135742 1.384124755859375 1.45201873779296875 1.4641563892364501953 1.5587413311004638672 1.7407948970794677734 1.9005664587020874023 1.7274910211563110352 1.5323988199234008789 1.5720793008804321289 2.2151834964752197266 1.8591766357421875 2.0026688575744628906 1.5128252506256103516 1.493291020393371582 1.5294022560119628906 1.3835524320602416992 1.1487165689468383789 1.5407168865203857422 1.4899772405624389648 1.5701344013214111328 1.2025922536849975586 1.8663094043731689453 1.5731133222579956055 1.8561840057373046875 1.5592473745346069336 1.6711946725845336914 1.7284185886383056641 1.6046051979064941406 1.6463586091995239258 1.4266808032989501953 1.661784052848815918 1.5281842947006225586 1.6360611915588378906 1.6414061784744262695 1.6223528385162353516 1.3181401491165161133 1.3643585443496704102 1.2693340778350830078 1.5379548072814941406 1.8075742721557617188 1.8461890220642089844 1.5951797962188720703 8.1538219451904296875 1.796314239501953125 1.8406089544296264648 1.9939382076263427734 1.543881535530090332 1.58282470703125 1.8156148195266723633 1.8183497190475463867 1.7107493877410888672 1.9925332069396972656 1.9690192937850952148 1.4669052362442016602 1.493291020393371582 1.4231178760528564453 1.5893893241882324219 1.6360611915588378906 1.3655184507369995117 1.7638983726501464844 1.6360611915588378906 1.6425864696502685547 1.6360611915588378906 1.6360611915588378906 1.7788313627243041992 1.6264138221740722656 1.6734724044799804688 1.7788313627243041992 1.6311130523681640625 1.4776235818862915039 1.6425864696502685547 1.7788313627243041992 2.4766926765441894531 1.7788313627243041992 1.7074462175369262695 1.4906220436096191406 1.8072394132614135742 1.795809626579284668 1.9253214597702026367 1.6160484552383422852 1.5271589756011962891 1.6895691156387329102 1.9399439096450805664 2.0836977958679199219 1.8518363237380981445 2.2980256080627441406 1.9709085226058959961 1.8930846452713012695 1.4861942529678344727 1.8058501482009887695 2.3044068813323974609 2.211437225341796875 2.5387783050537109375 1.8207840919494628906 2.0804324150085449219 2.1903192996978759766 2.0300738811492919922 1.9819077253341674805 1.2679662704467773438 1.4219058752059936523 1.9521150588989257813 1.8386031389236450195 1.3500361442565917969 1.3505208492279052734 1.6360611915588378906 1.5563901662826538086 1.5011920928955078125 1.4130355119705200195 1.2866419553756713867 1.5987225770950317383 1.6360611915588378906 1.2861579656600952148 1.4347655773162841797 1.3665041923522949219 1.3850409984588623047 1.3662908077239990234 1.4204877614974975586 1.4372071027755737305 1.6905770301818847656 1.8426376581192016602 1.7126327753067016602 2.1824557781219482422 2.0588719844818115234 2.3394796848297119141 2.1181049346923828125 2.0061612129211425781 1.9483162164688110352 2.1769573688507080078 2.0836510658264160156 2.3642742633819580078 2.5439543724060058594 2.7135088443756103516 2.8275210857391357422 2.7652051448822021484 2.7942402362823486328 2.8448538780212402344 2.9283084869384765625 2.58710479736328125 2.4282267093658447266 2.6484129428863525391 2.1069509983062744141 1.7406983375549316406 1.7074462175369262695 1.6344852447509765625 2.2140893936157226563 
1.5056992769241333008 1.4164524078369140625 1.4567738771438598633 1.2662417888641357422 1.3352153301239013672 7.9346075057983398438 1.2584091424942016602 1.4954892396926879883 8.0545787811279296875 1.5346471071243286133 1.6353688240051269531 7.8009471893310546875 8.2002544403076171875 1.328229069709777832 8.2951793670654296875 1.2255495786666870117 8.3627214431762695313 1.1773500442504882813 1.2831689119338989258 1.4696340560913085938 1.3086026906967163086 1.3893551826477050781 1.6793636083602905273 1.9246823787689208984 1.7675231695175170898 1.6122814416885375977 1.6360611915588378906 1.3992317914962768555 1.5522667169570922852 1.4582903385162353516 1.4175724983215332031 1.332532048225402832 1.6360611915588378906 1.7788313627243041992 1.6264138221740722656 1.6360611915588378906 1.6264138221740722656 1.6264138221740722656 1.7788313627243041992 1.6266878843307495117 1.6264138221740722656 1.7788313627243041992 1.7586873769760131836 1.7788313627243041992 1.7525779008865356445 1.7891725301742553711 1.4369227886199951172 1.3927649259567260742 1.7788313627243041992 1.6264138221740722656 1.7788313627243041992 1.6766469478607177734 1.6360611915588378906 1.6918712854385375977 1.6369575262069702148 1.9521150588989257813 1.3474953174591064453 1.6587553024291992188 1.4776235818862915039 1.7119237184524536133 1.6360611915588378906 1.8926081657409667969 1.5533976554870605469 1.7788313627243041992 1.6360611915588378906 1.7074462175369262695 1.9287266731262207031 1.8433921337127685547 1.32544708251953125 1.5109572410583496094 1.493291020393371582 1.8557416200637817383 1.725228428840637207 1.7063925266265869141 1.4733400344848632813 1.4752680063247680664 1.57910919189453125 1.5993146896362304688 1.3578931093215942383 1.5370485782623291016 1.4776235818862915039 1.493291020393371582 1.1899544000625610352 1.1684870719909667969 1.4453641176223754883 1.6417871713638305664 1.6697776317596435547 1.7341841459274291992 1.6152549982070922852 1.6236641407012939453 1.6867479085922241211 1.5382083654403686523 1.4658832550048828125 1.5214647054672241211 1.7072992324829101563 1.4204946756362915039 1.2957116365432739258 2.0460975170135498047 1.9243531227111816406 1.7936253547668457031 2.1711137294769287109 1.7435529232025146484 1.493291020393371582 1.7288007736206054688 1.4733790159225463867 1.6099616289138793945 1.6206336021423339844 1.8863335847854614258 1.7298080921173095703 1.2465978860855102539 1.4728577136993408203 1.6241939067840576172 1.493291020393371582 1.6360611915588378906 1.6360611915588378906 1.5941104888916015625 1.6264138221740722656 1.6264138221740722656 1.7788313627243041992 1.7788313627243041992 1.6264138221740722656 1.893735051155090332 1.7788313627243041992 1.6360611915588378906 1.6264138221740722656 1.6912469863891601563 1.578732609748840332 1.6360611915588378906 1.6360611915588378906 1.4959520101547241211 1.4611030817031860352 1.3761926889419555664 1.7639973163604736328 1.8686238527297973633 1.8003917932510375977 1.5792063474655151367 1.7685785293579101563 1.8783000707626342773 2.06771087646484375 2.2745749950408935547 2.3780214786529541016 1.931284785270690918 1.5028176307678222656 1.8253676891326904297 1.7870266437530517578 1.8811037540435791016 2.0031805038452148438 2.1041352748870849609 2.1596212387084960938 2.5196390151977539063 2.3435850143432617188 1.8702031373977661133 1.7639963626861572266 1.936969757080078125 1.5646760463714599609 1.7704625129699707031 1.36597442626953125 1.4695897102355957031 1.4015746116638183594 1.2832305431365966797 1.6138547658920288086 1.3497031927108764648 1.378025054931640625 1.6397225856781005859 1.4968709945678710938 1.4906651973724365234 1.3936883211135864258 1.4164527654647827148 1.4026315212249755859 1.7423994541168212891 1.6613770723342895508 1.5585951805114746094 1.6933913230895996094 1.8137971162796020508 1.5618840456008911133 1.5596615076065063477 1.7343568801879882813 1.95699310302734375 2.1555294990539550781 2.0683231353759765625 1.5811263322830200195 2.1267490386962890625 2.1179823875427246094 2.2662897109985351563 2.6820940971374511719 2.5935232639312744141 2.7894110679626464844 2.9303548336029052734 2.5979609489440917969 2.7141253948211669922 2.6874516010284423828 2.5185208320617675781 2.2712800502777099609 2.3852427005767822266 2.1405808925628662109 1.9656031131744384766 1.7074462175369262695 1.7788313627243041992 1.5175237655639648438 1.7354656457901000977 
1.4082684516906738281 1.5711640119552612305 8.1452093124389648438 1.601497650146484375 8.0415163040161132813 1.085406184196472168 8.1790142059326171875 1.3245235681533813477 8.2793436050415039063 1.3809752464294433594 8.2502880096435546875 1.2713439464569091797 1.4731372594833374023 8.2240886688232421875 7.9475893974304199219 1.6140944957733154297 1.4088795185089111328 1.3068252801895141602 1.7650533914566040039 1.3304578065872192383 1.8422560691833496094 1.4479308128356933594 1.3094677925109863281 1.2335591316223144531 1.0302468538284301758 1.5192785263061523438 1.696666717529296875 1.5561698675155639648 1.5098818540573120117 1.6360611915588378906 1.6180030107498168945 1.8720185756683349609 1.6264138221740722656 1.7788313627243041992 1.7788313627243041992 1.7207144498825073242 1.6360611915588378906 1.6360611915588378906 1.6360611915588378906 1.493291020393371582 1.6360611915588378906 1.3464510440826416016 1.7650907039642333984 1.7788313627243041992 1.7788313627243041992 1.8309938907623291016 1.5211405754089355469 1.6360611915588378906 1.6360611915588378906 1.4284241199493408203 1.9273805618286132813 1.8802344799041748047 1.5646760463714599609 1.3451085090637207031 1.6360611915588378906 1.4776235818862915039 1.4428042173385620117 1.4351047277450561523 1.6360611915588378906 1.5030744075775146484 1.493291020393371582 1.6912475824356079102 1.5689442157745361328 1.7074462175369262695 1.7788313627243041992 1.7788313627243041992 1.7051442861557006836 2.2630176544189453125 1.4440402984619140625 1.493291020393371582 1.6360611915588378906 1.9075560569763183594 1.772622227668762207 1.860530853271484375 1.493291020393371582 1.2581639289855957031 1.595714569091796875 1.493291020393371582 1.3458998203277587891 1.57126617431640625 1.6660976409912109375 1.3111653327941894531 1.5646760463714599609 1.8005874156951904297 1.4062163829803466797 1.6366860866546630859 1.7995510101318359375 1.6293991804122924805 1.9983491897583007813 1.8719315528869628906 1.6317682266235351563 1.4960047006607055664 1.4094760417938232422 1.5801858901977539063 1.479975581169128418 1.8333932161331176758 1.9479705095291137695 1.9949510097503662109 1.5338414907455444336 1.7262811660766601563 1.8716170787811279297 1.6609454154968261719 1.7881560325622558594 1.6526623964309692383 1.7141228914260864258 1.3840739727020263672 1.6933085918426513672 1.8901638984680175781 1.7093684673309326172 1.4900337457656860352 1.4715962409973144531 1.2119209766387939453 1.4999597072601318359 1.6795563697814941406 1.6360611915588378906 1.6264138221740722656 1.9684967994689941406 2.0484960079193115234 2.3852427005767822266 1.6578775644302368164 1.7074462175369262695 1.6293581724166870117 1.7788313627243041992 1.6227070093154907227 1.6455445289611816406 1.624725341796875 1.5719939470291137695 1.6398668289184570313 1.746875762939453125 1.6360611915588378906 1.9214015007019042969 1.6360611915588378906 1.8358664512634277344 2.1573042869567871094 2.0874326229095458984 1.7645819187164306641 1.94274139404296875 2.084209442138671875 2.2383317947387695313 1.9909766912460327148 1.8697808980941772461 1.5646760463714599609 1.7073996067047119141 1.6605437994003295898 1.8323194980621337891 1.9528712034225463867 1.664372563362121582 2.1060533523559570313 2.3987779617309570313 2.4739375114440917969 2.1422603130340576172 1.8092589378356933594 1.8274642229080200195 1.8957409858703613281 1.7345893383026123047 1.6129449605941772461 1.751649022102355957 1.536332249641418457 1.4832454919815063477 1.4452121257781982422 1.3295243978500366211 1.3428955078125 1.5600715875625610352 1.6573721170425415039 1.5019289255142211914 1.6425864696502685547 1.8408092260360717773 1.3212168216705322266 1.4449583292007446289 1.3769948482513427734 1.2312309741973876953 1.5551878213882446289 1.7377043962478637695 1.5358386039733886719 1.6343696117401123047 1.7785092592239379883 1.9531607627868652344 1.9053577184677124023 2.1647140979766845703 1.930170893669128418 1.7636902332305908203 2.1149873733520507813 1.935326695442199707 3.0146033763885498047 2.6619918346405029297 2.6503210067749023438 3.4541943073272705078 2.8597693443298339844 2.6731700897216796875 2.6206648349761962891 2.6028790473937988281 2.6785593032836914063 2.2218289375305175781 1.9708563089370727539 2.2213001251220703125 1.7902019023895263672 1.7788313627243041992 1.7525779008865356445 1.6360611915588378906 1.568198084831237793 
1.4863373041152954102 1.4301637411117553711 1.5990502834320068359 1.1277976036071777344 8.0496568679809570313 7.8223156929016113281 7.8454184532165527344 8.1408071517944335938 1.2352777719497680664 8.198696136474609375 1.4640411138534545898 1.77429962158203125 7.8368020057678222656 1.7263418436050415039 8.141399383544921875 1.7443072795867919922 1.5298948287963867188 1.6075528860092163086 1.2971881628036499023 1.5143537521362304688 1.5053857564926147461 1.8903975486755371094 1.6456950902938842773 1.2087523937225341797 1.493291020393371582 1.6360611915588378906 1.394324183464050293 1.4252990484237670898 1.5016045570373535156 1.8001919984817504883 1.8101656436920166016 1.7784683704376220703 1.7283356189727783203 1.4973617792129516602 1.5718882083892822266 1.0583174228668212891 1.493291020393371582 1.4974459409713745117 1.4483766555786132813 1.5007925033569335938 1.5825525522232055664 1.2917463779449462891 1.6360611915588378906 1.6264138221740722656 1.6360611915588378906 1.5538890361785888672 1.6360611915588378906 1.6264138221740722656 1.4369227886199951172 1.6360611915588378906 1.6360611915588378906 1.6360611915588378906 1.32544708251953125 1.3964315652847290039 1.5386669635772705078 1.759633183479309082 1.6350073814392089844 1.6264138221740722656 1.6360611915588378906 1.5725169181823730469 1.5392736196517944336 1.6758658885955810547 1.6979606151580810547 1.7788313627243041992 1.6360611915588378906 1.934950709342956543 2.1102716922760009766 1.9438649415969848633 1.6360611915588378906 1.6075326204299926758 2.1179823875427246094 1.792322993278503418 1.7270704507827758789 1.5612938404083251953 1.7360150814056396484 1.493291020393371582 1.6790711879730224609 1.3647475242614746094 1.6393698453903198242 1.4829668998718261719 1.4219058752059936523 1.6195611953735351563 1.3301444053649902344 1.6360611915588378906 1.6360611915588378906 1.4219058752059936523 1.6286205053329467773 1.8664261102676391602 1.5373762845993041992 1.6662877798080444336 1.6002575159072875977 1.5672677755355834961 1.6353298425674438477 8.2631063461303710938 1.567352294921875 1.7366272211074829102 2.214450836181640625 1.8546613454818725586 1.818150639533996582 1.5318111181259155273 2.1808233261108398438 1.7538605928421020508 2.3082938194274902344 1.7282955646514892578 1.6062346696853637695 1.6207387447357177734 1.2380937337875366211 1.5720990896224975586 1.4557250738143920898 1.6253372430801391602 1.2393939495086669922 1.5809721946716308594 1.5425531864166259766 1.558563232421875 1.764801025390625 1.8138262033462524414 2.9827599525451660156 2.4411988258361816406 1.7788313627243041992 1.7696378231048583984 1.6264138221740722656 1.6360611915588378906 1.8030244112014770508 1.7473250627517700195 1.5365378856658935547 1.4972889423370361328 1.6360611915588378906 1.6360611915588378906 1.7788313627243041992 1.7788313627243041992 1.5229309797286987305 1.9165719747543334961 1.8341724872589111328 2.0986652374267578125 1.7788313627243041992 1.5291457176208496094 1.6287775039672851563 1.9273805618286132813 1.8588454723358154297 2.13724517822265625 1.9531801939010620117 1.7883069515228271484 1.6848112344741821289 1.7432860136032104492 2.1566908359527587891 2.0199759006500244141 2.31301116943359375 2.3695471286773681641 1.9532110691070556641 2.2935528755187988281 2.2392866611480712891 1.9945679903030395508 2.1566908359527587891 1.8059837818145751953 1.8607866764068603516 1.6151295900344848633 1.8300697803497314453 1.7887014150619506836 1.8565067052841186523 1.4869672060012817383 1.5023808479309082031 1.8714059591293334961 1.5794588327407836914 1.7104550600051879883 1.7405917644500732422 1.6287381649017333984 1.1455824375152587891 1.4472603797912597656 1.4692329168319702148 1.3974186182022094727 1.3797271251678466797 1.4861052036285400391 1.5874329805374145508 1.6162227392196655273 1.4608885049819946289 1.8929537534713745117 2.3267285823822021484 1.8984543085098266602 1.6872065067291259766 1.3595936298370361328 1.3993910551071166992 1.7446159124374389648 2.3739011287689208984 2.6023623943328857422 2.8004262447357177734 2.6444771289825439453 2.7685854434967041016 2.8702292442321777344 2.5654296875 2.4637312889099121094 2.1468427181243896484 2.1470670700073242188 2.1120929718017578125 1.8658705949783325195 1.9869968891143798828 1.9267373085021972656 1.7788313627243041992 1.9684967994689941406 1.7202570438385009766 1.7576572895050048828 
1.5391874313354492188 1.4568612575531005859 1.493418574333190918 1.6898496150970458984 1.6011130809783935547 1.9622843265533447266 8.0341510772705078125 8.0910062789916992188 1.5846446752548217773 1.387261509895324707 7.802379608154296875 1.5678647756576538086 1.3839545249938964844 1.7036033868789672852 1.7259738445281982422 1.2849670648574829102 1.2335363626480102539 1.6763044595718383789 1.4016946554183959961 1.1921803951263427734 1.1363655328750610352 1.4999183416366577148 1.413013458251953125 1.6108309030532836914 1.4219058752059936523 1.6360611915588378906 1.7722380161285400391 1.4391058683395385742 1.418407440185546875 1.4176479578018188477 1.6337217092514038086 1.4242186546325683594 1.8792786598205566406 1.3505208492279052734 1.689240574836730957 1.3505208492279052734 1.4052008390426635742 1.4408868551254272461 1.3697068691253662109 1.3510456085205078125 1.1524660587310791016 1.4987353086471557617 1.5586390495300292969 1.6648607254028320313 1.6964153051376342773 1.6360611915588378906 1.6425864696502685547 1.6357085704803466797 1.6360611915588378906 1.6360611915588378906 1.6360611915588378906 1.6488704681396484375 1.5278217792510986328 1.6133736371994018555 1.493291020393371582 1.493291020393371582 1.7226604223251342773 1.5205916166305541992 1.4904694557189941406 1.6425864696502685547 1.6360611915588378906 1.7006785869598388672 1.6264138221740722656 2.2305238246917724609 2.6419634819030761719 1.7788313627243041992 1.6721591949462890625 1.7788313627243041992 1.7788313627243041992 1.7788313627243041992 1.7788313627243041992 2.1179823875427246094 1.493291020393371582 1.6480162143707275391 1.6360611915588378906 1.7863826751708984375 1.5906548500061035156 1.5316169261932373047 1.9257662296295166016 1.4642481803894042969 1.4793725013732910156 1.5328541994094848633 1.7925093173980712891 1.6360611915588378906 1.6360611915588378906 1.6360611915588378906 1.3505208492279052734 1.6983187198638916016 1.6781864166259765625 1.6914342641830444336 1.907425999641418457 1.6297502517700195313 1.5337685346603393555 1.5622016191482543945 1.3154902458190917969 1.7867470979690551758 2.5794208049774169922 2.296779632568359375 2.2340636253356933594 2.2926092147827148438 2.0992498397827148438 2.1377987861633300781 2.5367722511291503906 1.8453137874603271484 1.8150655031204223633 1.4202051162719726563 1.6137882471084594727 1.4669355154037475586 1.6775275468826293945 1.3505208492279052734 1.3727574348449707031 1.6136841773986816406 1.1350280046463012695 1.5646760463714599609 1.7788313627243041992 1.7788313627243041992 1.9273805618286132813 2.2129473686218261719 1.9273805618286132813 1.8502165079116821289 1.7788313627243041992 1.6425864696502685547 1.5750446319580078125 1.5817977190017700195 1.6029059886932373047 1.4811452627182006836 1.7788313627243041992 1.7788313627243041992 1.7788313627243041992 2.2140893936157226563 1.6293581724166870117 1.9969216585159301758 1.9073256254196166992 1.9812619686126708984 2.5290341377258300781 1.7788313627243041992 2.8938577175140380859 2.1723401546478271484 1.7134474515914916992 2.0268485546112060547 1.8515022993087768555 2.1179823875427246094 1.820796966552734375 1.6611592769622802734 1.7462617158889770508 1.9534983634948730469 2.1842141151428222656 2.04039764404296875 2.2228777408599853516 2.2111754417419433594 1.8809590339660644531 1.913807988166809082 1.7162407636642456055 1.8720200061798095703 1.8466792106628417969 1.3616063594818115234 1.557125091552734375 1.7162786722183227539 1.4267210960388183594 1.8961052894592285156 1.8615167140960693359 1.8131318092346191406 1.5434679985046386719 1.6449030637741088867 1.4979717731475830078 1.5646760463714599609 1.5153982639312744141 1.4372327327728271484 1.7649588584899902344 1.6224980354309082031 1.5547213554382324219 1.4303300380706787109 1.6136018037796020508 1.5540243387222290039 1.4575339555740356445 2.0468416213989257813 1.7396055459976196289 1.6961981058120727539 1.6164525747299194336 1.6896078586578369141 1.6783664226531982422 2.0413796901702880859 2.3376772403717041016 2.4582707881927490234 2.5844414234161376953 2.9013044834136962891 2.567264556884765625 2.399169921875 2.3466711044311523438 2.3619344234466552734 1.8594973087310791016 2.3542461395263671875 2.2980093955993652344 2.1291728019714355469 1.7914603948593139648 1.7372823953628540039 2.0124828815460205078 2.1253728866577148438 2.0694630146026611328 2.1219379901885986328 
1.6511763334274291992 1.5042197704315185547 1.3459098339080810547 1.7754702568054199219 8.2487573623657226563 1.4603465795516967773 1.4844280481338500977 8.3363704681396484375 8.004791259765625 1.4330167770385742188 8.396488189697265625 8.3150997161865234375 1.7636290788650512695 1.6490217447280883789 1.2077505588531494141 1.6407146453857421875 1.5669568777084350586 1.8336066007614135742 1.3925349712371826172 1.4569718837738037109 1.4308795928955078125 1.0657482147216796875 1.7616479396820068359 1.3117531538009643555 1.5629928112030029297 1.493291020393371582 1.4219058752059936523 1.2077505588531494141 1.5318213701248168945 1.4283907413482666016 1.4182651042938232422 1.8372211456298828125 1.4416306018829345703 1.4485421180725097656 1.2890859842300415039 1.5746004581451416016 1.564116358757019043 1.2077505588531494141 1.7268830537796020508 1.4386266469955444336 1.3763334751129150391 1.4800860881805419922 1.600856781005859375 1.0339781045913696289 1.493291020393371582 1.3596398830413818359 1.32544708251953125 1.7223534584045410156 1.4168285131454467773 1.6360611915588378906 1.5353095531463623047 1.6043666601181030273 1.9776729345321655273 1.7886393070220947266 1.4394781589508056641 1.322610020637512207 1.4541621208190917969 1.752156376838684082 1.5458992719650268555 1.685092926025390625 2.0286898612976074219 1.7788313627243041992 1.7202570438385009766 1.8502165079116821289 1.9273805618286132813 1.7788313627243041992 1.7788313627243041992 2.3852427005767822266 1.7788313627243041992 1.9273805618286132813 1.6264138221740722656 1.7788313627243041992 1.6360611915588378906 1.6360611915588378906 1.7788313627243041992 1.6520310640335083008 2.1566908359527587891 1.6272436380386352539 1.6360611915588378906 1.652493596076965332 1.4988344907760620117 1.8269056081771850586 1.5488450527191162109 1.3459802865982055664 1.6264138221740722656 1.6331572532653808594 1.493291020393371582 1.6360611915588378906 1.7381601333618164063 1.7290264368057250977 1.811873316764831543 1.857800602912902832 1.6019895076751708984 1.7380670309066772461 1.40932464599609375 1.8516867160797119141 2.1247508525848388672 2.1998615264892578125 2.6503582000732421875 2.6595828533172607422 2.3367981910705566406 2.6739146709442138672 2.4865128993988037109 1.9596405029296875 1.4828391075134277344 1.9419984817504882813 1.77150726318359375 1.7124621868133544922 1.7196727991104125977 1.4195494651794433594 1.6261039972305297852 1.5401498079299926758 2.0871598720550537109 1.471783757209777832 1.6360611915588378906 1.7788313627243041992 1.9273805618286132813 2.6419634819030761719 1.7696378231048583984 1.9273805618286132813 1.9273805618286132813 1.6743122339248657227 1.6360611915588378906 1.7788313627243041992 1.6264138221740722656 1.7586873769760131836 1.7417829036712646484 1.7788313627243041992 2.1723401546478271484 2.99475860595703125 1.6264138221740722656 2.6419634819030761719 1.8204950094223022461 2.3553020954132080078 1.9796777963638305664 1.7788313627243041992 1.7586873769760131836 1.7219144105911254883 2.1164484024047851563 1.6360611915588378906 1.6987307071685791016 1.6360611915588378906 1.7163624763488769531 1.493291020393371582 1.9444017410278320313 2.1628932952880859375 1.7008349895477294922 1.8888200521469116211 2.1681330204010009766 2.1377453804016113281 1.8685060739517211914 2.6419634819030761719 1.9824347496032714844 1.9418277740478515625 1.8988653421401977539 1.4759304523468017578 1.8455154895782470703 1.7788313627243041992 1.643587946891784668 1.5022965669631958008 1.9888871908187866211 1.9330019950866699219 1.4842873811721801758 1.6264138221740722656 1.554821014404296875 1.8792934417724609375 1.8192203044891357422 1.4859249591827392578 1.621791839599609375 1.4529482126235961914 1.6360611915588378906 1.6654942035675048828 1.9877088069915771484 1.6907320022583007813 1.7816538810729980469 1.912926793098449707 1.8464787006378173828 1.8667212724685668945 2.0047521591186523438 1.6463321447372436523 1.7681570053100585938 1.8983732461929321289 2.6304571628570556641 2.7283277511596679688 2.8335173130035400391 2.8918910026550292969 2.6684145927429199219 2.3888888359069824219 2.2064626216888427734 2.0450289249420166016 2.0606405735015869141 2.1405920982360839844 2.0514154434204101563 1.9757184982299804688 1.8089402914047241211 1.7815572023391723633 2.0193517208099365234 2.1164050102233886719 2.6419634819030761719 2.59865570068359375 
1.7148936986923217773 1.4384205341339111328 1.4102654457092285156 1.6991788148880004883 1.4142905473709106445 8.218769073486328125 8.29396820068359375 8.079578399658203125 1.6693017482757568359 1.0750265121459960938 8.2373600006103515625 1.4548597335815429688 1.4130644798278808594 1.5695128440856933594 1.5381937026977539063 1.1003419160842895508 1.5370429754257202148 1.4187868833541870117 1.6974409818649291992 1.5395582914352416992 1.4099068641662597656 1.3816499710083007813 1.8340146541595458984 1.4512132406234741211 1.4332070350646972656 1.6610198020935058594 1.3932831287384033203 1.3507796525955200195 1.3877694606781005859 1.673497319221496582 1.5337444543838500977 1.338189244270324707 1.418336033821105957 1.1302342414855957031 1.2988754510879516602 1.5290973186492919922 1.5747895240783691406 1.4619655609130859375 1.4996763467788696289 1.4336626529693603516 1.4087998867034912109 1.6034237146377563477 1.5222707986831665039 1.4884775876998901367 1.5537512302398681641 1.6427214145660400391 1.6893887519836425781 1.7357149124145507813 1.7726056575775146484 1.493291020393371582 1.5575537681579589844 1.6213524341583251953 1.5435013771057128906 1.493291020393371582 1.1724636554718017578 1.7719093561172485352 1.6346307992935180664 1.7164291143417358398 1.7373204231262207031 1.6360611915588378906 1.6265641450881958008 1.6360611915588378906 1.6264138221740722656 1.7788313627243041992 1.7788313627243041992 1.7696378231048583984 1.7586873769760131836 3.2110114097595214844 1.9273805618286132813 1.8502165079116821289 1.9273805618286132813 1.9273805618286132813 1.7788313627243041992 1.7610118389129638672 1.4369227886199951172 1.7497941255569458008 1.9366350173950195313 1.6360611915588378906 1.6360611915588378906 1.1749637126922607422 1.5335851907730102539 1.6330634355545043945 1.493291020393371582 1.8074426651000976563 1.6028888225555419922 1.4776235818862915039 1.6360611915588378906 1.7843649387359619141 1.6360611915588378906 1.7802926301956176758 1.7459732294082641602 1.76694488525390625 1.7334089279174804688 1.7526303529739379883 1.7667200565338134766 2.1901865005493164063 1.9476237297058105469 2.2167515754699707031 2.3982074260711669922 2.312053680419921875 2.1002633571624755859 2.4430751800537109375 2.2638092041015625 2.07830810546875 2.1612339019775390625 2.0179071426391601563 1.4951410293579101563 1.8643642663955688477 2.0947072505950927734 1.760823369026184082 2.0706048011779785156 1.5511302947998046875 1.6465220451354980469 1.5388313531875610352 1.7528979778289794922 1.7788313627243041992 2.6414442062377929688 1.9273805618286132813 1.656142115592956543 1.7788313627243041992 1.70644378662109375 1.3505305051803588867 1.7672623395919799805 1.6360611915588378906 1.7788313627243041992 1.7788313627243041992 1.9830318689346313477 1.8063912391662597656 1.9273805618286132813 1.8502165079116821289 1.9273805618286132813 1.7788313627243041992 2.1826493740081787109 1.9985506534576416016 2.3778810501098632813 1.8725399971008300781 1.8262794017791748047 2.2142589092254638672 2.2216439247131347656 1.670838475227355957 1.7048649787902832031 1.6360611915588378906 1.6425864696502685547 1.4357621669769287109 1.7074462175369262695 1.4744083881378173828 1.4823834896087646484 1.9521150588989257813 2.2597260475158691406 2.4037744998931884766 2.8938577175140380859 1.9273805618286132813 1.9075475931167602539 1.9165921211242675781 1.8938156366348266602 1.7169793844223022461 2.2895081043243408203 1.7788313627243041992 1.5646760463714599609 1.5718276500701904297 1.8303341865539550781 1.5741881132125854492 1.4369796514511108398 1.6360611915588378906 1.6353051662445068359 1.7938032150268554688 1.8519111871719360352 1.9694832563400268555 1.493291020393371582 1.5646760463714599609 1.6360611915588378906 1.6790374517440795898 1.6360611915588378906 1.7291847467422485352 1.7628681659698486328 1.9883546829223632813 2.0899095535278320313 1.763927459716796875 1.8997365236282348633 2.0181903839111328125 2.3076376914978027344 2.5759906768798828125 2.5253307819366455078 2.7388403415679931641 2.7646975517272949219 2.5150508880615234375 2.9150838851928710938 2.472743988037109375 2.3971652984619140625 2.3146264553070068359 2.1157789230346679688 2.1328740119934082031 2.2030320167541503906 2.0264050960540771484 2.4386646747589111328 2.1665441989898681641 2.1826729774475097656 2.4532046318054199219 2.2415235042572021484 2.3488514423370361328 
1.4134470224380493164 7.7875008583068847656 1 1.4516153335571289063 1.7838677167892456055 1.5179626941680908203 1.4518382549285888672 1.4740538597106933594 1.5968925952911376953 1.6019701957702636719 1.7672567367553710938 1.8066420555114746094 1.8345568180084228516 1.5946631431579589844 1.0890674591064453125 1.5946964025497436523 1.3009505271911621094 1.4651892185211181641 1.2554657459259033203 1.9272457361221313477 1.7615010738372802734 1.4933969974517822266 1.5441203117370605469 1.3505208492279052734 1.7655440568923950195 1.3306621313095092773 1.445514678955078125 1.727146148681640625 1.3157138824462890625 1.587849736213684082 1.5217351913452148438 1.4307005405426025391 1.2118360996246337891 8.312255859375 1.8183972835540771484 1.4144316911697387695 1.5396591424942016602 1.4800314903259277344 1.5103698968887329102 1.6588344573974609375 1.6687786579132080078 1.668950200080871582 1.4922721385955810547 1.8091566562652587891 1.4996006488800048828 1.4806772470474243164 1.6124058961868286133 1.6320267915725708008 1.618935704231262207 1.4557589292526245117 1.4941885471343994141 1.6792348623275756836 1.7863621711730957031 1.6162543296813964844 1.7608200311660766602 2.1229009628295898438 1.9506077766418457031 2.0082914829254150391 1.8409322500228881836 1.9612214565277099609 1.4791129827499389648 1.6156983375549316406 1.7510242462158203125 1.6633247137069702148 1.6360611915588378906 2.5417046546936035156 1.9273805618286132813 3.4669039249420166016 2.8938577175140380859 2.986942291259765625 1.9273805618286132813 1.9574986696243286133 1.9273805618286132813 1.712459564208984375 1.6541646718978881836 1.6264138221740722656 1.7788313627243041992 1.7074462175369262695 1.6360611915588378906 1.6360611915588378906 1.5432691574096679688 1.493291020393371582 1.5746403932571411133 1.3853052854537963867 1.4786539077758789063 1.648768305778503418 1.6360611915588378906 1.7990970611572265625 1.4608691930770874023 1.6754720211029052734 2.0241148471832275391 1.8503046035766601563 1.737353205680847168 1.986189723014831543 1.8730889558792114258 2.1850876808166503906 2.5568106174468994141 2.2617218494415283203 2.3282575607299804688 2.4505705833435058594 2.1426310539245605469 2.1816287040710449219 1.9350469112396240234 1.9481900930404663086 1.9480295181274414063 2.1721365451812744141 2.1826338768005371094 2.5101361274719238281 2.2546346187591552734 2.0233092308044433594 2.1681253910064697266 1.9551339149475097656 1.5406105518341064453 1.4352350234985351563 1.7638554573059082031 1.9541800022125244141 1.9408777952194213867 2.50002288818359375 1.7280544042587280273 1.6264138221740722656 1.7249494791030883789 1.6425864696502685547 1.7202570438385009766 2.2630176544189453125 1.7788313627243041992 1.7644934654235839844 1.9273805618286132813 1.9273805618286132813 1.9273805618286132813 1.9273805618286132813 1.9273805618286132813 1.6734724044799804688 1.6264138221740722656 2.1010210514068603516 2.1158428192138671875 2.2221207618713378906 1.8040344715118408203 1.7877939939498901367 1.9105330705642700195 1.9278343915939331055 1.6360611915588378906 1.6360611915588378906 1.6360611915588378906 1.7632591724395751953 1.6360611915588378906 1.715264439582824707 1.6891106367111206055 1.7688218355178833008 1.8912752866744995117 1.7046622037887573242 1.9898949861526489258 1.8502165079116821289 1.7086962461471557617 1.6827696561813354492 1.5755366086959838867 1.6745015382766723633 1.6264138221740722656 2.1566908359527587891 1.6360611915588378906 1.4500681161880493164 1.5605320930480957031 1.432651519775390625 1.6360611915588378906 1.6360611915588378906 1.7583239078521728516 1.8159691095352172852 2.0249865055084228516 1.7352005243301391602 1.8522989749908447266 1.6246256828308105469 1.946333765983581543 1.9811451435089111328 1.8776583671569824219 1.8889657258987426758 2.0507228374481201172 2.1201698780059814453 2.1782941818237304688 2.0473537445068359375 2.3261823654174804688 2.4964280128479003906 2.3669068813323974609 2.6047613620758056641 2.3139460086822509766 2.4015798568725585938 2.6224792003631591797 2.5895171165466308594 2.6733939647674560547 2.8411626815795898438 2.4750192165374755859 2.2462813854217529297 2.238101959228515625 2.1713297367095947266 2.0268657207489013672 2.5529205799102783203 2.6118788719177246094 2.7205550670623779297 2.3829066753387451172 2.4285490512847900391 2.49532318115234375 2.37305450439453125 
1.5775650739669799805 2.1351506710052490234 1.6240617036819458008 1.567128300666809082 1.6310788393020629883 1.7334372997283935547 1.5220144987106323242 1.2578873634338378906 1.5178306102752685547 1.8165434598922729492 1.8399194478988647461 8.1542339324951171875 1.7992078065872192383 1.8892323970794677734 1.9368323087692260742 1.2155784368515014648 1.3094701766967773438 1.4497977495193481445 1.5786634683609008789 1.7236130237579345703 1.3485662937164306641 1.8305975198745727539 1.8127121925354003906 1.5062878131866455078 1.4273574352264404297 1.9128785133361816406 1.6351453065872192383 1.3747674226760864258 1.2569506168365478516 1.078351140022277832 1.3339865207672119141 1.6105031967163085938 1.4136750698089599609 1.1659003496170043945 8.2274675369262695313 8.478763580322265625 1.5487576723098754883 8.0706462860107421875 1.6775159835815429688 1.8048474788665771484 1.5405135154724121094 1.4775263071060180664 1.6738684177398681641 1.3824697732925415039 1.406368255615234375 1.7835576534271240234 1.4726225137710571289 1.6809624433517456055 1.8285719156265258789 1.7260152101516723633 1.6439534425735473633 1.785315394401550293 1.7344139814376831055 1.7261240482330322266 1.6052849292755126953 1.8445839881896972656 2.0106713771820068359 1.9333547353744506836 1.9071849584579467773 1.6602389812469482422 1.5386854410171508789 1.4776235818862915039 1.7772413492202758789 1.82155609130859375 1.6360611915588378906 1.9273805618286132813 1.9273805618286132813 2.6820814609527587891 1.7046622037887573242 2.8220388889312744141 4.6507844924926757813 2.2305238246917724609 3.5284249782562255859 2.8938577175140380859 1.7788313627243041992 1.7788313627243041992 1.6264138221740722656 1.7788313627243041992 1.6264138221740722656 1.6264138221740722656 1.664938807487487793 1.6360611915588378906 1.6360611915588378906 1.3487806320190429688 1.7041900157928466797 1.5954283475875854492 1.9600529670715332031 1.6521114110946655273 1.5362055301666259766 1.7422219514846801758 1.7563127279281616211 1.9969921112060546875 1.763291478157043457 1.9021841287612915039 1.9837598800659179688 2.3590233325958251953 2.8924345970153808594 3.0778934955596923828 2.6449370384216308594 2.7125713825225830078 2.4836134910583496094 1.8806474208831787109 2.0957002639770507813 1.5090519189834594727 2.2881586551666259766 1.9269933700561523438 2.2519419193267822266 1.9943184852600097656 2.1770434379577636719 1.9175385236740112305 1.9935435056686401367 2.1021218299865722656 1.8557332754135131836 1.7788313627243041992 1.7788313627243041992 2.4766926765441894531 1.9273805618286132813 1.9273805618286132813 1.8502165079116821289 1.9273805618286132813 1.7198120355606079102 1.7788313627243041992 1.6884324550628662109 1.7696378231048583984 1.7586873769760131836 2.2305238246917724609 3.0927255153656005859 1.9273805618286132813 5.0473923683166503906 3.4669039249420166016 2.8220388889312744141 2.9318671226501464844 1.9273805618286132813 1.8629517555236816406 1.8292348384857177734 2.4411988258361816406 1.7123892307281494141 1.5720968246459960938 1.6360611915588378906 1.5652747154235839844 1.4806904792785644531 1.7019747495651245117 1.7051423788070678711 1.6045980453491210938 2.1179823875427246094 1.5947070121765136719 1.6051026582717895508 1.7788313627243041992 1.8502165079116821289 2.8938577175140380859 2.6419634819030761719 1.9273805618286132813 2.2305238246917724609 2.2630176544189453125 1.7891725301742553711 2.2140893936157226563 1.6264138221740722656 1.6946208477020263672 1.6360611915588378906 1.6360611915588378906 1.7477085590362548828 1.612395167350769043 1.5095404386520385742 1.6360611915588378906 1.7111803293228149414 1.5822178125381469727 1.9600365161895751953 2.0086431503295898438 1.7127215862274169922 1.6360611915588378906 1.7082093954086303711 1.8414565324783325195 2.0284478664398193359 2.0595488548278808594 2.0217013359069824219 2.2743818759918212891 2.1909160614013671875 1.9203021526336669922 2.30411529541015625 2.5072879791259765625 2.403575897216796875 2.293212890625 2.5803682804107666016 2.4469904899597167969 2.5549945831298828125 2.5671899318695068359 2.9963057041168212891 2.7554812431335449219 2.758983612060546875 2.7671356201171875 2.5906000137329101563 2.6231310367584228516 2.3417251110076904297 2.2357437610626220703 2.5530490875244140625 2.4118862152099609375 2.4236490726470947266 2.5383539199829101563 2.5496039390563964844 2.4924225807189941406 
1.6694276332855224609 1.4746383428573608398 2.1296620368957519531 1.563280940055847168 1.5803762674331665039 1.4235831499099731445 1.3679240942001342773 7.9523100852966308594 1.3964670896530151367 1.4737082719802856445 1.3336141109466552734 1.7551071643829345703 1.5435538291931152344 1.2906709909439086914 1.713454127311706543 1.8248704671859741211 1.7991349697113037109 1.1941876411437988281 1.5591231584548950195 1.3121674060821533203 1.881908416748046875 1.680379033088684082 1.6452107429504394531 1.5596994161605834961 1.5990326404571533203 1.46038818359375 1.288149714469909668 1.2178156375885009766 1.4718774557113647461 1.2530475854873657227 1.7204053401947021484 1.6026533842086791992 1.2729676961898803711 1.6203598976135253906 1.8101334571838378906 1.6301034688949584961 1.6674404144287109375 1.3947894573211669922 1.6687163114547729492 1.4653539657592773438 1.7143092155456542969 1.8801268339157104492 1.2364215850830078125 1.7113732099533081055 1.5422064065933227539 1.8941855430603027344 2.2409212589263916016 1.908782958984375 1.6625581979751586914 1.8169580698013305664 1.8329650163650512695 1.8381714820861816406 1.6061493158340454102 1.4306206703186035156 1.6313500404357910156 1.696616053581237793 1.7724305391311645508 1.7518601417541503906 1.5485137701034545898 1.9545278549194335938 1.493291020393371582 1.5083608627319335938 1.7076150178909301758 1.6236050128936767578 1.4845597743988037109 1.7788313627243041992 1.9036259651184082031 1.7067301273345947266 1.7696378231048583984 1.8294210433959960938 2.6419634819030761719 1.7788313627243041992 1.9273805618286132813 1.9431821107864379883 2.1795585155487060547 1.7788313627243041992 2.1723401546478271484 1.6264138221740722656 1.694403529167175293 1.9684967994689941406 1.7788313627243041992 1.5301913022994995117 1.7074462175369262695 1.3474953174591064453 1.6360611915588378906 1.6360611915588378906 1.7491585016250610352 1.7397800683975219727 1.7788313627243041992 1.6783961057662963867 1.7497031688690185547 1.8108160495758056641 1.9817450046539306641 1.9729062318801879883 1.9173141717910766602 2.3455560207366943359 2.5486891269683837891 2.8287694454193115234 2.6084015369415283203 2.5203413963317871094 2.688568115234375 2.4964141845703125 1.9643814563751220703 1.8521976470947265625 1.8324261903762817383 1.7866370677947998047 1.9195530414581298828 1.9674645662307739258 1.6360611915588378906 1.6882239580154418945 2.1170785427093505859 2.1566908359527587891 1.9579042196273803711 1.7162407636642456055 1.6264138221740722656 1.7788313627243041992 1.9273805618286132813 1.9684967994689941406 1.7872604131698608398 1.7788313627243041992 1.7872604131698608398 1.788311004638671875 2.6419634819030761719 1.7644934654235839844 1.9273805618286132813 1.9273805618286132813 2.0458457469940185547 5.0473923683166503906 2.2283473014831542969 5.0473923683166503906 1.9697748422622680664 2.0283679962158203125 2.2718164920806884766 1.9336783885955810547 1.6745015382766723633 1.7982633113861083984 1.7788313627243041992 1.4842503070831298828 1.8721131086349487305 1.4013435840606689453 1.6235554218292236328 1.7307816743850708008 1.5504602193832397461 1.4719114303588867188 1.5387934446334838867 1.3539469242095947266 1.2810243368148803711 1.5552716255187988281 1.8158512115478515625 1.9273805618286132813 2.2129473686218261719 1.9273805618286132813 1.7788313627243041992 2.6419634819030761719 1.7845983505249023438 1.7788313627243041992 2.6419634819030761719 1.7788313627243041992 1.5398435592651367188 1.6960996389389038086 1.7788313627243041992 1.493291020393371582 2.0530006885528564453 1.6086791753768920898 1.7736631631851196289 1.6147999763488769531 1.8026204109191894531 1.9898509979248046875 1.8117052316665649414 1.8836539983749389648 1.8795884847640991211 1.9247746467590332031 2.1407806873321533203 2.1652567386627197266 2.2004895210266113281 2.1668097972869873047 2.5385885238647460938 2.16117095947265625 2.2094867229461669922 2.5403146743774414063 2.4733719825744628906 2.435428619384765625 2.4270195960998535156 2.5762310028076171875 2.3181693553924560547 2.6825623512268066406 2.7237846851348876953 2.7871272563934326172 2.7207236289978027344 2.8040380477905273438 2.5085747241973876953 2.8274762630462646484 2.4455418586730957031 2.3686339855194091797 2.6107420921325683594 2.6894397735595703125 2.9184103012084960938 2.9694242477416992188 2.4972071647644042969 2.4241113662719726563 
1.7384550571441650391 1.5424038171768188477 1.6356339454650878906 1.3982034921646118164 1.8859459161758422852 1.3525295257568359375 1.4756978750228881836 1.6689391136169433594 7.9192819595336914063 1.7493041753768920898 1.6395450830459594727 1.5450006723403930664 1.4189103841781616211 1.6195220947265625 1.576432347297668457 1.25627899169921875 1.7658178806304931641 1.5277674198150634766 1.4442756175994873047 1.1767740249633789063 1.4670209884643554688 1.7267242670059204102 1.5206115245819091797 1.5746433734893798828 1.7716374397277832031 1.8238394260406494141 1.5852237939834594727 1.3396821022033691406 1.7465720176696777344 1.6844185590744018555 1.5492125749588012695 1.6699244976043701172 1.6252317428588867188 1.6676197052001953125 1.6724569797515869141 1.8810786008834838867 1.4875242710113525391 1.7082799673080444336 1.4573996067047119141 1.5960747003555297852 1.6566681861877441406 1.5191735029220581055 1.6693933010101318359 1.6128013134002685547 1.7914997339248657227 2.1581325531005859375 2.1483101844787597656 2.0790436267852783203 1.9291014671325683594 2.0739924907684326172 1.6453322172164916992 1.7713121175765991211 1.4777233600616455078 1.9534906148910522461 2.1416068077087402344 2.0708136558532714844 2.3014621734619140625 1.6822439432144165039 1.686852574348449707 1.6360611915588378906 1.9295815229415893555 1.493291020393371582 1.6360611915588378906 1.6360611915588378906 1.6264138221740722656 1.6126121282577514648 1.7788313627243041992 2.1566908359527587891 1.8831174373626708984 1.6293581724166870117 2.3778810501098632813 1.9273805618286132813 3.2429821491241455078 1.9273805618286132813 1.9415481090545654297 1.9273805618286132813 1.6812698841094970703 1.8839040994644165039 1.6264138221740722656 2.1566908359527587891 1.7788313627243041992 1.6264138221740722656 1.6360611915588378906 1.4059381484985351563 1.6573461294174194336 1.8859057426452636719 1.4844603538513183594 1.6360611915588378906 1.8570797443389892578 1.7074462175369262695 1.8109803199768066406 1.7788313627243041992 1.7525779008865356445 1.7016226053237915039 2.1909940242767333984 2.4959783554077148438 2.3523085117340087891 3.0853943824768066406 2.5644977092742919922 2.6983301639556884766 2.6889643669128417969 2.6290311813354492188 2.6043825149536132813 2.6653311252593994141 2.2682147026062011719 1.8702647686004638672 1.5991983413696289063 1.8258174657821655273 1.7844845056533813477 1.8834500312805175781 1.8954765796661376953 2.2208182811737060547 1.8582510948181152344 1.6264138221740722656 2.0844869613647460938 1.7788313627243041992 1.6264138221740722656 1.6769593954086303711 1.3758698701858520508 1.9521150588989257813 1.8807964324951171875 1.8817549943923950195 1.9273805618286132813 1.7788313627243041992 1.9121928215026855469 1.9273805618286132813 3.2429821491241455078 1.9619773626327514648 2.2283473014831542969 3.6493880748748779297 3.2965180873870849609 3.6815922260284423828 3.2965180873870849609 2.2129473686218261719 1.7280544042587280273 1.8046332597732543945 1.7862250804901123047 1.493291020393371582 1.5576851367950439453 1.573635101318359375 1.6773669719696044922 1.7594369649887084961 1.4890116453170776367 1.5562608242034912109 1.7716829776763916016 1.5764701366424560547 1.9988756179809570313 1.5866249799728393555 1.6360611915588378906 1.7788313627243041992 1.9273805618286132813 1.9684967994689941406 1.7122943401336669922 1.6767861843109130859 1.8469183444976806641 1.7586873769760131836 1.9273805618286132813 1.8014175891876220703 1.7148488759994506836 1.6685606241226196289 1.6264138221740722656 1.32544708251953125 1.4472837448120117188 1.4100975990295410156 1.7751178741455078125 1.7413389682769775391 1.493291020393371582 1.9168599843978881836 2.0093746185302734375 1.903387904167175293 1.8598361015319824219 1.7859863042831420898 2.0546934604644775391 2.0230236053466796875 2.5045163631439208984 2.4976072311401367188 2.34996795654296875 2.2887368202209472656 2.6390063762664794922 2.8636593818664550781 2.6132466793060302734 2.7620360851287841797 9.2898778915405273438 2.6000423431396484375 2.8575887680053710938 2.6915400028228759766 2.701934814453125 2.4096288681030273438 2.46895599365234375 2.6401295661926269531 2.87757110595703125 2.8450915813446044922 2.4866862297058105469 2.669036865234375 2.7141537666320800781 2.8655583858489990234 3.1551415920257568359 2.6479408740997314453 2.4001688957214355469 2.2476048469543457031 
1.5323716402053833008 1.5196554660797119141 1.8794707059860229492 1.9595696926116943359 1.4139792919158935547 1.2088826894760131836 1.5983693599700927734 1.6408873796463012695 1.4226157665252685547 1.6064653396606445313 1.4541897773742675781 1.4412351846694946289 1.6056712865829467773 1.7071008682250976563 1.2131140232086181641 1.6499847173690795898 1.7414330244064331055 1.377532958984375 1.7073836326599121094 1.2424675226211547852 1.7763445377349853516 1.7720428705215454102 1.4981533288955688477 1.6379396915435791016 1.8201503753662109375 1.5820188522338867188 1.6066194772720336914 1.9369574785232543945 1.5836462974548339844 1.7271095514297485352 8.3762445449829101563 1.7510124444961547852 1.6967943906784057617 8.031848907470703125 7.9801950454711914063 1.761096954345703125 8.0207796096801757813 1.5068963766098022461 1.7798546552658081055 1.4079113006591796875 1.6019468307495117188 1.663376927375793457 1.42830657958984375 1.425976872444152832 1.6879756450653076172 1.9760470390319824219 1.8924629688262939453 2.2790253162384033203 2.036014556884765625 2.0023388862609863281 1.8865293264389038086 1.6570876836776733398 1.6524260044097900391 2.0578587055206298828 1.9197025299072265625 2.0193719863891601563 2.0617783069610595703 1.7958381175994873047 1.6677515506744384766 1.6044951677322387695 1.6963715553283691406 1.8069542646408081055 1.6601485013961791992 2.0266439914703369141 1.7788313627243041992 1.4776235818862915039 1.7142258882522583008 1.7788313627243041992 1.6360611915588378906 1.7788313627243041992 1.4941315650939941406 1.9497840404510498047 2.2129473686218261719 1.9273805618286132813 1.9697748422622680664 2.2399404048919677734 2.2895081043243408203 1.8040344715118408203 1.7788313627243041992 1.6727217435836791992 1.8080126047134399414 1.7788313627243041992 1.7586873769760131836 1.5089163780212402344 1.6360611915588378906 1.493291020393371582 1.9082057476043701172 1.7838551998138427734 1.8892191648483276367 2.1908576488494873047 2.1362745761871337891 1.8272005319595336914 1.8619462251663208008 2.0812211036682128906 2.2566068172454833984 2.4194941520690917969 2.852996826171875 3.3772203922271728516 3.132823944091796875 2.9763104915618896484 2.8046784400939941406 2.9985492229461669922 2.690425872802734375 2.8372139930725097656 2.0715155601501464844 2.0538499355316162109 1.8375238180160522461 1.6961318254470825195 1.7788313627243041992 1.8515584468841552734 1.8895790576934814453 1.9100527763366699219 1.6360611915588378906 1.6264138221740722656 2.2457969188690185547 2.1331474781036376953 1.7051815986633300781 1.7464286088943481445 2.0957150459289550781 1.75296783447265625 2.1756811141967773438 1.8755142688751220703 1.7814728021621704102 2.0200269222259521484 2.2305238246917724609 3.4669039249420166016 2.2283473014831542969 2.2283473014831542969 2.3350765705108642578 3.2429821491241455078 3.4669039249420166016 3.2656826972961425781 2.2718164920806884766 4.6507844924926757813 1.9124673604965209961 1.7788313627243041992 1.6422827243804931641 1.595597386360168457 1.8250418901443481445 1.6665802001953125 1.5856518745422363281 1.8378670215606689453 1.3740849494934082031 1.8283191919326782227 1.5995500087738037109 1.5246316194534301758 1.5774664878845214844 1.90673065185546875 1.6360611915588378906 1.6264138221740722656 1.6126775741577148438 1.7074462175369262695 1.804860234260559082 1.6903312206268310547 1.6264138221740722656 1.9273805618286132813 3.4669039249420166016 2.0484960079193115234 1.7234070301055908203 1.4840849637985229492 1.6199487447738647461 1.6360611915588378906 1.6360611915588378906 1.9542196989059448242 2.13277435302734375 1.9736725091934204102 1.8946027755737304688 2.0367610454559326172 2.1274571418762207031 2.2801976203918457031 2.2839186191558837891 2.1558389663696289063 2.1654124259948730469 2.2176597118377685547 2.1567015647888183594 2.5398123264312744141 2.2941334247589111328 2.2510840892791748047 2.5421481132507324219 2.6283333301544189453 2.7226469516754150391 3.0324742794036865234 2.6437065601348876953 2.6815404891967773438 2.7792894840240478516 2.9326179027557373047 2.7682671546936035156 3.1008088588714599609 2.7942624092102050781 2.7489399909973144531 2.8390538692474365234 2.9384942054748535156 2.3687546253204345703 2.7671167850494384766 2.9984142780303955078 2.9253697395324707031 2.9678785800933837891 2.7470099925994873047 2.5533657073974609375 2.4001753330230712891 
1.502974390983581543 1.6959052085876464844 1.6964687108993530273 1.7147086858749389648 1.7496967315673828125 1.4639769792556762695 1.4273734092712402344 1.6965470314025878906 2.0663886070251464844 1.4344402551651000977 1.3354561328887939453 1.902431488037109375 1.77678680419921875 1.6576905250549316406 1.6713263988494873047 1.9473505020141601563 1.4884330034255981445 1.4413437843322753906 1.3579617738723754883 1.3377708196640014648 1.7677721977233886719 1.3500642776489257813 1.7188662290573120117 1.546883702278137207 1.6507899761199951172 1.431130528450012207 1.6337780952453613281 1.5933908224105834961 1.5404895544052124023 1.7283649444580078125 1.4459537267684936523 1.9037764072418212891 8.391387939453125 1.5921289920806884766 1.4382244348526000977 1.3027427196502685547 7.9706711769104003906 1.4875061511993408203 1.6618144512176513672 1.9450248479843139648 2.0129590034484863281 1.4580103158950805664 1.6872301101684570313 2.0364716053009033203 1.8954006433486938477 1.9428676366806030273 2.0473034381866455078 2.3129980564117431641 2.2393202781677246094 1.9833672046661376953 2.1296663284301757813 1.9121685028076171875 1.6497461795806884766 1.7552001476287841797 1.7392287254333496094 1.9812664985656738281 1.8588745594024658203 2.0001440048217773438 1.9870221614837646484 1.9103150367736816406 2.0108225345611572266 1.7371220588684082031 1.8115358352661132813 2.1235711574554443359 1.8042256832122802734 1.7079465389251708984 1.7162407636642456055 1.7162407636642456055 2.0905275344848632813 1.8111766576766967773 1.7788313627243041992 2.4411988258361816406 1.9198410511016845703 1.9273805618286132813 2.0216321945190429688 2.0439870357513427734 2.6419634819030761719 2.4411988258361816406 1.9273805618286132813 1.7586873769760131836 2.0344383716583251953 1.7788313627243041992 1.8955167531967163086 1.6360611915588378906 1.6360611915588378906 1.7584084272384643555 1.4975066184997558594 1.5774335861206054688 1.6360611915588378906 2.0146782398223876953 2.0422341823577880859 2.0521273612976074219 1.8686473369598388672 1.9183914661407470703 2.5825760364532470703 2.4222724437713623047 2.3630616664886474609 3.0935418605804443359 2.9057703018188476563 3.0204169750213623047 2.8982374668121337891 2.8384180068969726563 3.1001756191253662109 3.1110005378723144531 2.6057116985321044922 2.1258342266082763672 2.2111711502075195313 2.0420005321502685547 1.6529947519302368164 2.3792726993560791016 1.8659650087356567383 1.8644722700119018555 2.1183941364288330078 1.7788313627243041992 1.8784344196319580078 1.6264138221740722656 1.6630148887634277344 1.8840119838714599609 1.493291020393371582 1.6651637554168701172 1.6425864696502685547 1.6264138221740722656 1.7788313627243041992 2.0033643245697021484 1.9273805618286132813 2.2283473014831542969 2.2283473014831542969 2.2283473014831542969 2.4659085273742675781 2.0399518013000488281 1.9273805618286132813 1.9849596023559570313 2.2129473686218261719 2.2129473686218261719 1.7788313627243041992 1.7788313627243041992 1.6264138221740722656 1.6338347196578979492 1.7285413742065429688 1.3505208492279052734 1.493291020393371582 1.5979361534118652344 1.4083597660064697266 1.3734956979751586914 1.7723712921142578125 1.81803131103515625 1.7766586542129516602 1.2970435619354248047 1.7362453937530517578 1.5212500095367431641 1.8042701482772827148 1.9358490705490112305 1.764801025390625 1.7074462175369262695 1.3721284866333007813 1.6734724044799804688 2.6419634819030761719 2.2137460708618164063 1.9740577936172485352 1.7639371156692504883 1.493291020393371582 1.5406898260116577148 1.8037519454956054688 1.8135430812835693359 1.8167164325714111328 2.2476296424865722656 2.2185428142547607422 1.8090777397155761719 1.9177948236465454102 2.1176526546478271484 2.0693569183349609375 2.2609360218048095703 2.1358373165130615234 2.4654066562652587891 2.200504302978515625 2.5059571266174316406 2.4624917507171630859 2.3672435283660888672 2.637958526611328125 2.8298349380493164063 2.9316327571868896484 2.9323389530181884766 2.75772857666015625 2.7214117050170898438 2.98778533935546875 3.0028078556060791016 3.3940382003784179688 2.9872133731842041016 3.1840322017669677734 9.9238986968994140625 3.1565299034118652344 2.7484548091888427734 2.6002485752105712891 2.6169116497039794922 2.8948104381561279297 2.9493098258972167969 2.7513399124145507813 2.7716796398162841797 2.8255689144134521484 2.5321793556213378906 
1.7170158624649047852 1.3505208492279052734 1.6549066305160522461 1.2408791780471801758 1.3507817983627319336 1.3980110883712768555 1.6096630096435546875 1.906588435173034668 1.5814493894577026367 1.4444605112075805664 1.4219058752059936523 1.5599324703216552734 2.0862925052642822266 1.5636277198791503906 1.6329548358917236328 1.5744100809097290039 1.5540295839309692383 1.4594531059265136719 1.7051504850387573242 1.6839573383331298828 1.6299887895584106445 1.4787338972091674805 1.9390709400177001953 1.2461500167846679688 1.493291020393371582 1.493291020393371582 1.4880150556564331055 1.8656992912292480469 1.765391230583190918 1.6730026006698608398 1.4667910337448120117 1.5718119144439697266 1.7666864395141601563 1.3994772434234619141 1.7631895542144775391 8.2360677719116210938 8.1881275177001953125 1.5917145013809204102 1.8350653648376464844 1.7406347990036010742 1.7422692775726318359 1.654469609260559082 1.7000595331192016602 1.4180542230606079102 1.6572806835174560547 1.9667090177536010742 2.1885724067687988281 2.3918292522430419922 2.3353395462036132813 2.5842964649200439453 1.9957153797149658203 2.143589019775390625 2.0817599296569824219 2.3103215694427490234 2.4003276824951171875 2.2324469089508056641 1.9904019832611083984 1.9877552986145019531 2.2721743583679199219 2.1694467067718505859 2.4604477882385253906 2.4715669155120849609 2.3679914474487304688 2.4932172298431396484 1.770282745361328125 1.3363652229309082031 1.6657379865646362305 1.7550293207168579102 1.9157444238662719727 2.6419634819030761719 1.6199332475662231445 2.00214385986328125 2.1437833309173583984 1.7788313627243041992 1.9273805618286132813 2.0399518013000488281 2.0254306793212890625 1.8138262033462524414 2.1767508983612060547 1.7904338836669921875 1.694403529167175293 1.7766367197036743164 1.6745015382766723633 1.5909432172775268555 1.8282004594802856445 2.1566908359527587891 1.7665132284164428711 1.6767889261245727539 1.7385804653167724609 2.1856667995452880859 2.1639618873596191406 2.1800234317779541016 2.2961523532867431641 2.3098433017730712891 2.5946028232574462891 2.5076797008514404297 2.5135924816131591797 2.6295332908630371094 2.7497160434722900391 2.7255632877349853516 3.0356211662292480469 2.9792988300323486328 3.0723893642425537109 3.3235895633697509766 3.0746867656707763672 3.0667531490325927734 2.6115093231201171875 2.6418440341949462891 2.4227890968322753906 2.0278689861297607422 2.0771572589874267578 2.0590224266052246094 1.8411580324172973633 1.7788313627243041992 1.8880045413970947266 1.7788313627243041992 1.6319686174392700195 1.7177273035049438477 1.422367095947265625 1.8159396648406982422 1.8802344799041748047 1.7788313627243041992 1.9273805618286132813 2.6414442062377929688 2.9318671226501464844 3.6815922260284423828 2.3350765705108642578 3.2866346836090087891 3.9018232822418212891 3.2656826972961425781 3.6493880748748779297 3.2965180873870849609 2.2718164920806884766 1.8502165079116821289 2.2305238246917724609 1.8718624114990234375 1.6360611915588378906 1.7572244405746459961 1.6073973178863525391 1.6158287525177001953 1.8278082609176635742 1.9838165044784545898 1.7557935714721679688 1.5956336259841918945 1.5283042192459106445 1.4016656875610351563 1.4219058752059936523 1.6526093482971191406 1.7628235816955566406 1.5187450647354125977 1.7877968549728393555 1.4776235818862915039 1.877051234245300293 1.696133732795715332 1.8343219757080078125 1.7917132377624511719 1.5409160852432250977 1.6548305749893188477 1.6360611915588378906 1.6360611915588378906 1.7168451547622680664 1.785863041877746582 2.0315737724304199219 1.7206810712814331055 1.8509898185729980469 2.3726541996002197266 2.0349345207214355469 1.8713085651397705078 1.9885847568511962891 1.8353810310363769531 2.2852275371551513672 2.2019464969635009766 2.1290688514709472656 2.1739668846130371094 2.4869630336761474609 2.2930452823638916016 2.5541400909423828125 2.3876495361328125 2.1702439785003662109 2.7635776996612548828 2.91657257080078125 3.0177361965179443359 2.7881052494049072266 2.7415804862976074219 3.0401124954223632813 3.5437302589416503906 9.9672403335571289063 3.6421575546264648438 3.3408207893371582031 3.0665688514709472656 3.1098666191101074219 2.7082915306091308594 2.6877648830413818359 2.9944317340850830078 2.9254429340362548828 3.2600302696228027344 2.8542735576629638672 2.9496183395385742188 2.7007856369018554688 2.55289459228515625 
1.4714288711547851563 1.6918342113494873047 1.9081612825393676758 1.8152387142181396484 1.4343132972717285156 1.5685625076293945313 1.3955825567245483398 1.4071382284164428711 1.7115873098373413086 1.8224568367004394531 1.7099205255508422852 1.5146462917327880859 1.493291020393371582 1.7133491039276123047 1.5424606800079345703 1.1608549356460571289 1.5058804750442504883 1.8334205150604248047 1.6623377799987792969 1.6060101985931396484 2.0259332656860351563 1.4425942897796630859 1.7740693092346191406 1.7771217823028564453 1.3784030675888061523 1.7432894706726074219 1.9273983240127563477 1.8356138467788696289 1.8167870044708251953 1.4043352603912353516 1.8745374679565429688 1.817023158073425293 1.4237824678421020508 1.9443665742874145508 1.5785944461822509766 1.653469085693359375 7.8903827667236328125 1.6645544767379760742 1.9202382564544677734 1.7933437824249267578 1.6064114570617675781 1.6069773435592651367 1.4158394336700439453 1.6577695608139038086 1.9250246286392211914 1.6990038156509399414 1.7786568403244018555 2.2332017421722412109 2.2449476718902587891 2.5473451614379882813 2.4146184921264648438 1.9836477041244506836 2.2534172534942626953 2.4800541400909423828 2.6870894432067871094 2.849750518798828125 2.5577342510223388672 2.3500487804412841797 2.2927467823028564453 2.4386835098266601563 2.3286569118499755859 2.7428288459777832031 2.4459369182586669922 2.2704415321350097656 2.0544996261596679688 2.0049962997436523438 1.7701354026794433594 1.9085451364517211914 2.0728678703308105469 1.9466104507446289063 1.8740339279174804688 2.0105366706848144531 1.8379493951797485352 1.7841389179229736328 1.8320150375366210938 2.3852427005767822266 2.2305238246917724609 1.6853694915771484375 1.8364778757095336914 1.9273805618286132813 1.8502165079116821289 2.5116035938262939453 2.8220388889312744141 2.4411988258361816406 1.8139497041702270508 1.9783591032028198242 1.7788313627243041992 1.7766367197036743164 1.9390430450439453125 1.739550471305847168 2.2315883636474609375 2.5567553043365478516 2.5261108875274658203 2.536533355712890625 2.1777544021606445313 2.3401892185211181641 2.3480267524719238281 2.2770915031433105469 2.3303208351135253906 2.6386072635650634766 2.9789187908172607422 3.2159490585327148438 3.1628053188323974609 3.0773551464080810547 2.9193384647369384766 2.7783308029174804688 2.6046206951141357422 2.6419634819030761719 2.0399472713470458984 2.2721679210662841797 2.0292851924896240234 2.1062905788421630859 1.8250735998153686523 1.9273805618286132813 1.6578775644302368164 1.5866270065307617188 2.0071208477020263672 1.6896328926086425781 1.6043744087219238281 1.4998574256896972656 1.6264138221740722656 1.9273805618286132813 2.9318671226501464844 2.4330153465270996094 4.6413059234619140625 3.9891257286071777344 2.4659085273742675781 3.9891257286071777344 3.6815922260284423828 3.0857267379760742188 3.2747108936309814453 2.0399518013000488281 2.0283679962158203125 1.9849596023559570313 1.7696378231048583984 1.8294210433959960938 1.6360611915588378906 1.7032625675201416016 1.3368842601776123047 2.00235748291015625 1.6844795942306518555 1.6027969121932983398 1.993020176887512207 1.6636385917663574219 1.6611466407775878906 1.5463758707046508789 1.62364959716796875 1.7421475648880004883 1.7188839912414550781 1.5646760463714599609 1.7706085443496704102 1.8082880973815917969 1.6010328531265258789 1.9677796363830566406 1.925455927848815918 1.6360611915588378906 1.802737116813659668 1.963001251220703125 1.7788313627243041992 1.6717661619186401367 1.7788313627243041992 1.7788313627243041992 2.10345458984375 2.1415591239929199219 1.9923790693283081055 2.0160796642303466797 1.9275448322296142578 1.6656842231750488281 1.9476733207702636719 2.0317492485046386719 2.1028721332550048828 2.0853247642517089844 2.4834020137786865234 2.6139636039733886719 2.4808993339538574219 2.6219198703765869141 2.6419847011566162109 2.2908313274383544922 2.2888302803039550781 2.9016242027282714844 2.7611546516418457031 2.9626746177673339844 2.7105801105499267578 2.7553420066833496094 3.1489508152008056641 3.1459245681762695313 3.5798373222351074219 3.4138154983520507813 3.2307536602020263672 3.26221466064453125 3.1423511505126953125 3.0284070968627929688 2.8178873062133789063 2.6938936710357666016 2.8279783725738525391 2.8963339328765869141 3.1856684684753417969 3.1024899482727050781 2.6361813545227050781 2.6885960102081298828 
1.8915628194808959961 2.049495697021484375 1.8960905075073242188 1.8522982597351074219 1.9002257585525512695 1.3998923301696777344 1.6825234889984130859 1.7696657180786132813 1.6233153343200683594 1.7713056802749633789 1.508069157600402832 1.6572318077087402344 1.6360611915588378906 1.6771204471588134766 1.7434389591217041016 1.7976926565170288086 1.5450264215469360352 1.7535238265991210938 1.7498536109924316406 1.5964689254760742188 1.7543346881866455078 1.914042353630065918 1.7067743539810180664 1.6629841327667236328 1.3419659137725830078 2.0258529186248779297 1.7938129901885986328 1.5784991979598999023 1.591332554817199707 1.9852509498596191406 1.224673151969909668 1.630566716194152832 8.2976694107055664063 1.5101128816604614258 1.6895829439163208008 1.4343564510345458984 8.4005575180053710938 1.4763796329498291016 8.0952711105346679688 1.5485348701477050781 8.4310455322265625 1.7265009880065917969 1.8913604021072387695 1.6859797239303588867 1.3856316804885864258 1.8557550907135009766 2.1591093540191650391 1.9474674463272094727 2.0298061370849609375 2.1216573715209960938 1.9189481735229492188 2.1702890396118164063 2.0468757152557373047 2.3157870769500732422 2.6105594635009765625 2.4884603023529052734 2.5527694225311279297 2.667163848876953125 2.4335498809814453125 2.6026248931884765625 2.2044391632080078125 2.1773207187652587891 2.2265315055847167969 2.4184966087341308594 2.0502798557281494141 1.8872281312942504883 1.8882955312728881836 2.0446939468383789063 1.7788313627243041992 1.6309262514114379883 1.9354904890060424805 2.2360007762908935547 2.0643243789672851563 2.092632293701171875 2.0844743251800537109 1.834148406982421875 2.0830130577087402344 1.8420425653457641602 1.9804588556289672852 2.3852427005767822266 2.8938577175140380859 1.9273805618286132813 2.8220388889312744141 2.1512956619262695313 2.3496057987213134766 2.319431304931640625 1.9848477840423583984 2.4352505207061767578 2.5090649127960205078 2.1088118553161621094 2.3633441925048828125 2.5175905227661132813 2.1021645069122314453 2.1892616748809814453 2.6419634819030761719 2.1959273815155029297 2.0943400859832763672 2.1525681018829345703 1.9716637134552001953 2.3352406024932861328 2.7169952392578125 3.2878737449645996094 3.3537366390228271484 3.2885253429412841797 2.9761793613433837891 2.8081486225128173828 2.3041713237762451172 2.2129473686218261719 2.8671553134918212891 1.8671435117721557617 1.9325438737869262695 1.7984628677368164063 2.5577118396759033203 1.9273805618286132813 1.9273805618286132813 2.8220388889312744141 1.7823303937911987305 1.7788313627243041992 1.8815062046051025391 2.1179823875427246094 2.1723401546478271484 2.1146967411041259766 4.1445622444152832031 3.6815922260284423828 2.2283473014831542969 2.2283473014831542969 2.4118311405181884766 3.2429821491241455078 2.0911858081817626953 3.2965180873870849609 1.9273805618286132813 3.4669039249420166016 2.0283679962158203125 1.9273805618286132813 2.4766926765441894531 2.6419634819030761719 1.6264138221740722656 1.6360611915588378906 1.6898671388626098633 1.7615005970001220703 1.6607720851898193359 1.6360611915588378906 1.9019373655319213867 1.7746651172637939453 1.687581181526184082 1.8371312618255615234 1.6978827714920043945 1.9955878257751464844 1.750260472297668457 1.6360611915588378906 1.9548094272613525391 1.4863315820693969727 1.4463205337524414063 1.7325414419174194336 1.9606612920761108398 1.5463500022888183594 1.7788313627243041992 1.712833404541015625 1.7788313627243041992 1.6360611915588378906 1.7241427898406982422 1.9177070856094360352 1.970947265625 1.9577968120574951172 1.9695618152618408203 2.1519348621368408203 1.8127120733261108398 1.8193449974060058594 1.6874344348907470703 2.0820550918579101563 2.3629345893859863281 2.2219672203063964844 2.3439915180206298828 2.2885138988494873047 2.48900604248046875 2.7555921077728271484 2.9416863918304443359 2.5022056102752685547 2.6698691844940185547 3.0663177967071533203 2.9091436862945556641 2.8005957603454589844 3.0750691890716552734 2.8430054187774658203 3.0374796390533447266 3.4731991291046142578 3.5980348587036132813 3.5423016548156738281 3.3990573883056640625 3.2939569950103759766 3.2513747215270996094 3.3543763160705566406 2.8465209007263183594 2.7921526432037353516 2.8859341144561767578 2.9246077537536621094 2.6541807651519775391 2.9176089763641357422 2.8412575721740722656 2.7628118991851806641 
1.32544708251953125 1.5538424253463745117 1.6762524843215942383 1.6360611915588378906 2.0197503566741943359 1.8662512302398681641 1.7280550003051757813 1.3933140039443969727 1.6463925838470458984 1.8802344799041748047 1.836020350456237793 1.6360611915588378906 1.7136319875717163086 1.4901922941207885742 1.5458238124847412109 1.608534693717956543 1.3382892608642578125 1.6873676776885986328 1.6208102703094482422 1.7313257455825805664 1.5369294881820678711 1.9130656719207763672 1.9886058568954467773 1.5014023780822753906 1.6674323081970214844 1.6012203693389892578 1.9161978960037231445 1.8719766139984130859 1.963470458984375 1.514115452766418457 1.6264760494232177734 1.7844972610473632813 1.578486323356628418 2.0461375713348388672 1.4561392068862915039 1.6552295684814453125 1.5179082155227661133 1.9975882768630981445 1.6789492368698120117 8.3579654693603515625 1.6519285440444946289 8.4924640655517578125 8.3377704620361328125 1.7660213708877563477 1.9558409452438354492 1.8677337169647216797 1.8848359584808349609 1.9240247011184692383 1.8677952289581298828 1.77663421630859375 2.2813327312469482422 2.2189240455627441406 2.1114203929901123047 2.7595436573028564453 2.5371870994567871094 2.4086363315582275391 2.6567208766937255859 2.6197679042816162109 2.9190311431884765625 2.5211491584777832031 2.54163360595703125 2.4219083786010742188 2.4089365005493164063 2.1018898487091064453 2.0962030887603759766 2.6034755706787109375 2.6823694705963134766 2.3847565650939941406 2.4814019203186035156 1.8173203468322753906 2.038669586181640625 2.2399497032165527344 2.2269003391265869141 2.0405337810516357422 2.4322719573974609375 2.20630645751953125 2.3712821006774902344 2.254291534423828125 2.0097727775573730469 1.8723454475402832031 1.7768971920013427734 1.8138262033462524414 1.7788313627243041992 1.9179674386978149414 2.6419634819030761719 2.3598024845123291016 2.8938577175140380859 2.3724832534790039063 2.6730875968933105469 2.397823333740234375 1.8657718896865844727 2.0787942409515380859 1.8769675493240356445 1.9109579324722290039 2.0662326812744140625 1.9047021865844726563 2.3881433010101318359 2.2966685295104980469 2.2423539161682128906 2.2611246109008789063 2.6528544425964355469 2.9868187904357910156 3.0557260513305664063 3.2382318973541259766 3.2389838695526123047 2.8590095043182373047 2.50002288818359375 2.3087708950042724609 1.9349175691604614258 1.9827458858489990234 2.1635997295379638672 1.8548200130462646484 2.4411988258361816406 2.8220388889312744141 3.2965180873870849609 3.2656826972961425781 1.9444774389266967773 2.6419634819030761719 1.9684967994689941406 1.7872604131698608398 2.2129473686218261719 1.9574986696243286133 5.0473923683166503906 4.1904873847961425781 2.4118311405181884766 2.4118311405181884766 3.0711941719055175781 3.6815922260284423828 3.4669039249420166016 2.4411988258361816406 2.0975275039672851563 3.2965180873870849609 1.9273805618286132813 1.9273805618286132813 1.9273805618286132813 1.8791748285293579102 1.9405019283294677734 1.6360611915588378906 1.8183519840240478516 1.9498096704483032227 1.6360611915588378906 1.6360611915588378906 1.4289563894271850586 1.632677912712097168 1.5235908031463623047 1.6360611915588378906 1.6001602411270141602 1.6360611915588378906 1.5497195720672607422 1.8792172670364379883 1.8947110176086425781 1.7771948575973510742 1.5594354867935180664 1.493291020393371582 1.7792452573776245117 1.7242659330368041992 1.7959343194961547852 1.6360611915588378906 1.7788313627243041992 1.8282794952392578125 2.1179823875427246094 1.7788313627243041992 1.9670491218566894531 2.0971906185150146484 2.2563436031341552734 2.1363399028778076172 2.1094260215759277344 2.0527248382568359375 2.1473424434661865234 1.9577202796936035156 2.0820920467376708984 2.3128216266632080078 2.3034386634826660156 2.6070027351379394531 2.7248790264129638672 2.8590421676635742188 2.9141709804534912109 2.5800912380218505859 2.6332957744598388672 2.9449405670166015625 3.1099948883056640625 3.0421116352081298828 2.6529192924499511719 3.1399760246276855469 3.2370102405548095703 3.2884294986724853516 3.4162650108337402344 3.5749874114990234375 3.5880651473999023438 3.3988437652587890625 3.3843603134155273438 3.0330858230590820313 2.9608144760131835938 3.0905740261077880859 2.8041021823883056641 2.5798270702362060547 2.7890107631683349609 2.9252626895904541016 2.8051087856292724609 2.8534619808197021484 
1.7788313627243041992 1.7788313627243041992 1.4500726461410522461 1.6360611915588378906 1.8493773937225341797 1.493291020393371582 1.6665689945220947266 1.6837773323059082031 1.6360611915588378906 1.5830829143524169922 1.7021726369857788086 1.6360611915588378906 1.6360611915588378906 1.6360611915588378906 1.7921770811080932617 1.7297388315200805664 1.8457386493682861328 1.6784499883651733398 1.6036857366561889648 1.7905098199844360352 1.6645238399505615234 1.5000798702239990234 1.5851300954818725586 1.6254270076751708984 1.8035571575164794922 1.9273939132690429688 1.6970427036285400391 1.576954960823059082 1.7644902467727661133 1.7901529073715209961 1.8596148490905761719 1.941624760627746582 1.7387399673461914063 1.926627039909362793 1.5815192461013793945 1.754845738410949707 1.375335693359375 1.5275323390960693359 8.3617162704467773438 1.5760283470153808594 1.6561102867126464844 1.4426441192626953125 8.3447923660278320313 1.839766383171081543 1.8331624269485473633 8.3686704635620117188 1.8706052303314208984 1.7680624723434448242 1.8923105001449584961 1.9480030536651611328 1.84143829345703125 1.9556030035018920898 2.2769949436187744141 2.2901070117950439453 2.6793220043182373047 2.4548506736755371094 2.3486566543579101563 2.5461227893829345703 3.1720092296600341797 2.8500654697418212891 3.0658290386199951172 2.8933928012847900391 2.5958013534545898438 2.5657820701599121094 2.3298439979553222656 2.7039136886596679688 2.8686501979827880859 2.6814844608306884766 2.2365291118621826172 2.2505486011505126953 2.2200071811676025391 1.9152315855026245117 2.5282578468322753906 2.7838025093078613281 2.4754071235656738281 2.7519268989562988281 2.7237691879272460938 2.6931726932525634766 2.3813450336456298828 2.3164520263671875 2.99475860595703125 2.0299296379089355469 1.9684967994689941406 2.1211109161376953125 2.1251456737518310547 2.4234690666198730469 2.7100369930267333984 2.8416192531585693359 2.6285800933837890625 2.4835772514343261719 2.372955322265625 1.9440389871597290039 2.0734620094299316406 2.3376231193542480469 1.8500860929489135742 2.0638148784637451172 2.1381881237030029297 2.084247589111328125 2.3232195377349853516 2.4950032234191894531 2.4269716739654541016 2.8360226154327392578 3.5494837760925292969 3.1245675086975097656 3.0906352996826171875 3.1711952686309814453 3.4669039249420166016 3.4669039249420166016 2.0157706737518310547 2.2295627593994140625 2.3003149032592773438 2.2305238246917724609 1.7860915660858154297 1.9273805618286132813 3.2965180873870849609 4.1126537322998046875 2.6820814609527587891 1.9444774389266967773 2.0033643245697021484 2.9318671226501464844 3.4669039249420166016 3.4669039249420166016 3.6815922260284423828 3.9891257286071777344 2.0283679962158203125 4.2052674293518066406 2.3756649494171142578 2.2129473686218261719 3.2429821491241455078 1.9273805618286132813 1.9273805618286132813 1.9273805618286132813 2.6414442062377929688 2.8220388889312744141 2.6440007686614990234 1.6380693912506103516 1.6360611915588378906 1.7712414264678955078 1.6112830638885498047 1.6679853200912475586 1.9701937437057495117 1.6360611915588378906 1.7087229490280151367 1.8932933807373046875 1.8045340776443481445 1.841827392578125 1.7525779008865356445 2.2190430164337158203 1.6839333772659301758 1.6552834510803222656 1.8319706916809082031 1.6156694889068603516 1.6360611915588378906 1.6360611915588378906 1.8521384000778198242 1.8430143594741821289 1.5863472223281860352 1.7777431011199951172 1.7788313627243041992 1.7788313627243041992 1.7913604974746704102 2.6419634819030761719 2.10364532470703125 2.8938577175140380859 2.1568386554718017578 2.1066761016845703125 2.1060814857482910156 2.2897524833679199219 2.1837277412414550781 2.3795981407165527344 2.432403564453125 1.9711630344390869141 2.3750376701354980469 2.4364991188049316406 2.0236027240753173828 2.7566015720367431641 2.7971210479736328125 3.1502594947814941406 2.9750277996063232422 3.2879989147186279297 3.3621084690093994141 3.1543118953704833984 3.3361296653747558594 3.3740973472595214844 3.5399785041809082031 3.5236217975616455078 3.4932775497436523438 3.6202449798583984375 3.5142409801483154297 3.7312178611755371094 3.532543182373046875 3.3005211353302001953 3.1535215377807617188 3.2107827663421630859 2.7778160572052001953 2.9159038066864013672 3.136959075927734375 3.2558825016021728516 2.884464263916015625 2.6340794563293457031 
1.7788313627243041992 1.8445596694946289063 1.7221063375473022461 1.6264138221740722656 1.4098325967788696289 1.7323811054229736328 1.493291020393371582 1.9063255786895751953 1.7766367197036743164 2.1238038539886474609 1.7788313627243041992 1.801958918571472168 1.6830544471740722656 1.6360611915588378906 1.8214681148529052734 1.6731225252151489258 1.7893474102020263672 2.01409149169921875 1.6641839742660522461 1.4427202939987182617 1.7190968990325927734 1.7259691953659057617 1.8104860782623291016 1.6532868146896362305 1.6202816963195800781 1.7244135141372680664 1.7355576753616333008 1.5646760463714599609 1.8248513936996459961 1.8980970382690429688 1.9656157493591308594 1.8631976842880249023 1.4192131757736206055 1.8832156658172607422 1.8394014835357666016 1.6520401239395141602 2.1698529720306396484 1.656726837158203125 2.0955533981323242188 1.7268133163452148438 1.5686018466949462891 2.0114061832427978516 1.6976338624954223633 8.697906494140625 1.6207041740417480469 8.6473646163940429688 1.9858204126358032227 8.2490339279174804688 1.7450408935546875 1.9529712200164794922 2.0856127738952636719 1.9693782329559326172 2.4356906414031982422 2.5227200984954833984 2.4224314689636230469 2.2419333457946777344 1.9583231210708618164 2.2160513401031494141 2.7099056243896484375 2.9713122844696044922 2.8287434577941894531 3.156322479248046875 2.7178280353546142578 2.8622906208038330078 2.8282866477966308594 2.6927134990692138672 2.7766795158386230469 2.7128129005432128906 2.4060120582580566406 2.3685939311981201172 2.3425922393798828125 2.3526120185852050781 2.4392511844635009766 2.3568463325500488281 3.0200002193450927734 2.9260087013244628906 2.9428598880767822266 2.5504002571105957031 2.3698976039886474609 2.4555585384368896484 2.0315752029418945313 2.4766926765441894531 1.9296810626983642578 2.1930129528045654297 2.6527013778686523438 2.5430545806884765625 2.725543975830078125 2.4509909152984619141 2.5927705764770507813 2.4185819625854492188 2.5997593402862548828 2.0492336750030517578 1.9952349662780761719 1.9130997657775878906 2.0867202281951904297 2.37176513671875 2.5212903022766113281 2.4474232196807861328 2.4018349647521972656 2.6090407371520996094 2.8685343265533447266 3.318164825439453125 3.5145459175109863281 3.5482738018035888672 3.0942025184631347656 3.0666112899780273438 2.8999998569488525391 3.4669039249420166016 2.4741268157958984375 3.2965180873870849609 2.4019386768341064453 3.8335995674133300781 2.1377985477447509766 1.9273805618286132813 2.0283679962158203125 3.4669039249420166016 3.4669039249420166016 2.2129473686218261719 2.4766926765441894531 1.7915269136428833008 3.2518346309661865234 2.0399518013000488281 3.8335995674133300781 3.9891257286071777344 3.6815922260284423828 3.2965180873870849609 2.2562291622161865234 1.9541800022125244141 3.6493880748748779297 1.9273805618286132813 2.0763139724731445313 1.9444774389266967773 1.9372781515121459961 1.9273805618286132813 1.7644934654235839844 1.7788313627243041992 1.6899684667587280273 1.5397737026214599609 2.2541730403900146484 1.7304551601409912109 1.3775655031204223633 1.7009755373001098633 2.0015187263488769531 1.7393137216567993164 2.2140893936157226563 1.9832084178924560547 1.6866333484649658203 1.653826594352722168 1.5517364740371704102 1.8452188968658447266 1.9273805618286132813 1.6578775644302368164 1.8482890129089355469 1.6360611915588378906 1.7245296239852905273 1.7422670125961303711 1.6462371349334716797 1.8786302804946899414 1.7525779008865356445 1.5523052215576171875 1.8286697864532470703 1.7788313627243041992 2.3852427005767822266 2.0353059768676757813 2.0423216819763183594 1.8828797340393066406 2.1773557662963867188 2.2619998455047607422 2.3281908035278320313 1.7848435640335083008 2.1803951263427734375 2.0053489208221435547 2.2027051448822021484 2.5301318168640136719 2.5636684894561767578 2.7285776138305664063 2.9002797603607177734 2.9757542610168457031 3.0047745704650878906 3.300800323486328125 3.449039459228515625 3.4712364673614501953 3.4330105781555175781 3.6074311733245849609 3.5466008186340332031 3.5818891525268554688 3.5155534744262695313 3.6289246082305908203 3.6072514057159423828 3.3071339130401611328 3.1350967884063720703 3.1771457195281982422 3.3017532825469970703 2.8386025428771972656 3.0139369964599609375 2.8722681999206542969 3.3046729564666748047 3.3151934146881103516 3.1267747879028320313 3.0011434555053710938 
2.0432763099670410156 1.8788437843322753906 1.7644934654235839844 1.6497834920883178711 1.7074462175369262695 1.6644825935363769531 1.8695266246795654297 2.1179823875427246094 1.7799177169799804688 1.8444230556488037109 1.9546664953231811523 1.6360611915588378906 1.8071255683898925781 1.7788313627243041992 1.6264138221740722656 1.8812234401702880859 1.8228998184204101563 1.5247068405151367188 1.4443525075912475586 1.5815863609313964844 1.5594315528869628906 1.8864446878433227539 1.737471461296081543 1.9830318689346313477 1.9041084051132202148 1.7788313627243041992 2.1379244327545166016 1.8401790857315063477 1.6973040103912353516 1.9482100009918212891 1.622037053108215332 1.5893383026123046875 1.734225153923034668 2.3047068119049072266 1.7671052217483520508 1.5767117738723754883 1.5390416383743286133 1.5810371637344360352 1.2062687873840332031 1.5322263240814208984 1.7437595129013061523 1.3389910459518432617 1.7482614517211914063 8.3529262542724609375 8.4711894989013671875 8.5388269424438476563 8.2562360763549804688 8.7486524581909179688 1.9545282125473022461 2.0651483535766601563 2.55742645263671875 2.5125522613525390625 2.2564282417297363281 2.3262846469879150391 2.0944697856903076172 2.0928547382354736328 2.5920009613037109375 2.4470920562744140625 2.4945700168609619141 3.0874240398406982422 2.9575643539428710938 2.7107119560241699219 3.0990083217620849609 3.1749634742736816406 3.5289173126220703125 3.1342489719390869141 2.9538996219635009766 2.6949975490570068359 2.94480133056640625 2.7960667610168457031 2.7327635288238525391 2.4420590400695800781 2.5925221443176269531 2.5409002304077148438 2.8495259284973144531 2.9715468883514404297 3.1314473152160644531 2.7655427455902099609 2.2941458225250244141 2.3122119903564453125 3.1011753082275390625 2.4546866416931152344 2.8938577175140380859 2.2556900978088378906 2.3148877620697021484 2.3515393733978271484 2.8061721324920654297 2.6619744300842285156 2.7276628017425537109 2.3133406639099121094 2.060359954833984375 2.3322384357452392578 1.9904483556747436523 2.1271669864654541016 2.1321392059326171875 2.4099888801574707031 2.4468793869018554688 2.1432027816772460938 2.4944322109222412109 2.6330599784851074219 2.8064241409301757813 3.2345807552337646484 3.1330463886260986328 3.3414566516876220703 3.6285068988800048828 3.1610999107360839844 3.3037152290344238281 2.7589285373687744141 2.9069015979766845703 2.5051357746124267578 2.3759171962738037109 2.3337912559509277344 2.0322780609130859375 2.8220388889312744141 1.9273805618286132813 3.4669039249420166016 2.5116035938262939453 1.8377184867858886719 1.79496002197265625 1.6561309099197387695 1.7836997509002685547 2.1162738800048828125 2.2718164920806884766 2.6414442062377929688 2.986942291259765625 2.8220388889312744141 1.9273805618286132813 2.2129473686218261719 2.1495931148529052734 2.1646683216094970703 1.9800686836242675781 1.9273805618286132813 2.8220388889312744141 1.7836997509002685547 1.9273805618286132813 1.9273805618286132813 1.9582102298736572266 1.5925984382629394531 2.0435700416564941406 1.493291020393371582 1.6702612638473510742 1.643080592155456543 1.6671590805053710938 1.7454540729522705078 1.7769603729248046875 1.8502165079116821289 1.669648289680480957 1.6360611915588378906 1.7788313627243041992 1.7404921054840087891 1.6293581724166870117 1.4856454133987426758 1.6186150312423706055 1.6360611915588378906 1.8209948539733886719 1.8088352680206298828 1.6360611915588378906 1.8340104818344116211 1.8319236040115356445 1.9674085378646850586 1.9830318689346313477 1.6522678136825561523 2.1588010787963867188 2.6419634819030761719 2.2180526256561279297 2.1780405044555664063 2.2323501110076904297 2.0623440742492675781 1.9847459793090820313 1.9092957973480224609 1.761109471321105957 1.7700220346450805664 1.9578869342803955078 2.5723173618316650391 2.6262822151184082031 2.8963098526000976563 2.6355443000793457031 3.0904970169067382813 3.1737260818481445313 3.4094667434692382813 3.4094033241271972656 3.4283900260925292969 3.5278611183166503906 3.4752879142761230469 3.5387783050537109375 3.6225566864013671875 3.8969931602478027344 3.4406681060791015625 3.3579516410827636719 3.5176706314086914063 3.213123321533203125 3.2411012649536132813 3.325916290283203125 3.111904144287109375 3.3888974189758300781 3.4513499736785888672 3.4677422046661376953 3.5332572460174560547 3.5148744583129882813 3.6598346233367919922 
1.9273805618286132813 2.4766926765441894531 1.9273805618286132813 1.6794008016586303711 1.7122943401336669922 1.7358406782150268555 1.6264138221740722656 1.7788313627243041992 1.7788313627243041992 1.7586873769760131836 1.7788313627243041992 1.9218089580535888672 1.7074462175369262695 1.6989897489547729492 1.6360611915588378906 1.9754416942596435547 1.8279139995574951172 1.8222864866256713867 1.493291020393371582 1.7205597162246704102 1.8051220178604125977 1.4226268529891967773 1.9104057550430297852 1.7788313627243041992 1.7520056962966918945 1.9273805618286132813 1.9684967994689941406 2.2103393077850341797 1.9770858287811279297 1.493291020393371582 1.6697828769683837891 2.0930318832397460938 1.9769124984741210938 2.1192572116851806641 1.7969471216201782227 1.9405056238174438477 1.8398723602294921875 1.6596801280975341797 1.7691570520401000977 1.9406064748764038086 1.5475022792816162109 1.5836503505706787109 8.7256994247436523438 1.9251701831817626953 2.0357487201690673828 1.44618988037109375 8.418628692626953125 8.6916475296020507813 8.4554548263549804688 2.4133639335632324219 2.4778599739074707031 1.984588623046875 2.1861579418182373047 2.1714272499084472656 2.1800653934478759766 2.6118705272674560547 2.0887842178344726563 2.3397810459136962891 2.3227634429931640625 2.5340337753295898438 2.9457290172576904297 2.6140890121459960938 2.8103399276733398438 3.3555939197540283203 3.0805675983428955078 3.1182847023010253906 3.239498138427734375 2.7612335681915283203 3.1497728824615478516 3.0788402557373046875 2.5825181007385253906 2.8805775642395019531 2.6642367839813232422 2.9050974845886230469 3.1365771293640136719 3.3068654537200927734 3.1300294399261474609 3.1762290000915527344 2.4747953414916992188 2.4080858230590820313 2.7004625797271728516 2.8220388889312744141 2.8297266960144042969 3.2348196506500244141 2.7040560245513916016 2.6179690361022949219 2.9885683059692382813 2.5174617767333984375 2.7502129077911376953 2.5811226367950439453 2.1185636520385742188 2.2119286060333251953 2.5234112739562988281 2.6449384689331054688 2.3013377189636230469 2.4166753292083740234 2.5768036842346191406 2.4814181327819824219 2.6805045604705810547 2.7651178836822509766 2.7501089572906494141 3.1484012603759765625 3.3956999778747558594 3.7365310192108154297 3.1485495567321777344 3.1143643856048583984 2.8966314792633056641 2.4854438304901123047 2.5948445796966552734 3.4669039249420166016 2.2388164997100830078 2.2270236015319824219 2.1094622611999511719 2.2394630908966064453 2.2718164920806884766 2.2231700420379638672 2.8938577175140380859 1.9273805618286132813 2.1929941177368164063 1.639965057373046875 2.2140893936157226563 1.8944923877716064453 2.2305238246917724609 3.4669039249420166016 5.0473923683166503906 5.0473923683166503906 1.9273805618286132813 1.9273805618286132813 1.9934201240539550781 2.2388429641723632813 2.1104757785797119141 1.9273805618286132813 1.9273805618286132813 2.3088572025299072266 1.9974771738052368164 2.1104757785797119141 2.0168652534484863281 2.0475039482116699219 2.0767924785614013672 1.7788313627243041992 1.6790822744369506836 1.81783294677734375 1.6831662654876708984 1.700740814208984375 1.8547663688659667969 1.6979434490203857422 2.0588560104370117188 1.6264138221740722656 1.7788313627243041992 1.9661852121353149414 1.5480812788009643555 1.9851249456405639648 2.0004067420959472656 1.6657859086990356445 1.6431306600570678711 1.8994020223617553711 1.8516340255737304688 1.7378276586532592773 1.6827415227890014648 1.9417769908905029297 2.2140893936157226563 1.7074462175369262695 1.7696378231048583984 2.0852253437042236328 1.974849700927734375 1.879458308219909668 1.8362071514129638672 2.0443150997161865234 1.9291783571243286133 2.0043346881866455078 1.847567439079284668 1.9666854143142700195 2.0538280010223388672 2.4785645008087158203 3.1439831256866455078 3.0737221240997314453 3.0219461917877197266 2.9914302825927734375 3.2351031303405761719 3.3250908851623535156 3.6534161567687988281 3.5046093463897705078 3.6239421367645263672 3.5563752651214599609 3.4323782920837402344 3.434337615966796875 3.7871794700622558594 4.1737046241760253906 3.5934436321258544922 3.1582529544830322266 3.1699042320251464844 3.0974495410919189453 3.4467177391052246094 3.1296303272247314453 3.3400795459747314453 3.4334607124328613281 3.4885835647583007813 3.762851715087890625 3.8901388645172119141 4.0596051216125488281 
1.9458800554275512695 1.9273805618286132813 1.9273805618286132813 1.7766367197036743164 1.6960996389389038086 1.7788313627243041992 1.6927090883255004883 2.0342175960540771484 2.8938577175140380859 1.7696378231048583984 1.9273805618286132813 1.7788313627243041992 2.0066213607788085938 1.6360611915588378906 1.4800944328308105469 2.1146323680877685547 1.7788313627243041992 1.9251753091812133789 1.6127618551254272461 1.9182363748550415039 1.5641572475433349609 1.6127443313598632813 1.7788313627243041992 1.9901955127716064453 1.8578486442565917969 2.4411988258361816406 1.7696378231048583984 1.7788313627243041992 1.7080003023147583008 1.6768164634704589844 1.9775004386901855469 1.7948272228240966797 1.8693084716796875 1.785662531852722168 1.803425908088684082 1.8480330705642700195 1.8959733247756958008 1.7912095785140991211 1.7841309309005737305 1.5929158926010131836 1.8409180641174316406 1.8056530952453613281 1.8805475234985351563 2.0195415019989013672 1.8585506677627563477 1.9544037580490112305 2.128875732421875 8.6123342514038085938 2.0546030998229980469 1.9418327808380126953 2.0889945030212402344 2.342266082763671875 2.3341634273529052734 2.2357831001281738281 2.6241934299468994141 2.2768194675445556641 2.1014397144317626953 2.1961061954498291016 1.9948087930679321289 2.5632719993591308594 2.6098864078521728516 2.6977384090423583984 2.7610399723052978516 2.7320153713226318359 3.2977035045623779297 3.264949798583984375 3.7442798614501953125 3.1688175201416015625 2.8015682697296142578 2.4813425540924072266 2.749362945556640625 2.6364665031433105469 2.5177128314971923828 2.9377982616424560547 2.9679782390594482422 2.9046816825866699219 3.0888285636901855469 3.1894967555999755859 3.0225005149841308594 2.6987833976745605469 2.3759756088256835938 2.6092162132263183594 2.7754564285278320313 3.0284335613250732422 3.1304979324340820313 2.8687460422515869141 3.0161173343658447266 2.6498019695281982422 2.6833770275115966797 2.3791248798370361328 2.5263183116912841797 2.5654821395874023438 2.4372158050537109375 2.7050626277923583984 2.5731928348541259766 2.7550604343414306641 2.8569681644439697266 2.8299610614776611328 2.5827648639678955078 2.7258601188659667969 2.7095000743865966797 3.1835813522338867188 3.125041961669921875 3.0113444328308105469 2.9116683006286621094 3.0121700763702392578 3.1991553306579589844 2.9731976985931396484 2.8839256763458251953 2.5337350368499755859 2.2129473686218261719 2.2129473686218261719 2.4902939796447753906 2.5732533931732177734 2.5924410820007324219 2.1566908359527587891 2.0369811058044433594 2.3199214935302734375 1.8134816884994506836 1.9238554239273071289 1.7947671413421630859 2.0214743614196777344 1.7788313627243041992 1.9697748422622680664 1.9574986696243286133 1.9273805618286132813 2.6419634819030761719 2.6419634819030761719 1.9273805618286132813 1.9273805618286132813 1.8325245380401611328 1.90203094482421875 1.9974654912948608398 2.2305238246917724609 2.2129473686218261719 1.9273805618286132813 1.694403529167175293 1.7788313627243041992 1.9121928215026855469 1.733154296875 1.7344321012496948242 1.6821691989898681641 1.7891955375671386719 1.9740457534790039063 1.9830318689346313477 1.7696378231048583984 1.7788313627243041992 1.7615131139755249023 2.1566908359527587891 1.5998440980911254883 1.8817030191421508789 1.784109950065612793 1.6839003562927246094 1.8371312618255615234 1.8151338100433349609 1.7945541143417358398 1.8606250286102294922 1.8162901401519775391 1.6562570333480834961 1.8780643939971923828 1.6360611915588378906 1.9970171451568603516 1.9658521413803100586 1.7262526750564575195 2.2635769844055175781 2.0018281936645507813 1.6360611915588378906 2.0514976978302001953 2.0215864181518554688 1.7682301998138427734 1.7103875875473022461 1.593211054801940918 8.703571319580078125 2.28607940673828125 2.4541733264923095703 2.8682777881622314453 2.8836653232574462891 3.2323293685913085938 3.1145555973052978516 3.2378466129302978516 3.8644227981567382813 3.4397687911987304688 3.6538310050964355469 3.4428150653839111328 3.0658640861511230469 3.2658910751342773438 3.4915394783020019531 3.5110275745391845703 3.2703788280487060547 3.1357378959655761719 3.0407581329345703125 2.9115912914276123047 3.5945153236389160156 2.8933234214782714844 3.1206305027008056641 3.4017922878265380859 3.6035051345825195313 3.6339623928070068359 3.6816220283508300781 3.9234240055084228516 
2.2129473686218261719 2.2129473686218261719 1.9444774389266967773 2.1723401546478271484 2.0468723773956298828 1.8476914167404174805 2.0419363975524902344 2.8938577175140380859 1.9273805618286132813 1.9273805618286132813 1.7788313627243041992 1.7141245603561401367 1.808392643928527832 1.8492279052734375 1.7677263021469116211 1.7162407636642456055 1.9241009950637817383 1.8802344799041748047 1.7684522867202758789 1.7628020048141479492 1.6618430614471435547 2.1179823875427246094 1.7788313627243041992 2.0118184089660644531 1.7788313627243041992 1.9273805618286132813 1.7788313627243041992 1.7666994333267211914 1.8964327573776245117 1.7842760086059570313 1.647029876708984375 1.9767757654190063477 1.8449065685272216797 1.9038097858428955078 1.9051784276962280273 1.720656275749206543 1.8231670856475830078 1.9994491338729858398 1.8307790756225585938 1.8246380090713500977 2.0861454010009765625 2.1811695098876953125 1.8428730964660644531 2.0319211483001708984 2.4172492027282714844 2.2023413181304931641 2.0348517894744873047 2.1473622322082519531 2.0632996559143066406 2.0014557838439941406 2.2998654842376708984 1.9371262788772583008 1.9705860614776611328 8.7468461990356445313 2.5360040664672851563 2.3684263229370117188 2.3544476032257080078 1.8577244281768798828 2.2354001998901367188 2.1707863807678222656 2.2837059497833251953 2.9346647262573242188 3.2005589008331298828 3.2126243114471435547 3.3354902267456054688 3.3219962120056152344 3.6322727203369140625 3.3558342456817626953 2.678737640380859375 2.1871695518493652344 2.9393117427825927734 2.9245877265930175781 2.498477935791015625 2.8432214260101318359 2.8685538768768310547 3.1427705287933349609 3.2244298458099365234 2.7814607620239257813 2.6057870388031005859 2.6420581340789794922 2.4529893398284912109 2.3897345066070556641 2.7884733676910400391 2.98748016357421875 3.5578494071960449219 3.5837652683258056641 3.3855600357055664063 3.4372923374176025391 2.9774303436279296875 2.6370463371276855469 2.7657587528228759766 3.2110114097595214844 2.5879535675048828125 2.7443182468414306641 2.8662431240081787109 2.4096357822418212891 2.4997715950012207031 2.7035684585571289063 2.7955813407897949219 2.8931534290313720703 2.8401165008544921875 2.8668844699859619141 3.1226074695587158203 2.9886467456817626953 3.1585240364074707031 3.2639124393463134766 3.5798902511596679688 3.1774983406066894531 2.5043578147888183594 2.3042049407958984375 2.986942291259765625 2.306438446044921875 2.5628440380096435547 2.6419634819030761719 2.2777025699615478516 2.0868163108825683594 2.2837324142456054688 1.9737598896026611328 1.8927015066146850586 1.7341167926788330078 1.9535011053085327148 1.7769914865493774414 2.0459752082824707031 1.9273805618286132813 1.9273805618286132813 2.2718164920806884766 1.8185274600982666016 2.1565530300140380859 1.8502165079116821289 2.4411988258361816406 1.9273805618286132813 1.7579005956649780273 1.8132474422454833984 1.7788313627243041992 1.9273805618286132813 2.8938577175140380859 1.9273805618286132813 1.9170023202896118164 1.9180582761764526367 2.2599413394927978516 2.1057736873626708984 2.1566908359527587891 1.6690714359283447266 1.8531948328018188477 2.2305238246917724609 1.9281197786331176758 1.9830318689346313477 1.8668259382247924805 1.7788313627243041992 1.9260506629943847656 1.4726613759994506836 1.6903662681579589844 1.8984278440475463867 1.7864871025085449219 2.1179823875427246094 2.1566908359527587891 2.5577118396759033203 1.7301352024078369141 1.7409677505493164063 1.7892336845397949219 1.950343012809753418 2.0832488536834716797 2.0114367008209228516 1.7788313627243041992 1.8253073692321777344 1.8862984180450439453 1.8556318283081054688 1.7358856201171875 1.8048560619354248047 1.7825765609741210938 2.0482201576232910156 1.8724089860916137695 2.1244721412658691406 2.2749044895172119141 2.4197025299072265625 2.0846350193023681641 2.7156183719635009766 2.9816212654113769531 2.8927292823791503906 2.8801202774047851563 2.8105411529541015625 3.0137321949005126953 3.4122593402862548828 3.1918795108795166016 3.0942189693450927734 2.9236390590667724609 3.0481719970703125 3.4788775444030761719 3.6285507678985595703 3.1834611892700195313 3.1655914783477783203 2.9919800758361816406 3.0246574878692626953 3.0546147823333740234 2.9156396389007568359 3.3093402385711669922 3.8389086723327636719 3.6135382652282714844 3.8141310214996337891 4.2574238777160644531 
2.0399518013000488281 1.9574986696243286133 2.2718164920806884766 1.6745015382766723633 1.7074462175369262695 1.9273805618286132813 1.7208610773086547852 1.7644934654235839844 2.8621454238891601563 1.9273805618286132813 2.3778810501098632813 2.0300860404968261719 1.7788313627243041992 1.876705169677734375 1.7788313627243041992 2.0245406627655029297 1.7271629571914672852 1.6360611915588378906 1.7788313627243041992 1.7991465330123901367 1.8000493049621582031 1.7788313627243041992 2.6497347354888916016 1.927028656005859375 1.7860915660858154297 1.9273805618286132813 1.9273805618286132813 1.7788313627243041992 2.1113584041595458984 1.9702756404876708984 1.7458057403564453125 1.777531743049621582 1.60083770751953125 1.997027277946472168 1.7433973550796508789 1.6825700998306274414 1.6194286346435546875 1.9400107860565185547 2.0539748668670654297 1.8302299976348876953 2.0453929901123046875 1.9626473188400268555 2.3419470787048339844 2.3955557346343994141 2.2716908454895019531 2.1356775760650634766 2.3145599365234375 2.3675527572631835938 2.6129829883575439453 8.6472482681274414063 2.0407531261444091797 1.9183934926986694336 1.632068634033203125 1.8941576480865478516 2.0290083885192871094 2.0331737995147705078 2.0239932537078857422 2.106975555419921875 2.2867510318756103516 9.1771984100341796875 2.2589027881622314453 3.0626163482666015625 3.0354058742523193359 3.0145297050476074219 3.4326915740966796875 3.3618578910827636719 3.6169941425323486328 3.0754644870758056641 2.6091432571411132813 3.0280427932739257813 3.0335154533386230469 2.8592808246612548828 3.1376805305480957031 3.03765106201171875 2.6570441722869873047 2.7884497642517089844 2.8617181777954101563 2.6441655158996582031 2.1798121929168701172 2.2414209842681884766 2.2341744899749755859 2.260578155517578125 2.7273626327514648438 3.1394796371459960938 3.4035196304321289063 3.8873608112335205078 3.5430643558502197266 3.1761581897735595703 3.3456566333770751953 3.0689175128936767578 2.5361239910125732422 2.9314877986907958984 2.120147705078125 2.5139126777648925781 2.6829650402069091797 2.6280071735382080078 2.3580458164215087891 2.5030744075775146484 3.2495961189270019531 3.3908054828643798828 2.7974669933319091797 2.9958019256591796875 2.9538395404815673828 2.9761664867401123047 2.99475860595703125 2.8195018768310546875 3.0475788116455078125 3.1751756668090820313 2.410243988037109375 2.1960709095001220703 3.4669039249420166016 2.7530207633972167969 2.8562474250793457031 3.0151491165161132813 2.2630176544189453125 2.348857879638671875 1.913120269775390625 1.846716761589050293 1.6664226055145263672 2.0775847434997558594 1.6035563945770263672 2.4300410747528076172 2.0414650440216064453 3.4669039249420166016 2.3064684867858886719 3.8335995674133300781 1.694403529167175293 2.0484960079193115234 2.4766926765441894531 1.7872604131698608398 2.6419634819030761719 2.1566908359527587891 2.4300410747528076172 1.810725092887878418 1.8341329097747802734 2.1965553760528564453 2.09645843505859375 2.2895081043243408203 1.8786426782608032227 1.6264138221740722656 1.8508545160293579102 2.0186607837677001953 1.7788313627243041992 1.7202125787734985352 2.0797035694122314453 1.7198207378387451172 1.7904338836669921875 2.0258460044860839844 2.0812392234802246094 1.7150995731353759766 1.6749516725540161133 2.0009081363677978516 1.5819442272186279297 1.7489321231842041016 2.0804340839385986328 1.8130356073379516602 1.8908324241638183594 2.2198977470397949219 1.8063703775405883789 1.8741464614868164063 1.8502165079116821289 2.8220388889312744141 1.9273805618286132813 1.9503779411315917969 1.8357065916061401367 2.5577118396759033203 1.9357229471206665039 1.9024603366851806641 1.8707495927810668945 2.0111460685729980469 1.8735612630844116211 1.6940829753875732422 2.0661473274230957031 2.1551415920257568359 2.0432066917419433594 2.1368851661682128906 2.4530863761901855469 2.4567224979400634766 2.5903689861297607422 2.6799919605255126953 2.7791957855224609375 2.9873859882354736328 2.9025726318359375 3.0028252601623535156 2.8725037574768066406 2.8758440017700195313 3.0547564029693603516 3.4369771480560302734 3.5865328311920166016 3.3900959491729736328 3.2884891033172607422 3.1000530719757080078 3.1716182231903076172 3.4186596870422363281 3.1710414886474609375 3.1927618980407714844 3.6843121051788330078 3.346569061279296875 3.4894313812255859375 3.5872664451599121094 
2.8220388889312744141 1.9461779594421386719 1.9831507205963134766 2.6419634819030761719 1.8661981821060180664 2.0484960079193115234 1.9273805618286132813 2.8220388889312744141 2.8220388889312744141 2.5116035938262939453 1.8951973915100097656 1.8502165079116821289 1.9273805618286132813 1.7788313627243041992 1.9863457679748535156 1.7202570438385009766 1.7788313627243041992 2.5417046546936035156 1.7788313627243041992 2.0947663784027099609 1.9273805618286132813 1.9849596023559570313 3.2518346309661865234 2.1104266643524169922 1.9273805618286132813 2.0077569484710693359 1.8063912391662597656 1.7793177366256713867 1.6360611915588378906 1.8254184722900390625 2.1375539302825927734 1.9901423454284667969 1.8912400007247924805 1.5808017253875732422 2.0025067329406738281 2.0134117603302001953 2.2083344459533691406 2.0755002498626708984 1.9334069490432739258 2.0501434803009033203 1.9942938089370727539 2.2440814971923828125 2.6429040431976318359 2.3417809009552001953 9.1453886032104492188 2.3887248039245605469 9.237888336181640625 2.6602792739868164063 2.6177999973297119141 1.9241766929626464844 1.7782180309295654297 1.9289838075637817383 1.9205176830291748047 1.7551772594451904297 1.8721168041229248047 2.1013154983520507813 2.2135281562805175781 2.0124650001525878906 2.4567117691040039063 2.5979990959167480469 2.6202759742736816406 2.9814231395721435547 3.1258943080902099609 2.8476743698120117188 3.0778796672821044922 3.2735497951507568359 3.505313873291015625 3.0693058967590332031 2.7408902645111083984 2.3958494663238525391 2.8306348323822021484 3.0961215496063232422 3.287342071533203125 3.0333707332611083984 2.7716960906982421875 2.8218946456909179688 2.7103185653686523438 2.9944348335266113281 2.3161005973815917969 2.0019392967224121094 2.4208295345306396484 2.1870033740997314453 2.7802832126617431641 3.20240020751953125 3.2281155586242675781 3.2366683483123779297 3.4652972221374511719 3.3358161449432373047 3.443065643310546875 3.5015747547149658203 2.9237358570098876953 2.9257726669311523438 2.7399182319641113281 2.6528367996215820313 2.6854295730590820313 2.5592250823974609375 2.1223530769348144531 2.7932155132293701172 3.1236894130706787109 2.7867140769958496094 3.3221971988677978516 3.2920832633972167969 3.4295740127563476563 3.2618865966796875 2.9382002353668212891 2.9812750816345214844 3.3653767108917236328 2.8636975288391113281 2.7600414752960205078 2.3453471660614013672 2.3244304656982421875 2.8186948299407958984 2.4626445770263671875 2.3394000530242919922 1.9137823581695556641 2.208354949951171875 1.8593244552612304688 1.8110505342483520508 1.6456655263900756836 1.8421996831893920898 1.8951305150985717773 2.1189877986907958984 1.9273805618286132813 3.2658431529998779297 2.0283679962158203125 2.9318671226501464844 1.9273805618286132813 2.2895081043243408203 1.6344852447509765625 1.8115406036376953125 2.5577118396759033203 1.9273805618286132813 1.7788313627243041992 2.2140893936157226563 1.7872604131698608398 2.8339984416961669922 2.8938577175140380859 2.1804578304290771484 2.6419634819030761719 1.7788313627243041992 1.7788313627243041992 1.7223122119903564453 1.9374632835388183594 1.8810632228851318359 1.7788313627243041992 1.7788313627243041992 1.6264138221740722656 1.8231699466705322266 1.6264138221740722656 1.9119534492492675781 1.7788313627243041992 1.6528352499008178711 2.0148749351501464844 1.8068763017654418945 1.9051734209060668945 1.7788313627243041992 1.8447146415710449219 1.8274389505386352539 2.1566908359527587891 1.7046622037887573242 1.7872604131698608398 2.0126063823699951172 1.9619773626327514648 2.221889495849609375 2.1120295524597167969 2.0257549285888671875 1.9404766559600830078 1.7626833915710449219 2.1269075870513916016 1.6975998878479003906 1.8624632358551025391 2.0330407619476318359 1.9226146936416625977 1.7215809822082519531 1.9156910181045532227 2.2405824661254882813 2.1783890724182128906 2.4274227619171142578 2.4602291584014892578 2.6457998752593994141 2.6913306713104248047 2.9228379726409912109 3.0325362682342529297 3.1187791824340820313 2.9713079929351806641 2.9069409370422363281 3.3363273143768310547 3.1882839202880859375 3.3652212619781494141 3.1213240623474121094 2.9614000320434570313 3.33690643310546875 3.5206730365753173828 3.6321623325347900391 3.4583506584167480469 3.7752811908721923828 3.5904572010040283203 3.4592037200927734375 3.3115139007568359375 3.4975736141204833984 
1.9273805618286132813 1.980177760124206543 1.9849596023559570313 1.9558939933776855469 1.7696378231048583984 1.8296257257461547852 2.1383702754974365234 2.2129473686218261719 2.2305238246917724609 1.9273805618286132813 2.2064096927642822266 2.5487179756164550781 1.9273805618286132813 3.4669039249420166016 1.9273805618286132813 2.6419634819030761719 2.0575940608978271484 3.4669039249420166016 2.1224050521850585938 1.9273805618286132813 2.2919604778289794922 1.9408777952194213867 1.9283148050308227539 1.8502165079116821289 1.8197001218795776367 1.779652714729309082 2.8938577175140380859 1.7002835273742675781 1.8253934383392333984 2.0127553939819335938 1.6360611915588378906 1.9756928682327270508 1.9651918411254882813 1.6554093360900878906 1.8471170663833618164 2.1374187469482421875 2.2595760822296142578 2.0364794731140136719 2.0362010002136230469 2.1314895153045654297 2.2877337932586669922 2.1445889472961425781 2.3423891067504882813 2.6299643516540527344 2.5060479640960693359 9.4737567901611328125 2.8289842605590820313 2.7120597362518310547 2.3538751602172851563 2.2284567356109619141 1.9339470863342285156 1.9593026638031005859 1.8368847370147705078 1.9790952205657958984 1.8628189563751220703 2.30019378662109375 2.2332530021667480469 2.3654286861419677734 2.5279860496520996094 2.4051291942596435547 2.5254280567169189453 2.8444337844848632813 2.8250231742858886719 2.9021885395050048828 2.8910109996795654297 3.3103966712951660156 3.4260263442993164063 3.1924462318420410156 2.9940814971923828125 2.718761444091796875 2.7685961723327636719 3.0470285415649414063 3.7240078449249267578 3.3340294361114501953 3.1417679786682128906 3.1384909152984619141 2.8437325954437255859 2.9047873020172119141 2.2524900436401367188 2.2670063972473144531 2.3554449081420898438 2.4929394721984863281 3.1709196567535400391 3.1208429336547851563 3.4461412429809570313 3.6034464836120605469 3.5429615974426269531 3.7066640853881835938 3.5953595638275146484 3.3619878292083740234 3.0483324527740478516 2.9376697540283203125 2.7841227054595947266 3.2395925521850585938 2.6071083545684814453 2.9598422050476074219 2.9063482284545898438 3.0065162181854248047 2.6743664741516113281 2.9622950553894042969 2.9603872299194335938 3.3789701461791992188 3.6893131732940673828 3.3516738414764404297 3.0831000804901123047 2.6719031333923339844 2.7301249504089355469 2.9375314712524414063 2.6616754531860351563 2.3568632602691650391 2.3156065940856933594 2.7346811294555664063 2.4503872394561767578 2.0476975440979003906 1.7529524564743041992 2.0715119838714599609 2.1647901535034179688 2.2140893936157226563 1.910588383674621582 1.6347355842590332031 1.8432348966598510742 1.7692412137985229492 1.9654954671859741211 2.2718164920806884766 4.62298583984375 1.9273805618286132813 1.9273805618286132813 2.6419634819030761719 1.7788313627243041992 2.0276057720184326172 1.6264138221740722656 1.8349559307098388672 1.4776235818862915039 1.7025429010391235352 1.7805083990097045898 1.7788313627243041992 1.9350010156631469727 1.9273805618286132813 2.6419634819030761719 1.7788313627243041992 1.7788313627243041992 1.6264138221740722656 1.7963559627532958984 1.8138262033462524414 2.6419634819030761719 1.9787759780883789063 1.7788313627243041992 1.8064428567886352539 1.7788313627243041992 1.6264138221740722656 1.6264138221740722656 1.8880063295364379883 1.6845555305480957031 2.0323863029479980469 1.8024797439575195313 1.7788313627243041992 1.8731340169906616211 2.0409455299377441406 1.8128530979156494141 1.9684967994689941406 2.6419634819030761719 2.6419634819030761719 2.6419634819030761719 1.9150160551071166992 2.0919234752655029297 2.1589109897613525391 1.8363612890243530273 1.8854235410690307617 2.1252408027648925781 1.7773605585098266602 1.9701943397521972656 1.9424172639846801758 2.0642609596252441406 2.0145745277404785156 2.4536223411560058594 2.5341444015502929688 2.3242075443267822266 2.46268463134765625 2.5194928646087646484 2.1395747661590576172 2.4681351184844970703 2.6990010738372802734 3.1188151836395263672 2.9459714889526367188 2.8789198398590087891 3.2053737640380859375 3.0018129348754882813 2.8162934780120849609 3.0434432029724121094 3.5257227420806884766 3.4013490676879882813 3.6148543357849121094 3.4011998176574707031 3.479045867919921875 3.3458144664764404297 3.2102370262145996094 3.2790758609771728516 3.3476717472076416016 3.4812459945678710938 3.2679793834686279297 
1.9273805618286132813 2.1610791683197021484 1.9619773626327514648 2.0439543724060058594 1.672755122184753418 2.0269787311553955078 2.6419634819030761719 1.9273805618286132813 2.5116035938262939453 3.2429821491241455078 4.6507844924926757813 2.0035161972045898438 1.9273805618286132813 2.3756649494171142578 1.9697748422622680664 2.1190602779388427734 2.4766926765441894531 2.0399518013000488281 2.3337912559509277344 2.3950250148773193359 2.8220388889312744141 2.2338552474975585938 2.0219991207122802734 1.9273805618286132813 2.9318671226501464844 1.9273805618286132813 1.9273805618286132813 1.9190857410430908203 1.9063097238540649414 1.7858083248138427734 1.7773923873901367188 1.9523667097091674805 2.1014883518218994141 1.9686272144317626953 2.1179823875427246094 1.9096754789352416992 1.865008234977722168 2.0167279243469238281 2.3747608661651611328 2.3130609989166259766 2.3636689186096191406 2.2018709182739257813 2.6048157215118408203 2.4985971450805664063 2.7749810218811035156 2.6197998523712158203 9.2769823074340820313 2.7582933902740478516 2.5836889743804931641 2.3627951145172119141 2.1984386444091796875 1.8824262619018554688 2.0035357475280761719 1.8273502588272094727 2.0405564308166503906 2.1294369697570800781 2.6711981296539306641 2.3440465927124023438 2.3899514675140380859 2.1926145553588867188 2.6699492931365966797 9.1488008499145507813 2.6381227970123291016 2.6798100471496582031 3.2550976276397705078 3.0342226028442382813 3.3582313060760498047 3.5803911685943603516 2.9372854232788085938 3.1463081836700439453 2.7837719917297363281 2.9756758213043212891 3.0462365150451660156 3.3121275901794433594 3.5413272380828857422 3.2035572528839111328 3.2102501392364501953 3.0253455638885498047 2.2820119857788085938 2.5651078224182128906 1.9920735359191894531 2.6686663627624511719 2.7999391555786132813 3.4001438617706298828 3.7653653621673583984 3.7496035099029541016 3.8192303180694580078 3.8117978572845458984 3.8921978473663330078 3.3983297348022460938 3.1733689308166503906 2.9006819725036621094 2.9427034854888916016 2.8220388889312744141 2.5845406055450439453 3.0388495922088623047 2.7827141284942626953 3.0333554744720458984 2.6069812774658203125 2.7751157283782958984 2.8372998237609863281 2.8339984416961669922 2.8544440269470214844 2.9576056003570556641 2.8498620986938476563 2.6551465988159179688 2.4600236415863037109 2.5571913719177246094 2.6116731166839599609 2.9253358840942382813 2.6312644481658935547 2.7532849311828613281 2.4240062236785888672 2.49388885498046875 1.8963298797607421875 1.8856062889099121094 1.7579292058944702148 1.7788313627243041992 1.6264138221740722656 1.9368222951889038086 2.1566908359527587891 1.8848003149032592773 3.2747108936309814453 2.8220388889312744141 2.8220388889312744141 1.9974434375762939453 1.8951973915100097656 2.2536413669586181641 1.8655288219451904297 1.8130469322204589844 1.8585457801818847656 1.9112182855606079102 1.8617928028106689453 1.6360611915588378906 1.7788313627243041992 2.1698243618011474609 2.08685302734375 1.9684967994689941406 1.8946104049682617188 2.0003511905670166016 1.9369339942932128906 1.7788313627243041992 1.8387625217437744141 1.8682740926742553711 1.8419420719146728516 1.9631143808364868164 2.0070693492889404297 2.0346829891204833984 1.7788313627243041992 1.8681343793869018555 1.7788313627243041992 1.8355218172073364258 2.0970363616943359375 1.8629858493804931641 1.6425864696502685547 2.2140893936157226563 2.0215601921081542969 1.6264138221740722656 2.1566908359527587891 2.0136873722076416016 1.7998763322830200195 2.0725245475769042969 2.0773510932922363281 2.4568207263946533203 1.9879996776580810547 1.9684967994689941406 1.7788313627243041992 2.0471470355987548828 1.6805185079574584961 2.2664237022399902344 1.9064794778823852539 2.0489416122436523438 1.8568238019943237305 1.9623768329620361328 2.2818615436553955078 2.3596570491790771484 2.3046324253082275391 2.2042348384857177734 2.3932607173919677734 2.1880652904510498047 2.4743597507476806641 2.5070400238037109375 2.9100005626678466797 2.6078934669494628906 2.7064473628997802734 2.7769429683685302734 2.560100555419921875 2.9193158149719238281 2.8936471939086914063 3.0633325576782226563 3.512645721435546875 3.4163174629211425781 3.2988262176513671875 3.4322309494018554688 2.9350762367248535156 3.1326365470886230469 2.9727375507354736328 3.1624727249145507813 3.3034839630126953125 3.0613000392913818359 
3.4669039249420166016 1.9273805618286132813 2.0637552738189697266 2.6419634819030761719 2.6419634819030761719 2.8938577175140380859 1.7388746738433837891 2.5116035938262939453 2.6321346759796142578 2.2283473014831542969 5.0473923683166503906 2.9318671226501464844 3.6493880748748779297 5.0473923683166503906 1.9273805618286132813 3.2348196506500244141 2.8621454238891601563 1.9444774389266967773 2.2129473686218261719 3.2965180873870849609 3.8335995674133300781 2.6414442062377929688 1.9273805618286132813 2.1333820819854736328 2.50002288818359375 1.9273805618286132813 1.9273805618286132813 1.9684967994689941406 2.0837137699127197266 2.0054423809051513672 1.8768985271453857422 1.7911732196807861328 1.9639675617218017578 1.8110500574111938477 1.9667215347290039063 1.8869767189025878906 1.7405065298080444336 2.1081104278564453125 2.4188535213470458984 1.6856237649917602539 2.2698006629943847656 2.3417508602142333984 2.5956094264984130859 2.5051243305206298828 9.3937063217163085938 2.7798006534576416016 2.4182391166687011719 8.9915609359741210938 2.246974945068359375 2.3115782737731933594 2.2620303630828857422 2.1432666778564453125 1.8949363231658935547 2.1546940803527832031 2.1669032573699951172 2.2750105857849121094 2.6126217842102050781 2.5620896816253662109 2.4041969776153564453 2.3549597263336181641 2.5432965755462646484 9.42891693115234375 2.8972132205963134766 2.8617687225341796875 3.1907165050506591797 3.7826819419860839844 3.4604616165161132813 3.1594884395599365234 2.8924479484558105469 2.9696671962738037109 3.1335539817810058594 3.0408544540405273438 3.1326341629028320313 3.2346987724304199219 3.3162941932678222656 3.0638253688812255859 3.0162403583526611328 3.2894773483276367188 3.1075716018676757813 2.2679409980773925781 2.3525576591491699219 2.6505472660064697266 2.95227813720703125 3.13880157470703125 3.6460182666778564453 3.7087411880493164063 3.7288360595703125 3.4979970455169677734 3.2852542400360107422 3.05431365966796875 2.8987262248992919922 2.6433949470520019531 2.4784817695617675781 2.6068775653839111328 2.6118986606597900391 2.4215781688690185547 2.9413824081420898438 2.7401666641235351563 2.7521128654479980469 2.7863247394561767578 2.4642357826232910156 2.8220388889312744141 2.8886899948120117188 2.5188796520233154297 2.7526807785034179688 2.7579662799835205078 2.5851471424102783203 2.8097465038299560547 2.9121477603912353516 2.6323904991149902344 2.4717316627502441406 2.229488372802734375 1.8981583118438720703 2.1041057109832763672 2.0291957855224609375 1.902800440788269043 1.7312775850296020508 2.4414117336273193359 1.7062352895736694336 2.0088107585906982422 2.8938577175140380859 2.0033643245697021484 2.2718164920806884766 2.8220388889312744141 1.9273805618286132813 2.2305238246917724609 2.2129473686218261719 2.6419634819030761719 1.9491988420486450195 1.8528001308441162109 1.7788313627243041992 1.9333202838897705078 1.8080585002899169922 1.7788313627243041992 1.8656527996063232422 1.7788313627243041992 1.9238563776016235352 2.3778810501098632813 1.7872604131698608398 1.908444523811340332 2.8938577175140380859 1.8732439279556274414 1.769299626350402832 2.0357906818389892578 1.9582504034042358398 1.8712050914764404297 1.7586873769760131836 1.9518709182739257813 1.7738375663757324219 2.3778810501098632813 1.7788313627243041992 2.5417046546936035156 2.1586294174194335938 1.8128874301910400391 1.9690067768096923828 1.8332709074020385742 1.6388068199157714844 2.0032153129577636719 1.6862328052520751953 1.7252836227416992188 2.0065541267395019531 1.602225184440612793 1.9293272495269775391 1.7872604131698608398 1.8081907033920288086 1.8067380189895629883 2.0943310260772705078 1.8691096305847167969 1.509549260139465332 1.6557840108871459961 1.8796323537826538086 1.8862634897232055664 2.1397051811218261719 1.9996107816696166992 2.0061755180358886719 2.0188729763031005859 2.4173200130462646484 2.3095221519470214844 2.2116005420684814453 2.1905539035797119141 2.073902130126953125 2.2867829799652099609 2.6935784816741943359 2.5140066146850585938 2.6263926029205322266 2.3852803707122802734 2.3457152843475341797 2.7949185371398925781 3.1313867568969726563 3.4528996944427490234 3.4566514492034912109 3.2548270225524902344 3.0862579345703125 3.2363636493682861328 3.34295654296875 3.3877339363098144531 3.1006577014923095703 3.2365765571594238281 3.2188124656677246094 3.4970464706420898438 
3.6951785087585449219 3.4669039249420166016 1.9273805618286132813 2.0846521854400634766 1.7904338836669921875 2.1379506587982177734 2.8938577175140380859 2.2710943222045898438 2.4659085273742675781 3.6815922260284423828 2.9318671226501464844 2.2283473014831542969 3.2656826972961425781 1.9849596023559570313 1.962890625 1.9273805618286132813 2.2546992301940917969 3.7983632087707519531 3.2965180873870849609 2.2283473014831542969 5.0473923683166503906 4.1126537322998046875 3.8335995674133300781 1.9604973793029785156 2.2129473686218261719 2.6419634819030761719 2.0172109603881835938 1.7788313627243041992 1.8517328500747680664 1.7586873769760131836 1.726660609245300293 2.1765820980072021484 1.9352941513061523438 1.7071061134338378906 1.8343670368194580078 2.0484254360198974609 2.0070567131042480469 1.736851811408996582 1.9436891078948974609 2.2194626331329345703 2.1103322505950927734 2.2708332538604736328 2.4657869338989257813 2.5923247337341308594 2.7060487270355224609 2.4032633304595947266 2.4179661273956298828 2.1453235149383544922 1.9197291135787963867 2.1846127510070800781 2.1559307575225830078 1.9617131948471069336 1.8793309926986694336 2.2288777828216552734 2.1878845691680908203 2.3275823593139648438 2.4834485054016113281 2.5754287242889404297 2.6348452568054199219 2.8349518775939941406 2.9832334518432617188 2.6085572242736816406 2.7558162212371826172 9.4946660995483398438 3.0386862754821777344 3.6865479946136474609 3.3150396347045898438 3.5588965415954589844 3.1006891727447509766 3.1080632209777832031 3.0459966659545898438 3.188770294189453125 2.99422454833984375 3.2178101539611816406 3.5354337692260742188 3.1333363056182861328 3.2411818504333496094 2.8326070308685302734 2.8259756565093994141 2.4112999439239501953 2.2401614189147949219 2.8172748088836669922 3.1214170455932617188 2.964298248291015625 3.3843781948089599609 3.3834426403045654297 3.0979020595550537109 3.1265404224395751953 2.8879859447479248047 2.9510188102722167969 2.8142988681793212891 2.7999684810638427734 2.6321346759796142578 2.2816793918609619141 2.5706501007080078125 2.4398744106292724609 3.0103809833526611328 3.0542559623718261719 2.9260590076446533203 2.9166584014892578125 3.1233417987823486328 3.0432353019714355469 2.8155961036682128906 2.5194330215454101563 2.5497562885284423828 2.5075917243957519531 2.6902596950531005859 2.2917354106903076172 2.2102267742156982422 2.3025217056274414063 2.0942437648773193359 2.1190311908721923828 2.0956914424896240234 2.0256488323211669922 1.9156439304351806641 1.9803566932678222656 2.0346305370330810547 1.8141872882843017578 1.7788313627243041992 1.7997189760208129883 2.6419634819030761719 1.9273805618286132813 2.3337912559509277344 2.1723401546478271484 2.4766926765441894531 1.9273805618286132813 1.9273805618286132813 1.8477718830108642578 2.6419634819030761719 2.0352940559387207031 1.9314321279525756836 1.7788313627243041992 1.6967109441757202148 1.8348277807235717773 2.0236964225769042969 2.0332467555999755859 2.0484960079193115234 1.8702107667922973633 2.6419634819030761719 2.6419634819030761719 3.2573487758636474609 1.8502165079116821289 2.0550181865692138672 1.8756241798400878906 1.7788313627243041992 1.9443608522415161133 1.9820996522903442383 2.1385030746459960938 1.8020067214965820313 1.8552181720733642578 2.6419634819030761719 1.8836727142333984375 1.999760746955871582 1.9093817472457885742 1.8593865633010864258 1.8928470611572265625 1.7307568788528442383 1.719105839729309082 1.7184516191482543945 1.7417886257171630859 2.0465629100799560547 1.9609363079071044922 2.0826456546783447266 1.880420684814453125 3.1858325004577636719 1.7788313627243041992 1.8012310266494750977 2.1166141033172607422 1.5774117708206176758 1.9850546121597290039 2.0506911277770996094 2.1101286411285400391 1.8158212900161743164 1.7926484346389770508 2.0162937641143798828 2.2651078701019287109 2.5248706340789794922 2.144405364990234375 2.1274063587188720703 9.0188159942626953125 2.2487568855285644531 2.1890664100646972656 2.3267772197723388672 2.4848778247833251953 2.4964587688446044922 2.4227080345153808594 2.2676832675933837891 2.9985830783843994141 3.4161679744720458984 3.38628387451171875 3.2685463428497314453 2.95319366455078125 3.0793197154998779297 3.4900240898132324219 3.3474953174591064453 3.4589970111846923828 3.3658955097198486328 3.6575958728790283203 3.4757642745971679688 3.4770557880401611328 
3.2656826972961425781 2.0399518013000488281 1.9574986696243286133 2.4766926765441894531 1.9273805618286132813 1.9619773626327514648 2.2718164920806884766 3.0711941719055175781 2.2283473014831542969 2.2283473014831542969 5.0473923683166503906 3.0711941719055175781 2.2283473014831542969 2.986942291259765625 3.6951785087585449219 4.154010772705078125 2.2283473014831542969 5.0473923683166503906 3.0711941719055175781 2.2283473014831542969 3.4669039249420166016 3.2965180873870849609 3.6815922260284423828 3.4669039249420166016 1.9273805618286132813 1.9862205982208251953 1.6344852447509765625 1.7663691043853759766 2.0168383121490478516 1.9310550689697265625 2.020496368408203125 1.8516753911972045898 2.2132172584533691406 1.7263520956039428711 1.9115459918975830078 1.7339410781860351563 1.7862197160720825195 1.9369969367980957031 2.0893039703369140625 2.0478196144104003906 1.7789191007614135742 1.9972516298294067383 2.2349755764007568359 2.6870391368865966797 3.0939247608184814453 9.271549224853515625 2.1306126117706298828 1.8826763629913330078 1.6578109264373779297 1.8179981708526611328 2.2893712520599365234 2.0568926334381103516 2.2295572757720947266 2.4093701839447021484 2.4677119255065917969 2.2580192089080810547 2.4697844982147216797 2.8271477222442626953 9.7152566909790039063 9.8419017791748046875 3.1115179061889648438 9.51045989990234375 9.6206960678100585938 9.4959707260131835938 3.0901665687561035156 3.5107820034027099609 3.567779541015625 3.3252618312835693359 3.1696922779083251953 3.1856558322906494141 3.4325845241546630859 3.3499603271484375 3.0903112888336181641 2.9525125026702880859 3.2598078250885009766 3.1997096538543701172 2.9040896892547607422 3.0050184726715087891 3.0649952888488769531 2.5928215980529785156 2.4311511516571044922 2.6291942596435546875 2.7483472824096679688 2.9943673610687255859 3.070537567138671875 3.1855084896087646484 3.1742088794708251953 3.1941907405853271484 3.0476753711700439453 3.2847375869750976563 2.6744413375854492188 2.957698822021484375 2.7026088237762451172 2.2811419963836669922 2.4568207263946533203 2.5708868503570556641 4.1126537322998046875 3.0927255153656005859 2.8944714069366455078 3.4569444656372070313 3.0943925380706787109 2.7535440921783447266 2.8053479194641113281 2.4680094718933105469 2.1652517318725585938 2.1715328693389892578 2.4076907634735107422 2.6345357894897460938 2.3505401611328125 1.9284873008728027344 2.0893788337707519531 1.6987311840057373047 1.8741577863693237305 1.9072114229202270508 1.7250388860702514648 1.6614077091217041016 1.5742788314819335938 1.713633418083190918 1.8555524349212646484 1.7788313627243041992 1.7788313627243041992 2.6419634819030761719 1.9273805618286132813 2.4411988258361816406 1.9273805618286132813 2.1107692718505859375 1.9273805618286132813 1.9273805618286132813 3.5047473907470703125 1.8213068246841430664 2.2223606109619140625 1.9273805618286132813 1.9273805618286132813 1.7788313627243041992 2.0286359786987304688 1.9319692850112915039 2.2140893936157226563 2.1591973304748535156 1.9273805618286132813 2.2129473686218261719 1.9928846359252929688 2.0033643245697021484 2.2129473686218261719 2.5417046546936035156 1.9306859970092773438 2.1568684577941894531 2.1271491050720214844 1.9853254556655883789 1.5734105110168457031 2.1314265727996826172 2.0689723491668701172 2.0511775016784667969 1.8644841909408569336 2.3042054176330566406 1.9124007225036621094 2.1292853355407714844 1.9224402904510498047 1.7122180461883544922 1.9932231903076171875 2.1270544528961181641 1.8245216608047485352 1.9285892248153686523 1.7908216714859008789 1.7788313627243041992 1.7656300067901611328 2.0663149356842041016 1.7986886501312255859 1.9027464389801025391 1.7102422714233398438 1.6309653520584106445 1.9801385402679443359 1.8055434226989746094 1.9030778408050537109 2.0197987556457519531 1.9596261978149414063 2.0881896018981933594 2.1237952709197998047 2.1452350616455078125 1.8931491374969482422 2.1633713245391845703 2.2869246006011962891 2.0104436874389648438 2.2895276546478271484 2.1825687885284423828 2.0775043964385986328 1.9487999677658081055 2.7139043807983398438 2.9695312976837158203 3.2327001094818115234 3.2844500541687011719 3.1165175437927246094 3.2543203830718994141 3.4478542804718017578 3.4745116233825683594 3.7468791007995605469 3.7098803520202636719 3.7866647243499755859 3.8322682380676269531 3.8909330368041992188 3.6916589736938476563 
2.0283679962158203125 3.2429821491241455078 4.6883144378662109375 3.0927255153656005859 3.4669039249420166016 3.4669039249420166016 3.4669039249420166016 4.6413059234619140625 2.7692322731018066406 5.0948252677917480469 5.1796307563781738281 6.2630610466003417969 3.8347759246826171875 4.4281702041625976563 2.8134572505950927734 2.4118311405181884766 3.2866346836090087891 2.2283473014831542969 2.2283473014831542969 2.4659085273742675781 3.4669039249420166016 2.7390532493591308594 3.4669039249420166016 1.9273805618286132813 2.0033643245697021484 1.7683662176132202148 1.7479259967803955078 1.7978372573852539063 1.9681143760681152344 1.9155592918395996094 1.811780095100402832 1.5947232246398925781 1.9314980506896972656 1.9679466485977172852 2.0948710441589355469 2.4296791553497314453 2.0054135322570800781 1.7886519432067871094 1.6850836277008056641 1.8435120582580566406 2.0844101905822753906 1.8329452276229858398 2.3977305889129638672 9.2357797622680664063 9.7117910385131835938 2.6379129886627197266 2.2433428764343261719 8.4394397735595703125 2.0632636547088623047 2.0729334354400634766 2.0305511951446533203 2.419544219970703125 2.0778334140777587891 2.2604043483734130859 2.1676301956176757813 2.5845317840576171875 2.6675746440887451172 2.6728725433349609375 2.7759344577789306641 2.8198344707489013672 2.7293162345886230469 2.5701811313629150391 9.609283447265625 10.169147491455078125 10.092557907104492188 3.7658379077911376953 3.4624695777893066406 3.4242365360260009766 3.3337213993072509766 3.1662971973419189453 3.7218527793884277344 3.0622041225433349609 2.9965972900390625 3.0374312400817871094 2.9879941940307617188 3.0242290496826171875 2.8106958866119384766 2.6922535896301269531 2.4768626689910888672 2.4242606163024902344 2.7280383110046386719 2.7638690471649169922 3.1056091785430908203 3.3774707317352294922 3.2296552658081054688 2.9129755496978759766 3.517574310302734375 3.29903411865234375 2.9566023349761962891 3.0712299346923828125 2.7426381111145019531 3.1412971019744873047 3.0879800319671630859 2.4986865520477294922 2.8163492679595947266 2.6212415695190429688 2.56201171875 2.7366011142730712891 3.0712683200836181641 2.968776702880859375 2.9472742080688476563 2.8445503711700439453 2.7195725440979003906 2.526458740234375 1.9689594507217407227 1.9042841196060180664 2.5302348136901855469 2.3530073165893554688 2.2663292884826660156 2.2738554477691650391 2.0600557327270507813 2.2091283798217773438 1.9759231805801391602 2.4308912754058837891 1.5113213062286376953 1.9649131298065185547 1.9598627090454101563 1.8204122781753540039 2.332851409912109375 1.7698254585266113281 1.6602575778961181641 1.9218555688858032227 2.0962634086608886719 2.0134842395782470703 2.3354015350341796875 1.7788313627243041992 2.0328595638275146484 2.2305238246917724609 2.0596125125885009766 1.9273805618286132813 2.2066118717193603516 2.0922904014587402344 2.2129473686218261719 2.2087614536285400391 1.9273805618286132813 1.8321480751037597656 1.8674753904342651367 2.4568207263946533203 1.9273805618286132813 1.9697748422622680664 1.9273805618286132813 1.7442336082458496094 1.7696378231048583984 1.9591485261917114258 2.0194456577301025391 1.9655902385711669922 1.5889239311218261719 1.9303747415542602539 2.0510385036468505859 1.9202175140380859375 1.8398387432098388672 1.907324671745300293 1.5827287435531616211 1.8578808307647705078 2.1882154941558837891 1.7807651758193969727 1.7958685159683227539 2.1587777137756347656 1.7631409168243408203 2.0638086795806884766 1.8438659906387329102 1.8093326091766357422 1.9151343107223510742 1.8735381364822387695 1.7591891288757324219 1.9738161563873291016 1.7825337648391723633 2.0796728134155273438 2.0667998790740966797 2.2648746967315673828 1.863196253776550293 2.1074795722961425781 1.8747761249542236328 1.8131924867630004883 2.0693736076354980469 2.4320752620697021484 2.1477637290954589844 1.9041469097137451172 1.8445314168930053711 1.8408945798873901367 2.3209733963012695313 2.2582867145538330078 2.0204920768737792969 1.6560468673706054688 2.1266081333160400391 2.2318098545074462891 2.5362851619720458984 2.7667932510375976563 2.8026967048645019531 3.1222162246704101563 3.1513607501983642578 3.5158960819244384766 3.2835972309112548828 3.4614341259002685547 3.2540388107299804688 3.5835425853729248047 4.0979642868041992188 3.9175379276275634766 3.8422033786773681641 3.3393023014068603516 
5.0473923683166503906 3.4669039249420166016 3.8335995674133300781 5.0473923683166503906 2.2283473014831542969 2.4118311405181884766 2.2283473014831542969 3.2866346836090087891 4.1812615394592285156 8.2119503021240234375 5.0948252677917480469 4.9933953285217285156 3.8347759246826171875 4.5871348381042480469 2.4659085273742675781 2.2283473014831542969 2.7692322731018066406 2.2283473014831542969 3.3045759201049804688 2.2283473014831542969 2.2283473014831542969 4.6507844924926757813 3.4669039249420166016 1.9273805618286132813 2.0062046051025390625 1.6360611915588378906 1.9084905385971069336 1.8585263490676879883 1.9620413780212402344 1.8463650941848754883 2.1193647384643554688 1.8376613855361938477 2.3074061870574951172 1.8588044643402099609 1.9366257190704345703 2.1149895191192626953 2.3700704574584960938 1.9160262346267700195 2.1511688232421875 1.9777337312698364258 8.8397130966186523438 2.4173583984375 2.7862248420715332031 2.6710078716278076172 2.52877044677734375 2.2913167476654052734 1.946261286735534668 1.8715496063232421875 2.0398442745208740234 2.016521453857421875 2.5023775100708007813 2.2340378761291503906 2.4911956787109375 2.3172852993011474609 2.6727101802825927734 2.6740109920501708984 2.5024211406707763672 2.5915470123291015625 2.5457568168640136719 2.648593902587890625 2.3803963661193847656 9.4132013320922851563 9.6498517990112304688 3.1631700992584228516 3.4831635951995849609 3.7482306957244873047 10.982054710388183594 3.6788856983184814453 10.200984954833984375 3.5681674480438232422 10.190199851989746094 3.4095370769500732422 3.1167972087860107422 3.1187112331390380859 2.9904849529266357422 3.0072305202484130859 2.8324577808380126953 2.3569757938385009766 2.7939662933349609375 2.7784483432769775391 2.7571663856506347656 2.8455395698547363281 2.8670053482055664063 3.3082602024078369141 3.2997288703918457031 3.1721923351287841797 3.27109527587890625 3.3391222953796386719 2.8773934841156005859 2.4053485393524169922 2.4059665203094482422 3.8335995674133300781 2.7167108058929443359 2.5933361053466796875 2.7907056808471679688 2.3030292987823486328 2.4164035320281982422 2.6349401473999023438 2.6617026329040527344 2.9772171974182128906 3.0071229934692382813 3.0611724853515625 2.6778166294097900391 2.6810848712921142578 2.0715944766998291016 2.5857417583465576172 2.4894161224365234375 2.3196957111358642578 2.3439991474151611328 2.1630294322967529297 2.1756436824798583984 1.9586637020111083984 2.10913848876953125 1.8611392974853515625 2.1283457279205322266 1.7883501052856445313 2.3857312202453613281 1.5742402076721191406 2.2733595371246337891 2.1518869400024414063 1.6360611915588378906 1.7788313627243041992 1.9396082162857055664 1.9273805618286132813 2.8220388889312744141 2.116718292236328125 1.805866241455078125 2.1009531021118164063 1.8502165079116821289 2.0726153850555419922 1.9968088865280151367 2.1188180446624755859 2.6419634819030761719 2.4411988258361816406 1.7586873769760131836 2.0064065456390380859 2.2140893936157226563 2.6419634819030761719 2.6419634819030761719 1.9273805618286132813 1.9794325828552246094 1.8916667699813842773 1.683697819709777832 2.1550149917602539063 2.0924332141876220703 1.5207135677337646484 1.56848907470703125 1.9315125942230224609 1.7858409881591796875 2.0838024616241455078 2.1288313865661621094 1.7992963790893554688 1.8607094287872314453 1.8848340511322021484 1.859619140625 2.0555939674377441406 2.1379272937774658203 2.094696044921875 2.1411311626434326172 2.0957150459289550781 1.902407526969909668 2.0416073799133300781 2.0517730712890625 1.9355944395065307617 1.6591579914093017578 1.6360611915588378906 1.7279808521270751953 2.0191135406494140625 1.7437865734100341797 1.6360611915588378906 1.9253267049789428711 1.6602389812469482422 1.8329280614852905273 1.9653087854385375977 1.9781756401062011719 1.80303192138671875 1.6931613683700561523 1.818671107292175293 1.7575849294662475586 1.9888384342193603516 1.7101080417633056641 1.9043452739715576172 2.0477318763732910156 1.9851229190826416016 2.0978751182556152344 2.413944244384765625 2.2475321292877197266 2.6173193454742431641 9.38510894775390625 3.0653669834136962891 2.9955093860626220703 3.3100681304931640625 3.3931889533996582031 3.1539070606231689453 3.3768491744995117188 3.5295021533966064453 3.6385097503662109375 3.5682804584503173828 3.8064811229705810547 3.5424737930297851563 
2.2283473014831542969 4.2293381690979003906 2.8407244682312011719 3.0711941719055175781 2.2283473014831542969 3.9891257286071777344 5.0473923683166503906 3.2866346836090087891 4.1812615394592285156 7.2282242774963378906 6.3364357948303222656 5.1796307563781738281 4.5181612968444824219 3.2866346836090087891 3.0711941719055175781 2.4659085273742675781 2.231952667236328125 5.1796307563781738281 2.4118311405181884766 3.4669039249420166016 2.2129473686218261719 1.9619773626327514648 1.9273805618286132813 2.2949645519256591797 1.9293352365493774414 1.8052983283996582031 2.3680269718170166016 2.1216053962707519531 2.0936326980590820313 1.9289562702178955078 1.7876099348068237305 1.899504542350769043 1.9459939002990722656 1.9483807086944580078 1.9956749677658081055 2.0973529815673828125 2.2609996795654296875 2.0021424293518066406 2.2163953781127929688 2.0449728965759277344 2.1766245365142822266 2.4929795265197753906 2.8344669342041015625 2.9007594585418701172 9.1529645919799804688 2.1048829555511474609 8.439090728759765625 8.2077074050903320313 1.8377603292465209961 1.9615722894668579102 2.3963901996612548828 2.5028505325317382813 2.6076948642730712891 2.6689143180847167969 2.3501365184783935547 2.8510103225708007813 2.4847939014434814453 2.5113677978515625 2.4129428863525390625 9.4211215972900390625 2.498321533203125 2.9751217365264892578 3.1854131221771240234 3.3219275474548339844 3.69792938232421875 3.9610054492950439453 10.811473846435546875 3.3957953453063964844 3.7906775474548339844 4.1284384727478027344 3.3500497341156005859 3.5605266094207763672 3.5326704978942871094 2.9470422267913818359 2.9369540214538574219 3.0572104454040527344 2.7252860069274902344 2.5694460868835449219 2.8358330726623535156 2.8788251876831054688 2.6542906761169433594 2.5991282463073730469 2.5671792030334472656 3.4458365440368652344 3.6262617111206054688 3.4497253894805908203 3.3092741966247558594 3.4072897434234619141 2.8438813686370849609 2.5362057685852050781 2.5066308975219726563 2.3305497169494628906 2.6414442062377929688 2.5501692295074462891 2.2477796077728271484 2.3456544876098632813 2.3403694629669189453 2.6419634819030761719 2.6002511978149414063 2.5029218196868896484 2.5875871181488037109 2.4729986190795898438 2.7677643299102783203 2.5014615058898925781 2.5179021358489990234 2.4999713897705078125 2.7068645954132080078 2.7713477611541748047 2.9561781883239746094 2.2622046470642089844 2.0937979221343994141 2.2513992786407470703 1.7343438863754272461 1.7118532657623291016 2.0202097892761230469 2.0336108207702636719 1.9843621253967285156 1.869820713996887207 2.0846428871154785156 1.9521150588989257813 1.6512403488159179688 2.1109840869903564453 2.1566908359527587891 2.0455720424652099609 2.8220388889312744141 3.2573487758636474609 2.6419634819030761719 2.1454050540924072266 1.9273805618286132813 1.909633636474609375 2.3852427005767822266 1.694403529167175293 2.6419634819030761719 2.0108153820037841797 1.8408844470977783203 2.1723401546478271484 2.0284609794616699219 1.9842662811279296875 1.8721770048141479492 1.7870397567749023438 1.7950981855392456055 2.2457969188690185547 1.9207376241683959961 1.8243587017059326172 1.6635553836822509766 1.8269929885864257813 1.8691201210021972656 2.1537692546844482422 2.3424098491668701172 1.702620387077331543 1.9846866130828857422 1.5788010358810424805 1.8382827043533325195 1.8740895986557006836 1.9721887111663818359 1.7478989362716674805 1.9221959114074707031 2.0457634925842285156 1.8560792207717895508 1.989013671875 2.1596105098724365234 1.7327208518981933594 1.7607122659683227539 1.9706089496612548828 1.7164540290832519531 1.7919666767120361328 2.1934845447540283203 1.9613686800003051758 1.8612786531448364258 1.9300508499145507813 2.0721857547760009766 1.7169487476348876953 1.8615744113922119141 2.1413757801055908203 2.1946229934692382813 1.9350399971008300781 2.0060749053955078125 1.8414103984832763672 1.9578138589859008789 2.2346065044403076172 2.2031459808349609375 2.1008057594299316406 2.1090302467346191406 1.9919140338897705078 1.9665427207946777344 1.9869103431701660156 2.5844106674194335938 9.5090532302856445313 2.9721467494964599609 3.1069343090057373047 3.2784917354583740234 3.2040758132934570313 3.1419742107391357422 3.4080669879913330078 3.3502609729766845703 3.3169066905975341797 3.3420925140380859375 3.5744085311889648438 3.6199522018432617188 3.59980010986328125 
3.2866346836090087891 3.9891257286071777344 4.1445622444152832031 2.2283473014831542969 2.2283473014831542969 3.4669039249420166016 2.1642231941223144531 2.2497658729553222656 5.1796307563781738281 5.0948252677917480469 4.9933953285217285156 7.1373853683471679688 2.2283473014831542969 2.5609860420227050781 3.0711941719055175781 2.2283473014831542969 3.9891257286071777344 3.3045759201049804688 3.2965180873870849609 2.6414442062377929688 3.2747108936309814453 2.0575339794158935547 2.5577118396759033203 2.0255925655364990234 1.7406499385833740234 2.0138461589813232422 1.9957994222640991211 1.7724339962005615234 2.1447319984436035156 2.4568207263946533203 2.1256654262542724609 1.6477046012878417969 1.9918578863143920898 1.9691991806030273438 1.9448003768920898438 2.1192784309387207031 2.1404955387115478516 1.744313359260559082 1.8014316558837890625 2.0865242481231689453 2.2684257030487060547 2.1966929435729980469 2.4284029006958007813 2.5898795127868652344 9.0293750762939453125 8.6692790985107421875 2.1093158721923828125 2.2574534416198730469 1.869519352912902832 2.2481837272644042969 2.2386782169342041016 2.454662322998046875 2.5970654487609863281 2.4236130714416503906 2.1380906105041503906 2.5644662380218505859 2.5923507213592529297 2.4704248905181884766 2.1539723873138427734 2.1419863700866699219 2.3057053089141845703 3.092021942138671875 9.9481954574584960938 10.056632041931152344 10.409504890441894531 3.6325919628143310547 3.6976513862609863281 3.6588594913482666016 3.6005673408508300781 3.8398404121398925781 3.3227593898773193359 3.2384448051452636719 3.0869264602661132813 3.1387412548065185547 2.7556180953979492188 2.9181501865386962891 2.8406150341033935547 3.0851762294769287109 3.2675912380218505859 3.0445866584777832031 2.4580867290496826172 2.8577518463134765625 3.0374152660369873047 3.0825526714324951172 3.2573487758636474609 3.087642669677734375 3.0936958789825439453 2.8344984054565429688 2.7513277530670166016 2.2634212970733642578 2.4092223644256591797 2.0710802078247070313 2.8220388889312744141 3.0807988643646240234 2.2348351478576660156 2.1568133831024169922 2.3438935279846191406 2.2281126976013183594 2.5046477317810058594 2.4842512607574462891 2.6430990695953369141 2.3374044895172119141 2.1568171977996826172 2.1487834453582763672 2.1237430572509765625 2.4388101100921630859 2.6324596405029296875 2.5974428653717041016 2.4858403205871582031 2.4367737770080566406 2.3642127513885498047 2.2872374057769775391 1.8766624927520751953 2.1632266044616699219 2.0885992050170898438 1.8639745712280273438 1.8388053178787231445 2.0058999061584472656 1.9941844940185546875 2.2351040840148925781 2.1652917861938476563 1.9530546665191650391 1.7522138357162475586 2.9375321865081787109 2.092327117919921875 2.1596195697784423828 2.4766926765441894531 2.9745817184448242188 2.4766926765441894531 2.3196246623992919922 2.1033041477203369141 1.7788313627243041992 1.8613963127136230469 1.9714598655700683594 1.9895651340484619141 2.1498034000396728516 1.9322745800018310547 2.1658763885498046875 2.3852427005767822266 1.7788313627243041992 1.9273805618286132813 2.0963270664215087891 1.9789196252822875977 1.9306507110595703125 2.2353870868682861328 2.0754933357238769531 2.0093033313751220703 1.9618551731109619141 2.0047619342803955078 2.1978621482849121094 1.8340152502059936523 2.0916173458099365234 1.9025267362594604492 2.1235735416412353516 1.9016623497009277344 1.8383687734603881836 2.2433657646179199219 1.8723505735397338867 1.7600712776184082031 2.0619001388549804688 2.28890228271484375 1.9704642295837402344 1.7827378511428833008 2.0798127651214599609 1.9881803989410400391 1.7149964570999145508 1.7844773530960083008 2.0111775398254394531 1.7704017162322998047 2.3245346546173095703 1.6309205293655395508 1.8113731145858764648 1.9921232461929321289 2.1840224266052246094 2.2086417675018310547 2.0800840854644775391 2.0236177444458007813 1.8184281587600708008 1.914648890495300293 2.2044179439544677734 1.9280488491058349609 2.1499340534210205078 2.0080323219299316406 2.1142337322235107422 1.8577693700790405273 1.8125728368759155273 2.4534692764282226563 9.040340423583984375 2.8440332412719726563 3.1599066257476806641 3.0780837535858154297 3.1058592796325683594 3.2632167339324951172 3.2056365013122558594 3.4920849800109863281 3.2518033981323242188 3.0768713951110839844 3.4103450775146484375 3.3937890529632568359 3.1516549587249755859 
2.2283473014831542969 4.1640486717224121094 3.4669039249420166016 3.2429821491241455078 4.1126537322998046875 3.6493880748748779297 1.9574986696243286133 2.2283473014831542969 3.5752635002136230469 8.2119503021240234375 4.9933953285217285156 5.1796307563781738281 2.2283473014831542969 3.0711941719055175781 3.6815922260284423828 2.7692322731018066406 2.7692322731018066406 2.2283473014831542969 2.2283473014831542969 3.4669039249420166016 2.2129473686218261719 2.0956265926361083984 2.2140893936157226563 2.2214002609252929688 1.9032698869705200195 1.9410587549209594727 1.8388702869415283203 2.1334140300750732422 2.4766926765441894531 2.0126132965087890625 1.7933983802795410156 1.8602497577667236328 2.1197378635406494141 2.1967921257019042969 1.9908548593521118164 2.2567331790924072266 1.8692662715911865234 2.0398271083831787109 1.8742115497589111328 1.9673821926116943359 2.3161275386810302734 2.4451770782470703125 2.4368739128112792969 2.1027331352233886719 2.3083729743957519531 1.9696518182754516602 2.1651260852813720703 1.9622725248336791992 1.8794473409652709961 2.1200768947601318359 2.2699575424194335938 2.2878880500793457031 2.4787852764129638672 2.1551103591918945313 2.4175336360931396484 2.8297896385192871094 2.5139174461364746094 2.3228983879089355469 2.2204487323760986328 2.47238922119140625 2.7328417301177978516 2.6362214088439941406 3.0365884304046630859 3.1181731224060058594 2.8768453598022460938 3.3104391098022460938 3.3571033477783203125 2.9934980869293212891 3.5040519237518310547 3.4565865993499755859 3.4898979663848876953 2.94445037841796875 3.1388750076293945313 3.0229635238647460938 2.9627718925476074219 3.0134325027465820313 3.0599024295806884766 3.3599717617034912109 3.2996952533721923828 3.0273301601409912109 3.2555286884307861328 3.4420022964477539063 3.1721198558807373047 2.9422612190246582031 2.9497437477111816406 3.1503314971923828125 2.8358728885650634766 2.6651165485382080078 2.3464658260345458984 2.2556049823760986328 2.469654083251953125 2.3406262397766113281 2.2302024364471435547 2.636226654052734375 2.0990800857543945313 2.1398873329162597656 2.2407078742980957031 2.8297266960144042969 2.6824319362640380859 2.4651231765747070313 2.1883449554443359375 2.0283732414245605469 1.8428729772567749023 2.0333554744720458984 2.0059046745300292969 1.9128185510635375977 2.3504445552825927734 2.2445442676544189453 2.1356306076049804688 2.3633444309234619141 2.2718863487243652344 2.1693201065063476563 2.36365509033203125 1.8509138822555541992 1.8568886518478393555 2.1586916446685791016 2.1189279556274414063 1.7038577795028686523 1.7894343137741088867 1.9952729940414428711 1.764801025390625 1.9878853559494018555 2.5919775962829589844 1.9698020219802856445 1.8897001743316650391 1.9895212650299072266 2.2913482189178466797 2.0390150547027587891 1.8843132257461547852 2.0340931415557861328 1.7416070699691772461 1.9098960161209106445 2.3426487445831298828 2.1410300731658935547 2.2630176544189453125 2.0419318675994873047 1.7995123863220214844 1.9263793230056762695 2.1188180446624755859 2.1992173194885253906 1.8421552181243896484 1.9099451303482055664 1.7693763971328735352 2.0896136760711669922 1.8349969387054443359 2.0558741092681884766 1.8767964839935302734 2.2227141857147216797 1.9490991830825805664 1.9860005378723144531 2.1712563037872314453 2.3075990676879882813 1.7794858217239379883 2.2564761638641357422 2.1495811939239501953 1.9107102155685424805 2.2276871204376220703 2.4786553382873535156 2.3132102489471435547 2.0510697364807128906 2.2094106674194335938 1.8344780206680297852 1.5676606893539428711 2.3261859416961669922 2.3166787624359130859 2.0260791778564453125 2.1466910839080810547 1.9797489643096923828 1.9417618513107299805 2.1142344474792480469 2.2232713699340820313 2.0689768791198730469 2.1730163097381591797 1.8577672243118286133 2.2842962741851806641 1.8883903026580810547 1.828060150146484375 1.5815365314483642578 1.7048813104629516602 1.8993021249771118164 1.6346091032028198242 1.8690924644470214844 1.8578085899353027344 1.5967215299606323242 2.172466278076171875 2.1923296451568603516 2.2320857048034667969 9.1580858230590820313 2.6491644382476806641 2.8334319591522216797 2.6897778511047363281 3.1437814235687255859 3.2063825130462646484 3.4302873611450195313 3.3963117599487304688 3.0904924869537353516 3.0714318752288818359 3.1697688102722167969 2.7657544612884521484 2.4682631492614746094 
3.6493880748748779297 4.5871348381042480469 2.2283473014831542969 3.6493880748748779297 2.2718164920806884766 3.2429821491241455078 2.6414442062377929688 3.2429821491241455078 5.8295397758483886719 3.0110311508178710938 4.4222345352172851563 5.1796307563781738281 3.8347759246826171875 3.0711941719055175781 2.4118311405181884766 2.1749165058135986328 3.2965180873870849609 3.2965180873870849609 3.6493880748748779297 2.0627405643463134766 2.1919267177581787109 2.1270985603332519531 2.2630176544189453125 2.2458634376525878906 1.8566830158233642578 1.9421033859252929688 2.1904919147491455078 2.1974773406982421875 2.1188180446624755859 1.9028875827789306641 2.8938577175140380859 2.1018564701080322266 2.0588247776031494141 2.4766926765441894531 2.0431497097015380859 2.0465610027313232422 1.797522425651550293 2.0639634132385253906 2.2608795166015625 2.3531820774078369141 2.1658875942230224609 2.2662875652313232422 2.3615465164184570313 2.2599256038665771484 2.3369097709655761719 2.2143530845642089844 2.3864316940307617188 2.2853732109069824219 2.4748325347900390625 2.1069486141204833984 2.2908568382263183594 2.5068764686584472656 2.2983388900756835938 2.2139058113098144531 2.6212875843048095703 2.4116296768188476563 2.6981258392333984375 2.4973580837249755859 2.2594819068908691406 2.1244776248931884766 2.41402435302734375 2.5587754249572753906 2.3206727504730224609 3.1943573951721191406 3.1606323719024658203 3.0508000850677490234 3.1160485744476318359 9.9110517501831054688 3.0965456962585449219 3.1287698745727539063 3.2684469223022460938 2.7893068790435791016 3.8179814815521240234 3.2194294929504394531 2.6706783771514892578 2.97632598876953125 3.2498259544372558594 3.4394583702087402344 3.5289862155914306641 3.7862267494201660156 3.4597730636596679688 2.9973821640014648438 3.2325582504272460938 3.2050395011901855469 2.4903821945190429688 2.8963251113891601563 2.6795992851257324219 2.6399831771850585938 2.4903290271759033203 2.5458266735076904297 2.3146221637725830078 2.1423451900482177734 2.2566330432891845703 2.082996368408203125 2.1283574104309082031 2.0923342704772949219 2.4330668449401855469 2.3778810501098632813 2.0467298030853271484 2.0474314689636230469 2.1720058917999267578 2.3925457000732421875 2.1074476242065429688 1.5946514606475830078 2.3407747745513916016 1.8917728662490844727 1.6691306829452514648 1.8339713811874389648 2.1338980197906494141 2.1173398494720458984 2.0626559257507324219 1.7303612232208251953 1.7843593358993530273 1.9472842216491699219 1.8790788650512695313 1.9692134857177734375 1.8776565790176391602 2.1399462223052978516 1.8329186439514160156 1.8155202865600585938 2.0878307819366455078 2.0287771224975585938 1.6360611915588378906 2.1797907352447509766 1.9189233779907226563 2.0811762809753417969 1.9688013792037963867 1.8723586797714233398 1.7525779008865356445 1.9382277727127075195 2.1899511814117431641 3.2110114097595214844 2.0840084552764892578 2.2363657951354980469 2.6419634819030761719 2.0773975849151611328 1.7788313627243041992 2.1633193492889404297 3.2518346309661865234 2.1608335971832275391 1.8819377422332763672 1.9755355119705200195 1.8286277055740356445 2.4082429409027099609 1.8540430068969726563 1.8297750949859619141 2.4122433662414550781 1.9443084001541137695 2.07039642333984375 1.5549054145812988281 1.9978045225143432617 1.8608726263046264648 1.9429525136947631836 1.9378606081008911133 1.9952900409698486328 2.1016886234283447266 1.5514235496520996094 2.1021053791046142578 2.1776366233825683594 2.1867001056671142578 1.9836061000823974609 2.2895376682281494141 1.9344055652618408203 2.3701763153076171875 1.8787652254104614258 2.1024427413940429688 2.3821332454681396484 1.7756165266036987305 2.0703470706939697266 2.0448248386383056641 2.1402235031127929688 1.7651548385620117188 2.1639058589935302734 1.8475836515426635742 2.224971771240234375 1.5059343576431274414 2.1529805660247802734 2.1487746238708496094 2.3024213314056396484 1.7254356145858764648 2.0140676498413085938 1.9236179590225219727 8.484851837158203125 2.0148410797119140625 2.0150012969970703125 1.998402714729309082 2.0815796852111816406 2.3088531494140625 2.5125963687896728516 9.5229091644287109375 2.9866440296173095703 3.1034390926361083984 3.2412061691284179688 3.1947121620178222656 3.1246776580810546875 2.9383628368377685547 2.8287410736083984375 3.2476973533630371094 2.8149855136871337891 2.7657744884490966797 
2.6967334747314453125 2.2283473014831542969 3.6951785087585449219 3.6679477691650390625 3.6679477691650390625 3.6951785087585449219 3.6493880748748779297 2.2283473014831542969 2.2283473014831542969 2.4118311405181884766 2.2283473014831542969 3.9891257286071777344 2.2283473014831542969 2.2283473014831542969 2.2718164920806884766 3.4669039249420166016 3.4669039249420166016 3.2965180873870849609 4.6883144378662109375 1.9273805618286132813 2.236537933349609375 2.1483662128448486328 2.1819498538970947266 1.9168632030487060547 2.1894478797912597656 1.942793726921081543 2.6419634819030761719 2.5119657516479492188 1.8438813686370849609 1.8834251165390014648 2.6419634819030761719 2.2129473686218261719 1.9541800022125244141 2.0408926010131835938 2.6419634819030761719 2.1057517528533935547 2.5290341377258300781 2.2004735469818115234 2.4411988258361816406 2.1104757785797119141 2.1510682106018066406 2.2214326858520507813 2.0399696826934814453 2.1982128620147705078 2.1343522071838378906 2.2636051177978515625 2.4986250400543212891 2.2489135265350341797 2.07897186279296875 2.3554859161376953125 2.3535883426666259766 2.2947952747344970703 1.9446229934692382813 2.1143503189086914063 2.4977979660034179688 2.6229753494262695313 2.3931152820587158203 2.1837203502655029297 2.0101635456085205078 2.3708043098449707031 2.5959038734436035156 2.4134948253631591797 1.9977954626083374023 2.5185167789459228516 2.8559098243713378906 3.1400759220123291016 2.5681462287902832031 3.185100555419921875 3.1356949806213378906 3.1368665695190429688 3.2508945465087890625 3.0325908660888671875 3.2247624397277832031 3.2722418308258056641 2.8099672794342041016 3.0502333641052246094 3.4177191257476806641 3.4219830036163330078 3.4890449047088623047 3.8898100852966308594 3.9060199260711669922 3.3166434764862060547 2.9704635143280029297 3.1318128108978271484 2.92790985107421875 2.7384901046752929688 2.6932518482208251953 2.5585262775421142578 2.5220487117767333984 2.1481525897979736328 2.0308258533477783203 1.9620260000228881836 1.8998128175735473633 2.2047686576843261719 2.1189525127410888672 2.1623942852020263672 2.5455505847930908203 2.3421695232391357422 2.3254916667938232422 2.2477829456329345703 2.1845681667327880859 1.8782103061676025391 2.0516154766082763672 1.8845071792602539063 1.9633843898773193359 1.9925258159637451172 1.7506251335144042969 1.9196360111236572266 2.1453101634979248047 1.8553462028503417969 1.9871529340744018555 2.1078412532806396484 2.3412318229675292969 1.6959270238876342773 2.3714897632598876953 2.1080446243286132813 1.9690233469009399414 2.2722227573394775391 1.9649095535278320313 2.0733079910278320313 1.8708518743515014648 2.1181392669677734375 1.8870871067047119141 1.7742599248886108398 2.1432073116302490234 1.9414237737655639648 1.8500790596008300781 1.8083746433258056641 2.1566908359527587891 1.975634455680847168 2.4306445121765136719 2.0063529014587402344 2.1667597293853759766 1.9117401838302612305 2.2073569297790527344 2.6419634819030761719 1.8960618972778320313 2.2472558021545410156 2.0851657390594482422 2.6419634819030761719 2.3514730930328369141 2.0095007419586181641 2.1691257953643798828 2.1085071563720703125 1.9695018529891967773 2.1062984466552734375 2.1150877475738525391 2.0540423393249511719 2.1076624393463134766 2.1939082145690917969 1.8718013763427734375 2.3066174983978271484 2.1028387546539306641 1.8849775791168212891 1.9903007745742797852 1.6220363378524780273 2.007038116455078125 1.9751265048980712891 2.3989005088806152344 2.1410109996795654297 2.3028838634490966797 1.9364066123962402344 1.916913151741027832 1.7850739955902099609 2.2611403465270996094 2.3072671890258789063 2.2191731929779052734 1.9050192832946777344 1.906345367431640625 1.8510421514511108398 2.2308483123779296875 1.9559652805328369141 2.0275700092315673828 1.6066365242004394531 1.9129248857498168945 2.1367299556732177734 1.799874424934387207 2.2419455051422119141 2.1458787918090820313 1.9492611885070800781 2.3677747249603271484 1.7352157831192016602 2.1563308238983154297 8.6940069198608398438 1.9641361236572265625 2.0198256969451904297 2.2971994876861572266 2.1404139995574951172 9.2880983352661132813 2.6442677974700927734 9.5787563323974609375 3.0462293624877929688 10.075285911560058594 3.1432409286499023438 3.2042562961578369141 2.9385633468627929688 2.9771394729614257813 2.5853033065795898438 2.8858363628387451172 3.0353546142578125 
2.0487394332885742188 2.9318671226501464844 2.2283473014831542969 2.2843303680419921875 3.4669039249420166016 5.0473923683166503906 2.3578057289123535156 3.2965180873870849609 2.2283473014831542969 2.2283473014831542969 3.9891257286071777344 3.9891257286071777344 2.7692322731018066406 3.2429821491241455078 2.3270597457885742188 2.6321346759796142578 2.3980541229248046875 1.9528524875640869141 2.8220388889312744141 2.1188180446624755859 1.9273805618286132813 2.8220388889312744141 2.2645659446716308594 2.0484161376953125 1.9993824958801269531 3.0927255153656005859 1.9947322607040405273 2.1737995147705078125 2.0000619888305664063 2.0912904739379882813 2.4042699337005615234 2.8297266960144042969 2.2129473686218261719 1.9273805618286132813 2.0180559158325195313 2.6419634819030761719 1.8574557304382324219 2.0884711742401123047 2.0548450946807861328 2.8871884346008300781 2.3513665199279785156 2.6419634819030761719 2.2389156818389892578 1.9067308902740478516 1.9933093786239624023 2.4086713790893554688 2.1043667793273925781 2.0913984775543212891 2.2960171699523925781 2.54695892333984375 2.1923019886016845703 1.7835161685943603516 2.2982091903686523438 2.0855355262756347656 2.1827328205108642578 2.3053181171417236328 2.5538427829742431641 2.4621126651763916016 2.6234827041625976563 2.6423480510711669922 2.28725433349609375 2.3272647857666015625 2.3736844062805175781 2.6206727027893066406 2.6520707607269287109 2.8032178878784179688 9.8787851333618164063 2.8393735885620117188 2.9812123775482177734 3.4087493419647216797 3.1790378093719482422 3.511486053466796875 2.9901711940765380859 2.9228997230529785156 3.3260278701782226563 3.3804383277893066406 3.7743935585021972656 3.4800357818603515625 3.1593966484069824219 3.4091596603393554688 3.4718506336212158203 3.3852863311767578125 3.0764172077178955078 2.9900455474853515625 2.479480743408203125 2.5206317901611328125 2.3965671062469482422 2.5413043498992919922 2.4115860462188720703 1.9368627071380615234 1.9199454784393310547 1.8958617448806762695 2.0618143081665039063 1.8586825132369995117 2.0929272174835205078 2.8938577175140380859 2.44245147705078125 2.2034780979156494141 2.0905256271362304688 2.2498400211334228516 2.0755250453948974609 1.7309664487838745117 1.8174591064453125 1.7650091648101806641 2.1410999298095703125 2.1257166862487792969 2.2431395053863525391 2.0402939319610595703 2.0177209377288818359 1.8299248218536376953 1.7118614912033081055 1.7929605245590209961 1.5705655813217163086 8.497802734375 2.1082296371459960938 2.0449786186218261719 2.08368682861328125 1.8575192689895629883 1.8779339790344238281 2.5057506561279296875 2.1276478767395019531 2.1393499374389648438 2.2142519950866699219 2.0756125450134277344 2.0370025634765625 2.0287435054779052734 1.9632087945938110352 1.8470942974090576172 1.9094749689102172852 1.9629589319229125977 2.3778810501098632813 2.0362775325775146484 2.0301959514617919922 2.4411988258361816406 2.5577118396759033203 2.6419634819030761719 2.1723368167877197266 1.9708541631698608398 2.3629312515258789063 2.0641357898712158203 2.0934212207794189453 2.088104248046875 1.8583214282989501953 1.7881014347076416016 1.958784937858581543 2.0901696681976318359 2.2253637313842773438 2.0400168895721435547 2.2204291820526123047 2.3242626190185546875 1.9640036821365356445 2.1786103248596191406 2.0977575778961181641 2.191287994384765625 2.0180487632751464844 2.5775852203369140625 1.8040469884872436523 2.0173232555389404297 2.3229084014892578125 2.1679100990295410156 2.0505170822143554688 1.9049105644226074219 2.0156548023223876953 2.0542304515838623047 1.7664452791213989258 1.9625101089477539063 2.0006291866302490234 1.9095036983489990234 1.9286934137344360352 1.9636713266372680664 1.9000370502471923828 1.8688471317291259766 2.0327699184417724609 1.8285034894943237305 2.1268498897552490234 1.8610160350799560547 2.1688621044158935547 2.4011175632476806641 2.0834703445434570313 1.8364716768264770508 1.701367497444152832 2.0764360427856445313 2.0685214996337890625 1.8329296112060546875 2.2726843357086181641 2.4099459648132324219 2.3898885250091552734 2.1428737640380859375 2.2004101276397705078 2.8347485065460205078 2.9554827213287353516 3.3091499805450439453 3.4267511367797851563 3.2344319820404052734 3.2525289058685302734 3.2203519344329833984 2.9141030311584472656 3.0176279544830322266 3.3569724559783935547 3.1541891098022460938 
4.62298583984375 3.0711941719055175781 2.4659085273742675781 3.2866346836090087891 2.2283473014831542969 2.1257233619689941406 5.0473923683166503906 5.0473923683166503906 3.6493880748748779297 2.2283473014831542969 2.4118311405181884766 2.2283473014831542969 3.8335995674133300781 2.0903658866882324219 1.9660365581512451172 2.3191220760345458984 2.2519686222076416016 2.5116035938262939453 1.9444774389266967773 2.0466272830963134766 2.1706893444061279297 2.2076332569122314453 1.9324433803558349609 1.9968252182006835938 3.6493880748748779297 1.9574986696243286133 2.2129473686218261719 2.2718164920806884766 2.5160079002380371094 1.9273805618286132813 3.4669039249420166016 3.0927255153656005859 2.986942291259765625 2.2129473686218261719 2.2171673774719238281 2.3766689300537109375 2.1299691200256347656 2.4766926765441894531 1.9840906858444213867 2.8220388889312744141 1.8253771066665649414 2.5290341377258300781 2.001644134521484375 2.2223482131958007813 2.1555562019348144531 2.1952295303344726563 2.4134044647216796875 2.1642143726348876953 2.3852856159210205078 2.0957949161529541016 2.3604855537414550781 2.2922890186309814453 2.0440475940704345703 2.2686808109283447266 2.3184640407562255859 2.1524903774261474609 2.2983229160308837891 2.6509313583374023438 2.2115743160247802734 2.3860342502593994141 2.6111092567443847656 2.5322980880737304688 2.4592125415802001953 2.5566122531890869141 9.5225811004638671875 3.3646368980407714844 3.4869449138641357422 3.0892567634582519531 9.7618856430053710938 3.469310760498046875 3.5896070003509521484 3.2754127979278564453 3.2871356010437011719 3.5492932796478271484 3.3894495964050292969 3.4628574848175048828 3.1029400825500488281 2.9323854446411132813 3.1043140888214111328 3.4560747146606445313 3.2059702873229980469 3.0951912403106689453 2.7869699001312255859 2.633544921875 2.2679371833801269531 2.1213920116424560547 2.1919412612915039063 2.4221575260162353516 2.3338785171508789063 2.3128941059112548828 2.5171687602996826172 1.7477686405181884766 2.0345516204833984375 1.976683497428894043 1.921976923942565918 2.8938577175140380859 2.0978419780731201172 2.8220388889312744141 2.0742359161376953125 2.3378450870513916016 1.8978422880172729492 2.1300492286682128906 2.4027385711669921875 1.9583092927932739258 1.7732957601547241211 2.2240498065948486328 2.0796816349029541016 1.5125293731689453125 2.2941715717315673828 1.9131920337677001953 2.3235375881195068359 2.2457897663116455078 1.9985280036926269531 8.8693037033081054688 2.1340668201446533203 2.2466216087341308594 2.4095180034637451172 2.006717681884765625 2.0329270362854003906 1.7015414237976074219 1.8442221879959106445 1.9109581708908081055 2.2461159229278564453 2.1235597133636474609 1.8418791294097900391 2.0027511119842529297 2.3856475353240966797 2.0969641208648681641 2.2263901233673095703 2.1136720180511474609 1.8706805706024169922 1.6899815797805786133 2.3852427005767822266 2.3339457511901855469 2.2457823753356933594 2.8220388889312744141 4.26065826416015625 3.4669039249420166016 2.3959217071533203125 2.0405819416046142578 1.7177628278732299805 2.1164364814758300781 2.0151541233062744141 2.1954507827758789063 1.8949379920959472656 2.26093292236328125 1.7216161489486694336 2.0927879810333251953 2.0143373012542724609 2.1545135974884033203 1.838730931282043457 2.1465244293212890625 2.1387295722961425781 2.0118134021759033203 1.9191431999206542969 1.8394622802734375 2.4088730812072753906 1.9842426776885986328 2.0473420619964599609 1.8354796171188354492 1.7171689271926879883 2.0458276271820068359 1.9970564842224121094 2.1566908359527587891 2.0223593711853027344 2.0058336257934570313 2.1404159069061279297 1.9722598791122436523 2.0102074146270751953 2.1279346942901611328 1.703461766242980957 2.4158031940460205078 2.1922335624694824219 2.0811007022857666016 2.2681944370269775391 2.1962285041809082031 2.3252589702606201172 2.0774438381195068359 1.8852126598358154297 2.2166063785552978516 1.610154271125793457 2.1039998531341552734 2.0411438941955566406 2.0559024810791015625 8.2623891830444335938 8.8318157196044921875 2.3947312831878662109 2.3582196235656738281 2.5274257659912109375 9.1868534088134765625 2.9623391628265380859 3.3728935718536376953 2.8583126068115234375 2.7394788265228271484 2.8771259784698486328 9.5930871963500976563 3.0866763591766357422 3.1599249839782714844 3.5290865898132324219 3.2917499542236328125 
2.5210001468658447266 2.7692322731018066406 3.2866346836090087891 5.5286641120910644531 2.2283473014831542969 2.1959578990936279297 2.4659085273742675781 2.2283473014831542969 4.6507639884948730469 2.4118311405181884766 2.4659085273742675781 2.3344671726226806641 2.0399518013000488281 1.9444774389266967773 2.6419634819030761719 2.2129473686218261719 2.2047290802001953125 2.2718164920806884766 3.4669039249420166016 2.0331597328186035156 1.9273805618286132813 2.8220388889312744141 1.9273805618286132813 2.2718164920806884766 1.9588680267333984375 2.50002288818359375 2.0635955333709716797 3.2348196506500244141 3.6951785087585449219 4.1445622444152832031 2.50002288818359375 2.2786147594451904297 1.9574986696243286133 1.9813164472579956055 2.5057387351989746094 3.2110114097595214844 1.9273805618286132813 1.9273805618286132813 1.8138262033462524414 2.1195099353790283203 1.9273805618286132813 2.2140893936157226563 2.2522370815277099609 2.1394598484039306641 2.3974969387054443359 1.9886355400085449219 2.1460604667663574219 2.0843377113342285156 2.2956106662750244141 2.2765278816223144531 2.4372601509094238281 2.2163543701171875 2.2099072933197021484 2.0416738986968994141 1.699319005012512207 2.4922525882720947266 2.5303678512573242188 2.1986823081970214844 2.2795972824096679688 2.2959444522857666016 2.2215602397918701172 2.3832042217254638672 2.7664725780487060547 2.988437652587890625 2.5871291160583496094 3.2927021980285644531 10.095239639282226563 3.2781431674957275391 3.4575493335723876953 3.217250823974609375 3.3385856151580810547 3.7476658821105957031 3.3233237266540527344 3.2452538013458251953 3.2765741348266601563 3.4748218059539794922 3.6183829307556152344 3.5547306537628173828 3.3506858348846435547 3.0136246681213378906 2.9940214157104492188 3.0851302146911621094 2.9942772388458251953 2.6491467952728271484 2.4126441478729248047 2.1521944999694824219 2.2879707813262939453 2.1682298183441162109 2.3145482540130615234 2.2447502613067626953 2.1287872791290283203 1.7698714733123779297 2.1784982681274414063 2.0870926380157470703 1.8701230287551879883 2.6419634819030761719 2.2718164920806884766 2.1550002098083496094 2.0361452102661132813 1.7436351776123046875 1.8933995962142944336 2.0360798835754394531 2.2549786567687988281 2.3175537586212158203 2.2543339729309082031 1.9862320423126220703 1.9238467216491699219 1.8918367624282836914 2.0632393360137939453 2.0520834922790527344 2.1446056365966796875 2.1733121871948242188 2.2254631519317626953 1.8940744400024414063 2.0560357570648193359 1.9561363458633422852 2.3369078636169433594 1.9878717660903930664 2.1703863143920898438 1.9640443325042724609 2.2831315994262695313 2.1223235130310058594 1.6543080806732177734 2.3237941265106201172 2.2365081310272216797 2.2291295528411865234 2.0561542510986328125 2.1174488067626953125 2.2604856491088867188 2.3480653762817382813 2.1074552536010742188 2.2200200557708740234 2.1002895832061767578 2.3834083080291748047 2.6419634819030761719 2.3819062709808349609 2.1858673095703125 2.2553610801696777344 1.8502165079116821289 2.2010266780853271484 2.1877973079681396484 1.9636270999908447266 2.1486632823944091797 2.2990577220916748047 2.0978565216064453125 1.9143456220626831055 2.3127057552337646484 1.856227874755859375 2.0382618904113769531 2.0939056873321533203 1.8389291763305664063 2.0578377246856689453 2.0215027332305908203 1.8695698976516723633 2.0263783931732177734 1.8470312356948852539 2.0420224666595458984 1.9041888713836669922 2.3364109992980957031 2.2577505111694335938 2.2622804641723632813 2.1566908359527587891 1.8568328619003295898 2.1179823875427246094 2.0047869682312011719 2.3512585163116455078 1.72188568115234375 2.0993905067443847656 2.0910129547119140625 2.2198975086212158203 1.6801562309265136719 2.3021576404571533203 2.0284326076507568359 1.996384739875793457 2.0457842350006103516 2.1062810420989990234 1.9802167415618896484 2.0980093479156494141 1.9419945478439331055 2.1676363945007324219 1.9884629249572753906 2.0846052169799804688 2.2608895301818847656 1.9887807369232177734 2.2804670333862304688 2.2524142265319824219 2.2860662937164306641 2.5353481769561767578 2.4531979560852050781 2.3771722316741943359 2.3264396190643310547 2.9757013320922851563 2.9272234439849853516 2.9098718166351318359 3.0272581577301025391 9.4990625381469726563 3.0013844966888427734 3.0917608737945556641 3.1588845252990722656 3.2131350040435791016 
2.4118311405181884766 2.2283473014831542969 3.6815922260284423828 3.4669039249420166016 4.1048259735107421875 3.9891257286071777344 2.2283473014831542969 5.5286641120910644531 2.2895193099975585938 2.2411866188049316406 5.0473923683166503906 2.7390532493591308594 4.1048259735107421875 2.8220388889312744141 2.1375455856323242188 2.2718164920806884766 5.0473923683166503906 2.8220388889312744141 2.1824727058410644531 2.986942291259765625 1.9859335422515869141 3.2965180873870849609 2.1002907752990722656 2.4111280441284179688 2.2129473686218261719 1.9273805618286132813 3.6815922260284423828 5.0473923683166503906 3.2965180873870849609 3.2965180873870849609 3.6493880748748779297 3.6493880748748779297 2.1075170040130615234 2.2550768852233886719 2.1006364822387695313 2.0570600032806396484 2.8220388889312744141 2.2687463760375976563 2.0313024520874023438 2.4766926765441894531 2.4411988258361816406 2.1879236698150634766 1.9852931499481201172 2.0533542633056640625 1.8337377309799194336 2.4573509693145751953 2.4961724281311035156 2.6229848861694335938 2.5302939414978027344 2.3553056716918945313 2.5125455856323242188 2.3802249431610107422 2.1959407329559326172 2.1806559562683105469 2.3653159141540527344 2.1964631080627441406 2.1340994834899902344 2.4376692771911621094 2.4278035163879394531 2.4847955703735351563 2.167568206787109375 2.0570454597473144531 2.4877166748046875 2.7655992507934570313 3.0239567756652832031 3.2440690994262695313 3.1291675567626953125 3.2259602546691894531 3.1798501014709472656 3.1879439353942871094 3.163722991943359375 10.19618988037109375 3.3461654186248779297 3.423038482666015625 3.2353703975677490234 3.4744539260864257813 3.57534027099609375 3.4038617610931396484 3.4077038764953613281 3.2171659469604492188 3.0336933135986328125 2.8641302585601806641 2.9972803592681884766 3.1597619056701660156 2.5560698509216308594 2.4544541835784912109 2.5346212387084960938 2.1901576519012451172 2.2424550056457519531 1.9564393758773803711 1.9977817535400390625 2.1099965572357177734 2.4630551338195800781 1.9581629037857055664 1.9998413324356079102 2.0596344470977783203 2.2096660137176513672 2.3064684867858886719 2.6419634819030761719 2.2730832099914550781 2.0712428092956542969 2.2073493003845214844 1.7821288108825683594 2.3022892475128173828 2.0818941593170166016 2.5064282417297363281 1.8575404882431030273 2.0719745159149169922 2.1219944953918457031 2.3014173507690429688 2.1712915897369384766 2.17285919189453125 1.8018610477447509766 1.8725425004959106445 1.8944218158721923828 2.0741090774536132813 2.0070858001708984375 1.6517401933670043945 2.0860021114349365234 2.0699055194854736328 2.1732614040374755859 2.194187164306640625 2.1806032657623291016 2.2043168544769287109 2.2332081794738769531 1.9918173551559448242 1.9627317190170288086 2.0878033638000488281 2.2973930835723876953 2.2590875625610351563 2.4246313571929931641 2.4275145530700683594 2.0258986949920654297 2.1914451122283935547 2.5577118396759033203 2.4717922210693359375 2.3950448036193847656 2.1251490116119384766 2.1273071765899658203 2.4411988258361816406 2.4975121021270751953 2.0257742404937744141 1.8408944606781005859 2.3678479194641113281 2.2162206172943115234 1.9189116954803466797 1.8576167821884155273 2.2162320613861083984 2.2172422409057617188 2.1126158237457275391 2.375644683837890625 2.2706601619720458984 2.2305102348327636719 2.2497272491455078125 1.6960440874099731445 2.1506085395812988281 2.0993554592132568359 1.9832288026809692383 2.0964558124542236328 2.2194292545318603516 2.0928788185119628906 2.2651035785675048828 2.0447833538055419922 2.2402741909027099609 2.1337938308715820313 2.2278540134429931641 2.0109448432922363281 2.0460913181304931641 2.0676348209381103516 1.9807044267654418945 2.1926584243774414063 2.2885329723358154297 1.7905993461608886719 2.1866712570190429688 2.2771499156951904297 2.4931054115295410156 2.1372072696685791016 1.8346693515777587891 2.1306233406066894531 2.2230553627014160156 2.2207033634185791016 1.8939849138259887695 1.9567537307739257813 1.8011000156402587891 2.3429975509643554688 2.0844037532806396484 1.8405729532241821289 2.0187714099884033203 2.3380324840545654297 2.5799024105072021484 2.4648730754852294922 2.7551996707916259766 2.6943464279174804688 2.6234865188598632813 2.8752236366271972656 3.2282042503356933594 9.5709581375122070313 2.9915125370025634766 3.403347015380859375 3.2153568267822265625 
2.4659085273742675781 2.4118311405181884766 3.6815922260284423828 2.0567998886108398438 3.2965180873870849609 3.9891257286071777344 3.8347759246826171875 7.0614686012268066406 2.2283473014831542969 2.2283473014831542969 3.8347759246826171875 2.4659085273742675781 5.0473923683166503906 3.2965180873870849609 5.0473923683166503906 3.4669039249420166016 3.2965180873870849609 1.9273805618286132813 2.50002288818359375 2.1051166057586669922 2.2718164920806884766 2.0879812240600585938 2.4374330043792724609 2.50002288818359375 4.1640486717224121094 4.1126537322998046875 3.4669039249420166016 5.0473923683166503906 2.2372624874114990234 4.6883144378662109375 3.2429821491241455078 2.4080662727355957031 2.1333091259002685547 2.1317989826202392578 2.1394183635711669922 1.9017244577407836914 2.3648269176483154297 2.6419634819030761719 2.5577118396759033203 2.2305238246917724609 1.7860779762268066406 1.9475193023681640625 1.9667116403579711914 2.0308942794799804688 2.0187447071075439453 2.0366122722625732422 1.9363875389099121094 2.3650193214416503906 2.2417142391204833984 2.1611201763153076172 2.0636756420135498047 2.0809812545776367188 2.1542761325836181641 2.1413490772247314453 2.3350832462310791016 2.1616234779357910156 2.2823703289031982422 2.2120370864868164063 2.4047415256500244141 1.9846001863479614258 2.2270894050598144531 2.0085206031799316406 2.1545722484588623047 2.8382425308227539063 9.7091226577758789063 2.9511556625366210938 9.27057647705078125 3.2137100696563720703 3.1808156967163085938 3.6648945808410644531 3.1059713363647460938 3.7703797817230224609 3.5604376792907714844 3.3972151279449462891 3.3095309734344482422 3.2332429885864257813 3.7868242263793945313 3.4527962207794189453 3.4290864467620849609 3.0653796195983886719 2.8161766529083251953 2.5746259689331054688 2.5537319183349609375 2.5057435035705566406 2.143688201904296875 2.1877443790435791016 2.2292478084564208984 2.4643564224243164063 1.8329906463623046875 2.2075717449188232422 2.1277794837951660156 2.3050267696380615234 2.1181743144989013672 2.2921783924102783203 1.9082252979278564453 1.8011686801910400391 2.6820814609527587891 2.8220388889312744141 2.4766926765441894531 1.9273805618286132813 1.9745335578918457031 2.0649049282073974609 2.2319471836090087891 2.2347266674041748047 1.999859929084777832 2.0365884304046630859 2.1612040996551513672 2.1660006046295166016 2.092929840087890625 1.8984491825103759766 2.1754925251007080078 2.3382134437561035156 2.2086853981018066406 2.0989997386932373047 1.8543276786804199219 2.5287861824035644531 2.2964797019958496094 2.1901776790618896484 2.4031195640563964844 2.0155365467071533203 2.3959412574768066406 2.3133132457733154297 2.1440899372100830078 1.8778628110885620117 1.935581207275390625 2.0774943828582763672 2.1653079986572265625 1.9943205118179321289 2.2211325168609619141 2.0393776893615722656 2.0553262233734130859 2.0524644851684570313 2.3024230003356933594 2.4397134780883789063 2.1639673709869384766 2.5229423046112060547 2.8177268505096435547 2.4554474353790283203 2.4864916801452636719 2.51824951171875 2.2968637943267822266 2.2688062191009521484 2.2774593830108642578 2.1476597785949707031 1.9164197444915771484 2.2774395942687988281 2.4173629283905029297 2.2018895149230957031 2.2003123760223388672 2.0316972732543945313 2.0762019157409667969 2.1319262981414794922 2.255535125732421875 2.2052476406097412109 1.7941931486129760742 2.3435771465301513672 2.1712908744812011719 1.7304552793502807617 2.0430979728698730469 2.0828430652618408203 2.3039042949676513672 2.4121339321136474609 1.9014840126037597656 1.899695277214050293 1.9885164499282836914 2.1806204319000244141 2.0521593093872070313 1.873576045036315918 2.2576603889465332031 2.2092950344085693359 2.3360838890075683594 1.9717688560485839844 1.8883130550384521484 1.699932098388671875 2.0225627422332763672 2.5158228874206542969 2.1873667240142822266 2.2689530849456787109 2.1579992771148681641 1.8309761285781860352 2.166355133056640625 1.9599097967147827148 1.7695330381393432617 1.8134362697601318359 2.3320841789245605469 2.2287228107452392578 1.9987236261367797852 1.933117985725402832 2.1725747585296630859 2.5787558555603027344 2.7338697910308837891 2.8082032203674316406 2.9211714267730712891 2.5376801490783691406 2.6132776737213134766 9.3772907257080078125 3.0406069755554199219 3.2384462356567382813 9.7210903167724609375 3.1982469558715820313 
2.4118311405181884766 2.3017702102661132813 3.6493880748748779297 3.2965180873870849609 3.4669039249420166016 3.2965180873870849609 3.2866346836090087891 6.2630610466003417969 3.5202007293701171875 3.5202007293701171875 2.2283473014831542969 2.2495574951171875 3.4669039249420166016 5.0473923683166503906 3.6493880748748779297 3.2965180873870849609 3.4669039249420166016 2.03347015380859375 2.3342700004577636719 1.9273805618286132813 2.5577118396759033203 2.1609675884246826172 2.3767530918121337891 1.9520545005798339844 3.6951785087585449219 5.0473923683166503906 3.2429821491241455078 4.1126537322998046875 2.2718164920806884766 5.0473923683166503906 2.0767049789428710938 2.8220388889312744141 2.0276632308959960938 2.0033643245697021484 2.50002288818359375 2.3782713413238525391 2.2690923213958740234 3.4669039249420166016 2.0108201503753662109 2.2775015830993652344 2.1497919559478759766 2.1336212158203125 1.8966364860534667969 2.131717681884765625 2.4931178092956542969 1.9872813224792480469 2.1719706058502197266 1.9557160139083862305 1.9464789628982543945 2.0714504718780517578 1.8937752246856689453 1.8842573165893554688 2.0284187793731689453 2.4439995288848876953 2.1099720001220703125 2.1289379596710205078 2.5601522922515869141 2.180400848388671875 2.4417850971221923828 2.4593746662139892578 2.3641479015350341797 2.3603403568267822266 2.1699035167694091797 2.3957531452178955078 2.3877785205841064453 2.6272923946380615234 2.6511931419372558594 2.7965497970581054688 3.3279426097869873047 3.2508640289306640625 3.4805359840393066406 9.9488382339477539063 3.4592342376708984375 3.4973742961883544922 3.4920089244842529297 3.3049752712249755859 3.4451873302459716797 3.3097643852233886719 3.2616651058197021484 2.4199211597442626953 2.4776151180267333984 2.5467617511749267578 2.7630228996276855469 2.3801982402801513672 2.4504461288452148438 2.4988114833831787109 2.1363222599029541016 1.842922210693359375 2.1755805015563964844 2.0314929485321044922 2.1300301551818847656 1.9029260873794555664 2.0223810672760009766 1.9896597862243652344 2.0649814605712890625 2.0851621627807617188 1.9273805618286132813 2.2718164920806884766 2.2397441864013671875 2.1500918865203857422 2.3685362339019775391 2.2105252742767333984 2.2206673622131347656 1.85657501220703125 1.6817368268966674805 2.2170498371124267578 2.2269268035888671875 1.7551493644714355469 2.2229890823364257813 2.1566650867462158203 2.1568462848663330078 2.1701109409332275391 1.9584193229675292969 2.1297016143798828125 1.9285510778427124023 1.7721889019012451172 1.6904891729354858398 2.5508584976196289063 2.3493285179138183594 2.119487762451171875 2.004657745361328125 2.2831413745880126953 2.1267507076263427734 2.3627483844757080078 2.2476089000701904297 1.8110977411270141602 2.0749447345733642578 2.1952316761016845703 2.5003061294555664063 2.27194976806640625 1.6955617666244506836 2.2711229324340820313 1.9305045604705810547 2.2132341861724853516 2.3101987838745117188 2.2147815227508544922 2.8220388889312744141 2.7031586170196533203 2.5770778656005859375 2.3834300041198730469 2.7083103656768798828 2.2508962154388427734 2.1142256259918212891 2.0413644313812255859 2.0729649066925048828 1.9423233270645141602 2.1761126518249511719 1.9422250986099243164 2.2347757816314697266 1.5374387502670288086 2.0056679248809814453 2.3477542400360107422 2.3283178806304931641 1.859656214714050293 2.5169205665588378906 1.7482335567474365234 2.4038891792297363281 1.7108924388885498047 2.1790902614593505859 2.0686821937561035156 1.8008711338043212891 2.2953310012817382813 2.4521586894989013672 2.5430691242218017578 2.1126990318298339844 2.5947129726409912109 2.1861586570739746094 1.9210227727890014648 1.9496549367904663086 1.925211787223815918 2.3102741241455078125 2.2588551044464111328 1.9676510095596313477 1.9430063962936401367 2.3505811691284179688 2.4129073619842529297 2.1182806491851806641 2.0403499603271484375 1.9308657646179199219 1.9726504087448120117 2.1440293788909912109 2.3763270378112792969 2.2513344287872314453 2.1445717811584472656 1.8337111473083496094 2.0658175945281982422 1.9132497310638427734 1.8167241811752319336 2.2682702541351318359 2.6055614948272705078 2.7598986625671386719 2.9855916500091552734 2.8096592426300048828 2.9477193355560302734 2.7120716571807861328 2.8035736083984375 3.0097808837890625 3.0078749656677246094 3.403656005859375 3.3717098236083984375 
3.4669039249420166016 2.5792727470397949219 3.6679477691650390625 3.2965180873870849609 4.57477569580078125 2.4118311405181884766 2.4659085273742675781 2.4118311405181884766 4.4281702041625976563 3.9891257286071777344 3.0711941719055175781 4.4281702041625976563 3.4669039249420166016 2.0021889209747314453 2.1070244312286376953 4.6208863258361816406 2.2718164920806884766 1.9402500391006469727 2.0484960079193115234 1.6721175909042358398 2.1481654644012451172 2.2669007778167724609 1.8871413469314575195 1.9273805618286132813 3.6815922260284423828 3.0927255153656005859 3.6493880748748779297 3.6674742698669433594 3.6815922260284423828 3.6815922260284423828 2.6088836193084716797 3.0927255153656005859 2.2076849937438964844 2.5116035938262939453 2.6414442062377929688 2.9318671226501464844 2.8871884346008300781 2.0856807231903076172 2.1848926544189453125 2.2213397026062011719 2.0244152545928955078 2.3301627635955810547 2.2343587875366210938 2.4499256610870361328 2.3164262771606445313 2.2835748195648193359 2.5072665214538574219 2.2238373756408691406 2.4666395187377929688 2.2511012554168701172 2.3790285587310791016 2.3133332729339599609 1.8981877565383911133 2.1108682155609130859 2.3627552986145019531 2.1748991012573242188 2.4544053077697753906 2.3051173686981201172 2.1626479625701904297 2.0425055027008056641 2.3154084682464599609 2.0417761802673339844 2.4504151344299316406 2.142139434814453125 2.1547887325286865234 2.1298809051513671875 2.2823188304901123047 2.7772417068481445313 10.024265289306640625 3.7969217300415039063 3.7351543903350830078 3.680179595947265625 3.7251646518707275391 3.7427952289581298828 3.5458157062530517578 3.4386146068572998047 3.1933336257934570313 2.7648892402648925781 2.8318729400634765625 2.5192000865936279297 2.5813708305358886719 2.4119544029235839844 2.5502181053161621094 2.4208321571350097656 2.3504056930541992188 2.1133289337158203125 2.3663065433502197266 2.5801823139190673828 2.2303874492645263672 1.9888650178909301758 2.1139338016510009766 2.0460574626922607422 2.175060272216796875 2.7168512344360351563 1.9980549812316894531 2.1703820228576660156 2.2405226230621337891 2.5644176006317138672 2.0278575420379638672 2.279758453369140625 2.2701079845428466797 2.01833343505859375 2.2322545051574707031 2.3072543144226074219 2.2067370414733886719 2.2785089015960693359 1.8460652828216552734 1.8296676874160766602 2.0311799049377441406 2.0493624210357666016 2.016017913818359375 2.0935466289520263672 2.1539914608001708984 2.1058495044708251953 2.2026119232177734375 2.4846959114074707031 2.268245697021484375 2.5818634033203125 2.1146020889282226563 2.2792558670043945313 2.1592164039611816406 2.1828141212463378906 2.1541218757629394531 2.0241401195526123047 1.7165557146072387695 1.985500335693359375 2.0396525859832763672 2.41320037841796875 2.0086374282836914063 2.3447778224945068359 2.2886893749237060547 2.3064312934875488281 2.2395517826080322266 2.0943551063537597656 2.1179823875427246094 2.6078674793243408203 2.2989485263824462891 2.3991539478302001953 2.4156694412231445313 2.6537902355194091797 2.4018754959106445313 2.3449289798736572266 2.3617095947265625 2.1683800220489501953 2.0789113044738769531 2.1293249130249023438 2.0563321113586425781 1.9272614717483520508 2.353084564208984375 2.3612613677978515625 2.3908154964447021484 1.838911890983581543 1.8183039426803588867 2.1073842048645019531 1.9413993358612060547 2.4402270317077636719 1.865680694580078125 2.2245581150054931641 1.8550420999526977539 2.3051810264587402344 2.3203721046447753906 2.3318049907684326172 2.2592554092407226563 2.1055800914764404297 2.0010373592376708984 2.4179821014404296875 2.5008070468902587891 2.1377396583557128906 2.2826876640319824219 2.3096098899841308594 2.0378158092498779297 2.0945577621459960938 2.5387799739837646484 2.2654759883880615234 2.0262818336486816406 2.3381917476654052734 2.3875644207000732422 2.1313633918762207031 1.8784328699111938477 2.1989200115203857422 2.2797253131866455078 2.1918306350708007813 2.1889846324920654297 2.2179896831512451172 2.3546385765075683594 1.9997583627700805664 2.1778383255004882813 2.2439396381378173828 2.3942339420318603516 2.2341921329498291016 2.3698337078094482422 2.7056727409362792969 2.8664531707763671875 3.0522372722625732422 3.1041429042816162109 3.1555423736572265625 9.916973114013671875 3.1844255924224853516 3.3960745334625244141 3.6919720172882080078 
2.8220388889312744141 2.50002288818359375 2.2283473014831542969 2.4659085273742675781 2.3042244911193847656 2.4029023647308349609 4.1126537322998046875 2.2283473014831542969 2.2283473014831542969 2.3157980442047119141 2.4907920360565185547 2.2283473014831542969 1.9273805618286132813 2.8621454238891601563 2.2546322345733642578 2.1650662422180175781 2.986942291259765625 2.2144243717193603516 2.1084659099578857422 2.3612213134765625 2.3038127422332763672 2.0370995998382568359 2.0934112071990966797 2.2130372524261474609 2.1696605682373046875 2.50002288818359375 2.9318671226501464844 3.4669039249420166016 3.8335995674133300781 3.6493880748748779297 2.2961421012878417969 4.1445622444152832031 2.4948639869689941406 1.9671572446823120117 4.2293381690979003906 4.6208863258361816406 2.8220388889312744141 2.5086653232574462891 2.2129473686218261719 2.3852427005767822266 2.0124700069427490234 2.3869504928588867188 2.2387588024139404297 2.4354703426361083984 2.2971262931823730469 2.1197926998138427734 2.2989535331726074219 2.1758248805999755859 2.1946492195129394531 1.8928750753402709961 2.3291153907775878906 2.2151274681091308594 2.2788970470428466797 2.0290820598602294922 2.3156571388244628906 2.488239288330078125 2.0156464576721191406 2.3090789318084716797 2.06995391845703125 2.1811008453369140625 1.9300818443298339844 1.8232687711715698242 2.0382330417633056641 2.6080036163330078125 2.2258877754211425781 2.2176592350006103516 2.4358766078948974609 3.0123851299285888672 3.6017439365386962891 10.530320167541503906 3.6029076576232910156 3.6214632987976074219 3.4962494373321533203 3.7116718292236328125 3.3462858200073242188 3.5329382419586181641 3.2163708209991455078 2.6769967079162597656 3.0805885791778564453 2.7863440513610839844 2.7159130573272705078 2.4868352413177490234 2.4104368686676025391 2.3077826499938964844 2.3725411891937255859 2.2012257575988769531 2.4039645195007324219 2.1280081272125244141 2.2816126346588134766 2.1456093788146972656 2.04325103759765625 2.3787171840667724609 2.2332651615142822266 2.2532098293304443359 2.4311916828155517578 2.5388050079345703125 2.2775342464447021484 2.2949070930480957031 2.1704866886138916016 2.3236696720123291016 2.0563664436340332031 2.0455133914947509766 2.3966507911682128906 2.1965503692626953125 2.2703664302825927734 2.0643832683563232422 2.2229819297790527344 2.5879197120666503906 2.1991217136383056641 2.3385462760925292969 1.9737695455551147461 2.3744182586669921875 2.2776556015014648438 2.1067259311676025391 1.9418933391571044922 1.9856691360473632813 2.4197700023651123047 2.1788330078125 2.0012764930725097656 2.4109551906585693359 2.3387908935546875 1.8945891857147216797 2.195865631103515625 1.9923671483993530273 1.9527870416641235352 1.8701920509338378906 2.2104241847991943359 1.7964596748352050781 2.4350411891937255859 2.3400478363037109375 2.1829473972320556641 1.9545502662658691406 1.8372672796249389648 2.2496984004974365234 2.1621820926666259766 2.2120440006256103516 2.1920173168182373047 2.3282892704010009766 2.4476742744445800781 2.6786587238311767578 2.4645626544952392578 2.2908852100372314453 2.593387603759765625 2.1695542335510253906 2.1436171531677246094 2.2549366950988769531 1.9853832721710205078 2.5203497409820556641 2.3655896186828613281 2.1226403713226318359 2.2838613986968994141 2.4705274105072021484 2.4631254673004150391 2.0461180210113525391 2.2229990959167480469 2.2180655002593994141 2.2638142108917236328 2.1716296672821044922 2.3575716018676757813 1.8798649311065673828 2.3380844593048095703 2.2675800323486328125 2.0290501117706298828 2.2035970687866210938 2.4149281978607177734 2.1710712909698486328 2.0182962417602539063 2.5510711669921875 2.1754117012023925781 2.0224480628967285156 2.1057736873626708984 2.0911238193511962891 2.0914063453674316406 2.2660014629364013672 2.2818970680236816406 2.0532696247100830078 2.0315485000610351563 2.226589202880859375 2.203250885009765625 2.2445533275604248047 2.5127902030944824219 2.1915097236633300781 1.9554476737976074219 1.9892126321792602539 2.3855843544006347656 2.1725745201110839844 2.303173065185546875 2.0801060199737548828 2.4451627731323242188 2.2493863105773925781 2.1904144287109375 2.5444362163543701172 3.2430102825164794922 3.1999418735504150391 3.1704030036926269531 3.5276472568511962891 3.5024154186248779297 3.1937355995178222656 3.0481407642364501953 3.6243684291839599609 
2.2662274837493896484 2.0399518013000488281 3.6679477691650390625 2.2283473014831542969 3.5202007293701171875 4.218257904052734375 3.2429821491241455078 2.3365478515625 2.6967334747314453125 2.4659085273742675781 2.3184006214141845703 3.9891257286071777344 4.26065826416015625 3.7983632087707519531 2.3939824104309082031 2.0704736709594726563 2.2718164920806884766 2.3747134208679199219 2.0892150402069091797 2.5319826602935791016 2.1033785343170166016 1.8351919651031494141 2.6169743537902832031 2.1259009838104248047 2.0448787212371826172 2.1191372871398925781 3.6493880748748779297 4.5609211921691894531 3.6815922260284423828 5.0473923683166503906 2.7390532493591308594 2.3756649494171142578 3.2965180873870849609 2.0143654346466064453 3.6815922260284423828 2.986942291259765625 4.1048259735107421875 2.986942291259765625 3.5284249782562255859 2.6419634819030761719 2.4208357334136962891 1.9453177452087402344 2.422393798828125 2.4261927604675292969 2.3745517730712890625 2.2597889900207519531 2.6781635284423828125 2.5842087268829345703 2.5232203006744384766 2.2608401775360107422 2.0662784576416015625 1.9474725723266601563 2.1161444187164306641 2.3521735668182373047 2.4632105827331542969 2.4896411895751953125 2.3686099052429199219 2.3295891284942626953 2.1449975967407226563 2.2488362789154052734 2.4409985542297363281 2.2762379646301269531 2.3107707500457763672 2.4941279888153076172 2.2663817405700683594 2.4126513004302978516 2.4966380596160888672 2.8772222995758056641 3.1511363983154296875 3.4521291255950927734 3.7348153591156005859 3.3464031219482421875 3.1698579788208007813 3.5166666507720947266 3.7307841777801513672 3.4029123783111572266 2.7589874267578125 2.8639383316040039063 2.8691697120666503906 2.7021908760070800781 2.4454948902130126953 2.4650690555572509766 2.2037556171417236328 2.2195765972137451172 2.1263794898986816406 2.1651563644409179688 1.8273525238037109375 2.2886514663696289063 2.2154695987701416016 2.1042258739471435547 2.4636795520782470703 2.1235687732696533203 2.2227737903594970703 2.69263458251953125 2.5106616020202636719 2.8774166107177734375 2.5869038105010986328 2.1393194198608398438 2.6419634819030761719 2.2831873893737792969 2.4324159622192382813 2.2435762882232666016 2.1844229698181152344 2.8938577175140380859 2.3716516494750976563 1.9526181221008300781 2.3650593757629394531 2.2401471138000488281 2.0992717742919921875 2.2662098407745361328 2.383289337158203125 2.395397186279296875 2.3658964633941650391 2.3931174278259277344 2.3661224842071533203 2.1955561637878417969 2.3645894527435302734 2.3720381259918212891 2.2274248600006103516 2.3986515998840332031 1.7988892793655395508 2.4782330989837646484 2.2701816558837890625 2.2436678409576416016 2.2564826011657714844 1.9310709238052368164 2.0157942771911621094 2.4282815456390380859 2.2500591278076171875 2.3778295516967773438 2.0763022899627685547 1.6971256732940673828 2.1038839817047119141 2.0754029750823974609 2.4960699081420898438 2.2907965183258056641 2.5157797336578369141 2.2215037345886230469 2.0504024028778076172 2.5873062610626220703 2.4436879158020019531 2.7304062843322753906 2.298084259033203125 2.2995133399963378906 2.1784026622772216797 2.401447296142578125 2.1673390865325927734 2.2910335063934326172 2.1259622573852539063 2.3418352603912353516 2.3020141124725341797 2.3977768421173095703 2.2093374729156494141 2.1641561985015869141 2.4468491077423095703 1.8767261505126953125 2.3870403766632080078 2.2079997062683105469 1.7341709136962890625 2.1112029552459716797 2.1150317192077636719 2.0337440967559814453 2.3626201152801513672 1.9292051792144775391 1.5612683296203613281 2.0480179786682128906 2.0949568748474121094 2.1951394081115722656 2.0810842514038085938 1.9731389284133911133 2.1248164176940917969 2.1480252742767333984 2.1691250801086425781 2.1791508197784423828 1.9254970550537109375 2.0296201705932617188 1.9476314783096313477 2.2295453548431396484 1.9581127166748046875 1.9794510602951049805 2.3024835586547851563 1.9934890270233154297 2.167491912841796875 2.3927488327026367188 2.3991754055023193359 2.0028979778289794922 2.0322544574737548828 2.1012132167816162109 2.5195522308349609375 2.2611253261566162109 2.4000644683837890625 2.6161403656005859375 2.6222043037414550781 3.1718370914459228516 3.1676299571990966797 3.3869876861572265625 3.1645941734313964844 3.023044586181640625 3.0484480857849121094 3.4361672401428222656 
2.3464727401733398438 3.2965180873870849609 2.6820814609527587891 2.2283473014831542969 3.2866346836090087891 2.2283473014831542969 3.8335995674133300781 3.2429821491241455078 2.2919604778289794922 2.0658652782440185547 2.3122184276580810547 3.2965180873870849609 2.986942291259765625 3.6564357280731201172 3.4669039249420166016 3.6951785087585449219 2.1051483154296875 2.2449228763580322266 2.2688302993774414063 2.0784959793090820313 2.1466820240020751953 2.3953568935394287109 1.7788313627243041992 2.2037358283996582031 2.3883099555969238281 3.0927255153656005859 3.6951785087585449219 2.2283473014831542969 2.2283473014831542969 3.2429821491241455078 2.641887664794921875 2.48065185546875 2.8407244682312011719 2.2503819465637207031 2.8621454238891601563 2.986942291259765625 3.2429821491241455078 3.4669039249420166016 2.4011700153350830078 2.3272564411163330078 2.2619738578796386719 2.3386366367340087891 2.2753856182098388672 2.1287229061126708984 2.451763153076171875 2.5063359737396240234 2.7469611167907714844 2.6414062976837158203 2.7180728912353515625 2.3793880939483642578 2.1631553173065185547 2.4405221939086914063 2.3183569908142089844 2.3746669292449951172 2.6808760166168212891 2.6433544158935546875 2.6176197528839111328 2.4210317134857177734 2.5228841304779052734 2.8211669921875 2.6159968376159667969 2.6749837398529052734 2.4525723457336425781 2.6805646419525146484 2.7040810585021972656 2.9020721912384033203 2.8580794334411621094 3.0351579189300537109 3.0734601020812988281 3.2880749702453613281 3.4358696937561035156 3.5915446281433105469 3.6129367351531982422 3.0168094635009765625 2.9878890514373779297 2.529621124267578125 2.5263876914978027344 2.5306885242462158203 2.8787279129028320313 2.8101973533630371094 2.49515533447265625 2.5070214271545410156 2.4173262119293212891 2.625942230224609375 2.3278098106384277344 2.2393612861633300781 1.8068876266479492188 2.0597558021545410156 2.0676276683807373047 2.4247546195983886719 2.4496748447418212891 2.4200508594512939453 2.7104914188385009766 2.5836114883422851563 2.8981029987335205078 2.6472718715667724609 2.4980347156524658203 2.2157163619995117188 2.3958151340484619141 2.4709720611572265625 2.3555176258087158203 2.1981284618377685547 2.2578454017639160156 2.3672482967376708984 1.9740641117095947266 1.8542590141296386719 2.450305938720703125 2.3430759906768798828 2.1710491180419921875 2.4173266887664794922 2.2796306610107421875 2.0357718467712402344 2.2838149070739746094 1.9743429422378540039 2.1823930740356445313 2.0081045627593994141 2.1633839607238769531 2.4815039634704589844 2.1696927547454833984 2.2522900104522705078 2.2737672328948974609 2.2874128818511962891 2.46148681640625 2.3008637428283691406 2.2357366085052490234 2.2126381397247314453 1.8040935993194580078 2.3018388748168945313 1.9043471813201904297 2.1960358619689941406 2.1953337192535400391 2.207244873046875 2.0945119857788085938 2.3787662982940673828 2.3348071575164794922 2.3320682048797607422 2.0948612689971923828 2.3903582096099853516 1.8900901079177856445 2.1909534931182861328 2.1735227108001708984 2.4901363849639892578 2.3833675384521484375 2.2903146743774414063 2.3137552738189697266 2.2593111991882324219 2.3347914218902587891 2.3203680515289306641 2.2241811752319335938 2.3171567916870117188 2.3277325630187988281 2.4393198490142822266 2.1545367240905761719 1.9479156732559204102 2.6312167644500732422 2.2356846332550048828 2.6173925399780273438 1.9099506139755249023 2.3607769012451171875 2.0249774456024169922 2.2098467350006103516 2.0214283466339111328 1.9436954259872436523 1.8911119699478149414 2.4446327686309814453 2.2251970767974853516 2.0712993144989013672 2.3383510112762451172 1.8644566535949707031 2.4831383228302001953 2.3497042655944824219 1.9986110925674438477 2.12921142578125 2.2506914138793945313 1.9528546333312988281 2.4379267692565917969 2.4306511878967285156 2.1566908359527587891 2.2239797115325927734 2.5331475734710693359 2.2547161579132080078 2.3085811138153076172 2.1774811744689941406 2.2048516273498535156 2.5610079765319824219 2.5703182220458984375 2.5288596153259277344 2.4209918975830078125 2.1872310638427734375 2.1662061214447021484 2.0388803482055664063 2.4607534408569335938 2.4298887252807617188 2.7561349868774414063 2.7483654022216796875 2.9953625202178955078 3.3166368007659912109 3.1623520851135253906 2.8524169921875 3.1702933311462402344 
3.6951785087585449219 2.2283473014831542969 3.4669039249420166016 2.2792994976043701172 3.6493880748748779297 5.0473923683166503906 3.4669039249420166016 2.2013862133026123047 2.6414442062377929688 2.3119082450866699219 3.2965180873870849609 3.2965180873870849609 4.6208863258361816406 2.0399518013000488281 2.6414442062377929688 2.6419634819030761719 2.6419634819030761719 2.4568207263946533203 1.9273805618286132813 2.1963441371917724609 2.2829401493072509766 2.3854770660400390625 2.5290341377258300781 3.1858325004577636719 2.2718164920806884766 2.0254812240600585938 3.6951785087585449219 2.6967334747314453125 3.4669039249420166016 2.8220388889312744141 2.986942291259765625 2.9318671226501464844 3.4669039249420166016 2.3587160110473632813 2.3599410057067871094 3.2965180873870849609 2.4000678062438964844 2.2129473686218261719 2.2731909751892089844 2.3538362979888916016 2.6700029373168945313 2.3896353244781494141 2.0988276004791259766 2.3617382049560546875 2.1886804103851318359 2.0869882106781005859 2.5294661521911621094 2.6280877590179443359 2.4388988018035888672 2.4925532341003417969 2.4939532279968261719 2.2793099880218505859 2.3829975128173828125 2.4261188507080078125 2.5824222564697265625 2.9403846263885498047 2.5556561946868896484 2.4323089122772216797 2.3969986438751220703 2.7921576499938964844 2.5673508644104003906 2.7048516273498535156 2.5354113578796386719 2.5779089927673339844 3.1732287406921386719 2.7666988372802734375 3.0461509227752685547 3.0324425697326660156 3.0046687126159667969 3.3631191253662109375 3.1593379974365234375 3.2162828445434570313 3.3477680683135986328 3.0417675971984863281 2.8092100620269775391 9.3858079910278320313 2.4835882186889648438 2.2215573787689208984 2.9607706069946289063 2.5769240856170654297 2.7559924125671386719 2.5833055973052978516 2.6694786548614501953 2.1873261928558349609 2.5009875297546386719 1.9501510858535766602 1.7968207597732543945 2.1022541522979736328 1.9362996816635131836 2.4797732830047607422 2.0272371768951416016 2.7005875110626220703 2.4934148788452148438 2.6217050552368164063 2.426177978515625 2.5403072834014892578 2.5911533832550048828 2.4449970722198486328 2.5358145236968994141 2.3856728076934814453 2.3796904087066650391 1.9463534355163574219 2.4445333480834960938 2.2552227973937988281 2.0715465545654296875 2.2661600112915039063 2.2623465061187744141 2.3036818504333496094 2.1492974758148193359 2.6717801094055175781 2.40911102294921875 2.5725777149200439453 2.3091413974761962891 2.0519857406616210938 2.2624475955963134766 2.3429636955261230469 2.3837616443634033203 2.4600026607513427734 2.3790433406829833984 2.2047905921936035156 2.1633386611938476563 2.2030653953552246094 2.1761615276336669922 1.9141514301300048828 1.9537812471389770508 2.1949207782745361328 2.2848353385925292969 2.3558781147003173828 2.0948145389556884766 2.2171602249145507813 2.1985492706298828125 2.2741761207580566406 2.4153966903686523438 2.1916043758392333984 2.5747830867767333984 2.0663082599639892578 2.1203677654266357422 2.1177999973297119141 1.9712737798690795898 2.3197751045227050781 2.0492596626281738281 2.3344237804412841797 2.4058318138122558594 1.9498813152313232422 2.3439011573791503906 2.3894140720367431641 2.0655016899108886719 2.2339618206024169922 2.3318591117858886719 2.4936361312866210938 2.5659515857696533203 2.1175470352172851563 2.2830717563629150391 1.8051292896270751953 2.1513102054595947266 1.84436798095703125 2.5179781913757324219 2.5171616077423095703 2.4975819587707519531 2.1089255809783935547 2.106647491455078125 2.1901729106903076172 2.2643694877624511719 2.0065362453460693359 2.3379528522491455078 2.0348367691040039063 2.6182882785797119141 1.9875409603118896484 2.0868844985961914063 2.3852427005767822266 2.3434417247772216797 1.9273805618286132813 2.0881443023681640625 2.2466363906860351563 2.0856993198394775391 2.4568207263946533203 2.6419634819030761719 1.9604609012603759766 2.5349152088165283203 2.3192720413208007813 2.1961848735809326172 2.3354864120483398438 2.1885972023010253906 2.1872491836547851563 2.2453584671020507813 2.0081548690795898438 1.9999802112579345703 2.2023901939392089844 2.0282938480377197266 2.4560902118682861328 2.2711584568023681641 2.3685643672943115234 2.4813764095306396484 2.2859022617340087891 2.6250681877136230469 3.0307271480560302734 3.0970306396484375 3.2066364288330078125 2.7386062145233154297 3.3019490242004394531 
3.8335995674133300781 4.6883144378662109375 2.1631114482879638672 2.0662896633148193359 2.2718164920806884766 3.2965180873870849609 2.427036285400390625 2.0689942836761474609 4.26065826416015625 3.6493880748748779297 2.4051313400268554688 2.1392927169799804688 2.4517114162445068359 2.1395399570465087891 1.9688788652420043945 2.3474321365356445313 2.3439791202545166016 4.1445622444152832031 2.1754376888275146484 2.0507740974426269531 2.2132129669189453125 2.0275974273681640625 2.1476197242736816406 2.1750612258911132813 2.2361333370208740234 1.9907716512680053711 4.6507844924926757813 2.3390204906463623047 2.3157980442047119141 3.2429821491241455078 3.2965180873870849609 3.4669039249420166016 2.7490241527557373047 2.4727737903594970703 3.4669039249420166016 2.9318671226501464844 2.7096140384674072266 3.4669039249420166016 2.3848674297332763672 2.4411988258361816406 2.2919738292694091797 2.0254347324371337891 2.5530266761779785156 2.0540375709533691406 2.3769567012786865234 2.2987091541290283203 2.5116586685180664063 2.3707578182220458984 2.34064483642578125 2.7165122032165527344 2.4053297042846679688 2.6476397514343261719 2.6911909580230712891 2.4616878032684326172 2.5884556770324707031 2.6270749568939208984 2.8328006267547607422 2.7774758338928222656 2.6779427528381347656 2.3571214675903320313 3.1048913002014160156 3.0903675556182861328 2.9099628925323486328 2.76593017578125 3.1201145648956298828 3.416736602783203125 3.0598616600036621094 2.9655640125274658203 3.0018708705902099609 3.3716425895690917969 3.3933184146881103516 3.3054940700531005859 3.1554853916168212891 3.0450701713562011719 2.7790954113006591797 2.4950575828552246094 2.6183845996856689453 2.5531909465789794922 2.5028893947601318359 2.8191242218017578125 2.6224884986877441406 2.7880733013153076172 2.8221077919006347656 2.4291250705718994141 2.0663123130798339844 1.8084659576416015625 2.0867037773132324219 1.841139674186706543 2.3141629695892333984 1.8982553482055664063 2.4279541969299316406 2.9037911891937255859 2.8435034751892089844 2.8477494716644287109 3.1263527870178222656 2.8127744197845458984 2.8464405536651611328 2.4598591327667236328 2.5107576847076416016 2.6439254283905029297 2.3724882602691650391 2.5446450710296630859 2.3690576553344726563 2.1745865345001220703 2.1229639053344726563 2.4264020919799804688 1.9421099424362182617 2.3010683059692382813 2.6995666027069091797 2.0375247001647949219 1.9707703590393066406 2.3793299198150634766 2.2797427177429199219 2.4653804302215576172 2.1642980575561523438 2.281108856201171875 2.3542151451110839844 2.2804787158966064453 2.5402472019195556641 1.9433025121688842773 2.2638833522796630859 2.2708444595336914063 1.9861158132553100586 2.3940732479095458984 2.5184030532836914063 2.3557572364807128906 2.0568130016326904297 2.2079229354858398438 2.2989931106567382813 2.3642110824584960938 2.0466532707214355469 1.8519241809844970703 2.3623888492584228516 2.3268043994903564453 1.932969212532043457 1.904824376106262207 2.0133180618286132813 2.0083711147308349609 2.0400371551513671875 2.2784605026245117188 2.2373116016387939453 2.2817876338958740234 2.3997912406921386719 2.44245147705078125 2.1647610664367675781 2.0439748764038085938 2.3259510993957519531 1.9811906814575195313 1.9858193397521972656 2.1758086681365966797 2.3151688575744628906 2.5525765419006347656 2.3379080295562744141 2.2487354278564453125 2.4007053375244140625 1.8544089794158935547 2.3192527294158935547 2.1920056343078613281 1.9056364297866821289 2.3162341117858886719 2.0944688320159912109 2.1810805797576904297 1.8567489385604858398 2.0404608249664306641 2.1416306495666503906 2.4050889015197753906 2.4774506092071533203 2.4073550701141357422 2.6661272048950195313 1.9290460348129272461 2.2127213478088378906 2.1442258358001708984 2.1152036190032958984 1.8808574676513671875 2.1971042156219482422 2.3015871047973632813 2.3490302562713623047 2.1540546417236328125 2.3705646991729736328 2.2995135784149169922 1.9425061941146850586 2.2757947444915771484 2.2691259384155273438 1.8180631399154663086 2.5404267311096191406 2.157878875732421875 2.3898971080780029297 1.7977817058563232422 2.3184695243835449219 2.0928452014923095703 2.3475308418273925781 2.1902976036071777344 2.4203717708587646484 2.8257825374603271484 2.5453088283538818359 2.9418015480041503906 3.1520266532897949219 3.07788848876953125 3.2825505733489990234 3.5058000087738037109 
2.2170252799987792969 2.4945518970489501953 2.8220388889312744141 2.2742378711700439453 2.2129473686218261719 2.1790926456451416016 2.2169106006622314453 2.5418679714202880859 2.3341934680938720703 2.8871884346008300781 3.8335995674133300781 4.1048259735107421875 2.3173880577087402344 2.4411988258361816406 2.1419155597686767578 3.4669039249420166016 2.9318671226501464844 2.986942291259765625 2.3238720893859863281 2.3371791839599609375 2.1853187084197998047 2.4579534530639648438 2.2644441127777099609 2.4379663467407226563 2.2491080760955810547 2.3916108608245849609 2.5806789398193359375 2.1922664642333984375 3.2429821491241455078 2.2283473014831542969 2.7390532493591308594 2.6483204364776611328 2.4604799747467041016 2.2598419189453125 2.0686709880828857422 2.8220388889312744141 2.2718164920806884766 3.6951785087585449219 2.6088836193084716797 2.7331960201263427734 2.8938577175140380859 2.5914463996887207031 2.5584177970886230469 2.2931127548217773438 2.4493401050567626953 2.3363649845123291016 2.3611612319946289063 2.3993623256683349609 2.2452156543731689453 2.3374357223510742188 2.6803288459777832031 2.7943308353424072266 2.5849421024322509766 2.7023313045501708984 2.7261219024658203125 2.9159975051879882813 3.3152022361755371094 2.9675934314727783203 2.7617931365966796875 2.8743684291839599609 3.0048744678497314453 2.9227476119995117188 3.2384727001190185547 3.3462617397308349609 3.1324744224548339844 3.2635474205017089844 3.5992410182952880859 3.2484223842620849609 3.2130990028381347656 3.3502206802368164063 3.2088398933410644531 2.7765142917633056641 2.8788831233978271484 2.9293968677520751953 9.1997509002685546875 2.1703019142150878906 2.5371935367584228516 2.5748732089996337891 2.550128936767578125 2.5425162315368652344 2.7377955913543701172 2.8111946582794189453 2.8377115726470947266 2.4572770595550537109 2.4616453647613525391 1.7428725957870483398 2.6478524208068847656 2.270969390869140625 2.3014087677001953125 2.1818392276763916016 2.5340178012847900391 3.1866221427917480469 3.1234693527221679688 3.0879328250885009766 3.4482676982879638672 2.7190034389495849609 2.5731523036956787109 2.1809649467468261719 2.4214291572570800781 2.6014723777770996094 2.3219447135925292969 2.4392256736755371094 2.1624114513397216797 2.2685706615447998047 2.6544604301452636719 2.4542496204376220703 2.3503072261810302734 2.2959032058715820313 2.5114881992340087891 2.1651642322540283203 2.2957527637481689453 1.9419919252395629883 2.396732330322265625 2.2200472354888916016 2.4374842643737792969 2.6465115547180175781 2.2082953453063964844 2.2354357242584228516 2.3355424404144287109 2.3960068225860595703 2.2137343883514404297 1.9929877519607543945 2.15537261962890625 2.3210139274597167969 2.0648751258850097656 2.1909906864166259766 2.1392576694488525391 1.9890419244766235352 2.2192080020904541016 2.1200172901153564453 2.2737824916839599609 2.4117245674133300781 2.3860142230987548828 2.2687587738037109375 2.4040215015411376953 2.0040757656097412109 2.0485301017761230469 2.1244459152221679688 1.9616024494171142578 2.181392669677734375 1.9483559131622314453 2.2277421951293945313 2.6079652309417724609 2.1740283966064453125 2.3466339111328125 2.4203107357025146484 2.189144134521484375 2.3064050674438476563 2.5696909427642822266 2.3087258338928222656 2.3211634159088134766 2.2878081798553466797 1.9220452308654785156 2.3789210319519042969 2.1740174293518066406 2.5345950126647949219 2.0931274890899658203 2.2671616077423095703 2.3999164104461669922 2.5493063926696777344 2.0465991497039794922 2.5341064929962158203 2.1403543949127197266 2.2079138755798339844 2.2598199844360351563 2.6419634819030761719 2.3114202022552490234 2.3188555240631103516 2.2759938240051269531 2.0168247222900390625 2.2224419116973876953 1.9273805618286132813 2.3749425411224365234 2.1543567180633544922 2.1672022342681884766 2.5899763107299804688 2.3022563457489013672 1.8584754467010498047 2.1576588153839111328 2.2998888492584228516 2.3391115665435791016 2.1217327117919921875 2.2029364109039306641 2.0339725017547607422 2.1945936679840087891 2.2693753242492675781 2.3047831058502197266 2.2503511905670166016 1.8765115737915039063 2.21262359619140625 2.1306684017181396484 2.1754846572875976563 1.7904746532440185547 2.6255662441253662109 2.7180294990539550781 3.0110936164855957031 2.7752559185028076172 2.8053553104400634766 3.3500247001647949219 3.6143708229064941406 
2.2129473686218261719 4.1445622444152832031 3.2429821491241455078 2.2723484039306640625 2.2790665626525878906 2.4686644077301025391 1.9619773626327514648 2.2580094337463378906 2.4845762252807617188 2.0708191394805908203 1.9273805618286132813 3.6493880748748779297 3.4669039249420166016 2.4904184341430664063 2.4960818290710449219 4.62298583984375 4.5609211921691894531 3.4669039249420166016 2.3490581512451171875 2.5450005531311035156 2.6419634819030761719 2.3631970882415771484 2.1608898639678955078 2.8220388889312744141 2.2407896518707275391 1.8730024099349975586 2.2092168331146240234 2.4069006443023681641 3.4669039249420166016 5.0473923683166503906 4.26065826416015625 2.2629044055938720703 2.2518298625946044922 2.1429891586303710938 2.2171950340270996094 2.4143118858337402344 2.2078993320465087891 3.2965180873870849609 3.7028245925903320313 2.3287572860717773438 2.6419634819030761719 2.4338755607604980469 2.7648115158081054688 2.6283087730407714844 2.6098275184631347656 2.7824835777282714844 2.546016693115234375 2.6351799964904785156 2.3460409641265869141 2.3402101993560791016 2.8169076442718505859 2.7495927810668945313 2.7585582733154296875 2.7624537944793701172 3.3143463134765625 3.5265095233917236328 3.4610304832458496094 3.0963840484619140625 2.6896786689758300781 2.7468929290771484375 3.0279340744018554688 3.03028106689453125 2.8983271121978759766 3.2225356101989746094 3.3538756370544433594 3.3369662761688232422 3.3704788684844970703 9.9692602157592773438 3.5502719879150390625 3.1603152751922607422 2.7814412117004394531 9.4715118408203125 2.5477969646453857422 2.9379589557647705078 2.9853215217590332031 2.7924942970275878906 2.5760872364044189453 2.7136616706848144531 2.5623762607574462891 2.6005280017852783203 2.7882993221282958984 2.6624402999877929688 2.5836036205291748047 2.5691647529602050781 2.4839680194854736328 2.5080091953277587891 2.2821667194366455078 2.2090716361999511719 2.3500232696533203125 2.4779298305511474609 2.6239435672760009766 3.4656064510345458984 3.1519925594329833984 2.7436168193817138672 3.0668385028839111328 2.9627561569213867188 2.7963809967041015625 2.5251948833465576172 2.7797873020172119141 2.4074995517730712891 2.2463443279266357422 2.4591641426086425781 2.4576938152313232422 2.2818551063537597656 2.1577787399291992188 2.2162976264953613281 2.0452933311462402344 2.3250908851623535156 2.4220366477966308594 1.7999804019927978516 2.5114586353302001953 2.5162093639373779297 2.0909574031829833984 1.9556722640991210938 2.52924346923828125 2.4236540794372558594 2.3168935775756835938 2.3148636817932128906 2.2560563087463378906 2.1852908134460449219 2.4360511302947998047 2.4909701347351074219 2.1478147506713867188 2.2653210163116455078 2.1433479785919189453 2.2912209033966064453 2.1489455699920654297 2.2010855674743652344 2.1509935855865478516 2.5633232593536376953 2.3777582645416259766 2.0717883110046386719 1.9530084133148193359 2.3801569938659667969 2.3336336612701416016 2.2794070243835449219 2.2425172328948974609 2.1088538169860839844 2.09169769287109375 2.2174737453460693359 2.1923248767852783203 1.8905246257781982422 2.4404976367950439453 2.3679015636444091797 2.3559055328369140625 2.1566908359527587891 2.2715625762939453125 2.1879756450653076172 2.3194508552551269531 2.3879587650299072266 2.5801260471343994141 2.5769033432006835938 2.3749203681945800781 2.0949561595916748047 2.3069319725036621094 2.2335505485534667969 2.1746423244476318359 1.9858967065811157227 1.8027291297912597656 2.5061953067779541016 2.372684478759765625 2.0267508029937744141 2.0727536678314208984 2.0253903865814208984 2.1199977397918701172 2.1402950286865234375 2.2443048954010009766 2.6419634819030761719 1.9630739688873291016 2.1947574615478515625 2.2671103477478027344 2.0520355701446533203 2.0622537136077880859 3.0927255153656005859 2.6419634819030761719 2.2320311069488525391 2.38890838623046875 2.1554532051086425781 2.5297398567199707031 2.4193387031555175781 2.4232234954833984375 2.5005941390991210938 2.0086071491241455078 2.4289329051971435547 2.1215167045593261719 2.1495728492736816406 2.3174974918365478516 1.9383647441864013672 1.9823682308197021484 2.2327642440795898438 2.478305816650390625 2.3989958763122558594 2.4308218955993652344 2.1227631568908691406 2.349178314208984375 2.9900186061859130859 2.7644784450531005859 2.5994472503662109375 2.6323802471160888672 3.2750840187072753906 
2.4949479103088378906 2.4548492431640625 2.2283473014831542969 5.0473923683166503906 2.7617046833038330078 2.2581379413604736328 2.3252253532409667969 2.8938577175140380859 2.4888923168182373047 2.0682115554809570313 2.6414442062377929688 2.6321346759796142578 3.6493880748748779297 2.5113129615783691406 2.16839599609375 2.986942291259765625 3.6951785087585449219 4.6208863258361816406 3.2965180873870849609 2.5116035938262939453 2.4129712581634521484 2.3407833576202392578 2.2955446243286132813 1.8294210433959960938 2.4436490535736083984 2.4989998340606689453 2.6618959903717041016 2.1865243911743164063 2.4493720531463623047 2.1493899822235107422 3.4669039249420166016 4.1445622444152832031 2.6419634819030761719 2.3545367717742919922 2.1034870147705078125 3.6815922260284423828 2.8220388889312744141 3.2429821491241455078 2.6820814609527587891 2.1448104381561279297 2.4568207263946533203 2.2016594409942626953 2.4033401012420654297 2.5749602317810058594 2.3625586032867431641 2.1739373207092285156 2.1718959808349609375 2.4867169857025146484 2.4176249504089355469 2.4848318099975585938 2.4891216754913330078 2.7197666168212890625 3.1023333072662353516 3.0031566619873046875 3.2608678340911865234 3.5088319778442382813 3.1053450107574462891 3.3004984855651855469 2.9978673458099365234 2.9557726383209228516 3.1258220672607421875 2.8369705677032470703 9.7302618026733398438 10.057140350341796875 3.3348948955535888672 3.2122240066528320313 10.3216094970703125 10.346954345703125 3.6388695240020751953 3.5334858894348144531 3.2269153594970703125 2.9206659793853759766 2.9398758411407470703 3.1141424179077148438 3.0727150440216064453 2.9003455638885498047 2.9181859493255615234 3.031711578369140625 9.3305454254150390625 2.6855890750885009766 2.9373986721038818359 2.8839213848114013672 2.5310342311859130859 2.5733470916748046875 2.6096241474151611328 2.5461864471435546875 2.3423750400543212891 2.5086486339569091797 2.5298614501953125 2.4460196495056152344 2.8301951885223388672 3.0097246170043945313 3.0566987991333007813 3.0671312808990478516 2.742069244384765625 2.8927028179168701172 2.7464244365692138672 2.6313714981079101563 2.2806997299194335938 2.2052664756774902344 2.4372501373291015625 1.8991153240203857422 2.5367097854614257813 2.0467309951782226563 2.5316407680511474609 2.4603648185729980469 2.4732332229614257813 2.1895308494567871094 2.3971712589263916016 1.9104822874069213867 2.4164006710052490234 2.4332587718963623047 2.3695330619812011719 2.413028717041015625 2.2786207199096679688 2.1822004318237304688 2.1015179157257080078 1.8955930471420288086 2.0679147243499755859 2.5335071086883544922 2.1491022109985351563 2.2044732570648193359 2.3306601047515869141 2.2003886699676513672 1.9684941768646240234 2.0733785629272460938 2.2752556800842285156 2.3672246932983398438 2.2356207370758056641 2.0809500217437744141 2.4204432964324951172 1.7719328403472900391 2.0329644680023193359 2.6824867725372314453 2.124492645263671875 2.318241119384765625 2.2786533832550048828 1.7047295570373535156 2.1855564117431640625 2.3619875907897949219 2.5577042102813720703 2.3807656764984130859 1.9755288362503051758 2.6220669746398925781 2.1142413616180419922 2.2784440517425537109 2.6011457443237304688 2.33313751220703125 2.5018072128295898438 2.2660470008850097656 2.22385406494140625 2.2505433559417724609 2.2326643466949462891 2.1550495624542236328 2.1791250705718994141 2.2165367603302001953 2.144992828369140625 2.5309805870056152344 2.0161390304565429688 1.9797637462615966797 2.0292601585388183594 2.2652828693389892578 2.5768742561340332031 2.4803140163421630859 2.6419634819030761719 2.6419634819030761719 1.9786320924758911133 2.6419634819030761719 2.8220388889312744141 2.5850124359130859375 2.3484888076782226563 2.2411580085754394531 2.3513197898864746094 2.18117523193359375 2.3208487033843994141 2.2140893936157226563 2.0125572681427001953 2.3409469127655029297 2.3760638236999511719 2.307239532470703125 2.3019442558288574219 2.0710992813110351563 2.4756574630737304688 2.1982748508453369141 2.5210397243499755859 2.3865170478820800781 2.3036670684814453125 2.1577625274658203125 2.3292038440704345703 2.1866612434387207031 2.3132271766662597656 2.4035379886627197266 2.4171125888824462891 2.6739413738250732422 2.5704302787780761719 2.9722259044647216797 2.6557981967926025391 2.6970031261444091797 2.9090316295623779297 3.405223846435546875 
2.3241984844207763672 2.8220388889312744141 2.5332059860229492188 3.8347759246826171875 2.355365753173828125 2.3587317466735839844 2.3852427005767822266 2.5622353553771972656 2.1699855327606201172 3.1011753082275390625 2.3190417289733886719 2.8871884346008300781 3.2429821491241455078 2.7406158447265625 2.3191709518432617188 4.26065826416015625 2.1670992374420166016 2.5554871559143066406 2.2786147594451904297 2.4736714363098144531 2.1711013317108154297 1.9591742753982543945 2.3852427005767822266 1.9595792293548583984 3.5284249782562255859 2.4586381912231445313 2.2734448909759521484 2.3262288570404052734 2.5914998054504394531 2.3051240444183349609 2.6159069538116455078 2.2321736812591552734 3.6493880748748779297 3.2965180873870849609 3.2965180873870849609 3.6815922260284423828 5.0473923683166503906 3.2429821491241455078 3.2429821491241455078 2.8220388889312744141 2.4707393646240234375 2.4568207263946533203 2.3071925640106201172 2.3572232723236083984 2.5255744457244873047 2.1646509170532226563 2.3232390880584716797 2.2232460975646972656 1.8831869363784790039 2.0110099315643310547 2.6246984004974365234 2.6733522415161132813 2.8948915004730224609 2.76251983642578125 9.6302633285522460938 3.1166961193084716797 3.1838426589965820313 2.804744720458984375 2.9415035247802734375 9.7550001144409179688 3.0751719474792480469 9.2202701568603515625 2.9101715087890625 9.6893672943115234375 3.0856192111968994141 3.041095733642578125 3.3657360076904296875 3.3879530429840087891 10.127993583679199219 3.3908910751342773438 9.8141031265258789063 9.9345493316650390625 9.6590185165405273438 2.8528492450714111328 9.3799428939819335938 2.8852300643920898438 2.7881710529327392578 2.8281867504119873047 2.6409273147583007813 2.7319343090057373047 2.8343398571014404297 2.8672983646392822266 2.8138556480407714844 2.5884585380554199219 2.7985620498657226563 2.5669195652008056641 2.2523031234741210938 2.1731622219085693359 2.5629880428314208984 2.2923512458801269531 2.7773869037628173828 2.7048907279968261719 2.8281276226043701172 2.8456268310546875 2.6013731956481933594 2.4294347763061523438 2.4405739307403564453 2.7945523262023925781 2.5602674484252929688 2.2441589832305908203 2.5963602066040039063 2.1487553119659423828 2.3244037628173828125 2.2800991535186767578 2.3476586341857910156 2.2267107963562011719 2.3963723182678222656 2.1108205318450927734 2.1326358318328857422 2.4374878406524658203 2.3228619098663330078 2.5398440361022949219 2.2957963943481445313 2.0679526329040527344 2.2882301807403564453 2.2361545562744140625 2.1608879566192626953 2.3015990257263183594 2.4607179164886474609 2.3937888145446777344 2.3464691638946533203 2.4363961219787597656 2.3295972347259521484 2.3266711235046386719 2.4583873748779296875 2.6295185089111328125 2.2476511001586914063 2.6225271224975585938 2.8275821208953857422 2.5182199478149414063 2.4025356769561767578 2.4301800727844238281 2.3940472602844238281 2.5355544090270996094 2.5405492782592773438 2.3306343555450439453 2.4055938720703125 2.3008658885955810547 2.2952234745025634766 1.9048711061477661133 2.3187394142150878906 2.4735774993896484375 2.1626224517822265625 2.636302947998046875 2.1663773059844970703 2.0124402046203613281 2.3186402320861816406 2.9027764797210693359 2.0992188453674316406 2.348674774169921875 2.2240777015686035156 2.2290680408477783203 2.1746039390563964844 2.2083942890167236328 2.1739509105682373047 2.404224395751953125 2.6883060932159423828 2.2439243793487548828 2.6419634819030761719 2.3587250709533691406 2.2136776447296142578 2.2308404445648193359 2.8220388889312744141 2.2529881000518798828 1.9273805618286132813 2.4411988258361816406 2.3469610214233398438 2.3104748725891113281 2.2985117435455322266 2.6419634819030761719 2.1996212005615234375 2.3251900672912597656 1.9800084829330444336 2.1307978630065917969 2.1620709896087646484 2.2779545783996582031 1.9343037605285644531 2.2144825458526611328 2.2692894935607910156 2.4021420478820800781 2.1374125480651855469 2.0060303211212158203 2.2437605857849121094 2.4275135993957519531 2.45941162109375 2.2352457046508789063 2.3441219329833984375 1.9936765432357788086 1.8827108144760131836 2.3279750347137451172 2.4122629165649414063 2.4623942375183105469 2.5014922618865966797 2.8085656166076660156 2.6325247287750244141 3.1432590484619140625 2.8764574527740478516 2.6835873126983642578 2.6733911037445068359 2.9739975929260253906 
2.2218842506408691406 4.26065826416015625 3.0927255153656005859 2.5916371345520019531 4.1445622444152832031 2.6414442062377929688 2.8220388889312744141 2.6419634819030761719 2.3459343910217285156 2.9183380603790283203 3.2747108936309814453 2.2129473686218261719 2.2203962802886962891 1.9961222410202026367 2.3515350818634033203 2.4645085334777832031 3.8335995674133300781 2.2849452495574951172 2.36873626708984375 3.4669039249420166016 2.0462248325347900391 1.963536381721496582 2.8297266960144042969 2.6419634819030761719 2.2630176544189453125 2.3046560287475585938 2.2574343681335449219 2.6419634819030761719 2.4568207263946533203 2.33821868896484375 2.4494395256042480469 2.2919604778289794922 2.35477447509765625 2.2713243961334228516 2.4421598911285400391 3.4669039249420166016 3.6951785087585449219 5.0473923683166503906 2.8220388889312744141 2.6820814609527587891 3.4669039249420166016 2.2305238246917724609 2.35085296630859375 2.0636398792266845703 2.3304812908172607422 2.4926416873931884766 2.5155460834503173828 2.3105182647705078125 2.1720385551452636719 2.5257446765899658203 2.6848325729370117188 2.5088770389556884766 2.8776972293853759766 9.3429861068725585938 2.8866608142852783203 2.6461648941040039063 2.8521907329559326172 3.2107231616973876953 2.998462677001953125 3.0568709373474121094 9.6941995620727539063 3.0744595527648925781 2.9816267490386962891 9.6951856613159179688 3.1447203159332275391 3.1587500572204589844 3.1993761062622070313 3.4726729393005371094 10.153187751770019531 3.1704626083374023438 9.9638261795043945313 9.67023468017578125 2.8721365928649902344 2.89287567138671875 9.3437643051147460938 2.7674705982208251953 2.7492773532867431641 9.3594074249267578125 2.9787077903747558594 3.0334534645080566406 2.7635099887847900391 2.6745495796203613281 2.9300210475921630859 2.9586455821990966797 2.6949357986450195313 2.7149875164031982422 2.3316376209259033203 2.2565488815307617188 2.5203659534454345703 2.2013270854949951172 2.4915995597839355469 2.6656730175018310547 2.5142984390258789063 2.3049633502960205078 2.6941671371459960938 2.7822480201721191406 2.6955399513244628906 2.4819428920745849609 2.3515324592590332031 2.6467702388763427734 2.5147552490234375 2.2826247215270996094 2.1677417755126953125 2.2471406459808349609 2.2842540740966796875 2.3386814594268798828 2.1543850898742675781 2.196956634521484375 2.2962653636932373047 2.4343373775482177734 2.3066728115081787109 2.3846361637115478516 2.4272334575653076172 2.4996423721313476563 2.3360877037048339844 2.3225262165069580078 2.1874997615814208984 2.3997056484222412109 2.2812287807464599609 2.4901831150054931641 2.2324049472808837891 2.5274913311004638672 2.2530255317687988281 2.3762209415435791016 2.1948518753051757813 2.0115232467651367188 2.3013360500335693359 2.1673235893249511719 2.3616085052490234375 2.0268054008483886719 2.1935260295867919922 1.9000304937362670898 2.2691845893859863281 2.24021148681640625 2.2943964004516601563 2.3642716407775878906 2.0309426784515380859 1.9841120243072509766 2.3656544685363769531 1.9550127983093261719 2.3737177848815917969 2.3022096157073974609 2.2350361347198486328 2.5412924289703369141 2.4720916748046875 2.4209287166595458984 2.200103759765625 2.5197305679321289063 2.3128876686096191406 2.0356090068817138672 2.5583937168121337891 2.1957144737243652344 1.9815808534622192383 2.2591228485107421875 2.3773221969604492188 2.3771457672119140625 2.0600397586822509766 2.1571667194366455078 2.676483154296875 1.9148846864700317383 2.3778810501098632813 2.8938577175140380859 2.8220388889312744141 2.986942291259765625 2.3395338058471679688 2.1326997280120849609 3.2110114097595214844 2.0982866287231445313 2.4431743621826171875 2.1468408107757568359 2.5287764072418212891 2.4572117328643798828 2.1677947044372558594 2.0990939140319824219 2.4411988258361816406 2.3411629199981689453 2.4390492439270019531 1.9382632970809936523 2.2575654983520507813 2.1155767440795898438 2.3646199703216552734 2.1438641548156738281 2.459186553955078125 2.3186364173889160156 2.4669134616851806641 2.2849817276000976563 2.4636125564575195313 2.5120210647583007813 2.2867286205291748047 1.9598817825317382813 2.2472841739654541016 2.3620977401733398438 2.219753265380859375 2.5557434558868408203 2.6018097400665283203 3.1758840084075927734 3.2218251228332519531 3.166019439697265625 2.5894162654876708984 2.7068090438842773438 
2.6414442062377929688 3.8335995674133300781 2.3233964443206787109 3.4669039249420166016 2.8220388889312744141 2.3227722644805908203 2.3567180633544921875 2.3055682182312011719 2.2279293537139892578 2.1419436931610107422 2.4068105220794677734 2.8430445194244384766 2.3509409427642822266 2.6767878532409667969 2.3064684867858886719 2.5229628086090087891 2.3927083015441894531 2.3335535526275634766 2.0592193603515625 2.6031577587127685547 2.8080294132232666016 2.0956602096557617188 2.4467229843139648438 2.7025692462921142578 2.1492404937744140625 2.5931854248046875 2.4211971759796142578 1.9417169094085693359 2.5429253578186035156 2.7215726375579833984 2.3918929100036621094 3.4669039249420166016 3.0927255153656005859 2.3803927898406982422 2.5707468986511230469 2.986942291259765625 2.8621454238891601563 2.6414442062377929688 2.4323675632476806641 2.2160162925720214844 2.1200976371765136719 2.6310472488403320313 2.3524978160858154297 2.2657310962677001953 2.4372963905334472656 2.3545207977294921875 2.6393556594848632813 2.4262018203735351563 2.4880301952362060547 2.3027067184448242188 2.2509722709655761719 2.6496007442474365234 2.6539139747619628906 2.5547757148742675781 3.0567307472229003906 2.9574537277221679688 2.9379649162292480469 9.7370996475219726563 3.1684737205505371094 3.5377750396728515625 10.023917198181152344 3.0874216556549072266 3.1161668300628662109 9.7170896530151367188 3.2896473407745361328 3.0097348690032958984 3.5109055042266845703 3.648746490478515625 3.1925718784332275391 3.2950119972229003906 3.2678542137145996094 3.1484544277191162109 9.445964813232421875 9.3260374069213867188 2.6309249401092529297 2.8119313716888427734 2.9263172149658203125 2.6550352573394775391 2.6069188117980957031 2.516742706298828125 3.0190722942352294922 2.8709924221038818359 9.5956773757934570313 9.6287860870361328125 2.8518924713134765625 2.5452702045440673828 2.2136690616607666016 2.7469997406005859375 2.2214531898498535156 2.8131091594696044922 2.566646575927734375 2.2940320968627929688 2.7035839557647705078 2.2930817604064941406 2.6171517372131347656 2.7798771858215332031 2.7750513553619384766 2.8633999824523925781 2.5848729610443115234 2.6434040069580078125 2.4067575931549072266 2.2888381481170654297 2.5322082042694091797 2.2475337982177734375 2.1160318851470947266 2.0459308624267578125 2.1664583683013916016 1.8178331851959228516 2.180599212646484375 2.5145447254180908203 2.3140943050384521484 2.4835164546966552734 2.4324662685394287109 2.2603104114532470703 2.0096805095672607422 2.2219712734222412109 2.1932759284973144531 2.2416632175445556641 2.3523876667022705078 2.1441650390625 2.3151605129241943359 2.3992590904235839844 2.3962986469268798828 8.9384593963623046875 8.9670782089233398438 2.4463417530059814453 2.2701368331909179688 2.1508059501647949219 2.3143863677978515625 2.5506327152252197266 2.2746813297271728516 8.7719049453735351563 2.5237696170806884766 2.1359860897064208984 2.3416936397552490234 2.1220347881317138672 2.5356855392456054688 2.4841656684875488281 2.3886809349060058594 2.1579992771148681641 2.1197016239166259766 2.5514850616455078125 2.5694634914398193359 2.6167895793914794922 2.4620964527130126953 2.1885957717895507813 2.1210329532623291016 2.5043377876281738281 2.1621859073638916016 2.4141583442687988281 2.3370761871337890625 2.2608382701873779297 2.5495240688323974609 2.2332727909088134766 2.6110548973083496094 2.3539278507232666016 2.0058653354644775391 2.3034808635711669922 2.1091351509094238281 2.5385003089904785156 2.2849068641662597656 2.4354250431060791016 2.1310799121856689453 2.0606312751770019531 2.4809648990631103516 2.5172393321990966797 2.1654043197631835938 2.1354577541351318359 3.4669039249420166016 2.1781611442565917969 2.0228755474090576172 2.42681121826171875 2.4511270523071289063 2.2962255477905273438 2.3137502670288085938 2.2140893936157226563 2.2119290828704833984 2.2294087409973144531 2.2794528007507324219 2.256988525390625 1.9467000961303710938 2.3097405433654785156 2.3443419933319091797 2.4997446537017822266 2.5074930191040039063 2.3901093006134033203 2.3027887344360351563 2.4648778438568115234 2.5465695858001708984 2.5697228908538818359 2.2556128501892089844 2.3103013038635253906 2.38094329833984375 2.8417212963104248047 2.9607527256011962891 3.2152926921844482422 3.2665619850158691406 3.1938416957855224609 2.9746117591857910156 2.7493391036987304688 
2.2601344585418701172 2.3239009380340576172 2.4346385002136230469 2.6414442062377929688 2.6820814609527587891 2.8871884346008300781 2.6065802574157714844 2.430240631103515625 2.2615556716918945313 2.2103261947631835938 2.4712939262390136719 2.2302300930023193359 2.4338090419769287109 3.4669039249420166016 3.0927255153656005859 2.1841759681701660156 2.3723492622375488281 2.4158451557159423828 2.3024115562438964844 2.5211646556854248047 2.6831772327423095703 2.3333799839019775391 2.4351747035980224609 2.8938577175140380859 1.9273805618286132813 2.3076422214508056641 2.1500389575958251953 2.4568207263946533203 2.2248046398162841797 2.7402157783508300781 2.3506386280059814453 3.4669039249420166016 4.1445622444152832031 2.1289844512939453125 2.3208363056182861328 5.0473923683166503906 2.9318671226501464844 3.8335995674133300781 2.8220388889312744141 2.6419634819030761719 2.23036956787109375 2.5709230899810791016 2.4001450538635253906 2.5378496646881103516 2.8834903240203857422 2.3663074970245361328 2.3773100376129150391 2.0134539604187011719 2.2689464092254638672 2.2413272857666015625 2.5909471511840820313 2.240772247314453125 2.5041022300720214844 2.7320821285247802734 2.8022420406341552734 3.1460072994232177734 2.943294525146484375 3.1389663219451904297 2.9737267494201660156 3.1815102100372314453 3.0622525215148925781 2.7341241836547851563 3.0754618644714355469 2.77256011962890625 2.9318983554840087891 9.7105846405029296875 3.4864993095397949219 10.453394889831542969 3.5749218463897705078 3.3453619480133056641 3.1370801925659179688 2.9864544868469238281 3.1302537918090820313 9.4317235946655273438 2.8927636146545410156 2.8268036842346191406 2.9487321376800537109 2.5784821510314941406 2.5811486244201660156 9.4501705169677734375 2.9172570705413818359 2.6635384559631347656 2.6898753643035888672 2.7792236804962158203 9.1793413162231445313 2.7992603778839111328 2.5615308284759521484 2.1192891597747802734 2.5272736549377441406 2.6463496685028076172 2.7274706363677978516 2.6063113212585449219 2.4300162792205810547 2.5960438251495361328 2.6866617202758789063 2.7745687961578369141 2.6164841651916503906 2.6344518661499023438 2.7510302066802978516 2.4804503917694091797 2.2096383571624755859 2.3411068916320800781 2.2318272590637207031 2.2268106937408447266 2.010898590087890625 2.3572092056274414063 2.6097216606140136719 2.2872374057769775391 2.3317136764526367188 2.2695374488830566406 2.3255617618560791016 2.1798481941223144531 2.5483186244964599609 2.5281527042388916016 2.1406874656677246094 2.3647866249084472656 2.4547040462493896484 2.3438012599945068359 2.3751845359802246094 2.2992253303527832031 2.3504180908203125 2.5681898593902587891 9.2035961151123046875 8.7636213302612304688 2.2830069065093994141 2.52886199951171875 2.6502735614776611328 2.4489388465881347656 2.29892730712890625 2.1578872203826904297 8.8640394210815429688 9.0752153396606445313 8.7004985809326171875 8.7334165573120117188 2.3404870033264160156 1.9530041217803955078 2.1286952495574951172 2.1775989532470703125 9.2335004806518554688 2.5110485553741455078 2.396686553955078125 2.2243685722351074219 2.2212345600128173828 2.4603679180145263672 2.1553812026977539063 2.35341644287109375 2.3150408267974853516 2.3559117317199707031 2.4870316982269287109 2.0678198337554931641 2.2075612545013427734 2.2101883888244628906 2.3965690135955810547 2.3003127574920654297 2.5341353416442871094 2.1342782974243164063 2.1163768768310546875 2.2481997013092041016 2.1070613861083984375 2.0896003246307373047 2.8938577175140380859 2.4188485145568847656 2.6414442062377929688 3.7983632087707519531 2.2718164920806884766 2.1496253013610839844 2.1935334205627441406 2.2455871105194091797 2.986942291259765625 2.3129332065582275391 2.2402491569519042969 2.3048644065856933594 2.4489650726318359375 2.3648464679718017578 2.5638239383697509766 2.2109782695770263672 2.3958151340484619141 2.2406575679779052734 2.3013341426849365234 2.3268151283264160156 2.1920697689056396484 2.4468441009521484375 2.4621536731719970703 2.2193892002105712891 2.3277268409729003906 2.6762955188751220703 2.4738838672637939453 2.5091335773468017578 2.6612753868103027344 2.2127008438110351563 2.3669748306274414063 2.1852791309356689453 2.6365780830383300781 2.9352266788482666016 2.6807537078857421875 3.0967371463775634766 3.0764040946960449219 2.7769386768341064453 2.8220388889312744141 3.0624644756317138672 
2.1892757415771484375 2.5413651466369628906 2.4920983314514160156 2.2129473686218261719 2.2129473686218261719 2.1925065517425537109 2.9745817184448242188 2.1407606601715087891 2.4883933067321777344 2.3177049160003662109 2.2032196521759033203 2.4805324077606201172 2.6419634819030761719 2.3103754520416259766 2.1486487388610839844 2.1800570487976074219 2.5196866989135742188 2.0558874607086181641 2.02215576171875 2.2736337184906005859 2.9745817184448242188 2.2758045196533203125 2.7784466743469238281 2.3366503715515136719 2.2948551177978515625 1.9387823343276977539 2.0552418231964111328 2.3032274246215820313 3.2395925521850585938 2.2199122905731201172 2.5709030628204345703 2.3436429500579833984 2.4434750080108642578 2.0125586986541748047 2.6419634819030761719 1.9487775564193725586 2.4304664134979248047 2.2760624885559082031 2.1623082160949707031 2.1588010787963867188 2.6928918361663818359 2.1605987548828125 2.3358852863311767578 2.6863086223602294922 2.3795092105865478516 2.2075135707855224609 2.7572278976440429688 2.3172290325164794922 2.2911899089813232422 2.0885968208312988281 2.3452200889587402344 2.6418371200561523438 2.53501129150390625 2.8215696811676025391 2.8978810310363769531 2.7481522560119628906 2.7640161514282226563 2.3842303752899169922 2.9205162525177001953 2.8281013965606689453 2.6079435348510742188 2.6426665782928466797 2.6332745552062988281 2.6948132514953613281 2.6971323490142822266 2.7877557277679443359 3.1063258647918701172 3.2480626106262207031 3.2489962577819824219 3.2672896385192871094 3.1451942920684814453 2.9233829975128173828 2.95957183837890625 9.4291048049926757813 9.68877410888671875 2.8578770160675048828 3.0520899295806884766 2.6292757987976074219 9.5081424713134765625 2.9140460491180419922 2.9272911548614501953 2.9415309429168701172 2.6242756843566894531 2.7655405998229980469 2.6687798500061035156 2.8432207107543945313 2.7928261756896972656 2.6885552406311035156 2.5565700531005859375 2.6632120609283447266 2.3667733669281005859 2.1171281337738037109 2.7880463600158691406 2.6385910511016845703 2.6362297534942626953 2.73458099365234375 2.3861715793609619141 2.5310137271881103516 2.5222864151000976563 2.2414286136627197266 2.3538570404052734375 2.3996899127960205078 2.4742510318756103516 2.2487046718597412109 2.6340219974517822266 2.1230072975158691406 2.5258383750915527344 2.5063803195953369141 2.8774476051330566406 2.4657723903656005859 2.3871510028839111328 2.6818463802337646484 2.5070416927337646484 2.2350902557373046875 2.2579388618469238281 2.4857921600341796875 2.3855886459350585938 2.1860811710357666016 2.1457090377807617188 2.2672402858734130859 2.0927028656005859375 2.2038099765777587891 2.3018116950988769531 9.06656646728515625 9.0683307647705078125 2.6361305713653564453 2.7051565647125244141 2.6821575164794921875 2.6198318004608154297 1.9672963619232177734 2.3886029720306396484 9.112823486328125 9.1114034652709960938 2.4739143848419189453 2.3817150592803955078 2.2862162590026855469 2.2204756736755371094 2.4996469020843505859 2.0828528404235839844 2.5089221000671386719 2.2485105991363525391 2.0868468284606933594 2.4868984222412109375 2.3657944202423095703 2.1302642822265625 2.2492465972900390625 2.2257559299468994141 2.2951276302337646484 2.1042492389678955078 2.43572235107421875 2.3694367408752441406 2.2307593822479248047 2.5565581321716308594 2.3832600116729736328 2.33343505859375 2.4905056953430175781 2.8416056632995605469 2.2625715732574462891 2.5809304714202880859 2.2814602851867675781 2.1445925235748291016 2.3055424690246582031 2.3347485065460205078 2.7244963645935058594 2.8430445194244384766 2.5337398052215576172 2.6424164772033691406 2.6419634819030761719 2.4851365089416503906 2.2105960845947265625 2.2424788475036621094 2.0191659927368164063 2.4481835365295410156 2.5290341377258300781 2.4772143363952636719 2.0796573162078857422 2.355175018310546875 2.4367079734802246094 2.1745531558990478516 2.6347091197967529297 2.3940050601959228516 2.6314198970794677734 2.174770355224609375 2.2471992969512939453 2.161190032958984375 2.6349928379058837891 2.5721259117126464844 2.5340602397918701172 2.4304928779602050781 2.2651622295379638672 2.3084950447082519531 2.5133726596832275391 2.2417094707489013672 2.646518707275390625 2.6419634819030761719 2.363269805908203125 2.8384478092193603516 2.8891932964324951172 3.0936627388000488281 3.0148866176605224609 
2.5656917095184326172 2.4940695762634277344 2.2035071849822998047 2.2611176967620849609 2.2999207973480224609 2.5889787673950195313 2.2587552070617675781 2.3382766246795654297 2.2802677154541015625 2.3857161998748779297 2.2162101268768310547 2.0692286491394042969 2.7097351551055908203 2.5467076301574707031 2.2129473686218261719 2.3441383838653564453 2.8938577175140380859 2.2845311164855957031 2.1384940147399902344 2.4487791061401367188 2.5781476497650146484 2.3722019195556640625 2.4411988258361816406 2.5617439746856689453 2.3071453571319580078 2.3818366527557373047 2.4281423091888427734 2.3480224609375 2.3338408470153808594 2.650882720947265625 2.6396901607513427734 2.1518337726593017578 2.3479514122009277344 2.2071285247802734375 2.2068407535552978516 2.3717129230499267578 2.4453094005584716797 2.6055140495300292969 2.4507012367248535156 2.3169476985931396484 2.37725067138671875 2.1105809211730957031 2.3384253978729248047 2.2562305927276611328 2.4832303524017333984 2.3742036819458007813 2.4435567855834960938 2.3129868507385253906 2.17253875732421875 2.4796521663665771484 2.2177062034606933594 2.2088294029235839844 2.6645903587341308594 2.5602540969848632813 2.6609039306640625 2.7936372756958007813 2.1719644069671630859 2.7025396823883056641 2.3480467796325683594 2.4878816604614257813 2.4994127750396728516 2.5861403942108154297 2.5376262664794921875 2.2622001171112060547 2.2332653999328613281 2.1697001457214355469 2.7498621940612792969 2.6822822093963623047 3.0431165695190429688 3.1328601837158203125 3.0578277111053466797 2.8804519176483154297 2.6814701557159423828 2.5546007156372070313 2.8055884838104248047 9.4949588775634765625 2.9145820140838623047 2.81658935546875 2.7631094455718994141 2.5433933734893798828 2.5806670188903808594 2.4923810958862304688 2.5753881931304931641 2.6558911800384521484 9.25113677978515625 2.8314969539642333984 2.7014248371124267578 2.6818971633911132813 2.4541056156158447266 2.9248497486114501953 2.822002410888671875 2.3370139598846435547 2.6247112751007080078 2.6665956974029541016 2.7403981685638427734 2.5591349601745605469 2.4762449264526367188 2.6072223186492919922 2.2083587646484375 1.9974620342254638672 2.4909157752990722656 2.2816336154937744141 2.2918012142181396484 2.575115203857421875 2.4485783576965332031 2.3978068828582763672 2.4852862358093261719 2.3209552764892578125 2.4123575687408447266 2.2833464145660400391 2.3368937969207763672 2.5933959484100341797 2.4919490814208984375 2.3764014244079589844 2.3039479255676269531 2.4249479770660400391 2.2497336864471435547 2.1806690692901611328 2.4321751594543457031 2.377300262451171875 2.5581674575805664063 2.1558310985565185547 2.0739185810089111328 2.2069172859191894531 2.5495560169219970703 1.9612833261489868164 2.4884915351867675781 2.5749788284301757813 1.9899656772613525391 2.2995617389678955078 2.48764801025390625 9.0544233322143554688 9.0855016708374023438 9.2863054275512695313 2.4904782772064208984 2.1702620983123779297 9.1000728607177734375 2.4604685306549072266 2.1880216598510742188 2.3298692703247070313 2.2145376205444335938 2.1655762195587158203 2.1731688976287841797 2.5932126045227050781 2.3002901077270507813 2.1445224285125732422 2.3359212875366210938 2.326198577880859375 2.4238405227661132813 2.8401036262512207031 2.2946920394897460938 2.4385104179382324219 2.1285505294799804688 2.7183830738067626953 2.4050385951995849609 2.6148672103881835938 2.1010890007019042969 2.3494522571563720703 2.308422088623046875 2.369602203369140625 2.4874057769775390625 2.4766926765441894531 2.7121021747589111328 2.3570063114166259766 2.6504964828491210938 2.7154858112335205078 2.4411988258361816406 2.1163623332977294922 2.2272880077362060547 2.4738326072692871094 2.7308323383331298828 2.1639196872711181641 2.4902923107147216797 2.4043643474578857422 2.0405941009521484375 2.4766926765441894531 2.4104878902435302734 2.7591547966003417969 2.5844545364379882813 2.1897020339965820313 2.4009516239166259766 2.5052840709686279297 2.4595215320587158203 2.6683962345123291016 2.2187547683715820313 2.6288845539093017578 2.7964506149291992188 2.3639857769012451172 2.073337554931640625 2.3676805496215820313 2.2291238307952880859 2.2926526069641113281 2.5129380226135253906 2.6010951995849609375 2.4063539505004882813 2.9536874294281005859 2.6547846794128417969 2.7958135604858398438 3.5107347965240478516 3.401966094970703125 
2.4315645694732666016 2.9318671226501464844 2.2305238246917724609 2.4919364452362060547 2.2815687656402587891 2.4761836528778076172 2.2654821872711181641 2.6791341304779052734 2.3554842472076416016 2.3360002040863037109 2.5004673004150390625 2.3226149082183837891 2.5085728168487548828 2.1921453475952148438 2.7732033729553222656 3.2110114097595214844 2.3736872673034667969 2.2797563076019287109 2.3540050983428955078 2.3770873546600341797 2.7478098869323730469 2.3896183967590332031 2.0850548744201660156 2.3622078895568847656 2.0423233509063720703 2.4848856925964355469 2.3728249073028564453 2.5783510208129882813 2.6364009380340576172 2.5117392539978027344 2.26647186279296875 2.4009191989898681641 2.8938577175140380859 2.5203335285186767578 2.6419634819030761719 2.7627534866333007813 2.5577118396759033203 2.6419634819030761719 2.6217343807220458984 2.2124273777008056641 2.4530544281005859375 2.46563720703125 2.7827391624450683594 2.4015567302703857422 2.2465014457702636719 2.3452653884887695313 2.0258686542510986328 2.3950011730194091797 2.5395104885101318359 2.2332932949066162109 2.5107815265655517578 2.7780702114105224609 2.5369358062744140625 2.5562083721160888672 2.4835727214813232422 2.2218911647796630859 2.4952788352966308594 2.3739295005798339844 2.3440346717834472656 2.4123256206512451172 2.5917279720306396484 2.4853634834289550781 2.6659419536590576172 9.0625934600830078125 2.6077222824096679688 2.4619209766387939453 2.3313527107238769531 2.6473364830017089844 2.8211946487426757813 3.0078692436218261719 3.0346877574920654297 2.8339619636535644531 2.9022419452667236328 2.9271404743194580078 9.4967288970947265625 9.6980276107788085938 3.090175628662109375 9.6464786529541015625 2.9718422889709472656 9.8183841705322265625 2.8718173503875732422 2.809814453125 3.08419036865234375 2.7739379405975341797 2.8387191295623779297 2.7670276165008544922 3.0614550113677978516 2.928417205810546875 2.9852530956268310547 2.8284728527069091797 2.5119636058807373047 2.3742458820343017578 2.1820507049560546875 2.5016648769378662109 2.3781704902648925781 2.546886444091796875 2.3785905838012695313 2.8247284889221191406 2.5387413501739501953 2.6555550098419189453 2.3497967720031738281 2.3292558193206787109 2.3332972526550292969 2.3363287448883056641 2.3405504226684570313 2.2560298442840576172 2.2705712318420410156 2.7010226249694824219 2.4642732143402099609 2.5313649177551269531 2.5543041229248046875 2.2611157894134521484 2.2805716991424560547 2.5331172943115234375 2.2601974010467529297 2.2793276309967041016 2.3827726840972900391 2.1817545890808105469 2.4278531074523925781 2.1487429141998291016 2.3574264049530029297 2.4868977069854736328 2.3937513828277587891 2.4867115020751953125 2.2875740528106689453 2.1092791557312011719 2.2796823978424072266 2.332706451416015625 2.6389458179473876953 8.9756002426147460938 9.3591747283935546875 2.2856616973876953125 2.1994371414184570313 8.816486358642578125 9.021282196044921875 2.3236567974090576172 2.6107392311096191406 9.4100742340087890625 2.64105224609375 2.3782696723937988281 2.3783831596374511719 2.19598388671875 2.1993534564971923828 2.4880783557891845703 2.3766674995422363281 2.2727591991424560547 2.6787333488464355469 2.3359994888305664063 2.1218979358673095703 2.5337517261505126953 2.2758004665374755859 2.5813572406768798828 2.1644513607025146484 2.2169477939605712891 2.4497239589691162109 2.4481079578399658203 2.3392484188079833984 2.5049469470977783203 2.1753134727478027344 2.4831385612487792969 2.3736479282379150391 3.5284249782562255859 2.6471838951110839844 2.5116035938262939453 2.4481205940246582031 2.6268517971038818359 2.5175950527191162109 2.4760541915893554688 2.6438190937042236328 2.3650305271148681641 2.7177221775054931641 2.1508669853210449219 2.4789600372314453125 2.4990210533142089844 2.5116035938262939453 2.4581780433654785156 2.19963836669921875 2.1870219707489013672 2.7218496799468994141 2.456634521484375 2.4407162666320800781 2.2487442493438720703 2.2400276660919189453 2.7407033443450927734 2.4182262420654296875 2.563541412353515625 2.4845142364501953125 2.5859253406524658203 2.3793323040008544922 2.4030787944793701172 2.4588177204132080078 2.2904224395751953125 2.1378426551818847656 2.7134637832641601563 2.6717095375061035156 2.9176013469696044922 2.7281129360198974609 3.1413931846618652344 3.0213818550109863281 3.3764848709106445313 
2.6967334747314453125 2.3083255290985107422 2.5159955024719238281 2.283168792724609375 2.5875608921051025391 2.5478940010070800781 2.2676346302032470703 2.3447165489196777344 2.3220157623291015625 2.536914825439453125 2.2680757045745849609 2.4408440589904785156 2.7670769691467285156 2.4495761394500732422 2.6257803440093994141 2.4373590946197509766 2.4089794158935546875 2.1040542125701904297 1.8766610622406005859 2.4778497219085693359 2.778347015380859375 2.4090378284454345703 2.6378371715545654297 2.3831188678741455078 2.4563708305358886719 2.4361572265625 2.4941284656524658203 2.2768387794494628906 2.5078592300415039063 2.3992965221405029297 2.3673315048217773438 2.1312372684478759766 2.5403602123260498047 2.5189838409423828125 2.3635566234588623047 2.6347060203552246094 2.3930845260620117188 2.6267287731170654297 2.2532668113708496094 2.5368254184722900391 2.6419634819030761719 2.5337674617767333984 2.4846529960632324219 2.7978007793426513672 2.1859705448150634766 2.2784035205841064453 2.5624189376831054688 2.5219454765319824219 2.5233049392700195313 2.3308908939361572266 2.4011969566345214844 2.3527386188507080078 2.6053619384765625 2.4850480556488037109 2.7712359428405761719 2.4459979534149169922 2.3661935329437255859 2.1339945793151855469 2.3384673595428466797 2.5162785053253173828 1.9988927841186523438 2.2489080429077148438 2.2906060218811035156 2.4143824577331542969 2.7263941764831542969 2.1777615547180175781 2.5277640819549560547 2.4159891605377197266 2.4562411308288574219 2.5942199230194091797 3.0093321800231933594 2.9525551795959472656 2.6066350936889648438 2.3376042842864990234 9.1067266464233398438 9.619838714599609375 9.5287694931030273438 2.9069795608520507813 2.9402513504028320313 9.596797943115234375 9.8524255752563476563 2.9989910125732421875 2.8673827648162841797 3.0913190841674804688 2.5342791080474853516 2.6693928241729736328 2.8681058883666992188 2.7494568824768066406 2.5896134376525878906 2.58416748046875 2.656162261962890625 2.6550054550170898438 2.5721356868743896484 2.4224109649658203125 2.3717789649963378906 2.3991217613220214844 2.2636454105377197266 2.4427328109741210938 2.6680121421813964844 2.6291017532348632813 2.4759755134582519531 2.3011715412139892578 2.3541970252990722656 2.7074005603790283203 2.6276895999908447266 2.3823871612548828125 2.3146455287933349609 2.4886715412139892578 2.1700794696807861328 2.6894605159759521484 2.5338103771209716797 2.2386677265167236328 2.6738152503967285156 1.9928228855133056641 2.147434234619140625 2.4158000946044921875 2.4625842571258544922 2.4550099372863769531 2.5761942863464355469 2.5304841995239257813 2.5171308517456054688 2.5078215599060058594 2.513423919677734375 2.5403542518615722656 2.4059550762176513672 2.6871099472045898438 2.8411991596221923828 2.8262996673583984375 2.3003640174865722656 2.4555835723876953125 8.7989864349365234375 8.8466033935546875 8.9989748001098632813 9.0427637100219726563 8.878345489501953125 2.5751698017120361328 2.4379458427429199219 2.5702805519104003906 2.5912356376647949219 2.6119272708892822266 2.45650482177734375 2.4962353706359863281 2.5055398941040039063 2.6594662666320800781 2.2902600765228271484 2.8618752956390380859 2.5578184127807617188 2.5864088535308837891 2.5870544910430908203 2.5077714920043945313 2.5400140285491943359 2.4668231010437011719 2.1705634593963623047 2.4033689498901367188 2.1994545459747314453 2.2981767654418945313 2.2341356277465820313 2.2305128574371337891 2.36765289306640625 2.3073470592498779297 2.2842388153076171875 2.6430206298828125 2.3587622642517089844 2.50002288818359375 4.62298583984375 2.9248638153076171875 2.7792346477508544922 2.5171551704406738281 2.2482688426971435547 2.4211308956146240234 2.6414442062377929688 2.2919604778289794922 3.2965180873870849609 2.9318671226501464844 3.2429821491241455078 3.6951785087585449219 2.0252625942230224609 2.3308560848236083984 2.6451542377471923828 2.8628857135772705078 2.0971214771270751953 2.3718030452728271484 2.1969954967498779297 1.829394221305847168 2.5890707969665527344 2.3257603645324707031 2.3734543323516845703 2.5128684043884277344 2.7510638236999511719 2.6013267040252685547 2.539516448974609375 2.662776947021484375 2.5437097549438476563 2.7219824790954589844 3.1496317386627197266 2.9881596565246582031 3.6963894367218017578 3.342121124267578125 3.2999441623687744141 3.3374555110931396484 
2.4257719516754150391 2.8220388889312744141 2.0236318111419677734 2.8502833843231201172 2.3857812881469726563 2.4897620677947998047 2.4862549304962158203 2.2788972854614257813 2.1228992938995361328 2.2518782615661621094 2.2382891178131103516 2.4661769866943359375 2.4821162223815917969 2.4092733860015869141 2.5592408180236816406 2.3319520950317382813 2.3679380416870117188 2.5997889041900634766 2.3625974655151367188 2.1284911632537841797 2.6230533123016357422 2.672191619873046875 2.5096983909606933594 2.3179504871368408203 2.1695520877838134766 2.4099302291870117188 2.2493350505828857422 2.2147982120513916016 2.3377263545989990234 2.3103895187377929688 1.8396042585372924805 2.2702775001525878906 2.4483728408813476563 2.8432371616363525391 2.2789690494537353516 2.3222234249114990234 2.1402766704559326172 2.6419634819030761719 2.4923253059387207031 2.1928820610046386719 2.5307474136352539063 2.3252284526824951172 2.7263531684875488281 2.2892749309539794922 2.4584863185882568359 2.6960706710815429688 2.5378942489624023438 2.5545897483825683594 2.7229812145233154297 2.4750487804412841797 2.5011043548583984375 2.6467127799987792969 2.2911839485168457031 2.3720843791961669922 2.4316332340240478516 2.3213469982147216797 2.5678501129150390625 2.2855997085571289063 2.3114824295043945313 2.3579795360565185547 2.6199672222137451172 2.2629821300506591797 2.5405395030975341797 2.2893323898315429688 2.7548995018005371094 2.7262411117553710938 2.6002421379089355469 2.5534698963165283203 2.0964453220367431641 9.19974517822265625 2.8081417083740234375 2.8262979984283447266 2.6871864795684814453 2.5691614151000976563 9.1696109771728515625 9.5906000137329101563 9.57558441162109375 16.000690460205078125 9.1957330703735351563 9.5207586288452148438 3.0393533706665039063 2.6792917251586914063 2.9722137451171875 2.8336749076843261719 2.5352749824523925781 2.8149592876434326172 2.8331978321075439453 2.7640733718872070313 2.7026171684265136719 2.9457783699035644531 2.3269634246826171875 2.2798967361450195313 2.1792342662811279297 2.7107141017913818359 2.5434682369232177734 2.4208042621612548828 2.2679133415222167969 2.3861060142517089844 2.6311175823211669922 2.4377710819244384766 2.1316361427307128906 2.4329962730407714844 2.1239945888519287109 2.1650333404541015625 2.1328339576721191406 2.5712430477142333984 2.3682193756103515625 2.5008330345153808594 2.4270207881927490234 2.5134589672088623047 2.1398863792419433594 2.3386819362640380859 2.3216381072998046875 2.6121728420257568359 2.5645303726196289063 2.0129389762878417969 2.3581511974334716797 2.2299106121063232422 2.3489696979522705078 2.3940417766571044922 2.6432230472564697266 2.5063748359680175781 2.5469951629638671875 2.5488913059234619141 2.4310519695281982422 2.7014229297637939453 2.4594795703887939453 2.5354490280151367188 2.5144999027252197266 2.2425870895385742188 8.8506746292114257813 9.0731859207153320313 9.3263521194458007813 9.4185543060302734375 8.79296112060546875 9.2389850616455078125 8.8379163742065429688 9.2696886062622070313 2.3834955692291259766 2.5435123443603515625 2.575733184814453125 2.7697558403015136719 2.5585737228393554688 2.1315004825592041016 2.4674766063690185547 2.2684373855590820313 2.5648148059844970703 2.2941768169403076172 2.2394130229949951172 2.5105109214782714844 2.5689544677734375 2.16436004638671875 2.6219286918640136719 2.6351976394653320313 2.6012578010559082031 2.4465935230255126953 2.40851593017578125 2.4959278106689453125 2.4156577587127685547 2.6723337173461914063 2.1967742443084716797 2.22103118896484375 2.211669921875 2.9318671226501464844 2.8220388889312744141 2.5101099014282226563 2.4556658267974853516 2.8938577175140380859 2.6544137001037597656 2.6355097293853759766 2.8220388889312744141 2.3558001518249511719 2.50002288818359375 3.6493880748748779297 2.5362491607666015625 3.2656826972961425781 2.4726645946502685547 2.7956335544586181641 2.0870294570922851563 2.1778063774108886719 2.3263564109802246094 2.5874543190002441406 2.7123205661773681641 2.4282782077789306641 2.2980623245239257813 2.4114086627960205078 2.3526964187622070313 2.1299104690551757813 2.4959311485290527344 2.8319563865661621094 2.4800176620483398438 2.7644541263580322266 2.8458387851715087891 2.8899428844451904297 3.2434482574462890625 3.2173650264739990234 3.3650104999542236328 3.1878387928009033203 3.0974020957946777344 3.4191308021545410156 
2.9318671226501464844 2.5549626350402832031 2.6419634819030761719 2.6553523540496826172 2.3041703701019287109 2.5020503997802734375 2.4981331825256347656 2.5570206642150878906 2.3897230625152587891 2.7543923854827880859 2.3712711334228515625 2.3941233158111572266 2.5926353931427001953 2.4870734214782714844 2.3842298984527587891 2.7065951824188232422 2.7159135341644287109 2.1464285850524902344 2.5982825756072998047 2.4546914100646972656 2.2668445110321044922 2.5857393741607666016 2.7200801372528076172 2.5666410923004150391 2.9402153491973876953 2.3689138889312744141 2.5581426620483398438 2.6609961986541748047 2.7174279689788818359 2.6988320350646972656 2.5804681777954101563 2.3528454303741455078 2.5573630332946777344 2.57205963134765625 2.288616180419921875 2.6930563449859619141 2.2403974533081054688 2.0710802078247070313 2.1276640892028808594 2.6419634819030761719 2.2509143352508544922 2.8842973709106445313 2.5166046619415283203 2.5932397842407226563 2.1669077873229980469 2.3786675930023193359 2.4612498283386230469 2.2113060951232910156 2.2133672237396240234 2.4181990623474121094 2.6214311122894287109 2.4477841854095458984 2.5069499015808105469 2.8563210964202880859 2.4789421558380126953 2.3171603679656982422 2.2572276592254638672 2.6671266555786132813 2.4889063835144042969 2.6561455726623535156 2.1487600803375244141 2.3694500923156738281 2.2420761585235595703 2.0756490230560302734 2.4811389446258544922 2.5132582187652587891 2.5320241451263427734 2.4627394676208496094 2.5886807441711425781 2.5871827602386474609 9.6255140304565429688 9.1630735397338867188 9.2780694961547851563 9.1893062591552734375 9.0124254226684570313 9.140293121337890625 9.3407506942749023438 9.4019899368286132813 9.1645956039428710938 9.3606500625610351563 2.6645104885101318359 2.4690356254577636719 2.6542351245880126953 9.54799652099609375 2.4211058616638183594 2.6627626419067382813 2.7284350395202636719 2.3852620124816894531 2.6089115142822265625 2.3826999664306640625 2.7522325515747070313 2.4625744819641113281 2.2214519977569580078 2.4907782077789306641 2.4841845035552978516 2.4417827129364013672 2.6795172691345214844 2.5136187076568603516 2.1850645542144775391 2.6459877490997314453 2.6113960742950439453 2.4436295032501220703 2.4047291278839111328 2.43157196044921875 2.0189318656921386719 2.4375753402709960938 2.3437886238098144531 2.4321510791778564453 2.3903367519378662109 2.4223203659057617188 2.1986293792724609375 2.2913274765014648438 2.6390352249145507813 2.3645427227020263672 2.5956959724426269531 2.2744843959808349609 2.6891541481018066406 2.5424327850341796875 2.5394945144653320313 2.6333079338073730469 2.6531693935394287109 2.8909237384796142578 2.5288982391357421875 2.4059514999389648438 2.6303477287292480469 2.7910919189453125 9.3424358367919921875 2.8032107353210449219 9.5015087127685546875 9.4110965728759765625 2.4199383258819580078 2.3588800430297851563 8.8840513229370117188 8.7983407974243164063 8.9149236679077148438 2.3370773792266845703 9.0361070632934570313 2.5856468677520751953 2.305934906005859375 2.5688138008117675781 9.2685718536376953125 2.4202570915222167969 2.4138875007629394531 2.3185377120971679688 2.5391824245452880859 2.4249255657196044922 2.465427398681640625 2.7066471576690673828 2.2668032646179199219 2.5398166179656982422 2.5761384963989257813 2.7563467025756835938 2.6480007171630859375 2.2290766239166259766 2.1261303424835205078 2.2963340282440185547 2.2099652290344238281 2.5532195568084716797 2.4944009780883789063 2.3605849742889404297 2.5577118396759033203 2.5192940235137939453 2.4339802265167236328 2.986942291259765625 2.70447540283203125 2.6673946380615234375 2.7847306728363037109 2.4252989292144775391 2.1443140506744384766 1.9339834451675415039 3.2429821491241455078 2.3071942329406738281 2.6820814609527587891 2.6033053398132324219 2.5824234485626220703 3.5284249782562255859 2.6419634819030761719 2.8938577175140380859 2.6069061756134033203 2.5529437065124511719 2.5516400337219238281 3.0737066268920898438 2.3879032135009765625 2.5531408786773681641 2.3986954689025878906 2.4858269691467285156 2.1420190334320068359 2.4701256752014160156 2.3168506622314453125 2.5834398269653320313 2.5727672576904296875 2.9166233539581298828 3.0904314517974853516 3.1689360141754150391 2.9293029308319091797 3.1959421634674072266 2.9849305152893066406 3.1023931503295898438 2.92734527587890625 3.1065514087677001953 
2.6715149879455566406 2.8220388889312744141 2.1932501792907714844 2.5448796749114990234 2.2951016426086425781 2.4430751800537109375 2.3205449581146240234 2.3615641593933105469 2.2615580558776855469 2.7497043609619140625 2.5590462684631347656 2.3937437534332275391 2.2820169925689697266 2.6679022312164306641 2.521541595458984375 2.4625341892242431641 2.4119780063629150391 2.3167369365692138672 2.2395803928375244141 2.6450378894805908203 2.2195262908935546875 2.2405943870544433594 2.4399120807647705078 2.3451628684997558594 2.4990584850311279297 2.6696300506591796875 2.1849656105041503906 2.6058211326599121094 2.4450318813323974609 2.4807081222534179688 2.5229768753051757813 2.5938789844512939453 2.4848945140838623047 2.6448068618774414063 2.4711461067199707031 2.2989091873168945313 2.6414442062377929688 2.250888824462890625 2.5982632637023925781 2.3852427005767822266 2.4557886123657226563 2.6809983253479003906 2.3153014183044433594 2.2821078300476074219 2.4602534770965576172 2.5543107986450195313 2.6268658638000488281 2.6407120227813720703 2.4931273460388183594 2.5098767280578613281 2.4185285568237304688 2.5305683612823486328 2.6183168888092041016 2.7900011539459228516 2.4756410121917724609 2.5943179130554199219 2.6118073463439941406 1.97957611083984375 2.7240808010101318359 2.5126683712005615234 2.9266705513000488281 2.8304486274719238281 2.370456695556640625 2.4681222438812255859 2.1742568016052246094 2.5058927536010742188 2.4551665782928466797 2.2795968055725097656 2.4661321640014648438 9.1284551620483398438 3.1495702266693115234 9.1945848464965820313 2.3330783843994140625 9.0816097259521484375 9.0890436172485351563 9.4497938156127929688 2.5793869495391845703 2.4585845470428466797 2.3484590053558349609 9.00766754150390625 2.5674266815185546875 2.4756159782409667969 2.4617753028869628906 9.2898225784301757813 2.6858460903167724609 2.4056634902954101563 2.7342493534088134766 2.5113360881805419922 2.6641411781311035156 2.6719839572906494141 2.5151257514953613281 2.3745417594909667969 2.4238913059234619141 2.1465578079223632813 2.3959028720855712891 2.8283908367156982422 2.4409086704254150391 2.1422989368438720703 2.6008825302124023438 2.7384738922119140625 2.7781081199645996094 2.4673495292663574219 2.4259090423583984375 2.4901998043060302734 2.7006464004516601563 2.2231211662292480469 2.4288811683654785156 2.2386350631713867188 2.4385881423950195313 2.5285391807556152344 2.3477261066436767578 2.2653646469116210938 2.6521677970886230469 2.7082409858703613281 2.3370206356048583984 2.5043213367462158203 2.4333126544952392578 2.5236837863922119141 2.4504795074462890625 2.5486631393432617188 2.4601380825042724609 2.7582666873931884766 2.7334110736846923828 9.3899602890014648438 2.7840192317962646484 2.6969606876373291016 2.9110009670257568359 2.5333323478698730469 2.9416332244873046875 9.3843812942504882813 8.994625091552734375 8.783954620361328125 9.238525390625 2.3220708370208740234 15.515774726867675781 8.8794193267822265625 2.4448909759521484375 9.0629720687866210938 8.8790035247802734375 9.1554889678955078125 2.7745618820190429688 2.3514771461486816406 2.3248870372772216797 2.5334148406982421875 2.3236584663391113281 2.2685272693634033203 2.4770238399505615234 2.4052250385284423828 2.4576146602630615234 2.3539726734161376953 2.4770083427429199219 2.5445051193237304688 2.4986264705657958984 2.241180419921875 2.4592447280883789063 2.1217019557952880859 2.4687569141387939453 2.4509084224700927734 2.3364543914794921875 2.6954138278961181641 2.4784929752349853516 2.5506260395050048828 2.5429713726043701172 2.3618330955505371094 2.3646636009216308594 2.7603509426116943359 2.5091738700866699219 2.1801831722259521484 2.315883636474609375 2.4710283279418945313 2.2514348030090332031 2.4648754596710205078 2.6647870540618896484 2.6216261386871337891 2.3756256103515625 2.5862028598785400391 2.5092175006866455078 2.5770730972290039063 2.5239098072052001953 2.5097460746765136719 2.6734566688537597656 2.5566887855529785156 2.2786033153533935547 2.4715311527252197266 2.3151221275329589844 2.4481043815612792969 2.5582036972045898438 2.4771761894226074219 2.5418457984924316406 2.4717237949371337891 2.6591405868530273438 3.0501546859741210938 2.6910922527313232422 2.5816905498504638672 2.9003124237060546875 3.5890567302703857422 3.8133480548858642578 3.1461946964263916016 3.2429821491241455078 2.9408833980560302734 
2.6631674766540527344 3.4669039249420166016 2.2129473686218261719 2.6749553680419921875 2.281444549560546875 3.5284249782562255859 2.3235371112823486328 2.2895798683166503906 2.5327210426330566406 2.7987778186798095703 2.0441901683807373047 2.5473933219909667969 2.1930205821990966797 2.5632841587066650391 2.8289668560028076172 2.4573504924774169922 2.6122729778289794922 2.3251492977142333984 2.2832765579223632813 2.4195373058319091797 2.6553564071655273438 2.7285914421081542969 2.1492884159088134766 2.4571242332458496094 2.550052642822265625 2.6423366069793701172 2.2371649742126464844 2.1241784095764160156 2.5106806755065917969 2.3143150806427001953 2.6719026565551757813 2.8024625778198242188 2.7993118762969970703 2.6985919475555419922 2.5226161479949951172 2.2000823020935058594 2.2848942279815673828 2.6895921230316162109 2.2819931507110595703 2.4192643165588378906 2.2041952610015869141 2.8938577175140380859 3.0012803077697753906 2.3125824928283691406 2.1982133388519287109 2.7721116542816162109 2.6050634384155273438 2.5266704559326171875 2.8100295066833496094 2.5155880451202392578 2.5666286945343017578 2.4742913246154785156 2.5166592597961425781 2.5864558219909667969 2.4778158664703369141 2.5732867717742919922 2.4839944839477539063 2.5340914726257324219 2.6267094612121582031 2.5934700965881347656 2.3718085289001464844 2.2159898281097412109 2.3078768253326416016 2.4600629806518554688 2.1392698287963867188 2.1426637172698974609 2.5940897464752197266 2.4505946636199951172 2.7702476978302001953 2.7386536598205566406 9.2396364212036132813 8.9521017074584960938 9.0071916580200195313 9.0708971023559570313 9.1065645217895507813 9.3621664047241210938 2.4504961967468261719 9.1019001007080078125 2.4360444545745849609 2.3779437541961669922 2.3034086227416992188 8.971954345703125 9.0314035415649414063 2.5202472209930419922 2.4230184555053710938 2.3956353664398193359 2.1506454944610595703 2.4422237873077392578 2.3803527355194091797 2.4820184707641601563 2.4286704063415527344 2.4363627433776855469 2.5018162727355957031 2.5631711483001708984 2.4236466884613037109 2.5121097564697265625 2.4386138916015625 2.4053215980529785156 2.4811587333679199219 2.293975830078125 2.2741739749908447266 2.0120778083801269531 2.4487068653106689453 2.1806552410125732422 2.3508260250091552734 2.3996334075927734375 2.6730821132659912109 2.5657949447631835938 2.1340548992156982422 2.6725754737854003906 2.3681142330169677734 2.5110266208648681641 2.4942007064819335938 2.3716259002685546875 2.4387235641479492188 2.4478487968444824219 2.5976760387420654297 2.51218414306640625 2.7786824703216552734 1.9906309843063354492 2.6156618595123291016 2.9299972057342529297 2.7067053318023681641 2.8009736537933349609 9.34297943115234375 2.5256116390228271484 2.4985382556915283203 2.6805269718170166016 2.9128499031066894531 2.6890931129455566406 2.7337238788604736328 9.1315679550170898438 8.6856794357299804688 9.0020008087158203125 9.1111154556274414063 9.0452680587768554688 2.5713467597961425781 9.299472808837890625 2.6029381752014160156 2.6163058280944824219 2.6995515823364257813 2.0758755207061767578 2.6635026931762695313 2.1746354103088378906 2.3638701438903808594 2.7540357112884521484 2.4342112541198730469 2.6702790260314941406 2.7341866493225097656 2.4891445636749267578 2.5592224597930908203 2.3761181831359863281 2.44472503662109375 2.4175615310668945313 2.5720317363739013672 2.2586841583251953125 2.5301561355590820313 2.4980578422546386719 2.5685381889343261719 2.4078774452209472656 2.5350100994110107422 2.4893131256103515625 2.4372758865356445313 2.3659682273864746094 2.5494379997253417969 2.6381881237030029297 2.4576039314270019531 2.4747340679168701172 2.8938577175140380859 2.5051999092102050781 2.4783222675323486328 2.4986913204193115234 2.224979400634765625 2.5306169986724853516 2.3544771671295166016 2.5626578330993652344 2.7300722599029541016 2.3553206920623779297 2.4905622005462646484 2.36297607421875 2.3507571220397949219 2.3359625339508056641 2.4422128200531005859 2.7423043251037597656 2.2208871841430664063 2.6631662845611572266 2.8690197467803955078 2.5871596336364746094 2.4728064537048339844 2.2608187198638916016 2.4090878963470458984 2.4426667690277099609 2.6584429740905761719 2.8296809196472167969 3.0818910598754882813 3.0882008075714111328 3.3427114486694335938 2.9925596714019775391 2.59629058837890625 3.3586220741271972656 
3.6951785087585449219 2.6299002170562744141 2.6034767627716064453 2.5695245265960693359 2.5510785579681396484 2.6419634819030761719 2.5443432331085205078 2.4219202995300292969 2.4112131595611572266 2.2923638820648193359 2.4931161403656005859 2.299365997314453125 2.1496376991271972656 2.4563727378845214844 2.8894820213317871094 2.1139018535614013672 2.2660157680511474609 2.29311370849609375 2.0486738681793212891 2.4179739952087402344 2.4225363731384277344 2.0913445949554443359 2.3104715347290039063 2.7172796726226806641 2.6732850074768066406 2.5125093460083007813 2.35823822021484375 2.3022341728210449219 2.4467864036560058594 2.4318423271179199219 2.7809121608734130859 2.570896148681640625 2.5559091567993164063 2.8938577175140380859 2.5042285919189453125 2.2392749786376953125 2.6419634819030761719 2.7230904102325439453 2.8220388889312744141 2.3935058116912841797 2.5022101402282714844 2.4324471950531005859 2.3810186386108398438 2.4435088634490966797 2.5244450569152832031 2.5846343040466308594 2.5572426319122314453 2.3121862411499023438 2.4252612590789794922 2.7957797050476074219 2.5503230094909667969 2.7159550189971923828 2.5203204154968261719 2.6682226657867431641 2.5078349113464355469 2.6458873748779296875 2.5309510231018066406 2.3479211330413818359 2.6618039608001708984 2.5525925159454345703 2.3396191596984863281 2.5473291873931884766 2.6047303676605224609 2.3003876209259033203 2.5432386398315429688 2.429592132568359375 2.2833828926086425781 2.5904390811920166016 9.103656768798828125 2.3218405246734619141 9.36414337158203125 9.239543914794921875 8.9068756103515625 9.4063920974731445313 9.1880512237548828125 9.2705450057983398438 9.0074186325073242188 2.7787511348724365234 2.4101834297180175781 2.5000598430633544922 2.1026680469512939453 2.1866931915283203125 2.2660045623779296875 2.4683997631072998047 2.6648781299591064453 2.8525259494781494141 2.7059485912322998047 2.8771364688873291016 2.1474394798278808594 2.3596501350402832031 2.6785135269165039063 2.3103659152984619141 2.5186581611633300781 2.39430999755859375 2.3735220432281494141 2.4553291797637939453 2.5397629737854003906 2.8230617046356201172 2.5019032955169677734 2.3449487686157226563 2.5194272994995117188 2.4523713588714599609 2.690883636474609375 2.1945626735687255859 2.5908248424530029297 2.3901984691619873047 2.3696553707122802734 2.3311784267425537109 2.4036996364593505859 2.4484250545501708984 2.5269405841827392578 2.6406786441802978516 2.4160234928131103516 2.35430145263671875 2.3365025520324707031 2.3286135196685791016 2.4876191616058349609 2.3498532772064208984 2.1732833385467529297 2.2712604999542236328 2.4083316326141357422 2.6431691646575927734 2.5715377330780029297 2.6758303642272949219 9.4935436248779296875 2.685001373291015625 2.7873754501342773438 2.4398722648620605469 2.7654316425323486328 2.7379724979400634766 2.3835959434509277344 9.2447605133056640625 8.9524793624877929688 9.225749969482421875 9.0517225265502929688 9.2833948135375976563 8.8790950775146484375 9.25254058837890625 9.1365556716918945313 2.6162602901458740234 2.3510596752166748047 2.4211187362670898438 2.6735107898712158203 2.7029392719268798828 2.2131474018096923828 2.3219165802001953125 2.4074323177337646484 2.1704113483428955078 2.6272385120391845703 2.6125671863555908203 2.6513032913208007813 2.2931876182556152344 2.4629874229431152344 2.7539653778076171875 2.2390305995941162109 2.2460846900939941406 2.3214147090911865234 2.5908832550048828125 2.1898212432861328125 2.3417260646820068359 2.1836998462677001953 2.8020589351654052734 2.2438554763793945313 2.6947951316833496094 2.5635035037994384766 2.5511434078216552734 2.3482525348663330078 2.5526068210601806641 2.4210727214813232422 2.5766026973724365234 2.2415556907653808594 2.4777882099151611328 2.2356250286102294922 2.2585470676422119141 2.6463115215301513672 2.3256406784057617188 2.3610761165618896484 2.3129110336303710938 2.5163052082061767578 2.1651036739349365234 2.6845538616180419922 2.3407039642333984375 2.6746115684509277344 2.6232712268829345703 2.5848603248596191406 2.4227647781372070313 2.6943604946136474609 2.4298992156982421875 2.8128421306610107422 2.78098297119140625 2.4574391841888427734 2.7892973423004150391 2.5122880935668945313 2.5235331058502197266 2.6345388889312744141 2.5819225311279296875 2.8913371562957763672 3.0755374431610107422 2.8744363784790039063 3.1492745876312255859 
4.2293381690979003906 3.6679477691650390625 2.3253388404846191406 2.6613614559173583984 2.5221834182739257813 2.7048799991607666016 2.5887246131896972656 2.4550602436065673828 2.4982738494873046875 2.6393458843231201172 2.6141815185546875 2.4205334186553955078 2.3969559669494628906 2.6404085159301757813 2.7699608802795410156 2.5451946258544921875 2.5617444515228271484 2.3099093437194824219 2.3111171722412109375 2.2587091922760009766 2.7256090641021728516 2.2956652641296386719 2.5359380245208740234 2.8521037101745605469 2.3852427005767822266 2.3940513134002685547 2.6475834846496582031 2.6179969310760498047 3.0148711204528808594 2.5913224220275878906 2.5296082496643066406 2.5245702266693115234 2.6424796581268310547 2.5928514003753662109 2.2842614650726318359 2.4766926765441894531 2.7878391742706298828 2.4603624343872070313 2.7521054744720458984 2.6600766181945800781 2.7829008102416992188 2.5810782909393310547 2.608913421630859375 2.4658994674682617188 2.3942461013793945313 2.4146544933319091797 2.7343440055847167969 2.8610301017761230469 2.4922220706939697266 2.5192015171051025391 2.3997137546539306641 2.9227995872497558594 2.5441086292266845703 2.5102939605712890625 2.5478968620300292969 2.4752573966979980469 2.4072256088256835938 2.5457146167755126953 2.3868124485015869141 2.6427013874053955078 2.5143640041351318359 2.7259736061096191406 2.4922046661376953125 2.3772325515747070313 2.7970759868621826172 2.3520107269287109375 2.5926942825317382813 2.5771558284759521484 2.5546650886535644531 2.5249989032745361328 9.1757917404174804688 2.5877227783203125 9.2641315460205078125 9.0494413375854492188 9.352142333984375 2.7106540203094482422 9.1934261322021484375 2.4616837501525878906 2.7282240390777587891 8.9954271316528320313 2.3293721675872802734 2.4945745468139648438 2.3676373958587646484 9.1585140228271484375 2.5967605113983154297 2.5643606185913085938 9.0205812454223632813 2.6649336814880371094 2.2541303634643554688 2.453411102294921875 2.4862356185913085938 2.7843701839447021484 2.4431934356689453125 2.3993909358978271484 2.4899218082427978516 2.7584919929504394531 2.495288848876953125 2.5477566719055175781 2.5396227836608886719 2.5887324810028076172 2.2398817539215087891 2.2208521366119384766 2.3797869682312011719 2.0412311553955078125 2.7738766670227050781 2.9913375377655029297 2.7186753749847412109 2.527187347412109375 2.4713833332061767578 2.4498271942138671875 2.7939000129699707031 2.8494737148284912109 2.6065263748168945313 2.5676066875457763672 2.6127972602844238281 2.5002603530883789063 2.7419519424438476563 2.4931693077087402344 2.8035676479339599609 2.4728310108184814453 2.4942102432250976563 2.5416543483734130859 2.5368499755859375 3.0591711997985839844 3.0054957866668701172 2.7054736614227294922 2.6217324733734130859 9.1468858718872070313 9.5883474349975585938 9.1794414520263671875 9.1822729110717773438 9.4090642929077148438 2.6784455776214599609 8.8756084442138671875 8.8680210113525390625 2.6482939720153808594 9.0299749374389648438 9.1758022308349609375 9.0133218765258789063 9.1465826034545898438 2.4807989597320556641 2.4240658283233642578 2.30529022216796875 2.4956884384155273438 2.5538396835327148438 2.4521973133087158203 2.2329761981964111328 2.6873819828033447266 2.6439967155456542969 2.4649660587310791016 2.4630649089813232422 2.2369594573974609375 9.036350250244140625 2.3999288082122802734 2.3356032371520996094 2.3798961639404296875 2.4426937103271484375 2.4281547069549560547 2.7317287921905517578 2.2322790622711181641 2.6358575820922851563 2.5323567390441894531 2.2914180755615234375 2.5182242393493652344 2.5599203109741210938 2.628917694091796875 2.4783051013946533203 2.4374005794525146484 2.6758058071136474609 2.4370217323303222656 2.6796953678131103516 2.3848397731781005859 2.6612215042114257813 2.2449162006378173828 2.6159489154815673828 2.1621973514556884766 2.4890167713165283203 2.3705639839172363281 2.2481482028961181641 2.2461135387420654297 2.4559373855590820313 2.6272804737091064453 2.4273111820220947266 2.592212677001953125 2.6084313392639160156 2.3496682643890380859 2.3564734458923339844 2.4396350383758544922 2.3295733928680419922 2.3476946353912353516 2.3779077529907226563 2.8379411697387695313 2.7817146778106689453 2.5266275405883789063 2.8745675086975097656 2.3213484287261962891 2.4621367454528808594 2.418975830078125 3.0476391315460205078 2.8357205390930175781 
2.8220388889312744141 2.8396592140197753906 2.4737107753753662109 2.3652670383453369141 2.3896391391754150391 2.7922475337982177734 2.3923435211181640625 2.8191392421722412109 2.5047545433044433594 2.7185108661651611328 2.3003537654876708984 2.5172367095947265625 2.6485295295715332031 2.6567902565002441406 2.6737489700317382813 2.6379272937774658203 2.6590521335601806641 2.5906302928924560547 2.5187821388244628906 2.4706256389617919922 2.3754303455352783203 2.5052540302276611328 2.8882198333740234375 2.747547149658203125 2.744533538818359375 2.7342975139617919922 2.5921683311462402344 2.6413683891296386719 2.57982635498046875 2.4731607437133789063 2.5149624347686767578 2.2746980190277099609 2.6434876918792724609 2.4395341873168945313 2.3689496517181396484 2.5882332324981689453 2.5534994602203369141 2.4251558780670166016 3.2965180873870849609 2.5833108425140380859 2.3885948657989501953 2.5745494365692138672 2.6531920433044433594 2.5084340572357177734 2.7230648994445800781 2.5484442710876464844 2.6853330135345458984 2.3983092308044433594 2.7632443904876708984 2.5654273033142089844 2.1264405250549316406 2.5091257095336914063 2.6246194839477539063 2.3963670730590820313 2.7611846923828125 2.5964133739471435547 2.8304872512817382813 2.5453569889068603516 2.5142195224761962891 1.9974672794342041016 2.2150492668151855469 2.1081397533416748047 9.2547092437744140625 2.350101470947265625 2.5471754074096679688 2.6839756965637207031 9.339733123779296875 2.4588911533355712891 9.39659881591796875 2.3057925701141357422 2.5725717544555664063 2.5059657096862792969 9.4871892929077148438 8.764797210693359375 9.3597345352172851563 9.4751768112182617188 2.8570806980133056641 2.5248351097106933594 2.4197716712951660156 9.2871770858764648438 9.2582464218139648438 9.1525421142578125 2.4465868473052978516 2.4510309696197509766 9.3190155029296875 9.303802490234375 9.05336761474609375 9.3146762847900390625 2.7420494556427001953 2.3970882892608642578 2.4584498405456542969 2.4282917976379394531 2.4350731372833251953 2.369190216064453125 2.6046652793884277344 2.7429399490356445313 2.5966863632202148438 2.4264118671417236328 2.7356653213500976563 2.0969138145446777344 2.5532817840576171875 2.3147077560424804688 2.5307621955871582031 2.4685676097869873047 2.3474276065826416016 2.2842841148376464844 2.5497314929962158203 2.1741526126861572266 2.4502723217010498047 2.6106514930725097656 2.3004350662231445313 2.6754591464996337891 2.2668900489807128906 2.7627193927764892578 2.6763467788696289063 2.54788970947265625 2.1285078525543212891 2.7692494392395019531 2.4305107593536376953 2.7397906780242919922 2.3603641986846923828 2.5309414863586425781 2.2520146369934082031 2.6377341747283935547 9.0733461380004882813 2.8713028430938720703 9.4725742340087890625 9.393268585205078125 9.3229570388793945313 9.5214471817016601563 9.3061389923095703125 9.3020486831665039063 9.2479104995727539063 9.2504329681396484375 9.36888885498046875 2.7016894817352294922 8.9303760528564453125 8.8955078125 9.5184307098388671875 9.071979522705078125 2.5060393810272216797 2.5332646369934082031 2.3848462104797363281 2.4916477203369140625 2.6107079982757568359 2.2437996864318847656 2.1787476539611816406 2.5357630252838134766 2.0139098167419433594 2.4364867210388183594 2.4333605766296386719 8.9730272293090820313 2.5102512836456298828 2.2408154010772705078 9.163753509521484375 2.6161966323852539063 2.6871001720428466797 2.4832327365875244141 2.7003345489501953125 2.7293300628662109375 2.5105388164520263672 2.5474352836608886719 2.2830181121826171875 2.3451066017150878906 3.2110114097595214844 2.5615549087524414063 2.6419634819030761719 2.0858211517333984375 2.6951723098754882813 2.3967061042785644531 2.476306915283203125 2.6991825103759765625 2.4492805004119873047 2.4844462871551513672 2.5038120746612548828 2.5379254817962646484 2.3779175281524658203 2.3159785270690917969 2.5157227516174316406 2.8829901218414306641 2.5611670017242431641 2.5118801593780517578 2.56349945068359375 2.3299183845520019531 2.6231062412261962891 2.663318634033203125 2.426319122314453125 2.4965338706970214844 2.5467078685760498047 2.4397332668304443359 2.5298013687133789063 2.5666763782501220703 2.5601909160614013672 2.7116425037384033203 3.0003137588500976563 2.9372932910919189453 2.6912064552307128906 2.6390688419342041016 2.8956182003021240234 2.6159791946411132813 
2.6322431564331054688 2.6102616786956787109 3.5047473907470703125 2.6217691898345947266 2.1240820884704589844 2.7821471691131591797 2.4012908935546875 2.5721023082733154297 2.9121186733245849609 2.8250916004180908203 2.5277798175811767578 2.5997502803802490234 2.6121664047241210938 2.7474510669708251953 2.2736647129058837891 2.5423924922943115234 2.5692756175994873047 2.7299292087554931641 2.6544377803802490234 2.9191961288452148438 2.8947043418884277344 2.2526147365570068359 2.6018080711364746094 2.3388371467590332031 2.5135264396667480469 2.6419634819030761719 2.4902815818786621094 2.712505340576171875 2.35820770263671875 2.5166776180267333984 3.0181787014007568359 2.6905255317687988281 2.7332780361175537109 2.8220388889312744141 2.7467310428619384766 2.5727322101593017578 2.5377810001373291016 2.2851977348327636719 2.50002288818359375 2.9745817184448242188 2.2264592647552490234 1.9969917535781860352 3.0684680938720703125 2.5618271827697753906 2.5349452495574951172 2.6929948329925537109 2.6898910999298095703 2.6155064105987548828 2.26995086669921875 2.6088988780975341797 2.5832369327545166016 2.7700049877166748047 2.33898162841796875 2.3889882564544677734 2.6254894733428955078 2.5844883918762207031 2.8355791568756103516 2.5203485488891601563 2.4375324249267578125 2.7671885490417480469 2.1333293914794921875 2.5810723304748535156 2.526996612548828125 2.0987839698791503906 2.3022329807281494141 2.4397661685943603516 2.6042599678039550781 2.6996982097625732422 2.8659024238586425781 2.6969830989837646484 2.2198631763458251953 2.5459930896759033203 2.4715371131896972656 2.7579131126403808594 2.4698445796966552734 2.82541656494140625 2.2784948348999023438 9.1260786056518554688 9.0894403457641601563 9.2411746978759765625 2.6350028514862060547 2.4894514083862304688 8.8664789199829101563 9.6744470596313476563 2.560314178466796875 9.400177001953125 8.9680891036987304688 2.2384660243988037109 2.4422328472137451172 2.3781335353851318359 2.5621204376220703125 2.5231978893280029297 2.8365676403045654297 2.6132369041442871094 2.445957183837890625 2.6674945354461669922 2.3153131008148193359 2.6806797981262207031 2.5816769599914550781 2.4161183834075927734 2.831027984619140625 2.5424854755401611328 2.4109766483306884766 2.6902587413787841797 2.7928793430328369141 2.2490186691284179688 2.7262601852416992188 2.4948992729187011719 2.7705712318420410156 2.6180043220520019531 2.7895908355712890625 2.5314788818359375 2.2825119495391845703 2.4683892726898193359 2.4824497699737548828 2.4378917217254638672 2.4806439876556396484 2.620941162109375 2.4678845405578613281 2.4664568901062011719 2.38417816162109375 2.7460834980010986328 2.59972381591796875 2.7323300838470458984 2.9439930915832519531 9.5782794952392578125 2.8084201812744140625 9.7079925537109375 9.79457855224609375 2.6373143196105957031 9.17063140869140625 2.4079756736755371094 8.9574480056762695313 8.8260335922241210938 9.5407018661499023438 8.9913511276245117188 9.0264225006103515625 9.2051830291748046875 9.2441616058349609375 9.2746820449829101563 2.7527599334716796875 2.3996946811676025391 2.0851747989654541016 2.5701119899749755859 2.7312314510345458984 2.4549698829650878906 2.2589218616485595703 2.7296864986419677734 2.5647101402282714844 2.7572269439697265625 9.2057552337646484375 9.2326326370239257813 8.8614215850830078125 2.5230908393859863281 2.7533173561096191406 2.4773817062377929688 2.4785418510437011719 2.7793619632720947266 2.3797276020050048828 2.6915910243988037109 2.4842996597290039063 2.4453043937683105469 2.5942535400390625 2.1323552131652832031 2.6426563262939453125 2.853832244873046875 2.6419634819030761719 2.399860382080078125 2.2942614555358886719 2.2654669284820556641 2.4598886966705322266 2.6516432762145996094 2.3714566230773925781 2.4140994548797607422 2.6828927993774414063 2.6787309646606445313 2.5775055885314941406 2.8350348472595214844 2.5856091976165771484 2.5801908969879150391 2.3651149272918701172 2.4612953662872314453 2.7910320758819580078 2.8371703624725341797 2.2830438613891601563 2.6379849910736083984 2.1883628368377685547 2.3587276935577392578 2.4837212562561035156 2.4909908771514892578 2.3485167026519775391 2.5636281967163085938 2.8141658306121826172 2.6206498146057128906 2.7077202796936035156 2.9807381629943847656 3.0778050422668457031 2.6319823265075683594 2.7595522403717041016 2.6146211624145507813 
