ncols        200
nrows        200
xllcorner    -0.000000000000
yllcorner    0.000000000000
cellsize     1.000000000000
NODATA_value nan
3.3179352283477783203 3.6934630870819091797 3.5626180171966552734 4.2674851417541503906 4.2511854171752929688 3.8991689682006835938 2.8982295989990234375 2.3861403465270996094 1.5640393495559692383 2.8475255966186523438 3.0771436691284179688 2.6718890666961669922 2.8915145397186279297 3.1889209747314453125 2.88826751708984375 2.8038733005523681641 3.5823659896850585938 3.7662959098815917969 3.2715365886688232422 2.4744787216186523438 3.0566012859344482422 3.1741881370544433594 3.2440838813781738281 3.7773451805114746094 3.5207037925720214844 3.2790715694427490234 3.3088240623474121094 3.9137299060821533203 3.8415191173553466797 3.0928273200988769531 3.3271553516387939453 3.1463670730590820313 3.1742603778839111328 1.3374725580215454102 2.2348089218139648438 2.5461561679840087891 2.0698335170745849609 1.8810631036758422852 1.3184014558792114258 2.3432214260101318359 1.1642774343490600586 2.5171525478363037109 1.9516507387161254883 2.8575012683868408203 1.9308905601501464844 2.7480120658874511719 2.1465787887573242188 2.0128417015075683594 2.0768101215362548828 2.0000660419464111328 2.2917571067810058594 2.1852743625640869141 2.2206716537475585938 1.3367196321487426758 1.4323679208755493164 1.8174866437911987305 2.1007781028747558594 1.7044234275817871094 1.8399797677993774414 2.2965333461761474609 2.7393884658813476563 1.6249076128005981445 2.6999742984771728516 1.4390410184860229492 1 2.0725774765014648438 1.5386499166488647461 1 1.5724573135375976563 2.2336819171905517578 1.6866780519485473633 2.0626161098480224609 2.0798885822296142578 2.2336819171905517578 1.2118371725082397461 1 1.7327163219451904297 2.0007910728454589844 1.5725231170654296875 2.2251553535461425781 1.8351342678070068359 2.9042115211486816406 2.2120130062103271484 2.4541859626770019531 2.7026228904724121094 1.9027029275894165039 2.0023446083068847656 1.4786037206649780273 2.1712274551391601563 2.9575417041778564453 3.4664003849029541016 3.7207005023956298828 3.2350535392761230469 3.1039831638336181641 3.3232278823852539063 2.4427926540374755859 3.1066367626190185547 2.2379131317138671875 2.4800474643707275391 1.8763796091079711914 1.9990156888961791992 2.1168065071105957031 1.6665788888931274414 2.6726453304290771484 2.1965506076812744141 3.0369417667388916016 3.0287327766418457031 1.9891436100006103516 2.9578337669372558594 2.9767575263977050781 2.58362579345703125 2.7744495868682861328 2.1449940204620361328 2.7680666446685791016 2.7110190391540527344 2.7511579990386962891 1.3367605209350585938 1.119113922119140625 2.0930566787719726563 1.7915990352630615234 1.7027027606964111328 2.9974458217620849609 2.0364670753479003906 2.2489805221557617188 3.2305171489715576172 2.5685398578643798828 3.2388341426849365234 2.0340154170989990234 2.6676108837127685547 2.917201995849609375 2.3841681480407714844 3.1777360439300537109 2.9548699855804443359 2.8815827369689941406 3.2068953514099121094 2.8143460750579833984 2.5743803977966308594 2.6776785850524902344 1.4810980558395385742 1.9206454753875732422 1.4764962196350097656 1.7765424251556396484 1.7356723546981811523 1.6136653423309326172 1.1889493465423583984 1.2126379013061523438 1 1.5037115812301635742 1 1 1 1 1 1.0115836858749389648 1 1.0094407796859741211 1 1 1.0201439857482910156 1.0201439857482910156 1 1.1806674003601074219 1 1 1 1 1 1.420632481575012207 1 1 1.653941035270690918 1.7333734035491943359 1.7561491727828979492 1.224343419075012207 1.9200114011764526367 1 1.161060333251953125 2.0626161098480224609 1.1967895030975341797 1.0070079565048217773 1.7938426733016967773 1.1947526931762695313 1.9902595281600952148 1.7356723546981811523 2.2975974082946777344 2.8492765426635742188 2.3146727085113525391 1.7268441915512084961 3.0032382011413574219 2.4058103561401367188 2.7437357902526855469 2.6700813770294189453 3.2682187557220458984 3.83789825439453125 3.6702132225036621094 3.7077617645263671875 3.6106722354888916016 3.3763220310211181641 3.6823647022247314453 3.3930132389068603516 
2.1527605056762695313 4.0671916007995605469 4.0961513519287109375 3.7859742641448974609 4.427349090576171875 3.212406158447265625 2.7901234626770019531 4.0783267021179199219 3.3167886734008789063 2.5491254329681396484 2.2379908561706542969 3.2150049209594726563 2.5741915702819824219 3.3529942035675048828 2.5738673210144042969 3.1075205802917480469 2.9272146224975585938 2.6948533058166503906 3.0825655460357666016 3.1921823024749755859 2.7851953506469726563 3.3213071823120117188 2.6248710155487060547 3.3099856376647949219 3.3443756103515625 4.3094420433044433594 3.0565280914306640625 3.7435243129730224609 3.5220215320587158203 3.1993212699890136719 3.1679012775421142578 3.3596456050872802734 2.8757903575897216797 3.5165913105010986328 2.8177883625030517578 1.969638824462890625 1.6225258111953735352 1.6377413272857666016 2.2417693138122558594 2.1151719093322753906 1.8743901252746582031 2.0092308521270751953 1.8368104696273803711 2.1466023921966552734 2.3920259475708007813 2.2856626510620117188 2.6673781871795654297 1.7049769163131713867 1.7351310253143310547 2.2727031707763671875 2.1021742820739746094 2.1961035728454589844 2.0978269577026367188 2.4452211856842041016 2.2092401981353759766 1.8151434659957885742 2.0497829914093017578 1.7493238449096679688 1.9312839508056640625 1.9788885116577148438 1.3469767570495605469 2.6999742984771728516 1.4672832489013671875 1.6581586599349975586 1.0201439857482910156 1.6581586599349975586 1 1 1.5198190212249755859 1.3367605209350585938 1.2349509000778198242 2.2911133766174316406 1.3367605209350585938 1.1139971017837524414 1.1507860422134399414 1.0854777097702026367 1.3522214889526367188 2.0334806442260742188 1.5950615406036376953 1.3199807405471801758 2.4941132068634033203 2.3740785121917724609 2.5457584857940673828 1.191163182258605957 2.5020773410797119141 2.6365077495574951172 1.6792985200881958008 1 2.7270395755767822266 1.8638633489608764648 2.6022012233734130859 3.6092207431793212891 3.0040872097015380859 3.5001246929168701172 3.4551153182983398438 3.3788883686065673828 3.3234314918518066406 1.4597096443176269531 2.4864087104797363281 2.0209100246429443359 1.6082667112350463867 1.9193953275680541992 1.7673016786575317383 2.4449810981750488281 2.2176473140716552734 2.2825553417205810547 3.1274442672729492188 3.0757696628570556641 2.8051037788391113281 2.453983306884765625 2.6682989597320556641 2.4784319400787353516 3.3071610927581787109 2.9920084476470947266 2.4957103729248046875 2.6281561851501464844 2.6847057342529296875 2.2238593101501464844 2.0651469230651855469 1.6996001005172729492 2.500579833984375 1.6416364908218383789 1.8878622055053710938 1.4949227571487426758 3.1236085891723632813 3.3927674293518066406 3.0428807735443115234 3.7920391559600830078 3.3904240131378173828 3.7283480167388916016 2.543735504150390625 2.8947288990020751953 2.7563900947570800781 3.3226571083068847656 3.2462592124938964844 3.2458412647247314453 3.0115859508514404297 2.2860476970672607422 2.7001216411590576172 2.1573591232299804688 1.7469292879104614258 1.180653691291809082 2.1151719093322753906 1.066537022590637207 1.3372328281402587891 1.7561491727828979492 1.1302753686904907227 2.1179404258728027344 1.0115836858749389648 1 1 1 1 1 1 1 1 1 1.2439392805099487305 1 2.0997419357299804688 1.4034458398818969727 1 1.0115836858749389648 1 1 1.1302753686904907227 1 1 1.0091935396194458008 1.1399155855178833008 2.0051195621490478516 2.1179404258728027344 1.2118371725082397461 1.3831725120544433594 1.2118371725082397461 2.3851757049560546875 2.0172240734100341797 1 1 1.6849780082702636719 2.0259518623352050781 2.827228546142578125 2.4866001605987548828 2.8927731513977050781 2.5153806209564208984 2.5099513530731201172 2.8702211380004882813 2.8405373096466064453 2.9305360317230224609 2.7862923145294189453 3.1981592178344726563 3.6732325553894042969 3.7067368030548095703 4.0778527259826660156 3.8816215991973876953 4.0907626152038574219 3.9820075035095214844 3.1885621547698974609 3.8253951072692871094 
1.7186037302017211914 2.2755584716796875 4.4564352035522460938 3.5823292732238769531 3.7370851039886474609 4.5260229110717773438 4.5199885368347167969 4.4611225128173828125 2.8173310756683349609 3.0332484245300292969 2.8947048187255859375 3.0934467315673828125 3.0792553424835205078 3.381359100341796875 3.4288020133972167969 2.4686074256896972656 2.6084969043731689453 2.7466204166412353516 1.9263266324996948242 2.6769592761993408203 3.2562351226806640625 1.9240013360977172852 1.9496587514877319336 2.4753541946411132813 2.4256501197814941406 2.9209744930267333984 2.7575628757476806641 3.4471011161804199219 3.4108541011810302734 3.3977160453796386719 2.6805932521820068359 3.1471724510192871094 2.6556546688079833984 2.2784583568572998047 2.9718844890594482422 1.9347281455993652344 2.1889321804046630859 1.9233015775680541992 1.7772002220153808594 1.9902595281600952148 1.6249076128005981445 2.1781682968139648438 1.9004549980163574219 1.9689885377883911133 2.6089694499969482422 2.631114959716796875 2.3947081565856933594 2.1527163982391357422 1.7641950845718383789 2.3986299037933349609 2.4977757930755615234 1.2908535003662109375 2.4609129428863525391 2.1623661518096923828 2.3765635490417480469 1.8036639690399169922 2.5099513530731201172 1.8572804927825927734 1.8705415725708007813 1.0641729831695556641 2.0030426979064941406 1.3383997678756713867 1.9560135602951049805 1 1.161060333251953125 1.6866780519485473633 1.5037115812301635742 1.1806674003601074219 1 1.0091935396194458008 1.8048930168151855469 1.6581586599349975586 2.1389698982238769531 1 1 1.461832880973815918 2.0051195621490478516 1.1806674003601074219 1.7754449844360351563 1 1 2.3948893547058105469 2.7721652984619140625 1.2794673442840576172 2.2425150871276855469 2.5961022377014160156 2.0781636238098144531 1.2393968105316162109 2.4960138797760009766 2.1970305442810058594 2.673191070556640625 1.701279759407043457 2.5922296047210693359 2.6838030815124511719 3.5445158481597900391 2.3086123466491699219 2.7513384819030761719 2.0630197525024414063 1.4488768577575683594 2.4438245296478271484 2.0347647666931152344 2.6505744457244873047 1.8056430816650390625 1.8555734157562255859 2.7771661281585693359 2.6392612457275390625 2.9157800674438476563 2.81453704833984375 2.8399174213409423828 2.6573271751403808594 2.7518179416656494141 3.01113128662109375 2.7146549224853515625 2.9455094337463378906 2.6035299301147460938 1.7257839441299438477 2.4208903312683105469 2.8420476913452148438 2.5799021720886230469 3.1692178249359130859 2.4962263107299804688 2.9461286067962646484 2.7385265827178955078 2.3066923618316650391 2.3637380599975585938 2.6366415023803710938 2.8364984989166259766 2.2695422172546386719 3.2827451229095458984 2.9852240085601806641 3.0897901058197021484 3.4857602119445800781 3.1466054916381835938 3.7261106967926025391 2.7802269458770751953 2.5367338657379150391 3.0147368907928466797 2.3115530014038085938 3.4045970439910888672 2.60174560546875 2.8175733089447021484 1.1234800815582275391 1 1.8048930168151855469 1 2.3851757049560546875 1 2.0051195621490478516 1 1 1.2450430393218994141 1 2.5925157070159912109 1 1 2.0657415390014648438 1.653941035270690918 2.1179404258728027344 2.0997419357299804688 1.1806674003601074219 2.2308397293090820313 1.2476290464401245117 1 1 1 1 1 1.7561491727828979492 1.2190240621566772461 1 1.2439392805099487305 1.1653940677642822266 2.0657415390014648438 1.4034458398818969727 1.0501962900161743164 1 1 1.1302753686904907227 1.2439392805099487305 1.9842832088470458984 1.8431791067123413086 1.7721650600433349609 2.5000643730163574219 3.1178529262542724609 2.96372222900390625 1.8397066593170166016 2.3484780788421630859 2.7674138545989990234 2.7291481494903564453 2.9755456447601318359 3.1228427886962890625 3.2070698738098144531 3.5988793373107910156 3.4064049720764160156 3.3849656581878662109 3.4748950004577636719 3.9194245338439941406 3.778354644775390625 3.1348893642425537109 3.9644472599029541016 
1.9590795040130615234 3.5732595920562744141 3.0384702682495117188 2.7213454246520996094 2.6761040687561035156 3.6427636146545410156 3.3387203216552734375 4.0312585830688476563 2.7651467323303222656 3.4510886669158935547 2.4676084518432617188 3.2122137546539306641 3.2546203136444091797 3.3606219291687011719 2.4535977840423583984 3.2632820606231689453 3.2940466403961181641 2.413860321044921875 2.5137693881988525391 2.5701537132263183594 1.8099689483642578125 2.0991110801696777344 3.0611858367919921875 2.2035615444183349609 2.1717171669006347656 2.815784454345703125 2.9414889812469482422 3.4506993293762207031 2.7118387222290039063 2.9092648029327392578 1.922764897346496582 2.8787364959716796875 3.0160868167877197266 2.3423976898193359375 1.9101016521453857422 2.2068428993225097656 2.8742778301239013672 1.9655704498291015625 1.7609245777130126953 2.3398470878601074219 1.5829361677169799805 2.0140461921691894531 1.7044234275817871094 2.1233932971954345703 2.0917251110076904297 1.8776717185974121094 2.3003334999084472656 2.2924673557281494141 2.5261933803558349609 1.8450791835784912109 1.3805397748947143555 2.049442291259765625 2.11521148681640625 2.2182061672210693359 2.1411583423614501953 2.0618762969970703125 2.0127167701721191406 1.7255470752716064453 1.5636153221130371094 1.7754449844360351563 1.8076318502426147461 1.1584376096725463867 1.1291054487228393555 1.1489439010620117188 1.8548398017883300781 1.4003952741622924805 1 1.4034458398818969727 1 1 2.3851757049560546875 1.8076318502426147461 2.5120098590850830078 1 1.2591799497604370117 1 1 1.4381324052810668945 1.1983001232147216797 1.1747975349426269531 1.2439392805099487305 1.2118371725082397461 1.1659885644912719727 2.2212870121002197266 1.6061207056045532227 1.6343533992767333984 2.1431529521942138672 1.0655993223190307617 2.9039080142974853516 1.2170349359512329102 3.069122314453125 3.2274641990661621094 2.8703906536102294922 3.2648298740386962891 4.2229256629943847656 2.4852311611175537109 2.7335894107818603516 2.3848118782043457031 2.6976616382598876953 1.6930917501449584961 1.9393625259399414063 2.1511998176574707031 1.8707566261291503906 2.5212194919586181641 2.8295116424560546875 3.1848587989807128906 3.1538388729095458984 3.0660078525543212891 3.0848791599273681641 2.8542490005493164063 3.3399500846862792969 1.9088206291198730469 2.6517264842987060547 2.6374118328094482422 3.1981196403503417969 2.6622028350830078125 2.7070634365081787109 2.6485128402709960938 2.6724750995635986328 3.3130946159362792969 3.1060361862182617188 2.8891510963439941406 2.7213222980499267578 2.2064809799194335938 2.8376407623291015625 3.0147380828857421875 3.2517902851104736328 3.4261868000030517578 3.3626339435577392578 3.4603931903839111328 3.3409254550933837891 2.5703089237213134766 3.2557547092437744141 3.0879545211791992188 2.98307037353515625 3.5038874149322509766 3.3310186862945556641 2.0557045936584472656 2.4886291027069091797 1.75574493408203125 2.8360173702239990234 1.9864063262939453125 1.9902595281600952148 1 1.315482020378112793 1 1.4034458398818969727 1 2.5925157070159912109 2.5925157070159912109 1.5607722997665405273 1 1 1.1029417514801025391 2.5925157070159912109 1 1.0122760534286499023 1.1806674003601074219 2.3851757049560546875 2.0051195621490478516 1 1 2.3851757049560546875 2.5925157070159912109 1 1.2190240621566772461 1 1 1 1.224240422248840332 1.4381324052810668945 1.7333734035491943359 2.048839569091796875 2.0051195621490478516 1.1211681365966796875 2.0024030208587646484 1 1.1653940677642822266 1.0122992992401123047 1.9996994733810424805 3.0794212818145751953 2.1427450180053710938 2.9908449649810791016 2.2464818954467773438 3.13775634765625 2.4282984733581542969 2.5668389797210693359 2.9872021675109863281 3.4264068603515625 3.5242381095886230469 3.4598705768585205078 3.0685982704162597656 3.5306773185729980469 3.5487027168273925781 4.1635441780090332031 4.2018289566040039063 4.5229539871215820313 3.7291827201843261719 3.4483416080474853516 3.3929333686828613281 
3.6578364372253417969 3.3442182540893554688 3.3592400550842285156 3.8068833351135253906 3.4989805221557617188 4.1119208335876464844 4.1424241065979003906 3.4755406379699707031 2.9491896629333496094 2.9290916919708251953 3.0129802227020263672 3.8811936378479003906 3.2422399520874023438 3.2662341594696044922 3.2837665081024169922 3.3472645282745361328 2.3887174129486083984 2.4078090190887451172 1.272320866584777832 1.6216896772384643555 1.9055963754653930664 1.547809600830078125 2.3463997840881347656 3.3954668045043945313 1.7007426023483276367 2.5960474014282226563 1.8999209403991699219 3.3498253822326660156 2.8391702175140380859 3.4549787044525146484 2.9095838069915771484 3.0801775455474853516 3.1868040561676025391 2.5131864547729492188 2.2040688991546630859 1.9868466854095458984 2.7565670013427734375 3.3178381919860839844 3.0178539752960205078 1.8606716394424438477 2.2284007072448730469 1.4776083230972290039 1.6096363067626953125 1.834347844123840332 1.7054662704467773438 1.9976673126220703125 2.2499566078186035156 2.5592324733734130859 2.0055842399597167969 1.7839803695678710938 1.5424941778182983398 1.6281987428665161133 2.3892502784729003906 1.406907200813293457 1.8516312837600708008 1.7686563730239868164 1.873555302619934082 1.6849993467330932617 1.6879876852035522461 1.0201439857482910156 1.6230274438858032227 1.6581586599349975586 1.9101984500885009766 1.315482020378112793 1 1.0300425291061401367 1 2.1179404258728027344 1 2.1179404258728027344 1 1.5037115812301635742 1.315482020378112793 1.4034458398818969727 1 1 1 1 1 1.7333734035491943359 1.2333718538284301758 1.2000336647033691406 1.5815801620483398438 1.8076318502426147461 2.7690782546997070313 1.3495781421661376953 1.7045419216156005859 1.4859796762466430664 2.3210134506225585938 1.7811923027038574219 2.6280035972595214844 2.7466335296630859375 2.8463685512542724609 2.3406538963317871094 2.9911129474639892578 2.9690344333648681641 1.9996483325958251953 2.9499189853668212891 2.3735740184783935547 2.0763945579528808594 1.6710455417633056641 2.4014129638671875 2.3934228420257568359 1.7083798646926879883 2.5341641902923583984 2.8949248790740966797 3.134593963623046875 3.9176959991455078125 4.0113959312438964844 4.0359892845153808594 3.2168467044830322266 2.6173105239868164063 2.5281925201416015625 1.7348347902297973633 2.0313029289245605469 2.856540679931640625 2.5084140300750732422 2.1929574012756347656 3.3046469688415527344 3.4372286796569824219 3.2853243350982666016 3.8681459426879882813 2.9937276840209960938 2.8746371269226074219 3.8090910911560058594 3.4352061748504638672 2.8528141975402832031 3.1146287918090820313 3.8551476001739501953 4.5384993553161621094 3.9213609695434570313 3.6883590221405029297 3.6922369003295898438 2.4368534088134765625 2.7810895442962646484 3.2603981494903564453 2.5508065223693847656 2.3679001331329345703 2.3586001396179199219 2.2758481502532958984 1.8404108285903930664 1.9584543704986572266 1.9934517145156860352 1.1584376096725463867 1.5601974725723266602 2.0997419357299804688 1 1 1 1 1 2.3851757049560546875 1.4034458398818969727 1 1.1812468767166137695 1.1582262516021728516 1 1.653941035270690918 1.4938256740570068359 1.7561491727828979492 1.3080642223358154297 1 1.5037115812301635742 1 1.7333734035491943359 1.1489439010620117188 1.2118371725082397461 1 1 1 1 1.2118371725082397461 2.1242728233337402344 1.224240422248840332 1 1.0394227504730224609 1 1 1.7045601606369018555 1.0091935396194458008 2.3332722187042236328 2.5774838924407958984 3.0013558864593505859 2.2880482673645019531 2.9530990123748779297 3.1566672325134277344 2.5476369857788085938 2.8207242488861083984 3.6385743618011474609 3.2308938503265380859 3.2007317543029785156 3.2432577610015869141 3.4609754085540771484 3.7148025035858154297 4.0633168220520019531 4.124927520751953125 4.073108673095703125 3.8018956184387207031 3.9057722091674804688 3.9845697879791259766 
3.0657787322998046875 3.0768532752990722656 2.9809718132019042969 3.7061188220977783203 3.3870515823364257813 2.8950347900390625 3.8226969242095947266 3.4520804882049560547 3.7618680000305175781 2.2344658374786376953 2.5652215480804443359 2.6598765850067138672 3.0555565357208251953 2.1020355224609375 2.7485823631286621094 2.9730389118194580078 2.3552937507629394531 2.8253049850463867188 2.6035959720611572266 2.3168506622314453125 1.8735413551330566406 1.580166935920715332 1.6335463523864746094 2.0153486728668212891 2.2722165584564208984 3.1760561466217041016 2.9075868129730224609 3.0142321586608886719 3.2174801826477050781 3.2425260543823242188 2.2199840545654296875 3.5576810836791992188 2.2943394184112548828 2.96840667724609375 2.6168422698974609375 2.2563343048095703125 3.5354616641998291016 2.3204987049102783203 2.335399627685546875 3.1537847518920898438 2.1833131313323974609 2.5576901435852050781 2.4208209514617919922 2.0576741695404052734 2.1205232143402099609 2.1075296401977539063 1.911845088005065918 2.1466023921966552734 1.3274179697036743164 1.8277226686477661133 2.1808731555938720703 1.6047478914260864258 1.0121177434921264648 2.0352129936218261719 1.7528394460678100586 1.9129345417022705078 1.070923924446105957 1.3313735723495483398 1.3522214889526367188 1.7248748540878295898 1.161060333251953125 1.8810631036758422852 1.5496622323989868164 1.5213490724563598633 1.5360175371170043945 2.9214956760406494141 1 1.5601974725723266602 1 1 1.9712347984313964844 2.0051195621490478516 1.4034458398818969727 2.0051195621490478516 1 1 1 1 1 1 1 1 1.1291054487228393555 1.8477345705032348633 1.1998038291931152344 2.1838517189025878906 2.7175397872924804688 1.9838230609893798828 1.4098987579345703125 1.0063903331756591797 2.8860929012298583984 2.5988538265228271484 1.844033360481262207 1.9600629806518554688 3.0603740215301513672 2.6400649547576904297 2.3811895847320556641 3.0721197128295898438 1.5922548770904541016 2.8348355293273925781 2.1128084659576416016 2.1186935901641845703 3.0246610641479492188 1.7927116155624389648 1.9322980642318725586 2.8408169746398925781 3.44496917724609375 3.5403923988342285156 3.3815174102783203125 3.4061758518218994141 2.7351622581481933594 2.2327582836151123047 2.6828236579895019531 2.3268587589263916016 2.2373349666595458984 2.9710996150970458984 3.3300547599792480469 3.3140027523040771484 3.1057631969451904297 3.4457454681396484375 3.3578026294708251953 3.2018854618072509766 3.0515210628509521484 3.0669722557067871094 3.1544504165649414063 3.4595332145690917969 3.4669752120971679688 3.1758129596710205078 3.457248687744140625 4.1627626419067382813 3.5656161308288574219 3.9965679645538330078 4.0477762222290039063 2.9194481372833251953 2.9372353553771972656 2.5453755855560302734 2.5290539264678955078 2.4853057861328125 2.2328305244445800781 2.3203160762786865234 1.6829816102981567383 1.5786130428314208984 2.3388805389404296875 1.9494329690933227539 2.0783851146697998047 1.324756622314453125 1.0115836858749389648 2.0051195621490478516 1.2386783361434936523 1 1.4034458398818969727 1 1.1489439010620117188 1.4663612842559814453 1 1 1 1 1.4198118448257446289 1 2.0812642574310302734 2.0301828384399414063 1 1 1 2.2911133766174316406 1.7646229267120361328 2.0812642574310302734 2.2911133766174316406 1 1 1.224240422248840332 1 1.2314015626907348633 1.6230274438858032227 2.2004418373107910156 2.1179404258728027344 1.0122760534286499023 1.0335853099822998047 1.5164167881011962891 3.0591635704040527344 2.3181931972503662109 2.9521658420562744141 3.7194628715515136719 2.08374786376953125 2.1117212772369384766 2.3929431438446044922 2.8222393989562988281 3.4770367145538330078 3.3549053668975830078 3.5677390098571777344 3.6456434726715087891 3.3615405559539794922 3.5239298343658447266 3.6220412254333496094 3.7184314727783203125 4.0135350227355957031 3.6824893951416015625 3.9223346710205078125 3.5330119132995605469 
3.3271615505218505859 3.4827561378479003906 3.4762175083160400391 3.8249599933624267578 4.1887359619140625 3.9005227088928222656 3.3308506011962890625 3.2377955913543701172 2.6765687465667724609 1.7298630475997924805 2.4324293136596679688 3.9880299568176269531 3.1342668533325195313 3.7827806472778320313 2.4682760238647460938 3.1408951282501220703 2.9097638130187988281 2.6827745437622070313 1.8313164710998535156 1 1.4694652557373046875 1.4793274402618408203 2.755626678466796875 2.6988439559936523438 3.0039362907409667969 2.299526214599609375 2.4846513271331787109 3.1353664398193359375 2.2501306533813476563 3.1581175327301025391 3.0452878475189208984 2.5720298290252685547 3.3499825000762939453 2.933368682861328125 2.8994202613830566406 1.8139144182205200195 2.1450169086456298828 2.1318700313568115234 1.8152297735214233398 1.6476234197616577148 2.0718915462493896484 2.8974239826202392578 3.1192049980163574219 2.415416717529296875 2.0901858806610107422 1.884674072265625 2.0055842399597167969 2.0703001022338867188 1.404749751091003418 1.3546689748764038086 1 1.4054706096649169922 2.3893601894378662109 1.7785276174545288086 1.6590367555618286133 1.4488301277160644531 1.4467499256134033203 1.6879876852035522461 1.2563434839248657227 2.2911133766174316406 1.3080642223358154297 1.1806674003601074219 1.3862323760986328125 1 2.0918228626251220703 1 1.7894141674041748047 1 1 1 1.0091935396194458008 1 1 1.149753570556640625 1.0122760534286499023 1 2.5925157070159912109 1 1 1 1 1.0122760534286499023 1.1806674003601074219 1 2.3984644412994384766 2.0981552600860595703 1.4366517066955566406 1.8474804162979125977 1 2.0372412204742431641 1.6703017950057983398 1.8897099494934082031 1.0402054786682128906 1.9328696727752685547 2.352832794189453125 1 2.20623016357421875 1.0826737880706787109 1 2.3055553436279296875 1.9184854030609130859 2.4969573020935058594 2.6161956787109375 2.4569187164306640625 2.3085880279541015625 2.7126126289367675781 3.6422874927520751953 3.4089679718017578125 3.0716302394866943359 3.0572755336761474609 3.5431342124938964844 3.0430421829223632813 2.2286860942840576172 1.9756019115447998047 2.1974346637725830078 2.6260554790496826172 3.1915361881256103516 2.5563075542449951172 2.1654691696166992188 3.4388496875762939453 3.1543359756469726563 3.1226758956909179688 3.2554647922515869141 2.9955668449401855469 3.1559326648712158203 3.3012490272521972656 2.7503454685211181641 3.5408427715301513672 4.0867815017700195313 3.87432098388671875 3.5652434825897216797 2.9671850204467773438 3.0369267463684082031 2.9033527374267578125 3.4953565597534179688 2.1250288486480712891 2.0842833518981933594 2.7218644618988037109 2.5551857948303222656 2.5011873245239257813 2.5819401741027832031 2.1331670284271240234 1.1659885644912719727 2.2356381416320800781 2.298053741455078125 1 2.1179404258728027344 1.5037115812301635742 1.2386783361434936523 1.4034458398818969727 2.1406590938568115234 1 1 1.7294286489486694336 1 1 1 1.4034458398818969727 1.8431791067123413086 1 1.3469767570495605469 1.4672832489013671875 1.5213490724563598633 1.9294526576995849609 1.0091935396194458008 1.6230274438858032227 1.7913167476654052734 1.7218737602233886719 1.7647140026092529297 1.3904448747634887695 1 1 1.921059727668762207 1 1 1.7401551008224487305 1.8296111822128295898 1 1.4348948001861572266 2.3775990009307861328 1.7057460546493530273 1.961241602897644043 3.6817905902862548828 1.7181384563446044922 1.6683727502822875977 1.6885246038436889648 3.0616772174835205078 3.4166836738586425781 3.3282520771026611328 3.3269720077514648438 3.060184478759765625 3.7218277454376220703 3.9005560874938964844 3.6603949069976806641 3.5164828300476074219 4.074939727783203125 3.8608508110046386719 4.0028328895568847656 3.2004258632659912109 3.5527071952819824219 
3.1182041168212890625 3.7108936309814453125 3.2358624935150146484 3.4820361137390136719 4.0900874137878417969 4.23581695556640625 3.4180908203125 3.4080762863159179688 3.1864082813262939453 2.7831890583038330078 3.3971898555755615234 2.3904535770416259766 2.9485805034637451172 2.4655933380126953125 2.9867792129516601563 3.5508754253387451172 2.9169237613677978516 1.8591926097869873047 3.016582489013671875 2.0865721702575683594 1.9474344253540039063 2.4510054588317871094 1.9673248529434204102 1.0572854280471801758 2.1682631969451904297 1.931380152702331543 3.2873413562774658203 3.0374953746795654297 2.9539937973022460938 2.3477275371551513672 3.4914529323577880859 3.5040361881256103516 3.6074590682983398438 2.2592289447784423828 2.0935914516448974609 2.5762772560119628906 2.5902011394500732422 3.0614147186279296875 2.8602628707885742188 2.1318831443786621094 3.4763510227203369141 2.6056742668151855469 2.8343272209167480469 2.5833919048309326172 2.3834357261657714844 1.7774344682693481445 1.5682086944580078125 1.7625862360000610352 2.0549442768096923828 1.6249076128005981445 1.0662090778350830078 1.5815271139144897461 2.1609413623809814453 2.5087575912475585938 1.3375581502914428711 1.822552800178527832 1 1.2563434839248657227 2.2336819171905517578 1 2.3851757049560546875 1.1806674003601074219 1.3862323760986328125 1 2.1179404258728027344 1.1983001232147216797 1.4938256740570068359 1.7333734035491943359 1.1712651252746582031 1.2333718538284301758 1.1983001232147216797 1 1.2118371725082397461 1 1.2126379013061523438 1 1 1 1 1 1 1 1 1.4198118448257446289 1 1.9842832088470458984 2.1852295398712158203 2.0204598903656005859 2.6153936386108398438 1 2.5900104045867919922 2.2536907196044921875 1.9609214067459106445 1.9121096134185791016 1 1 2.1723706722259521484 1.9239604473114013672 1.1806674003601074219 1.3718458414077758789 1.1291054487228393555 2.0730640888214111328 2.9765779972076416016 2.9512655735015869141 2.8398492336273193359 2.9246118068695068359 3.0874447822570800781 2.8475756645202636719 3.0333375930786132813 3.3330833911895751953 3.4374363422393798828 3.0545721054077148438 3.6537244319915771484 2.8897721767425537109 3.1907503604888916016 3.4082617759704589844 2.3707516193389892578 2.8606445789337158203 2.9204516410827636719 3.2462356090545654297 3.1550855636596679688 3.2292733192443847656 3.2150707244873046875 3.2541873455047607422 3.2977607250213623047 3.2687849998474121094 3.6994266510009765625 3.2196907997131347656 3.5484490394592285156 3.4994761943817138672 3.1820125579833984375 2.9200549125671386719 3.4997172355651855469 2.7614643573760986328 2.140415191650390625 2.4991500377655029297 3.2978444099426269531 2.9233641624450683594 2.4277753829956054688 2.3175039291381835938 2.1082110404968261719 2.4879682064056396484 1.1789439916610717773 1.1229951381683349609 1.8431791067123413086 1 1.9294526576995849609 1.1806674003601074219 1 1 1.1806674003601074219 1.4034458398818969727 2.3429057598114013672 1 2.0051195621490478516 1 1 2.0997419357299804688 1.7685923576354980469 1 1.302908778190612793 1.2067019939422607422 1.5469286441802978516 1.3469767570495605469 1 1.9541169404983520508 2.5137398242950439453 1.9704641103744506836 2.1504557132720947266 1.6866780519485473633 1 1.3221335411071777344 2.1331670284271240234 2.4281435012817382813 1.2578637599945068359 2.0733301639556884766 1.9838912487030029297 2.4061460494995117188 1.3079981803894042969 2.731273651123046875 2.0993683338165283203 1.8438553810119628906 2.213733673095703125 1.8110156059265136719 2.5578360557556152344 2.8121235370635986328 3.0315952301025390625 3.9161112308502197266 2.9509551525115966797 3.694240570068359375 3.6450536251068115234 3.7860898971557617188 3.1456940174102783203 3.9386336803436279297 3.1811037063598632813 3.344615936279296875 3.2480289936065673828 3.3907649517059326172 3.4916257858276367188 4.1082129478454589844 
3.5979213714599609375 3.3276038169860839844 3.7382345199584960938 3.32575225830078125 4.0158185958862304688 4.3493161201477050781 3.4835500717163085938 2.8367669582366943359 3.3606364727020263672 2.5753087997436523438 2.4137773513793945313 3.4572093486785888672 3.1823990345001220703 2.3806121349334716797 3.1845684051513671875 2.2578818798065185547 3.1341693401336669922 2.6218709945678710938 2.5604307651519775391 2.4087786674499511719 2.3878393173217773438 1.123612523078918457 1.9415349960327148438 1.890674591064453125 2.8487715721130371094 2.5229108333587646484 2.50136566162109375 3.2666957378387451172 1.917162775993347168 2.0528371334075927734 2.6710340976715087891 3.2635560035705566406 3.3104393482208251953 2.7845525741577148438 3.2386684417724609375 3.2666416168212890625 3.1289601325988769531 2.3031699657440185547 3.0911035537719726563 2.810150146484375 2.0786261558532714844 1.4463961124420166016 2.2348275184631347656 2.6557030677795410156 2.9352517127990722656 2.196727752685546875 2.223148345947265625 2.2624673843383789063 2.0875458717346191406 2.4452211856842041016 1.7024524211883544922 2.6999742984771728516 1 1.8650851249694824219 2.5087575912475585938 1.174445033073425293 1.4838255643844604492 1.4461213350296020508 1.9842832088470458984 1 1.224240422248840332 2.0051195621490478516 2.3200678825378417969 1.1983001232147216797 2.3851757049560546875 1.025553584098815918 1 1.2118371725082397461 1.224240422248840332 1 2.0051195621490478516 1.1302753686904907227 1.224240422248840332 1.0070079565048217773 1.4034458398818969727 1 1 1.5607722997665405273 1.4381324052810668945 1 1 1 1.0122760534286499023 1.1653940677642822266 1.8431791067123413086 1.9047524929046630859 1 1.0990613698959350586 1.1228303909301757813 2.243144989013671875 1.9376223087310791016 1.2999980449676513672 1.0556484460830688477 1.4436619281768798828 1.7363955974578857422 1 1.9786406755447387695 1.1288888454437255859 1.3127079010009765625 1.4442545175552368164 1 1.9487509727478027344 2.58664703369140625 2.8507316112518310547 2.2666418552398681641 3.0234625339508056641 2.9529643058776855469 3.5912933349609375 3.2466504573822021484 3.4611141681671142578 2.9961612224578857422 3.1987509727478027344 2.7276036739349365234 3.0908930301666259766 3.1977825164794921875 3.5012946128845214844 3.6213824748992919922 3.0743215084075927734 3.5512363910675048828 2.9300577640533447266 3.4539148807525634766 4.1367998123168945313 3.1944112777709960938 3.1865220069885253906 3.3183150291442871094 2.8436219692230224609 2.8184123039245605469 3.2893671989440917969 4.1560578346252441406 3.3745863437652587891 3.8175141811370849609 3.1169309616088867188 3.3169617652893066406 3.4511866569519042969 2.7782900333404541016 3.2765955924987792969 3.1845564842224121094 2.8413507938385009766 2.9901266098022460938 2.1531891822814941406 1.298375248908996582 2.3475687503814697266 1.6768615245819091797 1.8999196290969848633 1.4198118448257446289 1 1.2930450439453125 1 1 2.3851757049560546875 1.2118371725082397461 1 1 1.161060333251953125 1 1.1747975349426269531 1.066537022590637207 1.1584376096725463867 1.9421523809432983398 2.4926066398620605469 1.5815271139144897461 2.1511733531951904297 1.5067596435546875 1.0343037843704223633 1.932564854621887207 1.2050306797027587891 1.5937762260437011719 2.1731152534484863281 1 1.2630890607833862305 1.4390410184860229492 2.5161130428314208984 2.7942919731140136719 2.3211286067962646484 3.1971011161804199219 1.2878175973892211914 1.7469292879104614258 2.29808807373046875 2.4323709011077880859 1.8686798810958862305 1 2.3864083290100097656 2.1202268600463867188 2.2853128910064697266 2.6803774833679199219 2.3389105796813964844 4.0438246726989746094 3.001056671142578125 3.6612527370452880859 3.7398657798767089844 3.7414352893829345703 4.2551670074462890625 3.6343491077423095703 3.7001852989196777344 4.1679868698120117188 3.5580275058746337891 3.2460486888885498047 3.1439211368560791016 3.9705410003662109375 3.6593003273010253906 
3.4427139759063720703 3.8877890110015869141 3.8193030357360839844 3.4023165702819824219 3.9932117462158203125 3.7426712512969970703 3.9199995994567871094 3.2536282539367675781 3.6792535781860351563 3.5499231815338134766 2.2402186393737792969 3.2556874752044677734 3.7936832904815673828 3.1180880069732666016 1.9173481464385986328 2.5537095069885253906 2.6455008983612060547 1.8669347763061523438 1.4833265542984008789 1.5231273174285888672 1.7364965677261352539 1.9955966472625732422 2.4809017181396484375 1.7829838991165161133 1.4766676425933837891 3.1202225685119628906 2.6164529323577880859 3.051074981689453125 2.257335662841796875 2.3673851490020751953 3.954463958740234375 2.1145081520080566406 2.7444880008697509766 3.2232494354248046875 2.5459234714508056641 2.2050101757049560547 3.7843050956726074219 2.5280358791351318359 2.6385502815246582031 2.2024669647216796875 2.655292510986328125 1.6969659328460693359 2.762920379638671875 3.2396135330200195313 3.3416903018951416016 2.362842559814453125 1.7957004308700561523 1.7899575233459472656 1.7587482929229736328 1.070923924446105957 2.1151719093322753906 2.1151719093322753906 1.4889385700225830078 1.7679600715637207031 2.9214956760406494141 1.1584376096725463867 1.5386499166488647461 1.3522214889526367188 1.5496622323989868164 1 1.1806674003601074219 1 1 1.7754449844360351563 1.7248748540878295898 2.0301828384399414063 1 1.2118371725082397461 1.6866780519485473633 1 1 1 1 1 1 1.2671102285385131836 1.606797337532043457 1 1.0115836858749389648 1.6938040256500244141 1 2.5925157070159912109 1 1.4663612842559814453 1 1 1.7561491727828979492 1.9466162919998168945 1.4461213350296020508 2.2336819171905517578 2.2308087348937988281 1.596249699592590332 1 1.0592006444931030273 2.4713728427886962891 2.2085072994232177734 1 1 2.7896454334259033203 1 1.9029079675674438477 2.2190499305725097656 2.9590287208557128906 1.9356387853622436523 2.1152811050415039063 2.5790808200836181641 2.8565633296966552734 4.26110076904296875 3.715869903564453125 3.6652135848999023438 3.1572682857513427734 2.7014515399932861328 3.2912623882293701172 3.2358074188232421875 3.5869905948638916016 2.418239593505859375 3.1640202999114990234 2.6522476673126220703 3.3802621364593505859 2.6189947128295898438 3.5469391345977783203 3.8398587703704833984 4.1890597343444824219 3.6320188045501708984 3.5035023689270019531 2.9957354068756103516 3.1789610385894775391 2.7737510204315185547 3.5305528640747070313 2.6387534141540527344 3.3515987396240234375 1.611327052116394043 1.9589797258377075195 2.4201762676239013672 2.9323401451110839844 3.3512396812438964844 3.1027505397796630859 2.3805162906646728516 2.1287453174591064453 2.2643501758575439453 2.1987483501434326172 1.5234930515289306641 1.2979609966278076172 1.4838255643844604492 1 1.7248748540878295898 2.4926066398620605469 1 1.9842832088470458984 1.5601974725723266602 1.9913885593414306641 2.6519815921783447266 1 1 1 1.2333718538284301758 2.4436948299407958984 2.3893601894378662109 1.9312839508056640625 1.2531121969223022461 1.8514734506607055664 1.7785276174545288086 2.2402157783508300781 2.4300000667572021484 1.7024524211883544922 1.8277226686477661133 1.3402467966079711914 1.7316805124282836914 1.9133378267288208008 2.2880206108093261719 2.4903130531311035156 1.8893407583236694336 1.4060074090957641602 3.2630136013031005859 1.9075779914855957031 2.8148248195648193359 2.2619366645812988281 2.5163669586181640625 2.6990370750427246094 2.4927871227264404297 2.5383489131927490234 1 2.4989073276519775391 2.7510735988616943359 2.7689449787139892578 2.6372573375701904297 3.4878003597259521484 3.997440338134765625 3.5195932388305664063 3.5384831428527832031 3.3972527980804443359 3.9225380420684814453 3.5487649440765380859 3.2875452041625976563 3.4876244068145751953 3.9240496158599853516 3.4317762851715087891 3.5671353340148925781 3.5881662368774414063 4.2115101814270019531 
3.6847710609436035156 4.1044740676879882813 3.9674704074859619141 4.4094648361206054688 3.8834812641143798828 3.9799084663391113281 3.0793738365173339844 3.6430041790008544922 3.3332760334014892578 3.0975306034088134766 1.9207165241241455078 2.0387876033782958984 2.4645793437957763672 2.1005315780639648438 1.9026045799255371094 2.0930871963500976563 1 2.6735270023345947266 2.3404843807220458984 1.833483576774597168 2.8871760368347167969 1.140684962272644043 1.665706634521484375 2.5530524253845214844 1.5783995389938354492 2.4990239143371582031 2.1409125328063964844 3.3578016757965087891 2.3701484203338623047 2.8160631656646728516 2.0564639568328857422 3.0588164329528808594 1.8166446685791015625 3.3914113044738769531 3.1599683761596679688 2.9624111652374267578 2.2830240726470947266 3.0898067951202392578 2.3418300151824951172 2.3833370208740234375 2.6564259529113769531 2.3421242237091064453 3.0562369823455810547 2.6471211910247802734 2.8953142166137695313 2.5200312137603759766 1.8998864889144897461 1.6502203941345214844 1.9370713233947753906 1.6409342288970947266 1 1.6546937227249145508 1.4559781551361083984 1.7561223506927490234 1.0300425291061401367 1.0254038572311401367 1.4673918485641479492 1.8076318502426147461 1 1 1 1.1806674003601074219 1.2707160711288452148 1.8477345705032348633 2.6519815921783447266 1 1.2439392805099487305 2.3200678825378417969 1.9955966472625732422 1 1.0115836858749389648 1 1 1 1 1 1 1 1 1 1 1 1 1 1 1 1.461832880973815918 1.1489439010620117188 1 1.4461213350296020508 1 1.1806674003601074219 1 1 1.4381324052810668945 2.1890673637390136719 1 1 1 1.2422826290130615234 2.6877055168151855469 2.2664914131164550781 3.3998751640319824219 3.0621645450592041016 2.9244060516357421875 2.9274547100067138672 3.2473638057708740234 3.4820439815521240234 3.7975001335144042969 3.225460052490234375 3.2490081787109375 3.5410304069519042969 3.5277674198150634766 3.4554080963134765625 2.7567429542541503906 3.4189672470092773438 3.1530730724334716797 3.6892259120941162109 3.0287439823150634766 3.2118406295776367188 3.3486680984497070313 3.6929028034210205078 3.7815942764282226563 3.8411092758178710938 3.0637869834899902344 3.4106771945953369141 3.824977874755859375 2.9825112819671630859 3.0886349678039550781 2.492244720458984375 2.4279243946075439453 2.6160302162170410156 2.3998162746429443359 3.2718331813812255859 3.7548625469207763672 2.6181778907775878906 2.8815753459930419922 2.6747043132781982422 1.9932903051376342773 1.6471135616302490234 1.4750646352767944336 1.9989316463470458984 1.9573105573654174805 1 1.9101984500885009766 2.4926066398620605469 1.9101984500885009766 1.6230274438858032227 1 1 1.9101984500885009766 2.3948893547058105469 1 1.1747975349426269531 1 1.7561491727828979492 1.4142925739288330078 1.5770965814590454102 1.3313735723495483398 1.7024524211883544922 1.9199559688568115234 1.79608154296875 1.8322033882141113281 2.0824682712554931641 1.9551650285720825195 1.6651285886764526367 2.0577993392944335938 2.4130127429962158203 2.4338083267211914063 2.2704768180847167969 2.6164546012878417969 2.0705859661102294922 1.5289455652236938477 2.2486689090728759766 2.4471757411956787109 2.1128506660461425781 2.4402296543121337891 2.4132316112518310547 2.966213226318359375 3.6949694156646728516 2.9413003921508789063 3.2573328018188476563 2.7098438739776611328 2.2870986461639404297 3.5795557498931884766 2.5261476039886474609 3.0219564437866210938 3.720615386962890625 3.5839040279388427734 3.7396242618560791016 3.2198266983032226563 3.6351494789123535156 3.0574262142181396484 3.3942568302154541016 3.5944852828979492188 3.6774654388427734375 3.4017212390899658203 3.7110309600830078125 3.8118474483489990234 4.126312255859375 
3.4870314598083496094 3.8597481250762939453 4.5018434524536132813 5.04863739013671875 3.9595234394073486328 3.9506382942199707031 3.7434246540069580078 3.0635323524475097656 4.1338448524475097656 3.3322610855102539063 2.0758137702941894531 3.0057435035705566406 2.3714649677276611328 2.4773790836334228516 2.2248294353485107422 2.2674610614776611328 2.9326319694519042969 3.8676664829254150391 2.1422951221466064453 3.2515902519226074219 1.3437215089797973633 2.7133450508117675781 1.9780020713806152344 1.8313821554183959961 2.4552490711212158203 2.1728911399841308594 3.1993629932403564453 2.3967747688293457031 4.0564823150634765625 3.4888935089111328125 3.1615555286407470703 2.1696710586547851563 2.9348988533020019531 3.0544373989105224609 3.0885870456695556641 1.9573955535888671875 3.5003123283386230469 3.0945050716400146484 2.3821456432342529297 1.0201853513717651367 2.5676476955413818359 1.1859925985336303711 2.4498631954193115234 2.8527798652648925781 3.4553637504577636719 2.2279922962188720703 1.5343402624130249023 1.9353153705596923828 1.9788885116577148438 2.1643047332763671875 2.1987483501434326172 1.8668384552001953125 1.4467499256134033203 2.0514826774597167969 1.9421523809432983398 1.9747595787048339844 1.9955966472625732422 2.0725774765014648438 1 1 1 2.0051195621490478516 1.7120536565780639648 2.0301828384399414063 1.1806674003601074219 1.3349899053573608398 1 1.1291054487228393555 1.8477345705032348633 1.2349509000778198242 1 1 1 1 1 1 1 1 1 1.1812468767166137695 1 1 1 1 1 1 2.0051195621490478516 1 1.224343419075012207 2.3851757049560546875 1.7561491727828979492 1 1 1 1 2.5925157070159912109 1.3083896636962890625 1 1 1 2.7565717697143554688 2.9147851467132568359 3.1168894767761230469 1.5163444280624389648 3.4389715194702148438 2.9706749916076660156 3.63208770751953125 3.4210224151611328125 3.6216394901275634766 3.6089608669281005859 3.3627460002899169922 3.17208099365234375 3.6154375076293945313 3.4443519115447998047 3.4766497611999511719 3.8610200881958007813 3.2452118396759033203 3.7917647361755371094 3.5370659828186035156 3.1558692455291748047 3.1724572181701660156 3.4533255100250244141 3.5441880226135253906 2.9084465503692626953 3.9918725490570068359 3.3581893444061279297 3.9087340831756591797 3.1728434562683105469 2.9933311939239501953 3.0585358142852783203 2.1834163665771484375 3.3521246910095214844 2.1473491191864013672 2.1345188617706298828 2.8265349864959716797 1.9722599983215332031 2.3090302944183349609 2.7834274768829345703 1.8873686790466308594 2.1511733531951904297 1.9704641103744506836 1.2194677591323852539 1.3221335411071777344 2.0301828384399414063 1.7333734035491943359 1.7165768146514892578 1 1 2.0812642574310302734 1.0664210319519042969 1.1659885644912719727 1.0300425291061401367 1.9101984500885009766 1.1712651252746582031 1.2439392805099487305 1 1 2.5120098590850830078 1.9043904542922973633 1.7024524211883544922 1.7702773809432983398 1.8502957820892333984 2.1772162914276123047 1.620480656623840332 1.5532380342483520508 2.3547997474670410156 1.6373285055160522461 2.0399539470672607422 1.8738729953765869141 2.1912124156951904297 2.0492405891418457031 1.8383173942565917969 1.8946006298065185547 2.5085575580596923828 2.7212462425231933594 3.1958591938018798828 2.6818544864654541016 2.9526484012603759766 2.91826629638671875 2.766300201416015625 3.2878177165985107422 3.2659857273101806641 2.9217634201049804688 2.6557741165161132813 3.5686123371124267578 4.2096385955810546875 4.0233883857727050781 3.0401041507720947266 3.4815313816070556641 3.1747586727142333984 3.9190738201141357422 3.4310779571533203125 3.4080436229705810547 3.8720245361328125 3.6156647205352783203 3.8742511272430419922 4.2215285301208496094 3.8260552883148193359 3.9445531368255615234 3.8477580547332763672 
3.5341472625732421875 4.614711761474609375 3.8443443775177001953 4.5693526268005371094 4.6652193069458007813 4.0244812965393066406 4.2546257972717285156 3.5858714580535888672 4.0230965614318847656 3.6344161033630371094 2.7250592708587646484 2.4757111072540283203 2.8671109676361083984 1.903445124626159668 2.3255517482757568359 1.6265708208084106445 2.654743194580078125 1.7953214645385742188 2.1194510459899902344 2.5164725780487060547 2.7142536640167236328 1.9700665473937988281 1.8580795526504516602 2.5773665904998779297 3.0679028034210205078 2.9363431930541992188 3.6961574554443359375 3.4259722232818603516 3.0530605316162109375 3.228900909423828125 3.6421597003936767578 2.6704323291778564453 4.0985350608825683594 2.4197590351104736328 3.5532481670379638672 3.2484288215637207031 3.0917956829071044922 2.6323482990264892578 1.9586600065231323242 1.1161930561065673828 1.2569290399551391602 2.0181441307067871094 2.2265131473541259766 2.2289083003997802734 1.8906186819076538086 1.9706442356109619141 2.3310413360595703125 2.4187915325164794922 1.8184905052185058594 2.1081774234771728516 1 1.1584376096725463867 1.0646628141403198242 1 2.1934187412261962891 1.5590749979019165039 1.5985388755798339844 2.0760710239410400391 1.3367605209350585938 1.4003952741622924805 2.1358518600463867188 2.0301828384399414063 1.6559642553329467773 1.8076318502426147461 2.0718338489532470703 1.8076318502426147461 1.4098987579345703125 1.224240422248840332 1 1.9560135602951049805 1 1 1 1 1.7544069290161132813 1 1 1 1 1 1.420632481575012207 1 1 1 1 1.1806674003601074219 1.4034458398818969727 1 1 1 1.4034458398818969727 1 1 1 1 1 1 1 1 1.5091295242309570313 1 2.0083675384521484375 3.2785017490386962891 3.4522466659545898438 2.7892987728118896484 2.7833940982818603516 2.9095771312713623047 3.3029725551605224609 3.4206120967864990234 3.5470767021179199219 3.1393258571624755859 3.2978074550628662109 3.1327135562896728516 3.6680021286010742188 3.2734227180480957031 3.6849880218505859375 3.4134876728057861328 3.4887025356292724609 4.253284454345703125 4.1366128921508789063 3.8236136436462402344 3.0996584892272949219 2.6341853141784667969 2.7145929336547851563 2.7522425651550292969 3.4953110218048095703 3.2591221332550048828 3.0775196552276611328 3.0813460350036621094 2.7775642871856689453 2.7870967388153076172 2.4908940792083740234 2.2819869518280029297 3.2182321548461914063 2.1729438304901123047 3.5012462139129638672 3.4510295391082763672 2.4969038963317871094 1.7546519041061401367 2.5171525478363037109 2.6752142906188964844 1 1.2035566568374633789 1.0091935396194458008 1.5985388755798339844 1.2349509000778198242 1.3267627954483032227 1.822552800178527832 2.1242299079895019531 1 1.9101984500885009766 1.6230274438858032227 1 1 1 1.5601974725723266602 2.6519815921783447266 2.2336819171905517578 1.2067019939422607422 1.86756134033203125 1.8450791835784912109 1.9595518112182617188 2.223148345947265625 2.020145416259765625 2.1064226627349853516 2.1297674179077148438 2.1131870746612548828 2.2650542259216308594 2.0763001441955566406 2.2265844345092773438 2.1092691421508789063 1.27085113525390625 1.3198360204696655273 2.7037413120269775391 3.0903270244598388672 2.7450504302978515625 3.0414035320281982422 2.9441931247711181641 3.8062853813171386719 2.8548858165740966797 3.2364361286163330078 3.4229869842529296875 2.9981024265289306641 3.0597596168518066406 3.4814729690551757813 3.4184992313385009766 4.0574440956115722656 3.96628570556640625 3.6051058769226074219 4.1683568954467773438 4.0134935379028320313 3.3704876899719238281 4.0357708930969238281 3.7046704292297363281 4.5599627494812011719 3.9367978572845458984 3.9838848114013671875 3.62872314453125 4.3797745704650878906 4.245525360107421875 
3.5917127132415771484 3.5372073650360107422 4.1968150138854980469 4.2279906272888183594 4.3477344512939453125 3.8894777297973632813 3.8494386672973632813 3.3934078216552734375 3.6982874870300292969 3.4150655269622802734 3.2716970443725585938 2.2144339084625244141 2.7214145660400390625 2.2693462371826171875 2.8568506240844726563 1.9654622077941894531 1.3214726448059082031 2.3298778533935546875 1 1.5599170923233032227 2.9398417472839355469 2.3220455646514892578 2.1218807697296142578 2.2659826278686523438 2.9483482837677001953 2.5061404705047607422 2.8674650192260742188 3.1284730434417724609 4.0998244285583496094 3.8920817375183105469 3.4611449241638183594 3.9961991310119628906 3.9557833671569824219 3.5669167041778564453 2.1583065986633300781 2.2158308029174804688 3.2342629432678222656 1.6990749835968017578 2.2944614887237548828 2.4558236598968505859 1.643131256103515625 1.7478640079498291016 2.2273628711700439453 2.2126295566558837891 1.2563434839248657227 1.7573640346527099609 2.0472710132598876953 1.822552800178527832 1.8184905052185058594 2.4759016036987304688 2.0401525497436523438 2.4739699363708496094 1.0201439857482910156 2.5120098590850830078 2.0739710330963134766 1 1.7218737602233886719 1.6879876852035522461 1 1.8072823286056518555 1.1727908849716186523 2.0783851146697998047 1.9249604940414428711 1.9421523809432983398 1.9312839508056640625 1.1584376096725463867 1.7913167476654052734 2.0783851146697998047 1.8689943552017211914 2.9214956760406494141 1.4381324052810668945 1.0115836858749389648 1 1.2386783361434936523 1.4034458398818969727 1.1302753686904907227 1.0115836858749389648 1 1 1 1 1 1 1 2.0051195621490478516 2.6554493904113769531 1.0115836858749389648 1 1.149753570556640625 1 1 2.5925157070159912109 1 1 1 1 1 1 2.5925157070159912109 1 1 3.1036624908447265625 1.7003055810928344727 3.5930876731872558594 1.9986870288848876953 3.2868702411651611328 2.6337602138519287109 2.5394670963287353516 2.7948496341705322266 3.2232849597930908203 2.9155063629150390625 3.4752225875854492188 3.3034238815307617188 2.9185042381286621094 2.9332287311553955078 3.3267381191253662109 3.5078759193420410156 4.1203675270080566406 3.8978970050811767578 3.9689910411834716797 3.9038472175598144531 3.3759453296661376953 3.0053608417510986328 3.1287400722503662109 3.3513643741607666016 3.8520939350128173828 3.6365621089935302734 2.6624729633331298828 3.9617416858673095703 3.4765067100524902344 3.3973345756530761719 2.1095728874206542969 2.7294108867645263672 2.7425534725189208984 1.7405408620834350586 2.3918046951293945313 3.3055055141448974609 2.1205739974975585938 2.4880497455596923828 1 2.9214956760406494141 1.7827785015106201172 2.2336819171905517578 1.4719004631042480469 2.3401892185211181641 2.3948893547058105469 1.9261786937713623047 1.070923924446105957 2.2895026206970214844 1.3056240081787109375 2.1634585857391357422 1.5037339925765991211 1.1439548730850219727 1 1.3221335411071777344 1.7646229267120361328 1.5985388755798339844 1.9043904542922973633 1.0331765413284301758 2.3475129604339599609 2.2965333461761474609 2.0084786415100097656 2.0172719955444335938 2.1039731502532958984 2.0073611736297607422 1.5134874582290649414 2.4309430122375488281 1.4495360851287841797 1.3825092315673828125 1.6230124235153198242 2.2228207588195800781 2.0127167701721191406 2.5648760795593261719 3.2102849483489990234 2.44184112548828125 2.9817826747894287109 2.3721497058868408203 2.9610040187835693359 3.4308781623840332031 3.1390869617462158203 2.9735853672027587891 3.4611403942108154297 3.0309224128723144531 2.6543631553649902344 3.4703969955444335938 4.06609344482421875 4.1408548355102539063 4.0681915283203125 4.2082719802856445313 4.3809800148010253906 4.4507546424865722656 3.53253936767578125 4.4075250625610351563 4.7622823715209960938 4.2102236747741699219 4.2565941810607910156 3.7121057510375976563 4.4199199676513671875 4.2377605438232421875 4.0022091865539550781 
3.1690261363983154297 3.0956244468688964844 4.0998983383178710938 3.4500367641448974609 3.5871300697326660156 3.894466400146484375 3.9338183403015136719 3.5769104957580566406 3.2867116928100585938 2.6792247295379638672 2.5180156230926513672 2.4951848983764648438 2.8210568428039550781 3.1858315467834472656 1.8471544981002807617 1 2.594791412353515625 1.8457196950912475586 2.4818565845489501953 1.6586775779724121094 2.3742296695709228516 1.4634387493133544922 2.8525433540344238281 2.2126355171203613281 1.9865320920944213867 2.5245077610015869141 2.8099088668823242188 3.9802849292755126953 4.0274214744567871094 3.9475152492523193359 3.9638020992279052734 4.3168778419494628906 3.7075753211975097656 3.3684854507446289063 1.7250641584396362305 3.1553809642791748047 2.3679611682891845703 2.0646862983703613281 2.0142812728881835938 1.7007193565368652344 1 2.4055435657501220703 2.1856646537780761719 1.962038874626159668 1 1.5213490724563598633 1.8810631036758422852 1.1584376096725463867 1.3890067338943481445 1.6457532644271850586 2.3086981773376464844 2.2895026206970214844 1.3522214889526367188 1.2118371725082397461 1.1139971017837524414 1.3221335411071777344 2.5087575912475585938 2.3676228523254394531 2.0739710330963134766 1.6230274438858032227 2.6519815921783447266 1.8810631036758422852 1.0664210319519042969 1.9504588842391967773 2.4705395698547363281 1.6398446559906005859 1.4145734310150146484 1.7573640346527099609 1.4467499256134033203 1.2772659063339233398 1.1983001232147216797 1 1 1 2.1179404258728027344 1 2.5925157070159912109 2.5925157070159912109 1 1 1.1806674003601074219 1 1 1.0115836858749389648 1 1 1.0016433000564575195 1.0115836858749389648 1 1 1 1 1 1 1.7561491727828979492 1.4381324052810668945 1 1 2.6017742156982421875 1 1.2961698770523071289 1.2140650749206542969 1 1 2.9538862705230712891 3.1551761627197265625 2.9702992439270019531 3.241546630859375 3.6489691734313964844 2.3914322853088378906 3.5256540775299072266 3.7220373153686523438 3.0040540695190429688 3.3130545616149902344 3.5464053153991699219 3.9892668724060058594 3.2598295211791992188 3.7729945182800292969 3.8477680683135986328 3.8944990634918212891 3.6467542648315429688 3.4444634914398193359 2.7435328960418701172 3.3622155189514160156 3.7596542835235595703 3.3589303493499755859 3.6627256870269775391 3.8339021205902099609 2.2398488521575927734 3.0054304599761962891 3.5609681606292724609 2.5280618667602539063 1.8784761428833007813 2.8061280250549316406 2.5375812053680419922 2.8340570926666259766 2.8903353214263916016 1.7973797321319580078 1.4688556194305419922 1.7573640346527099609 2.1075196266174316406 1 1.8668384552001953125 2.9214956760406494141 1.822552800178527832 1.3221335411071777344 1.7024524211883544922 1.6061626672744750977 1.8763796091079711914 1.8967106342315673828 1.7929359674453735352 1.5921403169631958008 2.2495932579040527344 1.7299376726150512695 1.8257665634155273438 1.7356723546981811523 1.2067019939422607422 1.1584376096725463867 2.0429468154907226563 2.1511733531951904297 2.1511733531951904297 1.6099348068237304688 1.6451152563095092773 1.6696178913116455078 1.8456646203994750977 1.8831295967102050781 1.4198328256607055664 1.8598951101303100586 1.4092016220092773438 2.1743481159210205078 2.0601933002471923828 1.8679000139236450195 2.4819316864013671875 2.4032166004180908203 2.9122185707092285156 2.6561608314514160156 3.0569317340850830078 2.6620240211486816406 3.3024358749389648438 2.9402325153350830078 3.6236274242401123047 3.3258240222930908203 2.9980676174163818359 3.0273766517639160156 3.0294165611267089844 3.6139767169952392578 3.9022824764251708984 3.3779723644256591797 4.1686239242553710938 3.9848494529724121094 4.1764631271362304688 4.1091570854187011719 4.4308414459228515625 4.3071928024291992188 3.9902667999267578125 4.1925077438354492188 4.2049975395202636719 3.8674414157867431641 3.8275098800659179688 3.8226258754730224609 
3.0345127582550048828 3.592853546142578125 3.3833909034729003906 3.1887063980102539063 3.8173353672027587891 3.6698343753814697266 3.8184306621551513672 3.3093750476837158203 3.177059173583984375 3.6839394569396972656 1.597067713737487793 2.765316009521484375 2.3751742839813232422 2.7893738746643066406 2.5042138099670410156 1.3186608552932739258 1.0954456329345703125 2.3565399646759033203 2.3455748558044433594 2.3966681957244873047 1.878224492073059082 2.9259307384490966797 2.2697169780731201172 3.2603199481964111328 3.1046049594879150391 2.8606684207916259766 3.0085918903350830078 2.8750150203704833984 3.5997438430786132813 3.9062242507934570313 3.8095312118530273438 4.303936004638671875 3.0514142513275146484 3.6491479873657226563 2.2481722831726074219 2.1023046970367431641 2.4934113025665283203 1.3935037851333618164 1.5531765222549438477 2.1380646228790283203 1.7759310007095336914 1.6645340919494628906 3.2219491004943847656 1.9182755947113037109 2.4995641708374023438 1.6559642553329467773 2.0301828384399414063 2.0718338489532470703 1.9955966472625732422 2.1389698982238769531 1.1794439554214477539 1.1584376096725463867 2.0783851146697998047 2.1254887580871582031 1.9842832088470458984 1.6828376054763793945 2.1331670284271240234 1.8207415342330932617 1.9043904542922973633 1.1646089553833007813 1.7827785015106201172 2.0334074497222900391 1.6955333948135375977 1.3132621049880981445 1.9984861612319946289 1.1223181486129760742 1.9399118423461914063 2.3039686679840087891 1.4889385700225830078 1.6491115093231201172 1.2314015626907348633 1 1.7411047220230102539 1 1 1.1302753686904907227 1 1 1.1653940677642822266 1 1 1.1806674003601074219 1.7561491727828979492 1 2.0657415390014648438 1 1 1.7244836091995239258 1 1 1 1 1 1 1 1 1 1 1.2130950689315795898 1 1.1428613662719726563 1.0380120277404785156 1.9802558422088623047 2.9630224704742431641 1.8523344993591308594 2.67279052734375 3.282871246337890625 3.04640960693359375 2.8641247749328613281 2.6891636848449707031 2.7812800407409667969 2.8825323581695556641 3.4212498664855957031 3.124401092529296875 3.0462296009063720703 3.8684980869293212891 3.3374474048614501953 3.559112548828125 3.7931368350982666016 3.6988191604614257813 4.14058685302734375 3.8072545528411865234 3.5242190361022949219 3.7707936763763427734 3.9441256523132324219 3.552799224853515625 3.4861948490142822266 3.1545624732971191406 2.9481434822082519531 2.6445407867431640625 3.0968122482299804688 2.6714470386505126953 2.4777998924255371094 2.9367365837097167969 2.7092816829681396484 2.9464552402496337891 3.3098278045654296875 2.4774000644683837891 1.7393527030944824219 2.0334074497222900391 1.306377410888671875 2.0812642574310302734 1.6278736591339111328 1.8528444766998291016 1.6546937227249145508 1.2531121969223022461 1.438717961311340332 1.7899575233459472656 1.7024524211883544922 2.1511733531951904297 1.7785276174545288086 1.35599517822265625 1.3769927024841308594 2.1404783725738525391 1.8514734506607055664 2.2895026206970214844 1 1.3383997678756713867 1.9653078317642211914 1.992415308952331543 1.9764105081558227539 1.3060431480407714844 2.2650542259216308594 1.1747586727142333984 1.8738729953765869141 1.407568812370300293 1.7705140113830566406 1.7552704811096191406 2.0192523002624511719 2.1962082386016845703 2.1191763877868652344 2.0133650302886962891 2.5943937301635742188 2.1243395805358886719 2.5676059722900390625 3.0876612663269042969 3.5861048698425292969 3.7576806545257568359 3.4660956859588623047 3.3554468154907226563 3.2628388404846191406 2.4819886684417724609 3.1909222602844238281 3.6254584789276123047 3.5815427303314208984 3.6131105422973632813 3.9587137699127197266 4.0382380485534667969 3.7849478721618652344 3.7757954597473144531 4.1173834800720214844 3.8843035697937011719 4.4615888595581054688 4.5848169326782226563 4.336833953857421875 4.1414470672607421875 3.8647224903106689453 3.7059488296508789063 4.0008606910705566406 3.62609100341796875 
2.5524327754974365234 3.3300714492797851563 3.1437096595764160156 2.6308758258819580078 3.6806530952453613281 2.4417128562927246094 3.5194127559661865234 3.1483161449432373047 3.7648584842681884766 3.6075212955474853516 3.0698540210723876953 1.7267673015594482422 3.0964157581329345703 2.8430042266845703125 1.2722032070159912109 3.0567178726196289063 2.04360198974609375 1 1.938573002815246582 2.7610261440277099609 2.1518518924713134766 2.3096673488616943359 2.6924567222595214844 2.9146983623504638672 4.0045533180236816406 3.3034081459045410156 3.2611768245697021484 4.0186963081359863281 4.1622638702392578125 3.7208805084228515625 4.4204425811767578125 3.5509014129638671875 2.9223268032073974609 2.583286285400390625 2.280887603759765625 1.9166822433471679688 2.7247235774993896484 2.6688368320465087891 1.940443873405456543 1.5639698505401611328 2.876239776611328125 1.0507024526596069336 1.3379508256912231445 2.0978231430053710938 1.3320616483688354492 1.1659885644912719727 1.2563434839248657227 1 1.4461213350296020508 1 2.0334806442260742188 1.1998038291931152344 1.174445033073425293 1.9955966472625732422 1.4142925739288330078 2.1242299079895019531 1.6955734491348266602 1.9653078317642211914 1.9043904542922973633 2.2647311687469482422 1.5741361379623413086 1.6546937227249145508 1.2067019939422607422 1.4561089277267456055 1.4672832489013671875 1.1584376096725463867 2.3050086498260498047 2.1931531429290771484 2.2895026206970214844 2.1838517189025878906 1.0201439857482910156 1 1.1302753686904907227 1 1 1 1.2386783361434936523 1.2386783361434936523 1 1.4381324052810668945 1.7561491727828979492 1.1302753686904907227 1.5037115812301635742 1 1.2386783361434936523 1 1 1 1 2.5925157070159912109 2.5925157070159912109 1 1 1.0122760534286499023 1 1.0122760534286499023 1 1.116585850715637207 1 1.4753894805908203125 1 1 1.6046466827392578125 1 1.8416082859039306641 3.0901665687561035156 3.2595126628875732422 3.2909512519836425781 2.5736324787139892578 2.70421600341796875 2.8256695270538330078 2.3731904029846191406 2.7424457073211669922 2.9502003192901611328 3.4741609096527099609 3.6670742034912109375 4.0518350601196289063 4.3976078033447265625 3.8264322280883789063 3.5671660900115966797 4.0562815666198730469 4.2098174095153808594 3.3762667179107666016 2.8664839267730712891 3.2730584144592285156 3.2022182941436767578 3.8804490566253662109 2.8139290809631347656 2.3030259609222412109 3.1568393707275390625 3.2442200183868408203 2.9160981178283691406 2.3296566009521484375 3.1894435882568359375 2.6364405155181884766 3.1715419292449951172 2.5922708511352539063 2.3054904937744140625 1.970882415771484375 2.4759016036987304688 2.3333837985992431641 1.2415163516998291016 1.4295839071273803711 1.4346278905868530273 2.3393521308898925781 1.3805397748947143555 2.1912124156951904297 2.4074797630310058594 2.049442291259765625 1.4679765701293945313 1.7668869495391845703 1.7597224712371826172 1.7899575233459472656 2.7193202972412109375 1.035849452018737793 1.9929766654968261719 2.4703662395477294922 1 1.9108444452285766602 2.3670115470886230469 1.8277226686477661133 1.2743868827819824219 1.7552704811096191406 1.9095475673675537109 1.8216260671615600586 1.6649721860885620117 2.1135675907135009766 2.1997771263122558594 2.1404783725738525391 2.4110424518585205078 2.5140502452850341797 2.1591191291809082031 2.2931706905364990234 2.5552747249603271484 2.6696538925170898438 3.1145617961883544922 3.4250731468200683594 3.6112921237945556641 3.7680199146270751953 3.7246959209442138672 3.0967800617218017578 2.4687085151672363281 3.1915376186370849609 3.3449456691741943359 3.2689540386199951172 3.8916530609130859375 3.8023579120635986328 4.051738739013671875 3.7825200557708740234 3.7197499275207519531 4.1693315505981445313 3.7763106822967529297 4.3437757492065429688 4.1497220993041992188 4.0686001777648925781 4.1807150840759277344 4.3115034103393554688 3.8296430110931396484 3.9020330905914306641 3.8901550769805908203 
3.0353639125823974609 2.3732759952545166016 2.5950422286987304688 3.2476627826690673828 2.5585069656372070313 2.1033885478973388672 3.4772036075592041016 3.4816765785217285156 3.6552278995513916016 3.2653429508209228516 3.7385661602020263672 2.9725110530853271484 3.1327121257781982422 1.756873011589050293 2.2793390750885009766 2.0582251548767089844 3.200641632080078125 2.9938750267028808594 1.0328402519226074219 1.8478606939315795898 3.2699031829833984375 2.3007421493530273438 3.1986005306243896484 3.3645067214965820313 2.7083952426910400391 2.6615240573883056641 3.3186838626861572266 3.4021432399749755859 3.1284241676330566406 3.0292119979858398438 3.0818579196929931641 3.6149921417236328125 2.6838068962097167969 2.0628223419189453125 1.8683906793594360352 1.7773441076278686523 3.2054555416107177734 2.506572723388671875 1.9368960857391357422 1.7033412456512451172 1.8646094799041748047 1.351271510124206543 1.2118371725082397461 1.1399155855178833008 1.1659885644912719727 1.6230274438858032227 2.1331670284271240234 1.7248748540878295898 1.2314015626907348633 2.0725774765014648438 2.2424716949462890625 1.3221335411071777344 2.2424716949462890625 1.3522214889526367188 2.0812642574310302734 1.6879876852035522461 1.2087839841842651367 1.5741361379623413086 1.9764105081558227539 2.1924200057983398438 1.3805397748947143555 2.3159916400909423828 1.6974800825119018555 1.6496711969375610352 1.9902595281600952148 1.2494169473648071289 1.1584376096725463867 2.4214873313903808594 1.2979609966278076172 1.1317626237869262695 1.2118371725082397461 1.3830394744873046875 1 1 1 1.4381324052810668945 1 1 1 1 1 1.0097109079360961914 1 1.4034458398818969727 1.1806674003601074219 1 1 1 1.0115836858749389648 1 1 1 1 1.1653940677642822266 1 1 2.3429057598114013672 2.3188772201538085938 1.0248224735260009766 1 2.3364946842193603516 2.0606834888458251953 1 1 1 1.7679349184036254883 1.2849329710006713867 2.4937486648559570313 2.1219580173492431641 3.150299072265625 3.0680255889892578125 2.7080485820770263672 3.6739342212677001953 3.1899232864379882813 3.4228801727294921875 3.4364902973175048828 4.1921420097351074219 3.3983173370361328125 2.8604769706726074219 3.4383449554443359375 3.0641837120056152344 3.5169949531555175781 3.3180232048034667969 3.6349081993103027344 3.0351309776306152344 3.7950112819671630859 3.0887622833251953125 3.5254311561584472656 3.6054594516754150391 3.81464385986328125 4.1036615371704101563 3.3490126132965087891 3.0584716796875 2.5765941143035888672 1.1864655017852783203 3.3241031169891357422 2.4370000362396240234 2.7503199577331542969 2.6033146381378173828 2.069976806640625 1.7097829580307006836 1.6751627922058105469 2.5920271873474121094 2.7613773345947265625 1.5566719770431518555 2.8393635749816894531 1.9776239395141601563 1.662196040153503418 1.6249076128005981445 1.6922827959060668945 2.0127167701721191406 1.5324690341949462891 2.0127167701721191406 1.3805397748947143555 1 1.5633224248886108398 2.2647311687469482422 1.6379576921463012695 1.6249076128005981445 1.8302646875381469727 2.5313937664031982422 1.6661223173141479492 2.1310629844665527344 1.8555186986923217773 2.1912124156951904297 2.3011596202850341797 1.7309179306030273438 1.5801539421081542969 2.1279704570770263672 2.4518024921417236328 2.2813944816589355469 2.3900685310363769531 1.741185307502746582 2.3248403072357177734 3.0419847965240478516 3.0436644554138183594 3.6219689846038818359 3.7815623283386230469 3.0812180042266845703 3.2325909137725830078 3.2456202507019042969 3.3903586864471435547 3.097217559814453125 3.3338856697082519531 3.613468170166015625 3.4466288089752197266 3.4249999523162841797 3.4273896217346191406 3.0656375885009765625 4.1907496452331542969 4.0141301155090332031 4.0982408523559570313 4.2231721878051757813 3.8119318485260009766 3.9979839324951171875 4.1074190139770507813 3.7082927227020263672 3.8028888702392578125 4.2615871429443359375 3.512516021728515625 
3.6333355903625488281 3.5793514251708984375 3.2262241840362548828 3.1590912342071533203 2.8292250633239746094 2.4893524646759033203 3.371246337890625 2.7580432891845703125 3.2368662357330322266 2.1468732357025146484 2.4592239856719970703 2.1886351108551025391 3.1836965084075927734 2.1652061939239501953 1.876949310302734375 1.7263634204864501953 2.232082366943359375 1.48813629150390625 2.5092515945434570313 2.0207352638244628906 2.8142104148864746094 3.3206486701965332031 3.8895931243896484375 3.4010066986083984375 3.8045024871826171875 2.9126391410827636719 3.1061279773712158203 3.3605191707611083984 4.2160334587097167969 3.5221099853515625 4.032276153564453125 2.6851799488067626953 2.0261816978454589844 2.4714589118957519531 2.1644449234008789063 1.8342071771621704102 1.8282004594802856445 2.4313416481018066406 2.0502355098724365234 1.2716699838638305664 1.2439392805099487305 1.6581586599349975586 2.6912195682525634766 2.2249948978424072266 1.8810631036758422852 1.2034605741500854492 1.8689943552017211914 1.3718758821487426758 1.7245807647705078125 1 1.5636153221130371094 1 1.6535865068435668945 1.9747595787048339844 2.1634585857391357422 1.8717769384384155273 1.2531121969223022461 1.2325131893157958984 1.5741361379623413086 1.2022141218185424805 2.0661008358001708984 2.1405785083770751953 1.2556418180465698242 1.2743868827819824219 2.5171525478363037109 1.7573640346527099609 1.5335935354232788086 2.4759016036987304688 1.4467499256134033203 1 1.1998038291931152344 1.9955966472625732422 2.0051195621490478516 1.7333734035491943359 1 1.4034458398818969727 1.1806674003601074219 1 1.0115836858749389648 1 2.1179404258728027344 1.7333734035491943359 1.3830394744873046875 1.1806674003601074219 1.1302753686904907227 1.420632481575012207 1 1 1 1 1.0122760534286499023 1.0115836858749389648 1 1 1 1 1.2716739177703857422 1 2.3851757049560546875 1 1.1812468767166137695 1.1812468767166137695 1 1.0122760534286499023 1 1.6252813339233398438 1.9166789054870605469 1.4993883371353149414 2.2426962852478027344 2.6099827289581298828 2.6088674068450927734 2.7852931022644042969 2.3020513057708740234 3.31507110595703125 3.5457336902618408203 2.7147748470306396484 3.1425557136535644531 3.7535524368286132813 3.6435248851776123047 3.3049552440643310547 2.9708192348480224609 2.6737577915191650391 3.126987457275390625 3.3305807113647460938 3.1747984886169433594 3.1104166507720947266 3.5234251022338867188 3.2567033767700195313 3.7582550048828125 3.3118078708648681641 4.4027199745178222656 3.9467906951904296875 3.4934189319610595703 2.9373335838317871094 2.5926928520202636719 2.3375566005706787109 1.7949712276458740234 2.2938745021820068359 2.6424901485443115234 2.5074033737182617188 1.8516638278961181641 1.0192940235137939453 2.0600936412811279297 2.4058146476745605469 2.1150946617126464844 1.4266457557678222656 1.8099420070648193359 1.9319604635238647461 2.3697731494903564453 1.8331952095031738281 2.1234011650085449219 1.9551650285720825195 2.1413147449493408203 2.6185762882232666016 2.2559854984283447266 1.8944329023361206055 2.2650542259216308594 1.7719808816909790039 2.0345170497894287109 2.3174173831939697266 2.5739309787750244141 1.9199559688568115234 2.1092691421508789063 1.4641523361206054688 2.1912910938262939453 2.2295477390289306641 2.3326618671417236328 2.4035472869873046875 2.7623903751373291016 2.5997452735900878906 2.0191521644592285156 2.4288668632507324219 2.6132364273071289063 2.7472195625305175781 2.6323361396789550781 3.3458268642425537109 3.5737640857696533203 3.5785825252532958984 3.0651679039001464844 3.8728322982788085938 3.6088597774505615234 3.3267314434051513672 3.3314516544342041016 3.4738612174987792969 3.4962446689605712891 3.5116655826568603516 3.3162684440612792969 3.2992951869964599609 3.4291756153106689453 4.0832567214965820313 3.8020081520080566406 3.9574615955352783203 4.1398649215698242188 4.1698441505432128906 4.0863614082336425781 4.4804491996765136719 4.3369936943054199219 3.8349716663360595703 4.3205866813659667969 4.1678738594055175781 
4.2680144309997558594 3.0764849185943603516 3.0192573070526123047 2.6089329719543457031 3.4354879856109619141 2.4769322872161865234 2.5702030658721923828 2.0084445476531982422 3.2287487983703613281 1.7170757055282592773 2.4695498943328857422 1.8495682477951049805 3.2998986244201660156 2.5831098556518554688 2.880718231201171875 1.597503662109375 2.9038131237030029297 2.1924235820770263672 3.1400139331817626953 3.3553910255432128906 3.0484993457794189453 2.644878387451171875 4.0807728767395019531 3.6101510524749755859 2.4945852756500244141 2.1794998645782470703 3.0682089328765869141 3.2103559970855712891 2.8174750804901123047 3.5429389476776123047 4.2166237831115722656 3.8022947311401367188 3.3515202999114990234 3.2435383796691894531 2.083766937255859375 1.7145649194717407227 2.3447670936584472656 2.6351649761199951172 2.2960436344146728516 2.1386878490447998047 1.8963291645050048828 1.8278752565383911133 2.0856432914733886719 1 2.2336819171905517578 1.6711772680282592773 1.5963904857635498047 2.0202853679656982422 1.8318656682968139648 1.807543635368347168 1.6230274438858032227 1.7913167476654052734 1.4145734310150146484 2.1981434822082519531 1.9902595281600952148 1 1.2743868827819824219 2.1931531429290771484 1.8896948099136352539 1.6483273506164550781 1.6035665273666381836 1.5432355403900146484 1.6661223173141479492 2.0321753025054931641 1.8635970354080200195 2.5462903976440429688 1.9653078317642211914 1.6893804073333740234 1 1.410937190055847168 2.2895026206970214844 1.224240422248840332 1.8076318502426147461 2.048839569091796875 1.1806674003601074219 2.3200678825378417969 1.1302753686904907227 1 1 1 2.0051195621490478516 2.0997419357299804688 2.1110303401947021484 2.1179404258728027344 1 1.4034458398818969727 1.7561491727828979492 2.0606834888458251953 1.1812468767166137695 1 2.0657415390014648438 2.1179404258728027344 1 2.1179404258728027344 1 1 1.2591799497604370117 1.6352928876876831055 1.1302753686904907227 1 1 1 1 1.7411047220230102539 1.1806674003601074219 1.4034458398818969727 2.2728617191314697266 2.0288176536560058594 1.4612077474594116211 1.7893383502960205078 3.4907610416412353516 3.3087263107299804688 3.5510661602020263672 3.1197760105133056641 2.6481215953826904297 2.4529850482940673828 3.9638874530792236328 3.6798303127288818359 3.1932864189147949219 3.2408297061920166016 3.5295145511627197266 2.518985748291015625 3.4211785793304443359 3.6892080307006835938 3.9085900783538818359 2.8394331932067871094 3.03753662109375 3.7145354747772216797 3.1985921859741210938 4.0182104110717773438 3.8426368236541748047 3.9135439395904541016 3.9587609767913818359 2.7517912387847900391 2.2732603549957275391 2.1491053104400634766 2.3440215587615966797 2.2687542438507080078 1 2.0153114795684814453 2.1511733531951904297 2.232273101806640625 1.070923924446105957 2.0839307308197021484 2.7539269924163818359 2.7395005226135253906 1.640313267707824707 2.5984833240509033203 2.7101485729217529297 2.4706225395202636719 2.4117529392242431641 2.6095712184906005859 2.6929309368133544922 2.7819991111755371094 1.9834617376327514648 1.9855771064758300781 1.6249076128005981445 2.1445353031158447266 2.1086070537567138672 1.9975271224975585938 2.4378163814544677734 2.5291934013366699219 1.992415308952331543 2.1489999294281005859 2.0595805644989013672 2.7083632946014404297 2.5832951068878173828 2.6535103321075439453 2.6570460796356201172 2.7933330535888671875 2.6402087211608886719 3.0371994972229003906 3.4310197830200195313 3.9368932247161865234 3.1747941970825195313 3.4634077548980712891 3.6816792488098144531 3.0904414653778076172 3.7067668437957763672 3.0423231124877929688 3.2909357547760009766 3.6608603000640869141 3.2047243118286132813 3.4300663471221923828 3.4876780509948730469 3.116588592529296875 3.2911889553070068359 3.4848334789276123047 4.0904860496520996094 3.9422571659088134766 3.763271331787109375 4.1656880378723144531 4.1787214279174804688 4.2111725807189941406 4.4993572235107421875 4.1610975265502929688 4.4287309646606445313 4.1044850349426269531 3.9882740974426269531 3.7451944351196289063 
2.9522521495819091797 3.6890904903411865234 2.1832523345947265625 2.79312896728515625 3.6508283615112304688 3.0407183170318603516 1.9900225400924682617 3.1511349678039550781 2.2141489982604980469 3.0331315994262695313 2.5726323127746582031 3.3003077507019042969 2.79930877685546875 2.7906823158264160156 2.2488639354705810547 2.9959099292755126953 2.2276821136474609375 3.1612346172332763672 1.7659777402877807617 2.7519943714141845703 3.6259202957153320313 4.0392694473266601563 3.4777495861053466797 2.7663586139678955078 3.2710111141204833984 3.1365644931793212891 3.0198004245758056641 2.5383369922637939453 3.151218414306640625 2.6675164699554443359 3.9493038654327392578 3.1526482105255126953 2.5946931838989257813 2.8360056877136230469 1.9163521528244018555 1.424983978271484375 1.9518259763717651367 1.8420723676681518555 3.3380568027496337891 2.0340816974639892578 1.9779664278030395508 1.8724420070648193359 1.9653078317642211914 1.9653078317642211914 2.4404354095458984375 2.12250518798828125 1.5149910449981689453 2.1389698982238769531 2.1936433315277099609 1.6457532644271850586 1.7165768146514892578 1.1659885644912719727 1.7248748540878295898 2.1805460453033447266 1.6352809667587280273 1.4012234210968017578 2.5592324733734130859 1.9820156097412109375 1.3340429067611694336 1.7604365348815917969 1.2743868827819824219 1.3247183561325073242 1.98541259765625 2.0791239738464355469 2.1073613166809082031 1.7552704811096191406 2.0120460987091064453 1.3221335411071777344 1.742982029914855957 1.4055457115173339844 2.1151719093322753906 1.6546937227249145508 1.1646089553833007813 1 1 1 2.1179404258728027344 1.2126379013061523438 1 1 1 1 1 1.7333734035491943359 1.1302753686904907227 1 1 1 1 1 1.4034458398818969727 1 2.0051195621490478516 1.7045601606369018555 1 1 1 2.1179404258728027344 1 1 1 2.5925157070159912109 1.2450430393218994141 1 1 1 1 1 1 1.9957411289215087891 2.5354201793670654297 2.9530005455017089844 3.0694572925567626953 3.1954298019409179688 2.988643646240234375 2.7299361228942871094 3.1525368690490722656 3.7121930122375488281 3.2855436801910400391 4.289249420166015625 3.7374269962310791016 3.1139731407165527344 1.8480738401412963867 2.4793360233306884766 3.4757936000823974609 3.5558793544769287109 3.6528699398040771484 3.1050026416778564453 3.4629342555999755859 4.1152491569519042969 4.0089445114135742188 3.4356441497802734375 3.19205474853515625 3.2166180610656738281 2.7507696151733398438 1.4856855869293212891 1 1.7573640346527099609 2.3853368759155273438 2.2895026206970214844 2.0510287284851074219 1.6249076128005981445 1.7024524211883544922 1.7028564214706420898 2.2552592754364013672 2.1533503532409667969 2.5125637054443359375 2.2584156990051269531 2.5012409687042236328 2.5341794490814208984 2.8927662372589111328 2.3779349327087402344 2.6512820720672607422 2.4733755588531494141 3.0032708644866943359 2.5853915214538574219 2.9691240787506103516 2.7094104290008544922 2.9092104434967041016 2.5671150684356689453 2.5960049629211425781 2.5298981666564941406 1.9780279397964477539 2.2415571212768554688 2.0883295536041259766 2.4539134502410888672 2.3535964488983154297 2.6329751014709472656 2.9161450862884521484 3.2346551418304443359 3.2563333511352539063 3.2047908306121826172 3.7412641048431396484 3.8375988006591796875 3.5420587062835693359 3.6549856662750244141 3.6786930561065673828 3.1900184154510498047 3.6923112869262695313 3.6491370201110839844 3.8232939243316650391 3.3731687068939208984 3.7851197719573974609 3.0527944564819335938 3.4008092880249023438 3.3803360462188720703 3.5556008815765380859 3.8655488491058349609 3.8057734966278076172 3.5788524150848388672 4.0679492950439453125 4.1324939727783203125 3.9125866889953613281 4.4329752922058105469 4.2598886489868164063 4.2783598899841308594 4.1892442703247070313 3.6654775142669677734 4.2364292144775390625 4.508312225341796875 
3.34654998779296875 2.8812842369079589844 2.7028734683990478516 3.5062518119812011719 3.3457322120666503906 2.5460247993469238281 2.7648525238037109375 2.6410958766937255859 2.84548187255859375 3.0872845649719238281 3.3653216361999511719 2.3807787895202636719 2.1096394062042236328 1.5566619634628295898 1.4194245338439941406 1.7726634740829467773 1 2.0974054336547851563 2.31742095947265625 2.8599593639373779297 3.3732581138610839844 3.5313057899475097656 3.5328252315521240234 3.3907897472381591797 3.3655264377593994141 2.9501881599426269531 3.5897588729858398438 3.5422825813293457031 3.7483637332916259766 3.4710369110107421875 3.9500634670257568359 2.6295576095581054688 2.5847311019897460938 2.1945929527282714844 1 1.5618593692779541016 1.4695539474487304688 1.9743305444717407227 2.2783243656158447266 2.7027335166931152344 2.8950006961822509766 2.8617513179779052734 2.3360846042633056641 2.2596604824066162109 2.2841966152191162109 1.9995636940002441406 2.1683950424194335938 1.9960587024688720703 1.9077358245849609375 2.7690782546997070313 1.7576227188110351563 1.6899218559265136719 2.0725774765014648438 1.3368544578552246094 1.3236577510833740234 2.0549442768096923828 1.4672832489013671875 1.682362675666809082 2.0631160736083984375 1.8572804927825927734 1.6974800825119018555 1.5297131538391113281 2.2285909652709960938 1.7399400472640991211 2.1466023921966552734 2.3158910274505615234 1.4810980558395385742 1.3397669792175292969 1.6879876852035522461 1.4629825353622436523 2.1331670284271240234 1 1.1747975349426269531 1.6230274438858032227 1.6866780519485473633 1 1.2333718538284301758 1.1806674003601074219 1 1 1 2.1179404258728027344 1 1.1983001232147216797 1 1 1 1 1.4381324052810668945 1 1.4381324052810668945 1 1 1 1 1 1 2.3851757049560546875 1.9327604770660400391 1 1 1 1 1 1 1 1 2.9452276229858398438 2.8360657691955566406 2.679931640625 2.3386552333831787109 2.8141002655029296875 2.5678005218505859375 3.2526237964630126953 2.7776355743408203125 2.461727142333984375 2.9408478736877441406 3.7204070091247558594 3.0183868408203125 3.7438378334045410156 2.3024442195892333984 3.4136555194854736328 2.4929456710815429688 2.6076376438140869141 3.5267162322998046875 2.8110420703887939453 3.1903605461120605469 3.0817592144012451172 3.3807151317596435547 3.0165605545043945313 3.0214312076568603516 3.5898478031158447266 2.8603689670562744141 2.905567169189453125 1.8798363208770751953 1.9028201103210449219 2.2204749584197998047 1.4831122159957885742 1.1400095224380493164 1.8984727859497070313 2.4251160621643066406 3.3991417884826660156 2.1543776988983154297 2.7814276218414306641 1.7239345312118530273 2.719600677490234375 2.6535058021545410156 2.5242695808410644531 2.9207723140716552734 2.9439845085144042969 2.9569630622863769531 3.1982097625732421875 2.6580419540405273438 2.5585262775421142578 3.1652414798736572266 2.86113739013671875 2.9697403907775878906 3.2172443866729736328 3.4803910255432128906 3.3255147933959960938 2.6862080097198486328 3.0395553112030029297 2.5654973983764648438 2.5911488533020019531 2.3255889415740966797 2.7619099617004394531 2.8696701526641845703 3.1633777618408203125 3.6299149990081787109 2.9911482334136962891 3.0066044330596923828 3.7913243770599365234 4.0634579658508300781 4.1086173057556152344 3.5152070522308349609 3.8824074268341064453 3.7350633144378662109 3.5285773277282714844 3.7391712665557861328 4.0675592422485351563 3.4820029735565185547 2.7143559455871582031 2.4703829288482666016 2.9171779155731201172 3.3279318809509277344 3.7389023303985595703 3.5708854198455810547 3.3031132221221923828 3.4180912971496582031 3.8756513595581054688 3.8812520503997802734 4.2470684051513671875 3.6382341384887695313 4.6683678627014160156 4.4376239776611328125 4.3107700347900390625 4.2332062721252441406 3.9241008758544921875 3.9779400825500488281 4.3892197608947753906 
2.8515157699584960938 2.7918386459350585938 2.6771728992462158203 3.3162508010864257813 2.6797847747802734375 2.5933566093444824219 3.2133886814117431641 3.5202543735504150391 3.2081084251403808594 3.8546159267425537109 2.1697909832000732422 2.4927546977996826172 2.0391025543212890625 1.9218140840530395508 1 2.5445501804351806641 1 2.9893858432769775391 2.196002960205078125 3.6879940032958984375 3.0329756736755371094 3.1175014972686767578 3.2503690719604492188 3.5537583827972412109 3.164638519287109375 3.4038503170013427734 3.5940995216369628906 3.8088872432708740234 3.1252348423004150391 3.9747254848480224609 4.0969290733337402344 3.5600457191467285156 3.5032677650451660156 2.1011912822723388672 2.4328413009643554688 2.6842186450958251953 2.0495231151580810547 2.0273966789245605469 1.8299428224563598633 2.6951966285705566406 3.2400305271148681641 2.8409552574157714844 2.8100042343139648438 2.3018648624420166016 2.1512153148651123047 2.2924032211303710938 2.0634086132049560547 1.5815271139144897461 2.0842480659484863281 1.8939896821975708008 1.6515945196151733398 2.0739710330963134766 1.2563434839248657227 1.5674089193344116211 2.6022970676422119141 2.0751657485961914063 2.3168060779571533203 1.9653078317642211914 2.1961996555328369141 2.0140461921691894531 2.0248765945434570313 1.6061626672744750977 1.8493647575378417969 1.8023748397827148438 1.4810980558395385742 1.6546937227249145508 1.6459888219833374023 1.479602813720703125 2.1242299079895019531 1.7218737602233886719 2.5087575912475585938 1.9421523809432983398 2.3401892185211181641 1 1 1.2118371725082397461 1 1 2.3335783481597900391 1 1.7333734035491943359 2.3851757049560546875 1.0097109079360961914 1.0201439857482910156 2.1179404258728027344 1.4034458398818969727 1 1 1.7561491727828979492 1.5607722997665405273 1.1653940677642822266 1 1 1.0122760534286499023 1 1 1 2.4059209823608398438 1 1 1 1 1 1 1.3608727455139160156 1 2.3638296127319335938 1.1598128080368041992 1.5707099437713623047 3.0175700187683105469 2.9949774742126464844 2.7466106414794921875 2.1313235759735107422 2.1021947860717773438 2.6925799846649169922 2.5271329879760742188 2.6291832923889160156 2.7479560375213623047 3.3985526561737060547 3.2526695728302001953 2.0427548885345458984 2.1592917442321777344 2.1664690971374511719 2.4269571304321289063 3.8795232772827148438 3.3645596504211425781 3.1395151615142822266 2.8889625072479248047 3.1030290126800537109 2.8576145172119140625 3.0516192913055419922 3.1149921417236328125 2.4866940975189208984 2.32159423828125 1.8695944547653198242 1.8657163381576538086 2.2996702194213867188 1.8915270566940307617 2.3178281784057617188 2.2537827491760253906 2.0214495658874511719 2.43306732177734375 2.5238516330718994141 2.6359241008758544922 2.8036577701568603516 2.1314749717712402344 3.3177387714385986328 3.1827893257141113281 3.5883505344390869141 2.6035325527191162109 2.72632598876953125 3.0917429924011230469 2.7364447116851806641 2.5725128650665283203 3.5125665664672851563 2.6533255577087402344 2.8629579544067382813 3.5354051589965820313 3.9035241603851318359 3.5284316539764404297 2.2937779426574707031 2.6835241317749023438 2.9682557582855224609 2.3656663894653320313 2.4404354095458984375 3.2196474075317382813 3.6871404647827148438 3.2990636825561523438 3.6172428131103515625 3.2800343036651611328 3.4080073833465576172 3.4422507286071777344 3.5429425239562988281 3.4827489852905273438 3.3541493415832519531 3.3783292770385742188 3.368366241455078125 3.8096830844879150391 4.1231546401977539063 3.8455703258514404297 3.2547597885131835938 2.8820779323577880859 2.8338556289672851563 2.6355497837066650391 3.66905975341796875 3.6092386245727539063 3.7618663311004638672 3.7211050987243652344 3.44873046875 2.9456064701080322266 3.2301983833312988281 3.8474440574645996094 3.3714582920074462891 3.6224460601806640625 4.0565638542175292969 4.1021595001220703125 3.6202611923217773438 3.8925426006317138672 3.6016550064086914063 3.8084805011749267578 
3.1446015834808349609 3.1122546195983886719 3.1491503715515136719 2.7622878551483154297 3.5494692325592041016 2.9296076297760009766 3.2434689998626708984 2.8571085929870605469 3.6619703769683837891 2.8814535140991210938 3.5197234153747558594 2.1530485153198242188 2.5014741420745849609 2.0534033775329589844 1 1.2906520366668701172 2.2594690322875976563 1.2557770013809204102 2.6929581165313720703 3.5192110538482666016 2.9702196121215820313 3.4602825641632080078 3.5964198112487792969 4.0257306098937988281 3.5208756923675537109 2.3821232318878173828 3.0901005268096923828 3.4193780422210693359 3.8989498615264892578 4.4003062248229980469 3.6682882308959960938 3.5368354320526123047 3.0225594043731689453 3.2405378818511962891 3.0951619148254394531 3.2012348175048828125 2.9396214485168457031 2.7495901584625244141 2.58966827392578125 3.8097131252288818359 3.2064261436462402344 3.5360670089721679688 3.6721148490905761719 3.3973877429962158203 3.0803971290588378906 2.1288120746612548828 2.0014121532440185547 2.3681571483612060547 2.2965333461761474609 1.7895742654800415039 2.2082488536834716797 2.1466023921966552734 1.0458649396896362305 2.6110341548919677734 2.5415728092193603516 1.9877982139587402344 1 1 2.2944216728210449219 1.86756134033203125 1.72434234619140625 1.2008152008056640625 1.2067019939422607422 2.8360173702239990234 1.6546937227249145508 1.1794439554214477539 1.7024524211883544922 1.5014295578002929688 1.822552800178527832 2.0127167701721191406 2.0209100246429443359 1 2.3401892185211181641 2.0812642574310302734 2.0051195621490478516 1.4260057210922241211 1 1.1302753686904907227 1 1 2.3851757049560546875 1.7333734035491943359 1.1653940677642822266 1.5037115812301635742 1 1.5601974725723266602 1 1 1 1 1.0097109079360961914 1 1 1 1 1.5607722997665405273 1 2.3851757049560546875 1.3118278980255126953 1 1 1 1.555460810661315918 1.2205584049224853516 1.4932310581207275391 1.1551860570907592773 1.4932353496551513672 2.5287268161773681641 1.7052417993545532227 2.7601222991943359375 2.8674902915954589844 3.1623070240020751953 3.0147051811218261719 2.6934690475463867188 2.2454199790954589844 2.4276769161224365234 3.1795828342437744141 3.2488367557525634766 3.3267290592193603516 2.4515922069549560547 2.7720675468444824219 2.2084496021270751953 3.0397307872772216797 2.6879994869232177734 2.6202931404113769531 2.1953918933868408203 3.3993499279022216797 3.2261741161346435547 1.8382728099822998047 2.4974284172058105469 2.6674044132232666016 2.8875970840454101563 2.9360003471374511719 2.1651098728179931641 2.5954785346984863281 1.7828168869018554688 2.7069301605224609375 2.2467088699340820313 2.4726912975311279297 2.7576644420623779297 2.2843842506408691406 2.5124695301055908203 2.1834118366241455078 3.0015716552734375 3.2440214157104492188 2.8544282913208007813 2.8315498828887939453 2.832065582275390625 2.5092916488647460938 2.3170454502105712891 3.2136275768280029297 2.8050122261047363281 3.2348225116729736328 3.4684233665466308594 3.3337085247039794922 2.7958309650421142578 3.3075850009918212891 3.3486506938934326172 3.1283957958221435547 3.5750861167907714844 3.2012794017791748047 3.022491455078125 2.8882930278778076172 2.9622213840484619141 2.9749059677124023438 2.9920258522033691406 3.5340754985809326172 3.45679473876953125 3.3233690261840820313 3.2256598472595214844 3.2494902610778808594 3.6445686817169189453 3.5066325664520263672 3.3758387565612792969 3.0741410255432128906 3.5762498378753662109 3.8227856159210205078 3.3808948993682861328 3.4569864273071289063 3.0520405769348144531 3.2559664249420166016 2.8022370338439941406 2.7079088687896728516 2.9055876731872558594 2.8006143569946289063 2.9119966030120849609 3.3779251575469970703 3.5499238967895507813 3.3248705863952636719 3.1513178348541259766 3.5124328136444091797 3.5412099361419677734 3.5063693523406982422 3.4935729503631591797 3.6838145256042480469 3.8295240402221679688 3.8341045379638671875 3.3356151580810546875 3.1199491024017333984 2.9885289669036865234 
2.6625325679779052734 3.6388123035430908203 3.1479189395904541016 3.3015089035034179688 3.0371592044830322266 3.5292987823486328125 3.3412275314331054688 2.5657205581665039063 3.17771148681640625 2.8794314861297607422 2.5666024684906005859 3.4020771980285644531 3.3766770362854003906 1.9624975919723510742 2.0582003593444824219 2.0185565948486328125 2.8116643428802490234 2.9818160533905029297 2.1379754543304443359 3.541095733642578125 2.5091176033020019531 3.2005531787872314453 3.5090725421905517578 3.7397263050079345703 3.792133331298828125 3.4198954105377197266 3.6797680854797363281 3.3981707096099853516 3.746334075927734375 3.2877848148345947266 2.8140802383422851563 2.7926778793334960938 3.1591362953186035156 2.2363252639770507813 2.6576030254364013672 2.86476898193359375 2.424854278564453125 3.0041391849517822266 2.2393481731414794922 2.7987024784088134766 3.0949194431304931641 3.0364181995391845703 3.3729777336120605469 3.24599456787109375 2.6320450305938720703 2.3907361030578613281 2.7472667694091796875 2.4300005435943603516 2.0237157344818115234 1.6858855485916137695 2.1617040634155273438 2.4185605049133300781 2.1733996868133544922 1.7527946233749389648 2.6894552707672119141 1.7604365348815917969 2.0439994335174560547 1.3340429067611694336 2.4505040645599365234 2.2617380619049072266 1.7271730899810791016 1.9601929187774658203 1.5741361379623413086 1.6136653423309326172 1.5815271139144897461 1.1584376096725463867 1.7880367040634155273 2.1838517189025878906 1.7719434499740600586 1 1.1322900056838989258 1.4467499256134033203 1.5386499166488647461 1.1489439010620117188 1.7561491727828979492 1.7561491727828979492 1 1.4381324052810668945 1 2.2911133766174316406 1.1399155855178833008 1 1 1.1806674003601074219 2.1386957168579101563 1 1 1 1.2118371725082397461 1.4381324052810668945 2.3851757049560546875 1 1 1.1812468767166137695 1 1 1 2.3851757049560546875 1 2.0997419357299804688 1 1 1 2.10495758056640625 1 1.2314015626907348633 1 1.7835021018981933594 1.9705727100372314453 1.742982029914855957 2.9287843704223632813 2.7873463630676269531 2.2403523921966552734 2.635150909423828125 2.3731215000152587891 2.0038149356842041016 3.2164707183837890625 3.4807693958282470703 2.3364267349243164063 2.7034044265747070313 1.8684717416763305664 2.5231807231903076172 1.7835659980773925781 2.3725931644439697266 2.5291159152984619141 3.0810184478759765625 1.7936204671859741211 2.4686019420623779297 1.5143413543701171875 1.7355707883834838867 1.7298005819320678711 2.1299929618835449219 2.7621614933013916016 2.3440215587615966797 2.2522003650665283203 1.9934517145156860352 2.0426003932952880859 2.0728290081024169922 2.5291171073913574219 2.5968973636627197266 1 1.7885987758636474609 2.106689453125 1.5420261621475219727 2.1987483501434326172 2.2128322124481201172 2.3323671817779541016 1.9919285774230957031 2.6934921741485595703 2.4222397804260253906 3.1709268093109130859 2.9808652400970458984 2.92120361328125 2.7569074630737304688 2.4730486869812011719 3.1955723762512207031 3.0310149192810058594 3.2230210304260253906 3.7775375843048095703 3.0203344821929931641 3.8459131717681884766 2.6316900253295898438 2.3990616798400878906 2.5678420066833496094 2.7811720371246337891 2.9781544208526611328 3.2357039451599121094 3.7262053489685058594 2.79715728759765625 3.6657726764678955078 3.2949357032775878906 3.1266756057739257813 2.6705691814422607422 3.0210180282592773438 3.1849751472473144531 3.2828390598297119141 3.8532330989837646484 3.3565096855163574219 3.9323623180389404297 2.9809491634368896484 2.6241922378540039063 3.0421373844146728516 2.6199312210083007813 3.3642504215240478516 2.8398635387420654297 2.4485194683074951172 3.1832091808319091797 3.7690351009368896484 3.5318198204040527344 3.1644778251647949219 3.0158717632293701172 3.1701312065124511719 3.4485564231872558594 3.2146403789520263672 3.2961871623992919922 3.1123821735382080078 3.5342004299163818359 3.0417490005493164063 2.6297504901885986328 2.9738745689392089844 
2.6106052398681640625 3.1406202316284179688 3.0512437820434570313 1.2947516441345214844 3.7561197280883789063 2.7564702033996582031 3.9265031814575195313 3.6168675422668457031 3.2537620067596435547 3.2300505638122558594 3.0064644813537597656 2.2583708763122558594 3.0115828514099121094 3.3174285888671875 1.3718791007995605469 2.7284486293792724609 3.1139435768127441406 2.4387054443359375 2.5990507602691650391 2.08538055419921875 3.1162889003753662109 3.4665637016296386719 3.2425971031188964844 3.2976996898651123047 3.8256940841674804688 4.0636205673217773438 3.5610985755920410156 2.8974995613098144531 3.3968994617462158203 2.7517435550689697266 2.7600305080413818359 3.1351666450500488281 2.6919200420379638672 2.1240150928497314453 2.3309500217437744141 3.2287385463714599609 2.2949149608612060547 2.5420448780059814453 3.1007189750671386719 3.0463171005249023438 4.0214896202087402344 3.2687261104583740234 2.9593486785888671875 2.9815092086791992188 3.9180293083190917969 2.566722869873046875 3.0146505832672119141 2.6825635433197021484 2.3418285846710205078 2.7696552276611328125 2.455364227294921875 2.1377804279327392578 1.8304426670074462891 2.3412206172943115234 1.775986790657043457 1.870921015739440918 2.0127167701721191406 2.0497829914093017578 1.8265314102172851563 1.8257665634155273438 1.8615753650665283203 1.9713016748428344727 1.8763796091079711914 1.2743868827819824219 2.7193202972412109375 2.4759016036987304688 1.7024524211883544922 1.9541169404983520508 2.2647311687469482422 1.3504334688186645508 2.3440215587615966797 2.7690782546997070313 1.3862323760986328125 1 1 1.0122760534286499023 1 1 1.3080642223358154297 2.6519815921783447266 1.2333718538284301758 1.0201439857482910156 2.0997419357299804688 2.1179404258728027344 2.1179404258728027344 1.7757506370544433594 1.3456426858901977539 2.3200678825378417969 2.3851757049560546875 1 1 1 1 1 1 1 1 1 1.7802110910415649414 1.2205544710159301758 1 1.4050400257110595703 2.2105174064636230469 2.2237882614135742188 1.1321675777435302734 1.5142297744750976563 1.8653589487075805664 1.880147099494934082 3.0425121784210205078 1.7639489173889160156 2.4808855056762695313 1.4733448028564453125 2.2837784290313720703 2.9281725883483886719 1.8146409988403320313 2.0680429935455322266 2.5487117767333984375 2.2137329578399658203 1.9922274351119995117 2.5644283294677734375 1.2964518070220947266 1.9889135360717773438 2.4098095893859863281 2.1875405311584472656 1.518626093864440918 2.427295684814453125 2.5714383125305175781 2.5665636062622070313 2.1213037967681884766 2.3010284900665283203 1.8338131904602050781 1.7227816581726074219 1 2.0812642574310302734 1.0240589380264282227 1 1.5570359230041503906 2.0017342567443847656 1.50904083251953125 2.4411511421203613281 1.7024524211883544922 2.6009809970855712891 2.0602214336395263672 2.5297884941101074219 1.9702692031860351563 2.8778553009033203125 2.2400219440460205078 1.9472224712371826172 2.2592873573303222656 3.1860165596008300781 2.6692175865173339844 2.9232244491577148438 2.6573922634124755859 2.2296178340911865234 3.0181624889373779297 2.7311539649963378906 3.3007929325103759766 2.7872889041900634766 3.2358057498931884766 2.9591648578643798828 2.4807922840118408203 2.6297519207000732422 3.3455336093902587891 1.8585506677627563477 3.1258680820465087891 2.7589147090911865234 2.6905410289764404297 3.0674142837524414063 3.4059145450592041016 3.1674733161926269531 3.0420277118682861328 2.9633684158325195313 2.539966583251953125 3.3473012447357177734 2.4833109378814697266 3.2406473159790039063 3.2984609603881835938 2.6020724773406982422 3.6702446937561035156 3.1373965740203857422 3.076206207275390625 2.9462327957153320313 2.6768584251403808594 2.6006526947021484375 2.6152930259704589844 2.6268322467803955078 3.2254304885864257813 3.0224590301513671875 2.6148087978363037109 3.0371363162994384766 2.8477611541748046875 2.9494721889495849609 3.0172045230865478516 2.829692840576171875 3.30408477783203125 3.5781109333038330078 2.8765392303466796875 3.2756266593933105469 2.18776702880859375 2.8415038585662841797 
2.8260846138000488281 2.7593278884887695313 3.6898255348205566406 3.0565359592437744141 3.1435651779174804688 3.4434709548950195313 4.1243529319763183594 3.6350278854370117188 3.6555931568145751953 3.6981079578399658203 2.8688921928405761719 3.0502882003784179688 3.5520775318145751953 2.8525922298431396484 2.6063864231109619141 2.9688391685485839844 2.7486133575439453125 2.2910439968109130859 2.1322407722473144531 2.1797797679901123047 2.1789901256561279297 3.0760838985443115234 3.4395296573638916016 3.0388255119323730469 3.4678206443786621094 4.0706925392150878906 3.9679327011108398438 3.2764620780944824219 3.3299806118011474609 3.5829911231994628906 3.4773592948913574219 3.2574455738067626953 2.9053618907928466797 1.9302295446395874023 2.0788557529449462891 2.7960791587829589844 2.6214106082916259766 2.9495787620544433594 3.1906998157501220703 3.9325416088104248047 3.2920329570770263672 3.0335166454315185547 3.2345221042633056641 3.3008518218994140625 2.6001708507537841797 3.7730860710144042969 2.7496554851531982422 2.6670300960540771484 2.8134775161743164063 3.1441562175750732422 2.0172398090362548828 2.3041615486145019531 2.4675295352935791016 2.7185611724853515625 2.3455333709716796875 2.0046377182006835938 1.8605993986129760742 1.6314948797225952148 1.6249076128005981445 2.177524566650390625 2.1511733531951904297 1.4055457115173339844 1.8728826045989990234 1.7587482929229736328 1.8277226686477661133 1.8514734506607055664 2.1633558273315429688 1 1.3056240081787109375 1.7705140113830566406 1.9028708934783935547 1.7576227188110351563 1 2.3851757049560546875 1 2.0051195621490478516 1 1.4381324052810668945 1 1 2.0783851146697998047 1.1998038291931152344 1 1.4607796669006347656 1 1.4034458398818969727 1.4034458398818969727 2.3851757049560546875 1 1.0454745292663574219 1 1 1.1806674003601074219 1.3080642223358154297 1 2.0657415390014648438 1 1 1.0122760534286499023 1.1806674003601074219 1 2.6039988994598388672 1.6040418148040771484 2.2826502323150634766 1.8500046730041503906 1 1.2616460323333740234 1.186697840690612793 2.6589589118957519531 2.3987176418304443359 1.7470608949661254883 1.9936562776565551758 1.680830836296081543 2.3364164829254150391 2.1814897060394287109 2.2025499343872070313 2.6711966991424560547 3.2484047412872314453 1.8728011846542358398 2.8816981315612792969 1.8206949234008789063 1 2.0405390262603759766 1.5886771678924560547 3.3134260177612304688 2.0478565692901611328 1.4994226694107055664 1.4694983959197998047 2.3864495754241943359 2.0718338489532470703 2.9980335235595703125 1.7754449844360351563 1.0201439857482910156 1.4198118448257446289 2.9214956760406494141 2.4543039798736572266 2.2895026206970214844 1 1.6663268804550170898 2.8047914505004882813 3.2143101692199707031 2.0225095748901367188 2.1541748046875 1.6155458688735961914 1.9849040508270263672 3.5282084941864013672 3.0250315666198730469 3.2471780776977539063 2.159397125244140625 2.4853842258453369141 2.900951385498046875 3.0408480167388916016 2.5840332508087158203 3.1899459362030029297 2.2786269187927246094 2.2434782981872558594 2.910419464111328125 2.2537569999694824219 3.3737685680389404297 2.8044724464416503906 2.9945178031921386719 3.0091297626495361328 3.4036471843719482422 2.8963367938995361328 3.2431063652038574219 2.7303624153137207031 2.8364520072937011719 3.6730840206146240234 3.0756657123565673828 3.4580855369567871094 3.0033211708068847656 3.5573191642761230469 2.8377058506011962891 3.20598602294921875 2.7742497920989990234 3.0417330265045166016 2.6820399761199951172 2.6280357837677001953 2.8785991668701171875 2.9057374000549316406 2.8283274173736572266 3.0487434864044189453 3.0887229442596435547 2.8158767223358154297 3.1498513221740722656 2.5104606151580810547 3.0317740440368652344 3.6903803348541259766 3.1509947776794433594 2.3597600460052490234 3.0668811798095703125 2.6206572055816650391 2.1630959510803222656 2.9045257568359375 2.7324607372283935547 3.0874669551849365234 2.6450688838958740234 2.4594900608062744141 2.4322080612182617188 2.1193304061889648438 
2.5643339157104492188 3.0363354682922363281 2.6009018421173095703 3.2260069847106933594 3.8300917148590087891 3.6290106773376464844 3.4758868217468261719 3.9885349273681640625 3.3169252872467041016 3.4453766345977783203 4.0532884597778320313 3.2102403640747070313 3.7325768470764160156 2.8242928981781005859 2.2407257556915283203 2.6980047225952148438 1.935765385627746582 2.3206288814544677734 2.5353877544403076172 2.1273553371429443359 2.3600027561187744141 3.0343682765960693359 3.4784152507781982422 3.6950471401214599609 3.3568670749664306641 3.4559764862060546875 3.2669317722320556641 3.3022854328155517578 3.3241336345672607422 3.2803821563720703125 2.8551278114318847656 3.7207396030426025391 2.1447927951812744141 2.0358536243438720703 2.479633331298828125 2.6082377433776855469 2.8912348747253417969 2.8953311443328857422 3.0716760158538818359 3.7159829139709472656 3.1874270439147949219 3.2504112720489501953 2.6859197616577148438 3.1015131473541259766 3.3636889457702636719 2.3550591468811035156 3.0400931835174560547 2.5857942104339599609 2.7688305377960205078 3.0378181934356689453 2.0805442333221435547 2.2998909950256347656 1.7654154300689697266 2.0344145298004150391 2.3517744541168212891 2.3083441257476806641 2.1404783725738525391 1.6661223173141479492 1.5800821781158447266 1.7587482929229736328 1.6965444087982177734 2.1092691421508789063 2.2605135440826416016 1.9688870906829833984 1.981693267822265625 1.9972989559173583984 1.9240708351135253906 1.8514734506607055664 1.2295614480972290039 2.0248765945434570313 1.8277226686477661133 2.0334806442260742188 1.9101984500885009766 1 1.15058135986328125 1 1.5037115812301635742 1.1747975349426269531 2.2022950649261474609 1.2563434839248657227 1.3890067338943481445 1 2.8249199390411376953 1 2.4307932853698730469 2.0657415390014648438 1.4034458398818969727 1.161060333251953125 1.224240422248840332 1 1.224240422248840332 1.5097987651824951172 1.0201439857482910156 1.8755549192428588867 1.4034458398818969727 1.0122760534286499023 1 1 1 1 1.3993632793426513672 1 2.5096962451934814453 2.1142473220825195313 1.6470291614532470703 2.5233538150787353516 2.2857339382171630859 1.781291961669921875 2.9526169300079345703 2.0374732017517089844 1.6042919158935546875 1.776640772819519043 2.4329774379730224609 1.6371273994445800781 2.2895026206970214844 2.0568087100982666016 2.527233123779296875 2.1973941326141357422 2.7764217853546142578 2.5364227294921875 1.9603862762451171875 2.0314776897430419922 2.6906456947326660156 2.11232757568359375 2.7848153114318847656 1.8934395313262939453 1.3526839017868041992 2.4590690135955810547 2.5391764640808105469 1.5814337730407714844 2.4800784587860107422 2.4539539813995361328 1.9081599712371826172 2.2622480392456054688 1.7576227188110351563 1.7488470077514648438 1.1667941808700561523 1.5248945951461791992 2.1511733531951904297 2.3699488639831542969 2.6233196258544921875 2.4518671035766601563 1.9983388185501098633 2.1554825305938720703 2.1548955440521240234 2.5907578468322753906 2.4745514392852783203 1.4735101461410522461 2.8222167491912841797 2.8969616889953613281 2.6741499900817871094 3.3653693199157714844 2.9029142856597900391 2.3611667156219482422 3.2113194465637207031 3.1780300140380859375 3.0999929904937744141 2.7942006587982177734 3.4405238628387451172 3.4414031505584716797 2.3248372077941894531 2.8544113636016845703 2.1118211746215820313 2.5020415782928466797 3.7480261325836181641 3.7146511077880859375 3.1212835311889648438 3.5731146335601806641 3.1104328632354736328 3.7086770534515380859 3.4822707176208496094 3.1360478401184082031 2.4054269790649414063 2.8986234664916992188 2.5175156593322753906 2.2351043224334716797 3.0190427303314208984 2.8122739791870117188 2.7593801021575927734 2.9020683765411376953 3.34096527099609375 2.8095486164093017578 3.1200373172760009766 2.2811019420623779297 2.9482519626617431641 2.9416215419769287109 3.0410706996917724609 3.4913675785064697266 2.9941511154174804688 2.9533529281616210938 2.6984527111053466797 2.6972260475158691406 2.1465845108032226563 2.3318331241607666016 3.1744742393493652344 2.8282032012939453125 2.8120322227478027344 2.7682049274444580078 2.0566296577453613281 2.0389156341552734375 
4.1441206932067871094 3.3447012901306152344 2.9310595989227294922 3.9965994358062744141 4.4392371177673339844 3.2919874191284179688 3.8402144908905029297 4.3276920318603515625 3.8191447257995605469 3.3938379287719726563 2.7310154438018798828 3.008602142333984375 2.9319489002227783203 3.5260450839996337891 3.1549646854400634766 2.7242176532745361328 2.6216790676116943359 2.5467433929443359375 2.231845855712890625 2.5034923553466796875 2.6108222007751464844 2.8761751651763916016 3.2157125473022460938 3.2918813228607177734 3.8291909694671630859 3.3842253684997558594 3.1278884410858154297 3.6092014312744140625 3.3951997756958007813 3.6561558246612548828 3.7503643035888671875 2.9823982715606689453 2.0369534492492675781 2.2816386222839355469 2.5407741069793701172 2.7823760509490966797 2.4744784832000732422 3.1462953090667724609 3.4933924674987792969 3.2252981662750244141 3.482425689697265625 3.4622402191162109375 3.2810013294219970703 2.7214379310607910156 3.1320979595184326172 3.5501897335052490234 3.3424994945526123047 2.7036311626434326172 2.8317320346832275391 2.5362231731414794922 2.3588423728942871094 2.0733017921447753906 2.8518266677856445313 2.2029626369476318359 1.8661377429962158203 1.3247183561325073242 2.1537280082702636719 1.6354019641876220703 2.1981792449951171875 1.7908620834350585938 2.0920169353485107422 2.2702085971832275391 2.3892111778259277344 1.7345983982086181641 2.0693771839141845703 2.1774525642395019531 1.6457532644271850586 2.2647311687469482422 1.6487275362014770508 1.7552704811096191406 2.0209100246429443359 1.5985388755798339844 1.1998038291931152344 1.1747975349426269531 1.8431791067123413086 2.1358518600463867188 1.1489439010620117188 1.2785243988037109375 1 1 1.7906336784362792969 2.544002532958984375 1.1758394241333007813 1.4461816549301147461 1 1.1653940677642822266 1.7561491727828979492 1 1 1.1242772340774536133 1.7333734035491943359 1.0097109079360961914 1.7333734035491943359 1.9712347984313964844 1 1.2381994724273681641 1.1828012466430664063 1 1 1.2219164371490478516 2.6747949123382568359 1 2.6350338459014892578 2.1904249191284179688 2.2633678913116455078 1 2.3007907867431640625 2.7125906944274902344 1.6658776998519897461 2.4822030067443847656 2.3677394390106201172 2.1956198215484619141 1.1129251718521118164 2.5737748146057128906 2.2603278160095214844 2.6402938365936279297 2.0879199504852294922 2.1201848983764648438 1.7666527032852172852 1.2161870002746582031 2.4378163814544677734 2.8391878604888916016 2.6181976795196533203 1.7454454898834228516 2.0141222476959228516 2.4136364459991455078 2.0124166011810302734 1.2951662540435791016 1.5099369287490844727 2.7917356491088867188 2.032024383544921875 2.1590850353240966797 1.4277358055114746094 1.7758247852325439453 1.7961449623107910156 1.1910370588302612305 1.8623855113983154297 1.2950268983840942383 1.7101862430572509766 2.4176306724548339844 2.6777369976043701172 2.4250469207763671875 2.6939754486083984375 2.9316589832305908203 2.2402918338775634766 2.7834877967834472656 2.9553017616271972656 3.0461359024047851563 2.4127709865570068359 2.4396207332611083984 3.6621010303497314453 3.075305938720703125 2.9057526588439941406 3.0432515144348144531 2.6666858196258544922 2.9835448265075683594 3.3272254467010498047 2.9869067668914794922 2.54286956787109375 2.9964489936828613281 3.0862700939178466797 2.9934461116790771484 3.3800702095031738281 2.9824168682098388672 2.6084923744201660156 2.9345879554748535156 3.3594529628753662109 3.5978653430938720703 3.3305170536041259766 3.2189435958862304688 2.8744137287139892578 3.2019169330596923828 2.8351485729217529297 2.8549046516418457031 3.2670338153839111328 2.3222038745880126953 2.9045889377593994141 3.4702317714691162109 3.1681549549102783203 3.0470173358917236328 2.3355386257171630859 2.9621384143829345703 2.8871219158172607422 2.3698375225067138672 2.827030181884765625 3.2585165500640869141 3.0248532295227050781 3.1927311420440673828 2.7444276809692382813 2.9977862834930419922 2.6327922344207763672 2.7927231788635253906 2.6776456832885742188 2.6609983444213867188 1.9502241611480712891 3.3007054328918457031 2.9138998985290527344 2.5196638107299804688 2.6215386390686035156 1.826503753662109375 
3.7297821044921875 3.2874302864074707031 3.7331602573394775391 4.4661684036254882813 4.6901559829711914063 4.7142801284790039063 5.2463374137878417969 3.9542329311370849609 3.8969159126281738281 4.3335919380187988281 4.3124513626098632813 3.4370157718658447266 2.8770287036895751953 3.2897641658782958984 3.9913823604583740234 3.3686735630035400391 2.8570914268493652344 2.5490539073944091797 2.4010467529296875 2.4759440422058105469 1.7990136146545410156 2.9530866146087646484 3.6054673194885253906 3.4292283058166503906 3.5166423320770263672 3.5650238990783691406 2.56714630126953125 3.0767822265625 3.538982391357421875 3.1869745254516601563 2.2783761024475097656 3.112102508544921875 3.1653599739074707031 3.1542994976043701172 2.9601664543151855469 3.1414475440979003906 2.89987945556640625 3.4999947547912597656 3.2067897319793701172 3.2149264812469482422 3.3478167057037353516 3.0512871742248535156 2.4181058406829833984 2.727321624755859375 2.8826854228973388672 2.7233250141143798828 3.1647439002990722656 2.7176647186279296875 2.9302394390106201172 2.3578798770904541016 2.9596953392028808594 1.9004950523376464844 2.0841672420501708984 1.9150930643081665039 1.8224060535430908203 2.2347784042358398438 2.3364031314849853516 2.3459074497222900391 1.8691430091857910156 1.932238459587097168 2.0581207275390625 1.870921015739440918 2.4743926525115966797 1.7895742654800415039 1.7299376726150512695 1.2067019939422607422 1.9541169404983520508 2.3023200035095214844 1.6631902456283569336 2.1981434822082519531 1.0300425291061401367 1.9955966472625732422 1 1.1806674003601074219 1.8048930168151855469 1.3221335411071777344 1.4838255643844604492 1.3367605209350585938 2.2336819171905517578 1 1.8689943552017211914 1 1.2349509000778198242 1.897777557373046875 1 1.2333718538284301758 1 1 2.0051195621490478516 1 2.4415225982666015625 1.0731171369552612305 1.9124199151992797852 1.420632481575012207 1 1 1 1 2.1142642498016357422 2.2112276554107666016 1 1 1 2.4856534004211425781 1.8248741626739501953 1.6515744924545288086 1 1.9641613960266113281 1.5571067333221435547 1.8029131889343261719 2.8714427947998046875 2.4398398399353027344 1.9366527795791625977 1.2563434839248657227 1.9833022356033325195 1.420632481575012207 2.1680712699890136719 1.6799091100692749023 1.5184711217880249023 2.7227227687835693359 2.6576731204986572266 2.2542469501495361328 1.8841546773910522461 1.7359578609466552734 1.174445033073425293 2.6246838569641113281 1.8829748630523681641 1.7447779178619384766 1.4933073520660400391 2.2493119239807128906 2.6379652023315429688 2.743366241455078125 1.8475524187088012695 2.0250442028045654297 2.5085015296936035156 1.8013355731964111328 2.1546857357025146484 2.6152238845825195313 1.6944595575332641602 2.9890472888946533203 2.5985739231109619141 2.6043543815612792969 2.9871513843536376953 2.6894507408142089844 2.6116023063659667969 2.5445854663848876953 2.5221333503723144531 2.4937930107116699219 2.8105185031890869141 3.2176682949066162109 2.5934293270111083984 2.956607818603515625 3.1768820285797119141 3.3332228660583496094 3.4236223697662353516 2.8416316509246826172 3.6434636116027832031 2.5232763290405273438 3.4020409584045410156 2.9731769561767578125 3.0209076404571533203 2.8760950565338134766 3.2666420936584472656 3.3815352916717529297 2.3216040134429931641 3.9663600921630859375 3.5627989768981933594 3.7342376708984375 4.2360854148864746094 3.2340121269226074219 3.4903757572174072266 3.0983359813690185547 3.0225641727447509766 3.1283690929412841797 2.9902060031890869141 2.6058568954467773438 3.2454693317413330078 3.2141072750091552734 3.0217134952545166016 3.3227293491363525391 2.7012989521026611328 3.4985079765319824219 2.5409111976623535156 2.6414291858673095703 2.760341644287109375 2.8415985107421875 3.2177295684814453125 2.838718414306640625 2.7974605560302734375 2.6908507347106933594 2.5588524341583251953 2.5042097568511962891 2.7737395763397216797 2.9424879550933837891 2.765888214111328125 3.2208621501922607422 3.1237626075744628906 2.52675628662109375 2.9372544288635253906 2.4607462882995605469 
3.0786800384521484375 3.2385764122009277344 3.2329092025756835938 3.8037350177764892578 4.48368072509765625 4.6375885009765625 4.3184680938720703125 4.1454501152038574219 4.2266964912414550781 4.2019510269165039063 4.2473163604736328125 3.7336187362670898438 3.4266796112060546875 3.0703625679016113281 3.4721786975860595703 3.3311543464660644531 3.2020826339721679688 3.4271271228790283203 2.766086578369140625 2.5383212566375732422 2.6137621402740478516 3.1934120655059814453 3.2377209663391113281 3.2767369747161865234 3.3917980194091796875 3.4735713005065917969 2.9689152240753173828 3.1207432746887207031 2.8896052837371826172 3.3109714984893798828 3.6111409664154052734 2.7322514057159423828 3.6848299503326416016 2.6267316341400146484 3.027881622314453125 3.2335236072540283203 3.0400803089141845703 3.2202780246734619141 2.9708406925201416016 2.7403876781463623047 2.8735969066619873047 3.1600084304809570313 2.8944671154022216797 2.5069870948791503906 2.8804554939270019531 2.0428922176361083984 3.0369932651519775391 2.6029584407806396484 2.412097930908203125 2.21939849853515625 2.7217266559600830078 2.7895739078521728516 2.5928969383239746094 1.5564444065093994141 2.0344011783599853516 2.1528956890106201172 1.9834617376327514648 1.9618532657623291016 1.8365290164947509766 2.0272984504699707031 2.2144107818603515625 2.0428922176361083984 2.2898192405700683594 1.5788400173187255859 1.5311521291732788086 1.4495360851287841797 1.7913167476654052734 1.6943811178207397461 1.4140329360961914063 1.1584376096725463867 2.4995641708374023438 1 2.3851757049560546875 1.2707160711288452148 2.9214956760406494141 1.1998038291931152344 1.9955966472625732422 1.0091935396194458008 1.315482020378112793 1.8512506484985351563 1 1.7248748540878295898 1.2098151445388793945 1.8877266645431518555 1.3718758821487426758 1.0201439857482910156 1.2118371725082397461 1.2591799497604370117 1 1 1.9484431743621826172 1.098282933235168457 2.0051195621490478516 1.2747373580932617188 1 1.1850614547729492188 1.2014473676681518555 1.3197703361511230469 2.0051195621490478516 2.0444803237915039063 1 1 1 2.8777861595153808594 1.9255946874618530273 2.0124621391296386719 1 3.1818509101867675781 2.8060107231140136719 2.4299814701080322266 2.4169576168060302734 1 1 1.5311105251312255859 1.7544069290161132813 1.7250198125839233398 2.3696508407592773438 2.9729437828063964844 2.7492449283599853516 2.4156482219696044922 2.8143568038940429688 3.2637510299682617188 2.7215318679809570313 3.1194429397583007813 2.3242955207824707031 1.4766556024551391602 2.3628520965576171875 2.5643963813781738281 2.3974115848541259766 1.757519841194152832 2.2573783397674560547 1.4078891277313232422 2.9883306026458740234 2.7526102066040039063 2.5828123092651367188 2.4711155891418457031 2.8648629188537597656 2.306507110595703125 1.8239467144012451172 2.2412955760955810547 2.4741661548614501953 2.9147243499755859375 2.7044758796691894531 2.7012221813201904297 2.7855560779571533203 2.7714436054229736328 2.8108537197113037109 2.8370952606201171875 3.1257460117340087891 3.0830323696136474609 3.0716853141784667969 3.3550279140472412109 3.0204501152038574219 3.1227784156799316406 3.2269296646118164063 2.978885650634765625 3.6689205169677734375 3.5027651786804199219 3.3422501087188720703 3.6130359172821044922 3.1974878311157226563 2.5569143295288085938 2.9182426929473876953 4.264194488525390625 3.6858632564544677734 4.1204447746276855469 3.411224365234375 3.7352128028869628906 3.8659231662750244141 3.3106102943420410156 3.4723207950592041016 3.8565680980682373047 3.0426564216613769531 2.4975111484527587891 2.7015049457550048828 3.2360529899597167969 2.8521728515625 3.0741569995880126953 3.1620578765869140625 2.6292712688446044922 2.9104425907135009766 2.8505232334136962891 2.8292450904846191406 2.8565843105316162109 2.8581357002258300781 2.8922352790832519531 2.7628238201141357422 2.4601724147796630859 2.99639892578125 2.6611430644989013672 2.5700802803039550781 2.5204172134399414063 2.0955173969268798828 2.4981882572174072266 2.1922023296356201172 2.9339427947998046875 2.9241397380828857422 2.1255900859832763672 1.6907069683074951172 1.8292063474655151367 
3.2590432167053222656 3.0872468948364257813 3.4530034065246582031 4.4844818115234375 4.217041015625 4.3430409431457519531 4.6871747970581054688 4.3005666732788085938 4.0030570030212402344 4.3792219161987304688 4.1336083412170410156 3.5238628387451171875 3.8632912635803222656 3.2345194816589355469 3.3559210300445556641 3.0163815021514892578 3.3513414859771728516 3.9230360984802246094 3.36049652099609375 2.5442667007446289063 3.0673367977142333984 3.1872289180755615234 3.2887094020843505859 3.5193212032318115234 4.0023007392883300781 3.4530818462371826172 3.377902984619140625 3.1880042552947998047 3.2145328521728515625 2.9843485355377197266 3.138881683349609375 2.7951149940490722656 3.2374751567840576172 2.4288499355316162109 3.0360438823699951172 2.5468461513519287109 3.0874357223510742188 3.3432793617248535156 3.1502857208251953125 3.2702176570892333984 2.8452899456024169922 2.8954007625579833984 2.2425479888916015625 3.5364282131195068359 2.7797493934631347656 2.4570238590240478516 2.9615385532379150391 2.3718905448913574219 1.9787195920944213867 1.8119580745697021484 2.2134730815887451172 2.0010399818420410156 1.7640579938888549805 1.5185278654098510742 1.6138755083084106445 2.2696766853332519531 2.1341121196746826172 2.1802034378051757813 2.3468127250671386719 2.1840677261352539063 1.9909719228744506836 2.5764672756195068359 1.6696178913116455078 1.7518012523651123047 1.7895742654800415039 1.1253834962844848633 1.2531121969223022461 1.5603352785110473633 1 2.1179404258728027344 2.1110303401947021484 2.1179404258728027344 1.7149451971054077148 1.4034458398818969727 1 1.5037115812301635742 1 1.2118371725082397461 1 1.0565530061721801758 1 2.143398284912109375 2.0497863292694091797 1 1.867277979850769043 1.7615565061569213867 2.1438531875610351563 1 1.1806674003601074219 1 1.9919608831405639648 2.3476023674011230469 1 1 1 2.3134033679962158203 1.5015041828155517578 1.0794290304183959961 1.2514107227325439453 1.5687521696090698242 1.0836431980133056641 2.4916121959686279297 1 1.9130442142486572266 1.9672569036483764648 3.0317962169647216797 1 2.2612786293029785156 1.1411341428756713867 2.38143157958984375 1.0400755405426025391 1 1 1.5658318996429443359 1.6592649221420288086 2.4873228073120117188 2.5558423995971679688 1.5327219963073730469 1.2636915445327758789 1 1.3062995672225952148 3.3216097354888916016 1 2.67977142333984375 2.5242989063262939453 3.0637118816375732422 1.868349909782409668 2.4177935123443603516 3.2172956466674804688 2.8872325420379638672 2.7083477973937988281 2.1199195384979248047 2.7795703411102294922 2.5033490657806396484 2.1167268753051757813 2.6819787025451660156 1.9304918050765991211 2.3099043369293212891 2.3545727729797363281 2.7852742671966552734 2.5153026580810546875 3.2990927696228027344 2.5478518009185791016 2.9883072376251220703 2.7689175605773925781 2.0595669746398925781 1.3360008001327514648 3.2959771156311035156 3.1506602764129638672 3.5224945545196533203 2.7720522880554199219 3.5916657447814941406 3.7673544883728027344 3.7998647689819335938 3.2592198848724365234 3.4141933917999267578 4.1171779632568359375 4.15708160400390625 3.9211940765380859375 3.4098949432373046875 3.4824101924896240234 3.4817464351654052734 3.6881103515625 4.0747470855712890625 4.2002396583557128906 3.9408254623413085938 3.3563106060028076172 3.9482419490814208984 3.9770846366882324219 3.9173917770385742188 3.2812252044677734375 3.6917438507080078125 3.6392641067504882813 2.5622005462646484375 3.1319139003753662109 3.8692221641540527344 3.0771853923797607422 3.3167812824249267578 3.1042907238006591797 2.8653178215026855469 2.7075352668762207031 2.0465595722198486328 2.6243395805358886719 2.4063885211944580078 2.4849100112915039063 3.0464658737182617188 3.3114795684814453125 2.655242919921875 3.3136310577392578125 2.6733164787292480469 2.4095578193664550781 3.1704275608062744141 3.3900139331817626953 2.182003021240234375 2.6486952304840087891 2.6640272140502929688 2.0616519451141357422 2.3312442302703857422 1.9539034366607666016 2.3350427150726318359 
2.6839315891265869141 2.7549281120300292969 3.6085505485534667969 3.5916483402252197266 3.1909856796264648438 3.9678554534912109375 4.3326783180236816406 3.63184356689453125 3.7729508876800537109 3.1146345138549804688 3.7116258144378662109 3.4488949775695800781 3.1441895961761474609 2.7696168422698974609 3.1897542476654052734 4.2609376907348632813 3.2097280025482177734 3.6170454025268554688 3.3800396919250488281 3.3458621501922607422 3.1184704303741455078 3.4980142116546630859 3.5345966815948486328 3.3400888442993164063 3.5910553932189941406 3.6419742107391357422 3.2543323040008544922 3.4861316680908203125 3.2385447025299072266 2.3924491405487060547 2.9888217449188232422 3.0288844108581542969 3.3363733291625976563 2.4013335704803466797 2.8622989654541015625 3.4844577312469482422 3.6426913738250732422 3.4881107807159423828 3.5518596172332763672 3.6132025718688964844 3.7736363410949707031 2.6853244304656982422 2.7352924346923828125 2.6592152118682861328 2.6985113620758056641 2.9730312824249267578 1.8501992225646972656 2.5390629768371582031 2.1665806770324707031 2.1970725059509277344 1.9844923019409179688 1.9595518112182617188 1.3247183561325073242 2.0978269577026367188 1.4146503210067749023 2.7193202972412109375 1.9058170318603515625 1.932238459587097168 2.0380153656005859375 1.7443686723709106445 2.1716730594635009766 2.1349871158599853516 2.2859799861907958984 1.8517282009124755859 1.7028765678405761719 2.4945988655090332031 1.7085329294204711914 1.7485345602035522461 1.8076318502426147461 1.1806674003601074219 1.653941035270690918 1.1489439010620117188 1.2126379013061523438 1.4034458398818969727 1.4034458398818969727 1.7561491727828979492 1.653941035270690918 2.3134033679962158203 1 1 1.9186339378356933594 1.9499354362487792969 1.6226842403411865234 2.3899414539337158203 2.28446197509765625 2.2284281253814697266 3.3129446506500244141 1 1.5133838653564453125 1.7965723276138305664 1.3850913047790527344 1.1814824342727661133 2.2696247100830078125 1.569161534309387207 1 1 1.4291026592254638672 1 2.0717868804931640625 1.5644992589950561523 2.5532364845275878906 1.5315110683441162109 2.9737849235534667969 1.537976384162902832 1.1982403993606567383 3.3427584171295166016 1.6906472444534301758 1 1.8363182544708251953 2.5911219120025634766 1 1 1.9288733005523681641 1.8088436126708984375 1.6866793632507324219 1 1.5391081571578979492 1.328238368034362793 2.4146628379821777344 1.1806674003601074219 1.7236654758453369141 1 2.18726348876953125 2.2565066814422607422 2.4538099765777587891 2.7900836467742919922 2.4265437126159667969 2.4251656532287597656 2.3806154727935791016 2.124240875244140625 2.7557752132415771484 2.0896334648132324219 2.7500231266021728516 2.6398117542266845703 2.4398281574249267578 2.5502018928527832031 1.070923924446105957 2.4759016036987304688 2.8719217777252197266 2.4535653591156005859 2.6157631874084472656 3.1491291522979736328 2.8947217464447021484 2.1762919425964355469 2.9016709327697753906 2.9569594860076904297 3.3395102024078369141 3.0209581851959228516 3.1400241851806640625 3.4801173210144042969 3.7872259616851806641 3.1993477344512939453 3.5234048366546630859 3.7977709770202636719 3.1558940410614013672 3.7181580066680908203 4.2284989356994628906 4.2801637649536132813 4.1562857627868652344 4.41527557373046875 3.7751872539520263672 3.7750573158264160156 3.2328672409057617188 3.0477030277252197266 3.3209364414215087891 3.5607862472534179688 3.2424886226654052734 3.4746778011322021484 3.4217793941497802734 3.0095245838165283203 3.0417037010192871094 3.2698667049407958984 3.0458660125732421875 3.5811748504638671875 3.6985166072845458984 2.5981736183166503906 3.5060229301452636719 3.3269531726837158203 2.8536977767944335938 2.7349972724914550781 3.1410367488861083984 2.9628238677978515625 2.3227822780609130859 2.2379624843597412109 3.2057530879974365234 3.0018553733825683594 2.8574421405792236328 2.6977405548095703125 2.4920876026153564453 2.6188743114471435547 3.1373467445373535156 2.7539818286895751953 2.5326268672943115234 2.1143662929534912109 2.6252226829528808594 2.8480880260467529297 2.1021816730499267578 2.8487548828125 3.0341627597808837891 2.6004641056060791016 
3.3521978855133056641 2.5607089996337890625 3.0288884639739990234 3.5452382564544677734 2.87403106689453125 3.7709422111511230469 3.8187448978424072266 3.8687009811401367188 4.0278367996215820313 3.6395592689514160156 3.3870458602905273438 3.4569993019104003906 3.2989618778228759766 2.8669004440307617188 3.1729149818420410156 3.7625491619110107422 3.0890150070190429688 2.9762909412384033203 3.0968873500823974609 3.3664019107818603516 2.9509382247924804688 3.7591981887817382813 3.3891196250915527344 3.6561386585235595703 3.5146048069000244141 3.5832109451293945313 2.8699333667755126953 2.7073383331298828125 2.5963129997253417969 2.2974820137023925781 2.4625780582427978516 3.1208922863006591797 2.7523379325866699219 2.7447092533111572266 3.0517032146453857422 4.0100102424621582031 3.1717114448547363281 3.894107818603515625 3.5301420688629150391 3.2002077102661132813 3.1917223930358886719 2.9017453193664550781 3.1102681159973144531 3.3110032081604003906 2.7234199047088623047 2.5888431072235107422 2.1100070476531982422 2.6717128753662109375 2.5391535758972167969 2.4377191066741943359 2.4808099269866943359 2.7310919761657714844 2.4441714286804199219 1.9204322099685668945 2.2950191497802734375 1.4266457557678222656 2.4292898178100585938 2.1997771263122558594 1.7652661800384521484 1.9248369932174682617 2.2876527309417724609 1.8721396923065185547 1.8026754856109619141 1.8216260671615600586 2.0033762454986572266 1.5205533504486083984 2.0809576511383056641 1.8204445838928222656 1.7722284793853759766 1 1.7646229267120361328 1.1998038291931152344 1.5874853134155273438 1 1.1806674003601074219 2.0997419357299804688 1.3830394744873046875 1.1653940677642822266 1 1 1.3509534597396850586 1.6820859909057617188 1 1.6735787391662597656 2.2940905094146728516 2.6392371654510498047 1.4003952741622924805 1.2255773544311523438 1.7573640346527099609 1.7337675094604492188 2.3085367679595947266 1 1.0122760534286499023 1 1 1.4927822351455688477 1 1.5064462423324584961 1 1.3124651908874511719 1.8681675195693969727 1 1.6069508790969848633 1.6614893674850463867 1.5663502216339111328 3.3789830207824707031 1 1.7156463861465454102 1.1270071268081665039 2.4716212749481201172 2.4903171062469482422 2.5390446186065673828 1.3034309148788452148 2.3782470226287841797 1.2184703350067138672 2.5869882106781005859 1 1.0236111879348754883 1 2.7525389194488525391 1.5748764276504516602 1.2130898237228393555 1.4594604969024658203 2.9383003711700439453 2.1817815303802490234 1.5493233203887939453 2.3210065364837646484 3.1865561008453369141 2.7533049583435058594 1.9989621639251708984 2.3888924121856689453 2.6331634521484375 2.2322659492492675781 2.1009793281555175781 1.8916822671890258789 2.4126033782958984375 2.4610049724578857422 2.3917586803436279297 3.0288836956024169922 2.2076663970947265625 2.7054636478424072266 2.5015323162078857422 2.7897903919219970703 2.6629543304443359375 2.8973889350891113281 2.8137385845184326172 2.4157736301422119141 2.8170902729034423828 2.8758668899536132813 2.9726624488830566406 3.3393979072570800781 3.0141417980194091797 3.2368621826171875 3.3340234756469726563 4.0583758354187011719 4.0240626335144042969 3.4842383861541748047 3.2552337646484375 4.3740181922912597656 3.7785799503326416016 4.2715029716491699219 3.1436173915863037109 3.7748606204986572266 3.4130506515502929688 3.4987628459930419922 3.5722095966339111328 3.3670268058776855469 3.5655603408813476563 3.0982563495635986328 3.2645597457885742188 3.1238520145416259766 3.3213601112365722656 3.5693151950836181641 3.8100914955139160156 3.4530997276306152344 3.1881175041198730469 3.2428631782531738281 2.5676989555358886719 3.0739147663116455078 2.5422160625457763672 2.9240846633911132813 3.0855357646942138672 2.7725429534912109375 2.8889622688293457031 3.2934739589691162109 3.0296907424926757813 3.1593723297119140625 3.1490957736968994141 2.7951037883758544922 3.1117775440216064453 2.1758131980895996094 3.4640355110168457031 2.3556008338928222656 2.5231902599334716797 2.2948081493377685547 1.7368003129959106445 2.3603806495666503906 2.7224586009979248047 2.3559222221374511719 2.6482076644897460938 
3.4780251979827880859 2.5875618457794189453 3.75042724609375 3.0572960376739501953 3.4065446853637695313 4.1137290000915527344 4.3582415580749511719 4.46248626708984375 4.1854405403137207031 4.2742071151733398438 3.4423933029174804688 3.5142917633056640625 2.9656779766082763672 3.5520794391632080078 2.6486108303070068359 3.2928409576416015625 2.9918942451477050781 2.4907946586608886719 2.7316317558288574219 2.9456386566162109375 2.9092490673065185547 2.5252399444580078125 3.0152978897094726563 3.4231436252593994141 2.4916806221008300781 3.0326304435729980469 2.8851714134216308594 2.7244188785552978516 3.1542770862579345703 2.4696309566497802734 3.0152537822723388672 2.6708989143371582031 2.5335445404052734375 1.9560998678207397461 3.5632605552673339844 3.6082606315612792969 3.8676080703735351563 4.0154819488525390625 3.8508760929107666016 3.3374674320220947266 3.1170675754547119141 3.1400151252746582031 2.7988467216491699219 3.0344164371490478516 2.8601288795471191406 3.0469155311584472656 2.3792557716369628906 2.6041736602783203125 2.7093479633331298828 2.0571672916412353516 2.1310629844665527344 2.2528221607208251953 2.3549909591674804688 2.1655552387237548828 2.3892502784729003906 2.3440692424774169922 2.4452211856842041016 1.8583501577377319336 1.9952127933502197266 1.7335823774337768555 1.9298641681671142578 2.5592324733734130859 2.2475900650024414063 2.1756727695465087891 2.0334925651550292969 2.049442291259765625 1.6534384489059448242 2.4521534442901611328 1.3383997678756713867 2.1838517189025878906 2.2336819171905517578 1.2118371725082397461 1.5601974725723266602 1.4034458398818969727 1 1.1884490251541137695 1 1 2.5008537769317626953 1 1 1.7408406734466552734 1.3778052330017089844 1.1027811765670776367 3.0230712890625 2.6107871532440185547 1.6927610635757446289 1.4789739847183227539 2.2336819171905517578 1.0343343019485473633 2.3781077861785888672 2.0997419357299804688 1 1.1118946075439453125 1 2.2614667415618896484 1.7403138875961303711 1.4907658100128173828 1 1.3496435880661010742 1 1 1 1 1 1.717351078987121582 1 3.2204029560089111328 1 1 1 1.5951730012893676758 1.2717626094818115234 1.720669865608215332 1.0110253095626831055 1.6261615753173828125 2.1543636322021484375 1.2733780145645141602 1 1 3.1416852474212646484 3.4797179698944091797 1.5012884140014648438 2.1258618831634521484 3.6710174083709716797 2.5879261493682861328 2.8378267288208007813 2.6156697273254394531 2.0540795326232910156 2.0516345500946044922 2.9294340610504150391 3.0882763862609863281 2.6388697624206542969 2.0682489871978759766 1.9532796144485473633 2.8239243030548095703 2.1302974224090576172 1.9165031909942626953 3.7582485675811767578 1.8780946731567382813 2.8761372566223144531 2.470172882080078125 2.6330137252807617188 3.4936263561248779297 2.9666697978973388672 3.5363147258758544922 2.4630517959594726563 2.1282744407653808594 2.0183207988739013672 3.3037469387054443359 2.370441436767578125 2.9410116672515869141 3.1415410041809082031 2.6905968189239501953 3.7777178287506103516 4.4211549758911132813 4.3441534042358398438 3.8294277191162109375 3.7376217842102050781 3.7107975482940673828 3.8018805980682373047 3.7320535182952880859 3.1726462841033935547 3.1327302455902099609 2.7007706165313720703 3.7101702690124511719 3.7831079959869384766 3.9412302970886230469 3.4576640129089355469 3.2099702358245849609 3.8124907016754150391 3.3483343124389648438 3.7863516807556152344 2.9347412586212158203 3.2653982639312744141 4.0998501777648925781 2.9909060001373291016 2.7295589447021484375 2.8334140777587890625 2.54799652099609375 2.5534060001373291016 2.7177412509918212891 3.0718986988067626953 2.7158730030059814453 3.3479833602905273438 3.6356856822967529297 3.3835914134979248047 3.2238166332244873047 3.2133512496948242188 2.9793267250061035156 2.9828350543975830078 3.345855712890625 1.6275608539581298828 2.3239204883575439453 2.5308983325958251953 1.6110922098159790039 2.3497796058654785156 2.1463932991027832031 1.99532318115234375 1.8067667484283447266 
3.1098496913909912109 3.0963091850280761719 3.3618803024291992188 2.5995819568634033203 3.1858057975769042969 3.2397072315216064453 3.4144315719604492188 4.0545520782470703125 4.1544442176818847656 3.9618353843688964844 3.9884750843048095703 3.7264468669891357422 2.9057362079620361328 2.3649139404296875 3.2972013950347900391 2.6965384483337402344 3.3050596714019775391 3.0925164222717285156 2.6583588123321533203 2.2546799182891845703 2.4820146560668945313 2.3617851734161376953 2.1767151355743408203 3.1878650188446044922 2.7206823825836181641 3.2962720394134521484 3.0011880397796630859 2.9267289638519287109 2.4292149543762207031 3.1086351871490478516 2.956371307373046875 2.534088134765625 3.5645992755889892578 3.7956242561340332031 3.2115323543548583984 3.4766833782196044922 3.5773138999938964844 4.13338470458984375 3.1907019615173339844 3.1191031932830810547 2.6657178401947021484 2.9151442050933837891 3.3039867877960205078 2.9437913894653320313 2.7408273220062255859 2.5337865352630615234 2.3116800785064697266 2.7234175205230712891 1.8275666236877441406 2.1693940162658691406 2.1962082386016845703 1.4182735681533813477 1.6492687463760375977 2.2950191497802734375 2.29352569580078125 1.662196040153503418 2.0248765945434570313 2.597339630126953125 1.5043942928314208984 2.27317047119140625 1.8900673389434814453 2.4127461910247802734 1.7800475358963012695 1.5818235874176025391 2.5099513530731201172 1.7493238449096679688 1.679795384407043457 1.7573640346527099609 1.4495360851287841797 1.7295384407043457031 1.1584376096725463867 1 1 1.2716739177703857422 1.2118371725082397461 1 1.9507200717926025391 1 1 1 2.0051195621490478516 1 1 2.1406040191650390625 1.7457932233810424805 3.0623080730438232422 1 1.701695561408996582 1.1341638565063476563 2.4147663116455078125 1.6661497354507446289 1.1653940677642822266 1.1302753686904907227 1 2.4742667675018310547 2.0051195621490478516 1 1 1.0736070871353149414 1 2.5925157070159912109 1 1 1.3401509523391723633 1.1838212013244628906 1 1 1 1 1 1.974825739860534668 1 1 1 1 1 1 2.5790429115295410156 1 1.6866780519485473633 1.088886260986328125 1 1.9931731224060058594 2.2525429725646972656 2.7899756431579589844 3.0077466964721679688 2.4162356853485107422 3.2749788761138916016 2.7646276950836181641 2.1891608238220214844 1.8157250881195068359 1.7251027822494506836 2.1291046142578125 1.861275792121887207 2.6223375797271728516 2.4981825351715087891 2.1915698051452636719 2.9301586151123046875 2.9699943065643310547 2.5822651386260986328 2.8963391780853271484 2.6012492179870605469 3.0113723278045654297 2.7055580615997314453 4.0469608306884765625 2.3685593605041503906 2.8414127826690673828 2.5872185230255126953 3.0989634990692138672 2.94779205322265625 2.6482594013214111328 2.3262791633605957031 2.9697225093841552734 3.2620637416839599609 3.6182122230529785156 3.8744516372680664063 3.477382659912109375 4.0304579734802246094 3.2077126502990722656 3.5979020595550537109 3.7207159996032714844 3.5620045661926269531 3.2134287357330322266 3.8509736061096191406 3.7631793022155761719 3.6699337959289550781 3.3973507881164550781 3.8574767112731933594 3.5511851310729980469 3.4031322002410888672 3.6577517986297607422 3.2682974338531494141 3.3890814781188964844 3.4129915237426757813 3.7031638622283935547 3.40154266357421875 2.8179919719696044922 2.8358354568481445313 2.3404064178466796875 2.5666933059692382813 2.5103719234466552734 3.07256317138671875 2.7348139286041259766 2.6554341316223144531 3.0792596340179443359 3.5213055610656738281 3.3348834514617919922 3.5297453403472900391 3.3258218765258789063 3.9339005947113037109 3.2354524135589599609 2.4933605194091796875 2.6753506660461425781 1.8134835958480834961 2.2676966190338134766 1.8954819440841674805 1.6196966171264648438 1 2.2947726249694824219 2.0202853679656982422 
2.5484538078308105469 2.6335611343383789063 2.7517583370208740234 1.737259984016418457 2.6909279823303222656 3.1158876419067382813 3.4233822822570800781 3.4609575271606445313 3.4777362346649169922 4.2519598007202148438 3.0316061973571777344 3.9211935997009277344 3.4980132579803466797 3.425479888916015625 3.4071133136749267578 2.8091895580291748047 3.11399078369140625 3.0718452930450439453 2.4735851287841796875 1 2.5326409339904785156 1.9668456315994262695 1.7503426074981689453 3.1538984775543212891 2.5315351486206054688 2.8453013896942138672 2.1371357440948486328 2.1265680789947509766 3.1884958744049072266 2.7755904197692871094 2.8145847320556640625 2.8760020732879638672 2.9839327335357666016 4.0666613578796386719 2.8982074260711669922 3.3887851238250732422 3.9829423427581787109 3.9653871059417724609 3.6792700290679931641 3.2977306842803955078 3.4980905055999755859 3.1498217582702636719 3.4098341464996337891 2.7106900215148925781 2.3952651023864746094 2.7934710979461669922 2.6745388507843017578 2.3009011745452880859 2.2338514328002929688 2.4704568386077880859 2.6710765361785888672 2.0319871902465820313 1.7552704811096191406 2.2740108966827392578 1.1053493022918701172 2.3655214309692382813 2.1466023921966552734 2.0270278453826904297 2.1329829692840576172 2.1304807662963867188 2.1556947231292724609 2.1556947231292724609 2.4039587974548339844 1.911845088005065918 1.1184471845626831055 2.1488080024719238281 1.8763796091079711914 2.0334806442260742188 2.1358518600463867188 1 1.3221335411071777344 2.2336819171905517578 1 1.0091935396194458008 2.0051195621490478516 1 1 2.7247645854949951172 1.4574228525161743164 1 1.609280705451965332 1 1 1 1.1929168701171875 2.5177636146545410156 1.7741452455520629883 2.3339543342590332031 2.359592437744140625 2.0997419357299804688 1 1 1 1 1 1 1 1 1 1 1.1571799516677856445 1.2338602542877197266 1.1444592475891113281 2.7074041366577148438 1 1 1 1.444085240364074707 3.0812144279479980469 1.5178703069686889648 1 1.5564593076705932617 1 1 1 1 1 1.5037115812301635742 2.3851757049560546875 1.9955966472625732422 2.4841909408569335938 2.0012090206146240234 2.6332516670227050781 1.9346110820770263672 2.6918330192565917969 2.2574820518493652344 3.0001904964447021484 2.5054879188537597656 2.6322710514068603516 2.7237563133239746094 2.5928931236267089844 3.1750810146331787109 2.1857674121856689453 1.8350884914398193359 2.2865135669708251953 2.0609767436981201172 2.8570361137390136719 3.1776883602142333984 3.4518544673919677734 2.5686843395233154297 2.5748770236968994141 2.9147217273712158203 2.83698272705078125 3.012653350830078125 3.3273644447326660156 2.9743196964263916016 2.3869345188140869141 2.4527273178100585938 2.8971428871154785156 2.6942446231842041016 3.1253640651702880859 3.1917455196380615234 3.1395626068115234375 3.8647816181182861328 3.3788366317749023438 3.9111461639404296875 3.5571641921997070313 3.3324162960052490234 3.3382995128631591797 2.8136961460113525391 3.5134229660034179688 4.1128101348876953125 3.202816009521484375 3.4537472724914550781 3.2186312675476074219 3.1797726154327392578 3.5933346748352050781 3.2329628467559814453 3.1321165561676025391 3.2616791725158691406 3.2929043769836425781 3.3100550174713134766 3.3637919425964355469 3.4646370410919189453 3.1345763206481933594 3.6309435367584228516 2.3710665702819824219 2.0956473350524902344 2.3073077201843261719 2.6418220996856689453 2.7089064121246337891 2.4359521865844726563 2.5837883949279785156 3.3299098014831542969 3.4036393165588378906 3.3765611648559570313 3.3173220157623291016 3.1919620037078857422 3.1044127941131591797 3.4158537387847900391 3.0205407142639160156 2.8680977821350097656 2.5445942878723144531 2.8248720169067382813 2.4436557292938232422 2.5019598007202148438 2.6399874687194824219 1 1.224240422248840332 1 
1.7990211248397827148 2.5218358039855957031 2.5124742984771728516 2.7511959075927734375 2.5355467796325683594 2.3849585056304931641 3.8586635589599609375 3.2412467002868652344 3.372608184814453125 3.0446617603302001953 3.6145005226135253906 3.5277395248413085938 3.2155253887176513672 2.7977302074432373047 3.83943939208984375 2.6786973476409912109 2.9840018749237060547 2.7054877281188964844 3.3935804367065429688 2.4717950820922851563 1.8759963512420654297 3.0343859195709228516 3.3665189743041992188 2.2649996280670166016 2.6986043453216552734 2.6403367519378662109 2.9320132732391357422 3.0026562213897705078 2.7263865470886230469 2.4828124046325683594 3.0872449874877929688 3.2242283821105957031 4.4951920509338378906 3.4536604881286621094 3.5653808116912841797 3.3539738655090332031 3.3818228244781494141 3.4136958122253417969 3.5256292819976806641 3.4723687171936035156 3.30353546142578125 3.0238769054412841797 3.3589785099029541016 2.8692176342010498047 2.9318666458129882813 2.3377339839935302734 1.6386554241180419922 2.2050542831420898438 2.8299651145935058594 2.7396531105041503906 3.1755208969116210938 2.5344164371490478516 2.1734364032745361328 1.82956695556640625 2.2559854984283447266 1.4534528255462646484 2.1511733531951904297 2.0549442768096923828 2.4039587974548339844 1.7587482929229736328 1.7024524211883544922 1.72434234619140625 1.8955489397048950195 1.9179297685623168945 1.2752608060836791992 1.9370713233947753906 2.5028932094573974609 1.6457532644271850586 1.3862323760986328125 1.0487116575241088867 1 1.6535865068435668945 2.7690782546997070313 1 2.0051195621490478516 2.0051195621490478516 2.5066792964935302734 2.3851757049560546875 1.4034458398818969727 1.3058835268020629883 1.5447000265121459961 1 1 1.9616057872772216797 1.7640839815139770508 2.4096181392669677734 1.0201439857482910156 1.0623602867126464844 1.1806674003601074219 1 1 1 1 1 1 1 1.1812468767166137695 1 2.0606834888458251953 1 1.1812468767166137695 1 1.9564232826232910156 1 1 1.5397950410842895508 1 1 1 1.8323255777359008789 3.1839268207550048828 1.3724089860916137695 1 1 1 1 1.5024657249450683594 1.4034458398818969727 1.2591799497604370117 1 1.7573640346527099609 1.4491716623306274414 2.2575385570526123047 2.2563545703887939453 2.0140531063079833984 2.4730067253112792969 2.0603413581848144531 3.4955244064331054688 2.2496178150177001953 2.9292037487030029297 1.7805863618850708008 1.6855645179748535156 2.4562594890594482422 2.8829753398895263672 1.6763336658477783203 2.6719915866851806641 3.1462054252624511719 2.3006846904754638672 2.7573182582855224609 2.6082592010498046875 2.534515380859375 2.6934359073638916016 2.8856225013732910156 3.2212507724761962891 3.2966434955596923828 3.1324589252471923828 3.4549283981323242188 3.5677270889282226563 3.0586650371551513672 3.4800615310668945313 3.064464569091796875 2.7400949001312255859 3.7010531425476074219 3.9290878772735595703 4.3704309463500976563 3.9362747669219970703 3.0186352729797363281 3.8696775436401367188 3.0497763156890869141 3.4206800460815429688 4.2465305328369140625 3.4790079593658447266 3.7160818576812744141 3.535984039306640625 3.3139336109161376953 3.006290435791015625 3.2720904350280761719 4.0639858245849609375 3.4007477760314941406 3.9529097080230712891 2.9081683158874511719 3.1008734703063964844 3.2684075832366943359 3.4409723281860351563 3.3017201423645019531 3.0243968963623046875 2.0308313369750976563 1.4583199024200439453 2.1311058998107910156 2.9951837062835693359 2.6659996509552001953 2.2902512550354003906 3.0839600563049316406 2.9735057353973388672 3.033283233642578125 3.0811061859130859375 3.0101318359375 3.2451686859130859375 3.3337082862854003906 3.1163077354431152344 3.2680420875549316406 3.0407917499542236328 2.905841827392578125 1.869162440299987793 1 2.3090639114379882813 1.7561491727828979492 1.420632481575012207 1.4381324052810668945 1 
2.2959280014038085938 2.5895829200744628906 1.9146698713302612305 1.1219456195831298828 2.4267892837524414063 2.7481989860534667969 3.2526760101318359375 2.8749334812164306641 3.2523403167724609375 2.6511614322662353516 4.0687851905822753906 3.92266845703125 2.986293792724609375 2.7765588760375976563 3.2963745594024658203 2.439022064208984375 3.0705399513244628906 2.5421509742736816406 1.9065203666687011719 1.3133891820907592773 1.5168727636337280273 2.3780894279479980469 3.2074291706085205078 2.5769340991973876953 2.9994046688079833984 2.62241363525390625 2.8995385169982910156 2.6814305782318115234 2.7137250900268554688 2.3397030830383300781 2.283489227294921875 2.8345437049865722656 3.090694427490234375 2.7778158187866210938 3.84459686279296875 3.5819866657257080078 3.3562726974487304688 3.9018812179565429688 3.1298356056213378906 2.6874728202819824219 2.4315357208251953125 2.8283035755157470703 2.9196562767028808594 2.3671262264251708984 3.3809704780578613281 2.8385479450225830078 2.8468337059020996094 2.8672046661376953125 3.1204125881195068359 2.1737742424011230469 2.4962265491485595703 2.3653657436370849609 2.1643874645233154297 2.7428402900695800781 2.0116779804229736328 1.7552704811096191406 2.4579517841339111328 1.8615753650665283203 2.0549442768096923828 1.6314948797225952148 1.8423637151718139648 1.7895742654800415039 2.4452211856842041016 2.0209100246429443359 1.4068716764450073242 2.4739699363708496094 2.1987483501434326172 1.4710280895233154297 1.8512506484985351563 2.2522261142730712891 1.9101984500885009766 1.8810631036758422852 2.3023200035095214844 1.9955966472625732422 1.4034458398818969727 2.3851757049560546875 1.0091935396194458008 1.1806674003601074219 2.1179404258728027344 2.5323476791381835938 1.9872194528579711914 1 1 1.5984948873519897461 2.8417954444885253906 1.4272882938385009766 1.3944489955902099609 1.1897462606430053711 1 1 1 1 1 1 1 2.0606834888458251953 1 1 1 1 1 1 1 1 1.8062639236450195313 1 3.0981922149658203125 2.2171163558959960938 1.4598575830459594727 1 1.2685946226119995117 1.2540525197982788086 1 2.7054154872894287109 1 1.0848242044448852539 1.0122760534286499023 1 2.2696068286895751953 1.3285640478134155273 2.6431014537811279297 2.3539910316467285156 1.8088164329528808594 2.3544700145721435547 2.3300375938415527344 2.8556401729583740234 2.7953245639801025391 2.3597817420959472656 2.4573271274566650391 2.2991895675659179688 2.6695921421051025391 2.7714853286743164063 2.5694775581359863281 2.0336449146270751953 2.0595147609710693359 2.8095250129699707031 2.3643958568572998047 2.7548847198486328125 2.8275341987609863281 2.4469258785247802734 2.6732587814331054688 3.0128102302551269531 3.2121927738189697266 3.2370049953460693359 3.3143856525421142578 2.8406596183776855469 2.9217777252197265625 3.8827161788940429688 3.3597927093505859375 3.2607057094573974609 3.4319345951080322266 3.1580343246459960938 3.65767669677734375 3.2828824520111083984 4.0751996040344238281 3.1667590141296386719 2.7913987636566162109 2.8619992733001708984 2.83071136474609375 3.0883569717407226563 3.5701298713684082031 3.5497643947601318359 3.5173668861389160156 3.7153499126434326172 3.6433424949645996094 3.0884253978729248047 2.9763562679290771484 2.5826952457427978516 3.6529998779296875 3.2618737220764160156 2.9347133636474609375 2.9653711318969726563 3.3252289295196533203 2.9981436729431152344 3.0353837013244628906 2.5680999755859375 2.4671332836151123047 1.8314907550811767578 2.3734712600708007813 2.5546550750732421875 2.3966076374053955078 2.93907928466796875 2.6870274543762207031 3.2372958660125732422 2.8065838813781738281 2.8354191780090332031 3.1591310501098632813 2.9466876983642578125 2.7255315780639648438 2.8484964370727539063 2.7906577587127685547 3.4815950393676757813 2.4077894687652587891 3.1606981754302978516 2.2830235958099365234 2.1656756401062011719 1 1 1 2.0997419357299804688 
2.3570969104766845703 1.7331486940383911133 1.374476313591003418 1.0364571809768676758 2.4074430465698242188 2.8258163928985595703 2.8323757648468017578 2.8876218795776367188 3.3464629650115966797 3.2220685482025146484 3.8232693672180175781 3.4344675540924072266 3.8013215065002441406 3.6136331558227539063 3.2477898597717285156 2.8336136341094970703 2.0226373672485351563 1.8239254951477050781 1.5292438268661499023 2.5875315666198730469 2.6475830078125 2.7515485286712646484 2.0157556533813476563 2.858249664306640625 3.1861052513122558594 3.1044642925262451172 3.4609928131103515625 2.8622913360595703125 2.626834869384765625 2.8733682632446289063 2.7869188785552978516 2.8718028068542480469 3.2209670543670654297 3.3344137668609619141 2.3710341453552246094 2.6403343677520751953 3.2306447029113769531 3.9813685417175292969 3.0204098224639892578 3.9107036590576171875 2.4720966815948486328 2.6447293758392333984 2.1946225166320800781 2.8577611446380615234 2.6469135284423828125 2.7725946903228759766 2.3036680221557617188 2.5593113899230957031 2.0751099586486816406 2.5731987953186035156 2.3422932624816894531 2.9399693012237548828 2.3314244747161865234 2.6349725723266601563 2.2717719078063964844 1.837000727653503418 1.9884028434753417969 1.7024524211883544922 1.9764105081558227539 1.5091953277587890625 1.5589582920074462891 1.3247183561325073242 1.7190587520599365234 2.0150086879730224609 2.3597817420959472656 1 1.460126042366027832 2.1981434822082519531 1.0641729831695556641 1.3080642223358154297 1.0072821378707885742 1 1.161060333251953125 2.3851757049560546875 1.4852775335311889648 1 1 1 2.0854194164276123047 1.5538870096206665039 1.6538796424865722656 1.6436030864715576172 1 1 1 1 2.9214956760406494141 1.1510084867477416992 1 1 1 1.1812468767166137695 1 1 1 2.0816450119018554688 1 1 1 2.0606834888458251953 1 1 1 1 2.9792563915252685547 1 2.7576935291290283203 1.1812468767166137695 1 1 1 1.2360779047012329102 1 1 2.1411049365997314453 1 2.0997419357299804688 2.0051195621490478516 1.7333734035491943359 1.7754449844360351563 1.0699818134307861328 2.0476682186126708984 2.3205971717834472656 3.0841641426086425781 2.5508108139038085938 1.4404295682907104492 1.9543836116790771484 2.4875640869140625 2.485401153564453125 2.6856665611267089844 2.4158251285552978516 2.5921301841735839844 1.9613628387451171875 2.1809647083282470703 1.7029311656951904297 1.9246938228607177734 1.6260578632354736328 2.5184662342071533203 2.9654073715209960938 1.803009033203125 2.2376081943511962891 2.6136419773101806641 2.8395907878875732422 2.3653943538665771484 2.9720823764801025391 2.9660153388977050781 3.4480984210968017578 2.7472219467163085938 3.7789466381072998047 3.4928097724914550781 2.9610259532928466797 3.3831300735473632813 3.6853792667388916016 3.9927237033843994141 2.8424251079559326172 3.0037798881530761719 2.9221637248992919922 2.5646693706512451172 2.6858224868774414063 2.7526669502258300781 3.1381707191467285156 3.2664103507995605469 3.1514799594879150391 3.4487140178680419922 3.2734270095825195313 3.5513482093811035156 3.2678761482238769531 3.1640837192535400391 2.9457113742828369141 2.8922049999237060547 3.0457265377044677734 2.9277467727661132813 3.2685914039611816406 2.8954763412475585938 2.9308307170867919922 2.7527041435241699219 2.4180748462677001953 2.4340028762817382813 2.6478791236877441406 2.5832924842834472656 2.51351165771484375 2.8840723037719726563 3.0024402141571044922 2.9097802639007568359 2.9882173538208007813 3.2849545478820800781 3.1648552417755126953 3.2721943855285644531 3.1800637245178222656 2.9546806812286376953 3.2397949695587158203 3.4663503170013427734 2.8658528327941894531 2.5734181404113769531 3.0453965663909912109 2.4290266036987304688 1.4895105361938476563 1 1 1 
2.8355631828308105469 2.8696904182434082031 1.8076318502426147461 2.2979552745819091797 2.2567346096038818359 2.6224722862243652344 3.2009761333465576172 3.3644225597381591797 3.7868654727935791016 3.2163798809051513672 3.3163142204284667969 2.9741110801696777344 3.3404984474182128906 3.5233967304229736328 3.2146656513214111328 2.2474393844604492188 2.2276265621185302734 2.4154052734375 2.1730020046234130859 2.2094945907592773438 2.6812047958374023438 2.4411311149597167969 2.33737945556640625 2.3765645027160644531 3.2853097915649414063 2.9309024810791015625 2.8484737873077392578 3.0951845645904541016 2.6039242744445800781 2.6888034343719482422 2.6098771095275878906 3.2263531684875488281 2.3997304439544677734 2.5626585483551025391 2.2258403301239013672 2.2823693752288818359 3.5171577930450439453 2.8996253013610839844 2.37969207763671875 2.6310222148895263672 2.2345662117004394531 2.6578965187072753906 2.4851245880126953125 2.4644169807434082031 2.2160983085632324219 2.8945741653442382813 2.6527457237243652344 2.1376929283142089844 1.4324265718460083008 2.7228815555572509766 2.3916840553283691406 2.8697075843811035156 2.8358936309814453125 2.2455799579620361328 2.4519953727722167969 1.3056240081787109375 1.7597224712371826172 1.7758247852325439453 1.5815271139144897461 2.0283365249633789063 1.8276630640029907227 2.0932357311248779297 1.6404858827590942383 1.7908620834350585938 1.1700326204299926758 2.0127167701721191406 1.7356723546981811523 2.0613992214202880859 2.0725774765014648438 1.0201439857482910156 1.653941035270690918 1 2.0997419357299804688 1.7045601606369018555 1 1 2.0997419357299804688 1.9712347984313964844 1 1.7289173603057861328 2.1266155242919921875 1 1 1.446631312370300293 1 1.8589729070663452148 2.2137312889099121094 1.6262111663818359375 1 1 1 1 1 1 1 1 1 1 1 1 1 1 1 1 1.1568723917007446289 1.6618781089782714844 3.105022430419921875 2.7771179676055908203 1.2893487215042114258 1 1 1.6416665315628051758 1.271345973014831543 1 1.420632481575012207 1.0892996788024902344 2.1179404258728027344 1.1806674003601074219 2.1179404258728027344 1.6875015497207641602 1.2247447967529296875 2.0657124519348144531 2.1759526729583740234 2.8400876522064208984 1.8253704309463500977 2.1298398971557617188 2.0250365734100341797 2.1326634883880615234 2.2264511585235595703 2.4540250301361083984 1.4810980558395385742 1.8899044990539550781 1.0452649593353271484 2.5801913738250732422 2.3008670806884765625 2.6973299980163574219 1.4601691961288452148 1.8718153238296508789 2.2541034221649169922 1.6871415376663208008 2.7371709346771240234 2.2712645530700683594 2.4830636978149414063 2.5420331954956054688 2.7647979259490966797 2.6681952476501464844 2.6076772212982177734 3.5687623023986816406 3.7102563381195068359 3.5799360275268554688 3.5888960361480712891 3.4030034542083740234 3.2199795246124267578 3.6563572883605957031 3.0721757411956787109 2.7098941802978515625 2.8319091796875 3.0063235759735107422 2.7869126796722412109 3.1745829582214355469 3.4857747554779052734 3.3725187778472900391 2.8417885303497314453 3.75667572021484375 3.4543740749359130859 3.5663998126983642578 3.5430328845977783203 2.9872753620147705078 2.9131038188934326172 2.8157429695129394531 2.6798489093780517578 2.39453887939453125 2.7494690418243408203 2.19293975830078125 1.6900160312652587891 2.6605844497680664063 2.3999800682067871094 2.0241899490356445313 2.9341578483581542969 2.0379230976104736328 1.808788299560546875 2.506946563720703125 2.8253405094146728516 2.9007394313812255859 2.5884745121002197266 3.4939227104187011719 3.2616939544677734375 3.4895317554473876953 3.8305373191833496094 3.3146481513977050781 2.994861602783203125 3.6700334548950195313 2.8570532798767089844 3.1237094402313232422 2.6311666965484619141 2.2614676952362060547 1 1.7333734035491943359 2.0051195621490478516 1.1983001232147216797 
2.8001589775085449219 1.5277185440063476563 1.0202606916427612305 2.2806427478790283203 2.4507999420166015625 2.41890716552734375 2.9158289432525634766 2.0385031700134277344 2.6060664653778076172 2.70253753662109375 2.1693744659423828125 2.5253150463104248047 3.0486636161804199219 2.1529858112335205078 2.9307215213775634766 2.2080156803131103516 1.9757977724075317383 1.3154902458190917969 2.5005497932434082031 2.7340977191925048828 1.4798543453216552734 1.3422118425369262695 2.5793464183807373047 2.4935986995697021484 2.5899629592895507813 2.7205057144165039063 2.6426894664764404297 2.8207945823669433594 3.4227893352508544922 2.555850982666015625 2.6868302822113037109 2.1646678447723388672 2.3136572837829589844 2.0988790988922119141 2.1094806194305419922 2.3256006240844726563 3.4086110591888427734 3.3780171871185302734 2.2712991237640380859 2.7233669757843017578 2.2611587047576904297 1.9030857086181640625 2.1498670578002929688 2.4146902561187744141 2.2883431911468505859 2.8030073642730712891 2.8534004688262939453 2.6708238124847412109 1.7188763618469238281 2.1509022712707519531 1.7959356307983398438 2.3842432498931884766 2.2471349239349365234 1.9334778785705566406 2.1901395320892333984 2.0069208145141601563 1.8866800069808959961 2.2734577655792236328 2.0180022716522216797 2.0969154834747314453 2.1039731502532958984 2.0397510528564453125 1.827044367790222168 1.8840513229370117188 1.6055271625518798828 1.8900673389434814453 1.6398446559906005859 1.7913167476654052734 2.3401892185211181641 1.9842832088470458984 1.2439392805099487305 1.0091935396194458008 1 1.1806674003601074219 2.1179404258728027344 1 1.4609714746475219727 1.425291895866394043 1.3860183954238891602 1.3547098636627197266 1.1618560552597045898 1.5457290410995483398 1.3782067298889160156 1.5780462026596069336 1.84917449951171875 2.0008213520050048828 1 1 1 1 1 1 1 1.1812468767166137695 1 1 1 1 1 2.5925157070159912109 1 1.1812468767166137695 1.1812468767166137695 1 1 1 1.5382932424545288086 1.8114479780197143555 1.9738372564315795898 1 1.1402817964553833008 1.7807060480117797852 1 1.837759852409362793 1 2.0657415390014648438 1.7333734035491943359 2.1415014266967773438 1 1.8730030059814453125 2.4282917976379394531 1.4440248012542724609 1.9034792184829711914 2.3692500591278076172 1.4199494123458862305 2.1219615936279296875 2.5125424861907958984 2.5922999382019042969 2.2742726802825927734 2.2148847579956054688 2.3612000942230224609 2.5964112281799316406 2.2336819171905517578 1.958988189697265625 1.9753090143203735352 1.3221335411071777344 1.2118371725082397461 1.8669312000274658203 1.240802764892578125 1.281590580940246582 1 1.5716537237167358398 1 2.7715358734130859375 2.2171006202697753906 2.4790735244750976563 2.671234130859375 2.9847779273986816406 3.0814423561096191406 2.7604916095733642578 3.1725187301635742188 2.9865136146545410156 3.5301115512847900391 2.5649483203887939453 2.692440032958984375 2.6942646503448486328 2.8384122848510742188 2.7551455497741699219 3.1966824531555175781 3.1738178730010986328 2.9740929603576660156 2.9698357582092285156 3.1802494525909423828 3.0441482067108154297 2.8035399913787841797 2.8810710906982421875 3.4396314620971679688 3.0898668766021728516 2.8118116855621337891 3.1456646919250488281 2.9212443828582763672 2.7081434726715087891 1.5786058902740478516 2.4434981346130371094 2.6701228618621826172 2.5607330799102783203 2.4456081390380859375 1.6354019641876220703 2.4160735607147216797 2.3118028640747070313 1.9500265121459960938 2.5179088115692138672 3.2994272708892822266 2.6361715793609619141 3.1957771778106689453 3.1023037433624267578 3.3109662532806396484 3.9007418155670166016 3.6191773414611816406 3.5807368755340576172 3.54510498046875 3.1377987861633300781 2.9559237957000732422 2.1180253028869628906 2.1388132572174072266 1.4804586172103881836 2.5292172431945800781 1.1291054487228393555 1 1.3150476217269897461 
1.791010737419128418 1.2563434839248657227 1.3320616483688354492 1 2.4739699363708496094 1.8590103387832641602 2.7395005226135253906 2.2474386692047119141 1.8536645174026489258 2.4339001178741455078 2.4220030307769775391 2.1546685695648193359 2.4093582630157470703 2.6012985706329345703 2.0248875617980957031 1.4557511806488037109 2.5256137847900390625 2.7483191490173339844 1.2512912750244140625 1.6591588258743286133 1.8493149280548095703 2.1289877891540527344 2.061496734619140625 1.9888938665390014648 2.3970990180969238281 2.6496775150299072266 2.3444914817810058594 3.0934889316558837891 3.0278158187866210938 2.2647838592529296875 2.8995847702026367188 2.7298471927642822266 2.4240260124206542969 2.7353284358978271484 2.5430393218994140625 3.189914703369140625 3.1238253116607666016 2.5760812759399414063 2.6351592540740966797 3.1644024848937988281 3.1196322441101074219 2.6748979091644287109 3.1048474311828613281 2.7530050277709960938 2.6542286872863769531 2.9934668540954589844 3.3133420944213867188 3.0258703231811523438 2.6422262191772460938 2.0834698677062988281 2.2564222812652587891 1.7686617374420166016 2.3862826824188232422 2.4637811183929443359 2.6718714237213134766 2.1061882972717285156 2.63092803955078125 2.9768288135528564453 2.4939253330230712891 2.3771538734436035156 2.5658919811248779297 2.1720707416534423828 1.8573489189147949219 2.3529088497161865234 1.7602065801620483398 1.8896948099136352539 1.7536013126373291016 1.9788885116577148438 1.2244634628295898438 1 1.0091935396194458008 1.2190240621566772461 1.0854777097702026367 1.1806674003601074219 1.6117091178894042969 1.3080642223358154297 1.1017630100250244141 1.9623137712478637695 1.0540354251861572266 1 1 1 1.3815947771072387695 1.2961066961288452148 1 1 1 1 1.5520360469818115234 1 1 1 1 1.5607722997665405273 1 1 1 1 1 1 1 1 2.0606834888458251953 2.0606834888458251953 1 1 1 1.3696197271347045898 1.8896547555923461914 1.9877994060516357422 2.4570775032043457031 1.4791076183319091797 1.4602733850479125977 1 2.0997419357299804688 2.3894057273864746094 1 1.2503039836883544922 1.6430051326751708984 2.1242299079895019531 1.5752801895141601563 2.4767045974731445313 2.1914529800415039063 2.410625457763671875 1.7863270044326782227 2.2868180274963378906 2.4472670555114746094 2.6455814838409423828 2.9317116737365722656 2.1665210723876953125 2.3708560466766357422 2.0106227397918701172 1.6408472061157226563 2.0507559776306152344 1 1.315482020378112793 2.3501944541931152344 1 2.6928915977478027344 1 1.0555514097213745117 1.2131465673446655273 3.3108263015747070313 2.9055166244506835938 1.8744944334030151367 2.1089501380920410156 2.5676245689392089844 2.4713497161865234375 2.3115561008453369141 3.6917412281036376953 2.4958250522613525391 2.972461700439453125 2.5020263195037841797 2.8124508857727050781 2.4305677413940429688 2.8975908756256103516 2.9505176544189453125 3.2536702156066894531 2.7912805080413818359 3.2366745471954345703 3.1228070259094238281 3.1551456451416015625 3.0768694877624511719 2.805759429931640625 3.5352132320404052734 3.0914983749389648438 3.411045074462890625 2.8297235965728759766 2.6061410903930664063 3.1972370147705078125 2.5925505161285400391 2.3104534149169921875 2.8526782989501953125 1.9714683294296264648 2.3681855201721191406 2.1952214241027832031 1.8652406930923461914 2.3549294471740722656 2.0346040725708007813 2.1602914333343505859 2.7206027507781982422 2.6220984458923339844 2.2551531791687011719 2.9660236835479736328 3.1065831184387207031 3.4890282154083251953 3.3109509944915771484 3.6166093349456787109 3.1093146800994873047 3.5759215354919433594 3.4090449810028076172 2.7723491191864013672 2.2304430007934570313 2.3021585941314697266 2.4430520534515380859 1.6174970865249633789 1.1139971017837524414 1.8477345705032348633 1.8389708995819091797 2.0725774765014648438 
3.0240602493286132813 2.0344700813293457031 1.6719702482223510742 1.7248748540878295898 1.3397669792175292969 1.6866780519485473633 1.2067019939422607422 1.6410285234451293945 1.679795384407043457 2.0775072574615478516 2.7590415477752685547 3.2052893638610839844 1.3829114437103271484 2.1674256324768066406 1.5052309036254882813 1.3924607038497924805 1.6572114229202270508 1.0097109079360961914 1.0537253618240356445 2.1592164039611816406 2.3945653438568115234 2.5186395645141601563 2.6938076019287109375 2.6557314395904541016 2.3014128208160400391 1.3949894905090332031 2.6804072856903076172 1.5870902538299560547 2.7052514553070068359 3.2864236831665039063 2.8153903484344482422 2.5691323280334472656 3.2953100204467773438 2.6184771060943603516 2.9872653484344482422 2.7837057113647460938 3.1444878578186035156 3.3003399372100830078 3.3775889873504638672 3.0861680507659912109 2.4859654903411865234 2.9328198432922363281 2.9209043979644775391 2.9201853275299072266 3.2421870231628417969 3.0566470623016357422 2.9563710689544677734 2.2671139240264892578 2.3208098411560058594 2.1883592605590820313 2.5599451065063476563 1.6316825151443481445 1.9932081699371337891 2.5052897930145263672 2.9569349288940429688 2.6792905330657958984 2.3395180702209472656 2.7234678268432617188 2.8902180194854736328 2.1658840179443359375 2.1653509140014648438 1.8874399662017822266 1.6037082672119140625 1.6882162094116210938 1.5894438028335571289 1.8738729953765869141 1.6542862653732299805 1.1002826690673828125 1.1934336423873901367 1.8578115701675415039 2.3200678825378417969 1.6230274438858032227 1 1 1 1.4584405422210693359 1 1 1 1.079555511474609375 1 1.6150045394897460938 1.1419050693511962891 1 1 1 1 1 2.5925157070159912109 1 1 1 1 1 1 1 1 1 1.1812468767166137695 1 1.4663612842559814453 1 1 1 1.0523128509521484375 2.1745247840881347656 1 1 1.5312339067459106445 1.7818831205368041992 2.1258862018585205078 1.5368998050689697266 2.2775182723999023438 1.6101720333099365234 1.1628613471984863281 2.6604480743408203125 1 1.1317824125289916992 1 1.534398198127746582 2.9497590065002441406 2.2042303085327148438 1.7372030019760131836 2.6691172122955322266 2.3425602912902832031 1.8818268775939941406 2.4399054050445556641 2.4758780002593994141 2.2252936363220214844 2.4425325393676757813 2.0907878875732421875 1.4142925739288330078 1.1998038291931152344 1 1.1302753686904907227 1 1.569743037223815918 1.4592641592025756836 1.364777684211730957 1 1.1659795045852661133 1.9842832088470458984 1.4453955888748168945 2.2093801498413085938 2.1320009231567382813 2.4473378658294677734 1.6842254400253295898 2.1146025657653808594 2.3029108047485351563 2.2725291252136230469 2.2730913162231445313 3.131771087646484375 2.4814307689666748047 3.1385314464569091797 3.4316086769104003906 3.0525567531585693359 2.7697198390960693359 2.3932282924652099609 3.5826392173767089844 3.3655328750610351563 3.0375237464904785156 3.3179707527160644531 3.285991668701171875 2.9425778388977050781 3.1173372268676757813 2.7187025547027587891 2.6513979434967041016 2.7811625003814697266 3.2322049140930175781 2.5852217674255371094 2.5358188152313232422 2.4529018402099609375 2.5328068733215332031 2.1633763313293457031 2.3260889053344726563 2.3377215862274169922 2.020145416259765625 2.5759119987487792969 1.9764589071273803711 2.3439176082611083984 2.1527092456817626953 2.3185832500457763672 2.6887452602386474609 2.7238597869873046875 3.1588709354400634766 3.6467182636260986328 3.8318200111389160156 3.3861804008483886719 3.286609649658203125 3.4877233505249023438 3.2209763526916503906 3.0775732994079589844 2.4695644378662109375 2.643131256103515625 3.4790759086608886719 2.5198972225189208984 1.7573640346527099609 1.6230274438858032227 1.0300425291061401367 1.2494503259658813477 
1.8379447460174560547 2.0762877464294433594 2.2882692813873291016 1.3522214889526367188 2.4995641708374023438 2.1151719093322753906 1.9376773834228515625 2.5086536407470703125 1.3056240081787109375 1.8687578439712524414 1.9072742462158203125 2.9525332450866699219 1.178675532341003418 1.9970073699951171875 2.2677330970764160156 1.4719040393829345703 1.3080642223358154297 1 2.0934684276580810547 1.7512344121932983398 2.0013811588287353516 1.2506619691848754883 2.93711090087890625 2.7501473426818847656 2.0603284835815429688 1.9763820171356201172 1.8264738321304321289 1.6990991830825805664 2.3761620521545410156 2.3370964527130126953 2.6129505634307861328 1.6870492696762084961 2.6464331150054931641 2.9341332912445068359 3.1171634197235107422 3.5628707408905029297 2.8163530826568603516 3.3770775794982910156 3.5925841331481933594 2.8634481430053710938 2.3686499595642089844 3.0225963592529296875 2.8059179782867431641 2.2261500358581542969 3.0813224315643310547 2.8083231449127197266 2.1178178787231445313 3.1559431552886962891 2.1363439559936523438 2.7488210201263427734 2.0322008132934570313 2.4550919532775878906 2.3949725627899169922 2.8399763107299804688 3.0715973377227783203 2.6456091403961181641 2.5000479221343994141 2.8681669235229492188 2.5995960235595703125 2.0981469154357910156 1.5634412765502929688 2.8142096996307373047 2.1752419471740722656 1.8456646203994750977 2.5391659736633300781 2.062458038330078125 1.6433652639389038086 2.4208209514617919922 1 1.7625896930694580078 2.3401892185211181641 1.9842832088470458984 1.9236534833908081055 1 1.7573640346527099609 1.6878241300582885742 1.743323206901550293 1.7918920516967773438 1.5228610038757324219 1 1 1.2226920127868652344 1 1 2.7365555763244628906 1 1 1 1 1 1 1 1 1 1 1 1 1 2.0606834888458251953 1 1 1 1.0352697372436523438 1 1.7561491727828979492 1 1.9538108110427856445 2.3053767681121826172 2.3944077491760253906 1.9688063859939575195 1.8643028736114501953 1.9504588842391967773 2.0344386100769042969 1.7923206090927124023 1.3249734640121459961 1 1.9897255897521972656 2.4515719413757324219 2.3492128849029541016 2.5736868381500244141 3.1609957218170166016 2.2109549045562744141 1.9270677566528320313 1.3045257329940795898 2.4146986007690429688 3.2755033969879150391 1.787043452262878418 2.619037628173828125 1.5884476900100708008 2.2336819171905517578 1.2322310209274291992 1.2716739177703857422 1 1.653941035270690918 1 1.1653940677642822266 1 1.0095009803771972656 2.7192757129669189453 1.4581861495971679688 3.3026292324066162109 2.6694991588592529297 2.3930904865264892578 2.21167755126953125 2.0219666957855224609 2.6336383819580078125 2.3188533782958984375 2.9624459743499755859 2.2801909446716308594 2.3441495895385742188 2.5480084419250488281 2.8185214996337890625 2.5208747386932373047 2.6023321151733398438 3.3539738655090332031 2.5996177196502685547 3.2735447883605957031 2.9655184745788574219 2.8594295978546142578 2.9947640895843505859 2.8732607364654541016 3.0938398838043212891 3.2769021987915039063 3.2079105377197265625 3.1066441535949707031 3.1964850425720214844 3.0444736480712890625 2.788970947265625 2.033161163330078125 2.7385990619659423828 2.4535229206085205078 3.1037766933441162109 2.1786725521087646484 2.1135675907135009766 1.6835190057754516602 1.9106479883193969727 2.3289973735809326172 1.9623403549194335938 1.999837040901184082 2.4037671089172363281 2.6992886066436767578 2.2672600746154785156 3.1571483612060546875 3.2019155025482177734 3.1128365993499755859 3.1668591499328613281 3.4347889423370361328 3.0321538448333740234 3.2199299335479736328 3.1791133880615234375 3.2500023841857910156 3.414287567138671875 2.9077167510986328125 3.1742966175079345703 3.1399648189544677734 1.8561642169952392578 2.4042155742645263672 1.267018437385559082 1.9145355224609375 1.3221796751022338867 
1.9883114099502563477 1.4193143844604492188 1 1 1.0201439857482910156 1.0664210319519042969 1.5237342119216918945 1.9934517145156860352 1.8514314889907836914 2.5299336910247802734 2.4431843757629394531 1.8838850259780883789 2.6680600643157958984 2.3661849498748779297 2.075878143310546875 1.8777430057525634766 1.4851371049880981445 1 1.266154170036315918 2.1565890312194824219 2.18059539794921875 2.5444977283477783203 2.2923784255981445313 2.2435772418975830078 3.0114767551422119141 2.0735077857971191406 3.007297515869140625 2.4403192996978759766 2.0970959663391113281 2.4672629833221435547 2.0025210380554199219 2.3605539798736572266 3.2974033355712890625 2.2198021411895751953 3.2331736087799072266 3.5377700328826904297 3.3769209384918212891 2.926609039306640625 3.2068111896514892578 3.2138354778289794922 3.0106930732727050781 3.5993967056274414063 3.5380387306213378906 2.9434497356414794922 3.4585671424865722656 2.9880864620208740234 2.2044336795806884766 2.1622142791748046875 2.4824841022491455078 2.2091295719146728516 2.2745561599731445313 2.4759261608123779297 1.72751617431640625 3.1266946792602539063 2.4324691295623779297 2.76342010498046875 3.01943206787109375 2.2472989559173583984 2.6813488006591796875 2.2645938396453857422 2.8857045173645019531 2.7054150104522705078 2.0414297580718994141 1.6727095842361450195 2.1004042625427246094 1.8590068817138671875 1.7055103778839111328 1.7040944099426269531 2.3655214309692382813 1 1 1.1584376096725463867 1.7573640346527099609 1.3522214889526367188 1.2249326705932617188 2.1358518600463867188 1 2.0538244247436523438 1 1.354735255241394043 1.7113461494445800781 1 1 1 1 1 2.8515963554382324219 1.1812468767166137695 1 1 1 1 2.0606834888458251953 2.5925157070159912109 1 1 2.0816450119018554688 1.1812468767166137695 1 2.5925157070159912109 1 2.0024030208587646484 1 1.4034458398818969727 1 2.1806321144104003906 1.161060333251953125 2.1667218208312988281 3.1958539485931396484 1.7638418674468994141 1.6114881038665771484 1.9316834211349487305 2.0739710330963134766 1.8931840658187866211 2.1223738193511962891 2.5600867271423339844 3.0963559150695800781 2.3101317882537841797 2.7032003402709960938 3.3084931373596191406 2.2024295330047607422 2.2744927406311035156 2.4159488677978515625 1.2092800140380859375 1.8772577047348022461 2.3605470657348632813 2.3959050178527832031 2.8060574531555175781 1.7258410453796386719 2.1550269126892089844 2.3200678825378417969 1.1806674003601074219 1 1.653941035270690918 1 1.4034458398818969727 2.2404944896697998047 1.7656004428863525391 1.6307480335235595703 1 1.4034458398818969727 1.5503846406936645508 2.0301828384399414063 2.1499500274658203125 2.1883275508880615234 1.7493238449096679688 1.5731564760208129883 1.8919820785522460938 2.7023859024047851563 2.2560873031616210938 2.9100513458251953125 2.7629437446594238281 2.5403430461883544922 3.413829803466796875 2.3406777381896972656 2.4933507442474365234 3.4839062690734863281 3.5578360557556152344 2.7297813892364501953 2.4139070510864257813 2.6353912353515625 3.1260926723480224609 3.1709878444671630859 3.2510051727294921875 3.4929280281066894531 3.1342103481292724609 2.5980839729309082031 3.1257696151733398438 2.3167676925659179688 3.2304251194000244141 2.6427628993988037109 2.6281619071960449219 2.5837473869323730469 1.7614591121673583984 2.5085015296936035156 1.1184471845626831055 2.1836819648742675781 1.7361342906951904297 2.0435535907745361328 2.8929517269134521484 2.8006849288940429688 3.0036385059356689453 2.9591212272644042969 2.6654744148254394531 2.82633209228515625 3.168346405029296875 2.7293760776519775391 2.8601996898651123047 2.9410462379455566406 3.58927154541015625 2.8473269939422607422 3.3024783134460449219 3.3147368431091308594 2.9786193370819091797 2.7816894054412841797 1.9451589584350585938 1.9905375242233276367 2.7700304985046386719 1.8773031234741210938 1.2825615406036376953 
2.7825191020965576172 1.9501663446426391602 1 2.6649937629699707031 1 1.4891816377639770508 1.2563434839248657227 1.3595373630523681641 2.5087575912475585938 2.0210773944854736328 1.624507904052734375 2.1634585857391357422 1.8295584917068481445 1.370966792106628418 1.7468571662902832031 2.1386957168579101563 1 2.2249948978424072266 1.9345734119415283203 2.0136110782623291016 1.2763035297393798828 1.508640289306640625 2.3853311538696289063 2.4860310554504394531 2.3820340633392333984 2.0132834911346435547 1.9759986400604248047 2.5863773822784423828 2.7801051139831542969 2.9869115352630615234 2.0589284896850585938 2.7011201381683349609 2.8883070945739746094 2.861850738525390625 2.9528322219848632813 3.1721889972686767578 2.9837329387664794922 3.5136542320251464844 2.9203219413757324219 3.2252943515777587891 3.6001238822937011719 3.4474968910217285156 3.5266706943511962891 3.190166473388671875 2.9478125572204589844 2.7269129753112792969 2.720333099365234375 2.4499304294586181641 2.6148624420166015625 2.515560150146484375 2.3008606433868408203 2.3697731494903564453 2.9293837547302246094 2.5603194236755371094 2.2021439075469970703 2.5816605091094970703 3.1706378459930419922 2.5243594646453857422 1.8810075521469116211 2.2628085613250732422 2.6920945644378662109 2.5521080493927001953 2.1167635917663574219 2.3572764396667480469 1.8208822011947631836 2.1210496425628662109 2.1727554798126220703 2.1040244102478027344 2.0154600143432617188 1.8277226686477661133 1.6161748170852661133 1.4467499256134033203 1.1584376096725463867 2.6519815921783447266 1.8076318502426147461 1.6581586599349975586 2.4276452064514160156 1.6011601686477661133 1.1653940677642822266 1 1 1 1 1 1.1870859861373901367 1.0240660905838012695 2.7363250255584716797 1 1 1 1 1.1812468767166137695 2.5925157070159912109 1 1 1 1 1 1 1 1 1 1.0115836858749389648 1 1 1.4320619106292724609 1 1 1.5093380212783813477 1.6511623859405517578 2.8080670833587646484 2.2316591739654541016 2.1410279273986816406 1.2944835424423217773 1.1946852207183837891 2.4483509063720703125 2.2538180351257324219 2.2617380619049072266 2.1123490333557128906 2.34265899658203125 2.6799800395965576172 2.7265832424163818359 2.8322460651397705078 3.1118259429931640625 2.8156168460845947266 2.3810510635375976563 1.0897272825241088867 1.6145758628845214844 1.536858677864074707 1.2333718538284301758 2.1179404258728027344 1.3830394744873046875 1.3830394744873046875 1 1 1 1.2137790918350219727 1.427378535270690918 1.9045507907867431641 2.4930860996246337891 2.1179404258728027344 1.3862323760986328125 1.8146636486053466797 2.1504557132720947266 2.8223657608032226563 3.146209716796875 2.1298613548278808594 1.0584514141082763672 1.6857799291610717773 2.6364116668701171875 3.0277564525604248047 1.9298069477081298828 2.7387928962707519531 2.4945437908172607422 3.1806392669677734375 2.9350736141204833984 2.9059765338897705078 3.4763417243957519531 2.7427451610565185547 2.4757008552551269531 2.1826488971710205078 2.4332227706909179688 2.8374280929565429688 3.4712719917297363281 3.7615249156951904297 3.6571061611175537109 2.7184131145477294922 3.3112547397613525391 2.5872743129730224609 2.5278635025024414063 2.4846112728118896484 1.4177811145782470703 1.9811964035034179688 1.9399118423461914063 1.0818941593170166016 1.9541169404983520508 1.153311610221862793 1.8655080795288085938 2.691249847412109375 2.6548790931701660156 2.6703488826751708984 2.5183813571929931641 3.6330256462097167969 2.6310789585113525391 2.4535777568817138672 3.0105676651000976563 2.7823188304901123047 3.3155603408813476563 3.3770022392272949219 3.3451223373413085938 2.7733931541442871094 2.7865557670593261719 3.4176278114318847656 3.4759213924407958984 3.4000964164733886719 2.3221631050109863281 2.6799910068511962891 2.2736458778381347656 2.8333604335784912109 2.5048165321350097656 
1 1 1.1806674003601074219 1.0454745292663574219 1.4198118448257446289 1 1.4140329360961914063 1.7913167476654052734 1.9504588842391967773 1.2401630878448486328 2.0626161098480224609 1.0300425291061401367 1 1.4686313867568969727 1.8549820184707641602 1.2610875368118286133 1.8512506484985351563 1.1584376096725463867 2.0334806442260742188 1.9519367218017578125 2.7690782546997070313 2.16730499267578125 1.5457893610000610352 2.3426511287689208984 2.9122602939605712891 2.8927712440490722656 1.7004392147064208984 2.4452211856842041016 2.0883708000183105469 2.7101054191589355469 3.0644819736480712891 2.5393812656402587891 3.0531442165374755859 2.4517788887023925781 2.5647430419921875 3.3039019107818603516 3.3271956443786621094 2.7506232261657714844 3.3043150901794433594 3.5404646396636962891 3.4250626564025878906 3.2053985595703125 3.4794111251831054688 3.6794993877410888672 2.9327702522277832031 3.0639162063598632813 3.3068721294403076172 2.9052371978759765625 3.1820268630981445313 2.3565416336059570313 2.489147186279296875 2.87200927734375 2.7857480049133300781 2.5645105838775634766 2.5710453987121582031 3.0418751239776611328 3.3611783981323242188 2.4703538417816162109 2.641681671142578125 2.3599402904510498047 2.6337208747863769531 2.2002801895141601563 2.6450133323669433594 1.679623723030090332 2.2351038455963134766 2.5696508884429931641 1.5617357492446899414 1.9243909120559692383 1.3416258096694946289 2.6184630393981933594 1.72434234619140625 2.3475129604339599609 1.6269991397857666016 1.9133816957473754883 1.0201439857482910156 1 1.3080642223358154297 2.1179404258728027344 1.5232411623001098633 1 2.0565083026885986328 1 1 1 1.5019764900207519531 1.3096320629119873047 1 1 1 1 1 1 1 1 1 1 1 1 1.1812468767166137695 1.8611580133438110352 1.55403900146484375 1 1 1 1 1.1332207918167114258 2.0051195621490478516 1.3633671998977661133 1.980904698371887207 1.8477436304092407227 2.3387835025787353516 2.1331670284271240234 1.4405084848403930664 1.3002414703369140625 1.4118556976318359375 1.8072823286056518555 1 2.0607171058654785156 1.6459714174270629883 2.5323348045349121094 2.5972933769226074219 2.6999444961547851563 2.1644027233123779297 2.4802379608154296875 1.9536776542663574219 1.905836939811706543 1.7157893180847167969 1.9194163084030151367 1.2118371725082397461 1.1806674003601074219 2.358623504638671875 1.7561491727828979492 1 2.5925157070159912109 2.5925157070159912109 1 1.1806674003601074219 1.9783190488815307617 1.4764504432678222656 1.195567011833190918 1.2162836790084838867 1.2333718538284301758 1.1703548431396484375 2.4407956600189208984 2.3069252967834472656 2.0815112590789794922 1.944042205810546875 2.0205016136169433594 2.5768358707427978516 2.6022133827209472656 2.4606060981750488281 3.1638350486755371094 3.1924631595611572266 2.7789483070373535156 3.3975515365600585938 2.0869035720825195313 2.9290134906768798828 3.0375583171844482422 2.7401287555694580078 3.3957417011260986328 2.8780450820922851563 2.9741418361663818359 3.4634511470794677734 3.2775890827178955078 3.5826582908630371094 3.1309213638305664063 3.0467662811279296875 2.5301458835601806641 2.5715456008911132813 2.2917051315307617188 2.8979880809783935547 2.4738757610321044922 1.9704641103744506836 1.4145734310150146484 1 1.3221335411071777344 1.682362675666809082 1.9858574867248535156 1.7983675003051757813 2.3062162399291992188 3.0205428600311279297 2.4475817680358886719 3.3593862056732177734 3.2608370780944824219 2.3277375698089599609 2.6565709114074707031 2.9382653236389160156 3.1198291778564453125 2.9765572547912597656 2.8085448741912841797 3.0585122108459472656 2.9755816459655761719 3.5939543247222900391 3.4508078098297119141 3.3195221424102783203 2.9069764614105224609 2.6149930953979492188 2.7803423404693603516 2.8591523170471191406 2.5848581790924072266 
1 1.4381324052810668945 2.0997419357299804688 2.1179404258728027344 1.2333718538284301758 1 1.3367605209350585938 1 1.7010489702224731445 1.7685923576354980469 1 1 3.2327280044555664063 1 1.4252938032150268555 1.5791461467742919922 1.6206896305084228516 2.6318502426147460938 2.1331670284271240234 2.2815110683441162109 2.1077065467834472656 2.6598885059356689453 3.0088226795196533203 2.4617831707000732422 2.1601946353912353516 2.2998700141906738281 1.8996384143829345703 1.7682400941848754883 2.5742099285125732422 2.8484444618225097656 3.1439855098724365234 2.7093775272369384766 2.9301245212554931641 3.1300694942474365234 3.4721426963806152344 3.0209069252014160156 3.4144856929779052734 3.2787425518035888672 3.5886361598968505859 2.8165185451507568359 3.5100882053375244141 3.0652112960815429688 3.3336904048919677734 3.1170816421508789063 3.1290392875671386719 3.5792942047119140625 2.3517918586730957031 3.0789935588836669922 2.87789154052734375 2.2530243396759033203 2.4179346561431884766 2.3585338592529296875 3.0549712181091308594 2.0747470855712890625 2.1427240371704101563 2.8427081108093261719 2.8884088993072509766 2.2134320735931396484 2.6017785072326660156 1.9774298667907714844 2.0283861160278320313 2.1747672557830810547 1.7404904365539550781 1.8734831809997558594 1.568538665771484375 2.0486884117126464844 1.6046068668365478516 2.0827066898345947266 1.0692147016525268555 1.8277226686477661133 1.6249076128005981445 1.7758247852325439453 1.9842832088470458984 1.1646089553833007813 2.0725774765014648438 2.1179404258728027344 1.4034458398818969727 1.1806674003601074219 1.1321628093719482422 1.2178183794021606445 1 1 2.5925157070159912109 1 2.8045151233673095703 1.1722184419631958008 1 1.7561491727828979492 1 1 1.4381324052810668945 1 2.5925157070159912109 1 1 1 1 1 1 1 1 1 1.3822702169418334961 2.8467204570770263672 1 1.5037115812301635742 2.1702289581298828125 2.6480743885040283203 1.924625396728515625 1.5601974725723266602 1.8934761285781860352 1.4684238433837890625 1 2.2817046642303466797 1.5152108669281005859 1.8706563711166381836 1.679795384407043457 2.8906433582305908203 2.5393214225769042969 2.3178441524505615234 1.4480495452880859375 2.4533240795135498047 2.1931531429290771484 2.0498540401458740234 1.5532981157302856445 1.4672832489013671875 1 1.9101984500885009766 2.1179404258728027344 1 1 1 1.420632481575012207 1 1 2.5925157070159912109 1 1.7161326408386230469 1 2.6973354816436767578 1.0295101404190063477 1 2.0812642574310302734 1.3626716136932373047 2.5235333442687988281 2.4210317134857177734 2.0634317398071289063 2.2650263309478759766 2.2965333461761474609 2.4749188423156738281 1.7148153781890869141 2.6487648487091064453 3.3956065177917480469 3.2750787734985351563 3.5238084793090820313 2.7842321395874023438 2.6696171760559082031 3.2268936634063720703 2.5030353069305419922 3.4502224922180175781 4.1478400230407714844 3.3072407245635986328 2.5840053558349609375 3.8457131385803222656 4.2637968063354492188 4.1057972908020019531 2.4863352775573730469 2.4990417957305908203 2.0334899425506591797 2.2906155586242675781 2.1924860477447509766 2.9128181934356689453 2.2880856990814208984 1.349003911018371582 1 1.822552800178527832 1.3046300411224365234 2.2878067493438720703 1.7008767127990722656 2.5907623767852783203 2.8318085670471191406 2.5403895378112792969 2.775203704833984375 2.0540273189544677734 2.5688135623931884766 2.7752032279968261719 3.2261242866516113281 3.2297365665435791016 2.9483737945556640625 3.2508950233459472656 2.6884953975677490234 2.8236722946166992188 3.4846994876861572266 3.7068829536437988281 2.8399877548217773438 2.8846182823181152344 3.0174143314361572266 3.0277001857757568359 2.6677713394165039063 2.0709366798400878906 
1.3363872766494750977 1.8394554853439331055 1 2.1179404258728027344 1 1.1302753686904907227 1.1806674003601074219 2.1179404258728027344 1.5727313756942749023 1.5667102336883544922 1 1.9656451940536499023 1.7868667840957641602 1.8659011125564575195 2.4454705715179443359 1.7250247001647949219 2.4027700424194335938 1.2861278057098388672 2.1004533767700195313 2.3312315940856933594 2.7062957286834716797 1.901728510856628418 2.8521716594696044922 2.3277311325073242188 2.3430230617523193359 2.6379003524780273438 2.45790863037109375 1.7291359901428222656 1.9608935117721557617 3.1394786834716796875 2.23632049560546875 2.7635531425476074219 2.7019021511077880859 3.1129450798034667969 3.0273222923278808594 3.0418481826782226563 2.9410932064056396484 3.4796171188354492188 3.5220816135406494141 3.1708321571350097656 2.9456555843353271484 3.4194054603576660156 3.7317790985107421875 2.9020526409149169922 2.973155975341796875 3.5410988330841064453 2.8575158119201660156 2.31751251220703125 3.0346693992614746094 2.3398363590240478516 2.2306542396545410156 1.7292490005493164063 2.618350982666015625 2.6040742397308349609 2.3092272281646728516 1.0066543817520141602 2.9827463626861572266 1.8415848016738891602 2.3612718582153320313 2.0806064605712890625 1.6910842657089233398 1.8313794136047363281 2.4367733001708984375 1.7040743827819824219 1.8320984840393066406 1.4879693984985351563 2.1413531303405761719 1 1.3274179697036743164 1.9822294712066650391 1.5815271139144897461 1.827202916145324707 1 2.1389698982238769531 1.8048930168151855469 1.8431791067123413086 2.0718338489532470703 1.1594256162643432617 1 1.3372328281402587891 1.4034458398818969727 1 1 1 2.6263518333435058594 1 1 1.0122760534286499023 1 1 1 1 1 1 1 1 1 1 1.1029417514801025391 1 1.3269082307815551758 1.6262738704681396484 1.420632481575012207 1 1 1.4517029523849487305 2.5427317619323730469 1.4834581613540649414 2.56974029541015625 1.2870796918869018555 2.0812642574310302734 2.2424716949462890625 1.378001093864440918 1.9747918844223022461 2.2995846271514892578 1.6362854242324829102 2.3489284515380859375 1.733750462532043457 2.1634063720703125 1.5229539871215820313 2.1730198860168457031 1.4024469852447509766 1.6048824787139892578 1.8514734506607055664 1.8135745525360107422 2.1931531429290771484 1.7573640346527099609 1.9259675741195678711 1.2707160711288452148 1 2.0051195621490478516 1.06850433349609375 1.0115836858749389648 1 1 1 1.0765618085861206055 1 1 1.3469680547714233398 2.3859589099884033203 2.9371979236602783203 1.5840985774993896484 1.4111127853393554688 1.725170135498046875 2.1798374652862548828 1.4810980558395385742 1.4704511165618896484 2.3805325031280517578 2.2234170436859130859 2.1966037750244140625 2.9976131916046142578 2.5776576995849609375 3.006832122802734375 3.5723273754119873047 2.5701510906219482422 2.3929293155670166016 2.7413167953491210938 3.328754425048828125 3.1269197463989257813 2.5296421051025390625 3.3553416728973388672 3.5339417457580566406 3.7816531658172607422 4.2016506195068359375 3.0551488399505615234 3.4834902286529541016 3.2243664264678955078 2.7837147712707519531 2.1821718215942382813 2.9573085308074951172 1.8373659849166870117 2.6695218086242675781 1.5812857151031494141 2.5313851833343505859 2.1099286079406738281 1.8172407150268554688 2.0403606891632080078 1.9223155975341796875 2.2884881496429443359 2.8581881523132324219 2.5367665290832519531 2.1868391036987304688 2.1340937614440917969 2.6678731441497802734 2.3709483146667480469 2.3934676647186279297 3.5172426700592041016 3.3245339393615722656 2.7547779083251953125 3.6612913608551025391 2.9430005550384521484 3.0615234375 2.3471958637237548828 3.2933595180511474609 2.9545640945434570313 3.0841791629791259766 3.1345345973968505859 2.5372846126556396484 2.5709407329559326172 
2.4401443004608154297 1.7828073501586914063 2.0557606220245361328 2.1929430961608886719 1 1 1 1.7333734035491943359 2.0646166801452636719 1.5433659553527832031 1 1.6950556039810180664 1.692978978157043457 2.6171219348907470703 1.9206731319427490234 2.1391887664794921875 2.2529771327972412109 1.9533468484878540039 2.0059525966644287109 2.0209100246429443359 2.0827813148498535156 2.734424591064453125 2.5293397903442382813 1.9959938526153564453 2.227588653564453125 1.855902552604675293 2.1987483501434326172 2.3989932537078857422 2.5161962509155273438 3.0653064250946044922 2.6615133285522460938 2.60086822509765625 2.5170762538909912109 3.4118137359619140625 2.9417829513549804688 3.1412489414215087891 3.2138962745666503906 3.7667798995971679688 3.6145520210266113281 3.2833523750305175781 3.038333892822265625 2.8591058254241943359 3.2794647216796875 3.7563867568969726563 3.8322055339813232422 3.92253875732421875 2.7835223674774169922 2.9443156719207763672 2.0252182483673095703 2.29253387451171875 2.0221798419952392578 1.6022623777389526367 1.5193517208099365234 2.1678764820098876953 1.3628865480422973633 1.4838255643844604492 1.7906656265258789063 1.7930642366409301758 2.2337274551391601563 2.6832616329193115234 2.2611918449401855469 2.5062155723571777344 2.0623366832733154297 1.7668069601058959961 2.1998856067657470703 1.8195899724960327148 2.3676228523254394531 1 2.0429468154907226563 1.7913167476654052734 2.4824340343475341797 1.2015445232391357422 2.6999742984771728516 1.1139971017837524414 1.9259675741195678711 1.0201439857482910156 1.3367605209350585938 1.7817260026931762695 2.1358518600463867188 1 1 1 1.1302753686904907227 1.4204484224319458008 1 1.603945612907409668 1 1 1 1 1 2.0816450119018554688 1 1 1 1 1 1 1 1 1 1.8796850442886352539 1.7561491727828979492 2.2816522121429443359 2.3851757049560546875 1 2.1255371570587158203 1 2.2537167072296142578 1 1.7754449844360351563 2.6519815921783447266 1 1.7055710554122924805 1.5693079233169555664 1.7725882530212402344 1 2.0835464000701904297 2.4569487571716308594 2.4364066123962402344 1.1557838916778564453 1.8381102085113525391 2.0989129543304443359 1 1.8299716711044311523 2.1987483501434326172 1.4759948253631591797 2.0626161098480224609 2.3948893547058105469 1 1 1 1.1812468767166137695 2.0051195621490478516 1 1 1 1 1 1 2.5686397552490234375 1.4676990509033203125 2.0311491489410400391 2.6777818202972412109 2.4627420902252197266 1.3267627954483032227 1.296291351318359375 1.2067019939422607422 2.0578212738037109375 2.9558780193328857422 1.7396910190582275391 1.9970204830169677734 3.4394631385803222656 2.5241250991821289063 3.4929983615875244141 2.6624405384063720703 3.0672993659973144531 3.5794043540954589844 2.9617166519165039063 3.3540389537811279297 3.7676279544830322266 3.6780161857604980469 4.1109056472778320313 3.3332343101501464844 3.2806782722473144531 3.5931048393249511719 3.2425103187561035156 3.6278390884399414063 2.2234988212585449219 2.4250302314758300781 2.3124914169311523438 1.7689547538757324219 1.7895871400833129883 2.0265181064605712891 1.5354127883911132813 1.1727908849716186523 1.4287984371185302734 1.7271730899810791016 1.3612134456634521484 2.518978118896484375 2.9306313991546630859 2.6670994758605957031 2.2898702621459960938 2.9336671829223632813 2.6855742931365966797 1.9531340599060058594 3.3158278465270996094 3.2891252040863037109 3.4441587924957275391 3.2091982364654541016 3.5007393360137939453 3.1860544681549072266 3.1542937755584716797 2.8007462024688720703 3.2995865345001220703 3.5333456993103027344 3.1555016040802001953 3.3932483196258544922 1.3200172185897827148 2.3202865123748779297 
1 1.219887852668762207 1 1 1 1 1 1.4114654064178466797 1.798508763313293457 1.5180249214172363281 1 1.6310030221939086914 1 1.9947767257690429688 1 2.3070995807647705078 2.9150977134704589844 1.5116297006607055664 1.7614415884017944336 2.4465730190277099609 2.1380634307861328125 2.5383927822113037109 1.2030022144317626953 2.8933589458465576172 1.5244326591491699219 2.1151719093322753906 2.1079759597778320313 2.6909058094024658203 2.1388309001922607422 2.9246313571929931641 2.1983208656311035156 2.4651467800140380859 2.6026124954223632813 3.030055999755859375 3.0189898014068603516 3.1976554393768310547 2.9623389244079589844 3.5839593410491943359 3.8339495658874511719 2.8382430076599121094 3.10120391845703125 2.9417555332183837891 3.0480856895446777344 3.7458434104919433594 3.2707335948944091797 2.86669158935546875 3.0712289810180664063 2.8390471935272216797 2.9635694026947021484 2.5359251499176025391 2.1163980960845947266 1.8013495206832885742 1.9437642097473144531 2.366039276123046875 1.5294607877731323242 1.9504588842391967773 1.6689225435256958008 1.3849103450775146484 2.0334074497222900391 1.6136653423309326172 1.2480481863021850586 2.1410987377166748047 1.7024524211883544922 1.5953900814056396484 1.9367144107818603516 1.4098643064498901367 2.2007901668548583984 1.9753340482711791992 2.0157113075256347656 1.302908778190612793 2.1676149368286132813 1.391559600830078125 1.7464739084243774414 1.8810631036758422852 1.6866780519485473633 1 1.7754449844360351563 2.1466667652130126953 2.1694545745849609375 1 2.3200678825378417969 2.1179404258728027344 1.4034458398818969727 1.2933139801025390625 1.3497729301452636719 1 1 1.1812468767166137695 1 1 1 1 1 1 1 1 1 1 1 1.4434208869934082031 1 2.5302765369415283203 1 1 1.793514251708984375 2.5952751636505126953 1.619808197021484375 1.46416473388671875 1 1.6577980518341064453 1.1659885644912719727 1 1.461819767951965332 1.345614314079284668 1.4422055482864379883 3.0322077274322509766 2.1421566009521484375 2.7564098834991455078 1.7040112018585205078 1.1144683361053466797 1.8514734506607055664 2.0713870525360107422 1.8209933042526245117 1.3992695808410644531 2.1970572471618652344 2.1291046142578125 1.1584376096725463867 1.8476125001907348633 1.7333734035491943359 1 2.5925157070159912109 1 1 1 1 1.7561491727828979492 1 1 1 1.9570767879486083984 1.8779237270355224609 1 3.0218667984008789063 1.9259675741195678711 1.6230274438858032227 1.7585521936416625977 2.1061391830444335938 2.7045578956604003906 2.1456437110900878906 2.1008999347686767578 2.6552469730377197266 2.8462386131286621094 3.0741689205169677734 2.2263510227203369141 3.0510895252227783203 2.2356054782867431641 2.8510968685150146484 3.1723046302795410156 2.9215362071990966797 3.1454837322235107422 4.0913743972778320313 3.5197167396545410156 3.6896195411682128906 4.0946817398071289063 2.9178459644317626953 3.2745802402496337891 3.8485400676727294922 2.9249522686004638672 2.4502611160278320313 2.1764354705810546875 2.5848033428192138672 2.3711183071136474609 1.9366453886032104492 2.1973502635955810547 2.3210537433624267578 2.7892928123474121094 1.6939892768859863281 1.2627472877502441406 2.3605134487152099609 2.8556735515594482422 1.9937571287155151367 2.4557602405548095703 2.5955290794372558594 2.2594830989837646484 2.5180659294128417969 2.9319467544555664063 2.8138515949249267578 3.1454038619995117188 3.2428047657012939453 3.0576102733612060547 3.1162481307983398438 3.3474407196044921875 2.9318535327911376953 3.2699143886566162109 2.8198220729827880859 2.8274238109588623047 3.1785922050476074219 2.5506751537322998047 1.8516668081283569336 2.4881365299224853516 
1 1 1 1 1 1 1 2.4718415737152099609 1 2.0607159137725830078 2.1387069225311279297 1.311385035514831543 1.8442108631134033203 1.653941035270690918 1.5682569742202758789 2.0821628570556640625 1.8428313732147216797 2.3390662670135498047 2.2895026206970214844 2.0527184009552001953 2.1844222545623779297 1.8403676748275756836 1.6184222698211669922 1.8136157989501953125 2.4304769039154052734 1.418309330940246582 2.5924241542816162109 2.7173879146575927734 2.8716592788696289063 2.4945824146270751953 3.1990263462066650391 2.9566829204559326172 2.7304513454437255859 2.9276747703552246094 3.097042083740234375 2.6487286090850830078 2.9755301475524902344 3.3545961380004882813 3.808803558349609375 3.1974902153015136719 2.9986889362335205078 2.7498106956481933594 2.6845123767852783203 2.871063232421875 3.0436110496520996094 3.0365095138549804688 2.9747824668884277344 2.8969113826751708984 2.3824212551116943359 2.8502182960510253906 1.8031742572784423828 2.0016765594482421875 2.5868117809295654297 2.3783128261566162109 1.4145734310150146484 2.1551022529602050781 1.9043904542922973633 1.1998038291931152344 1.7913167476654052734 1.1229951381683349609 1.6136653423309326172 1.3977795839309692383 2.0739710330963134766 1.8736909627914428711 1.7619025707244873047 1.2455192804336547852 1.9977880716323852539 1.8957020044326782227 1.9312839508056640625 1.1584376096725463867 2.6519815921783447266 1.5241041183471679688 1.822552800178527832 1.0787590742111206055 1.9988924264907836914 1 1.2460588216781616211 1.5980026721954345703 2.2558851242065429688 1 1.3830394744873046875 2.0051195621490478516 2.0457134246826171875 1 2.0051195621490478516 1 1 1.1029417514801025391 1 1 1 1 1 1 1 1 1 1 1 1.3522558212280273438 1.8724579811096191406 1.9953709840774536133 1.3242778778076171875 1.1695791482925415039 1.3408291339874267578 2.2818238735198974609 1.6024944782257080078 1 1.2439392805099487305 1 1.7754449844360351563 2.2336819171905517578 1.1366544961929321289 3.1457483768463134766 3.0465836524963378906 2.1202704906463623047 2.5841603279113769531 1.1914029121398925781 1.9788885116577148438 1.4227592945098876953 1.6212294101715087891 2.7010517120361328125 2.5393540859222412109 1.8504505157470703125 1.7045975923538208008 1 2.0718338489532470703 1.3522214889526367188 2.0051195621490478516 1 1 1 1.4663612842559814453 1.7561491727828979492 1.1302753686904907227 1 1.3830394744873046875 1.5350766181945800781 1 1.653941035270690918 2.3851757049560546875 1 1.5699212551116943359 2.5602443218231201172 2.1622841358184814453 1.2341473102569580078 2.1724882125854492188 1.2233805656433105469 1.8011770248413085938 1.7045975923538208008 1.7887060642242431641 1.9649331569671630859 2.1803529262542724609 2.1332545280456542969 2.6723501682281494141 1.5191080570220947266 3.6040351390838623047 3.6370403766632080078 3.649440765380859375 3.2017230987548828125 3.3413774967193603516 3.09100341796875 3.521575927734375 3.9472699165344238281 3.5989034175872802734 4.0356917381286621094 3.1745884418487548828 3.8517498970031738281 3.1471011638641357422 3.1647551059722900391 2.7753543853759765625 2.6359567642211914063 2.1319286823272705078 2.1284682750701904297 2.9961209297180175781 2.9379441738128662109 2.9860360622406005859 1.6513944864273071289 2.6822454929351806641 1.9862564802169799805 2.7965672016143798828 2.4826250076293945313 3.1461548805236816406 2.6986062526702880859 2.882022857666015625 3.1605296134948730469 2.9434340000152587891 3.1063904762268066406 3.9508292675018310547 3.9925580024719238281 2.8375728130340576172 2.6100389957427978516 2.4604067802429199219 3.3082563877105712891 3.8759660720825195313 3.8032474517822265625 2.9087927341461181641 2.2494525909423828125 2.3206973075866699219 2.5890247821807861328 
1.1812468767166137695 1 2.0606834888458251953 1 1 1 1.0097109079360961914 2.0024030208587646484 1.1302753686904907227 1 1 2.0303454399108886719 2.3347442150115966797 2.3927733898162841797 1.5901937484741210938 1.5390114784240722656 2.0334806442260742188 2.2755761146545410156 2.1753251552581787109 1.5171698331832885742 1.5084381103515625 1.2067019939422607422 1 1.5603352785110473633 2.6999742984771728516 1.81927490234375 1.6845636367797851563 1.7825682163238525391 2.4970440864562988281 2.3528757095336914063 2.9022693634033203125 2.9566493034362792969 2.70278167724609375 2.9929549694061279297 2.6946225166320800781 2.8928229808807373047 3.6406567096710205078 3.0000379085540771484 3.203014373779296875 3.2238054275512695313 2.6472592353820800781 2.6944165229797363281 2.5630259513854980469 2.6444101333618164063 2.9764120578765869141 3.1536033153533935547 2.9377820491790771484 2.3825669288635253906 2.8124804496765136719 2.7954425811767578125 2.0484874248504638672 1.8553216457366943359 1.5552775859832763672 2.4704840183258056641 1.7573640346527099609 2.4187915325164794922 1.5244326591491699219 1.2118371725082397461 1.3367605209350585938 1.0615265369415283203 1.0990613698959350586 1.3397669792175292969 1.3522214889526367188 1.1584376096725463867 2.1195681095123291016 1.8453792333602905273 1.6230274438858032227 2.2877137660980224609 1.919499516487121582 1.8514734506607055664 1.7573640346527099609 1.9208962917327880859 2.9214956760406494141 2.0207803249359130859 1.1584376096725463867 1 1.2333718538284301758 2.2484104633331298828 1 1.2619063854217529297 1.9249005317687988281 1.3683894872665405273 2.3797218799591064453 2.3455893993377685547 1 1 1 2.0606834888458251953 1.5735477209091186523 1 1 1 2.5925157070159912109 1 1.6938040256500244141 1.1029417514801025391 1.2760617733001708984 1.3068473339080810547 1 1 1 1.5214476585388183594 2.3659069538116455078 1.7796458005905151367 2.3566117286682128906 3.0375208854675292969 3.1652045249938964844 3.0426590442657470703 2.438785552978515625 1 1.730523228645324707 1.8355237245559692383 2.499462127685546875 1 2.9353380203247070313 1.4909254312515258789 2.2898252010345458984 2.1142570972442626953 1.5205533504486083984 1.9764105081558227539 1.8415153026580810547 2.0578145980834960938 1.6014891862869262695 2.3235425949096679688 1.1584376096725463867 1 1 2.0051195621490478516 1 1 1 1 1 1 1 1.4034458398818969727 1 1 1.420632481575012207 1.2778083086013793945 1 2.3524634838104248047 1.3352289199829101563 2.6059012413024902344 2.5030689239501953125 1.9355734586715698242 1.8431141376495361328 2.1567800045013427734 1.2473037242889404297 2.0209100246429443359 1.2295614480972290039 2.2617380619049072266 1.1224176883697509766 2.2745034694671630859 2.3197345733642578125 3.6236286163330078125 2.9721109867095947266 3.4906108379364013672 2.8973796367645263672 3.2906353473663330078 2.5036275386810302734 3.7860620021820068359 2.729198455810546875 3.0955605506896972656 3.0581085681915283203 3.1103186607360839844 3.3626024723052978516 2.706195831298828125 3.6180276870727539063 2.6175570487976074219 3.3886890411376953125 2.6082041263580322266 2.6666126251220703125 2.2435495853424072266 2.4272911548614501953 3.4863221645355224609 2.7240517139434814453 3.0291540622711181641 1.53704071044921875 2.6011648178100585938 2.3600325584411621094 2.6463031768798828125 3.0739166736602783203 3.5780277252197265625 1.8035966157913208008 3.0068290233612060547 3.6571736335754394531 3.4733374118804931641 3.9080691337585449219 3.3015782833099365234 3.5685453414916992188 3.2607588768005371094 2.1223115921020507813 2.2485690116882324219 2.9972014427185058594 3.0276095867156982422 2.2420704364776611328 2.5091814994812011719 3.2491579055786132813 1.9896245002746582031 
2.5925157070159912109 1 1 1 2.5925157070159912109 1 1 1 1 1 1.6812781095504760742 1.9805426597595214844 1.364978790283203125 1.6566764116287231445 2.5892083644866943359 1.0653589963912963867 2.2424716949462890625 2.1331670284271240234 1.6200685501098632813 1.3741767406463623047 1.6157672405242919922 2.0047442913055419922 2.6999742984771728516 1.4467499256134033203 1.1584376096725463867 1.6798764467239379883 1.5815271139144897461 2.1197190284729003906 1.9574842453002929688 2.2495989799499511719 2.2596452236175537109 2.5481595993041992188 2.94879150390625 2.5425262451171875 2.7874591350555419922 2.4957184791564941406 3.2784709930419921875 2.6975882053375244141 2.9517743587493896484 3.1417341232299804688 2.4709570407867431641 2.0304293632507324219 2.2677714824676513672 2.3750002384185791016 2.8003139495849609375 2.7457315921783447266 2.4993681907653808594 2.5978386402130126953 2.1549296379089355469 2.3515913486480712891 2.8318932056427001953 1.8968480825424194336 1.6909699440002441406 3.0543031692504882813 2.0287065505981445313 1.1584376096725463867 2.0136387348175048828 1 1.9955966472625732422 1.1998038291931152344 1.0201439857482910156 1.8018707036972045898 1.5667102336883544922 1.2118371725082397461 1.1712651252746582031 1.8436987400054931641 1.4034458398818969727 2.5827515125274658203 1.1998038291931152344 1.6005625724792480469 1.1584376096725463867 2.3948893547058105469 2.0812642574310302734 1.6136653423309326172 1 1.3522214889526367188 1 1 2.0997419357299804688 1 1.3302274942398071289 1.378580927848815918 1 1.4034458398818969727 1 1 1 1.3033219575881958008 2.0264706611633300781 1 1.0115836858749389648 1 1 1 1 1 1 1 2.7767748832702636719 1.2955503463745117188 1.8532519340515136719 2.5926303863525390625 2.1262853145599365234 2.0264289379119873047 2.3964240550994873047 2.7981021404266357422 1.6160014867782592773 2.9179797172546386719 1.6120172739028930664 1 2.8327341079711914063 1.2549003362655639648 2.4118647575378417969 1.0394468307495117188 3.2153618335723876953 2.1204030513763427734 2.390651702880859375 1.7122236490249633789 1.9522950649261474609 1.6249076128005981445 2.1703078746795654297 1.8207834959030151367 2.2446413040161132813 2.1550338268280029297 1.849381566047668457 1.2880803346633911133 1.9955966472625732422 2.0657415390014648438 1.0692206621170043945 1 1 1 1.7333734035491943359 1.420632481575012207 1 2.0657415390014648438 2.1110303401947021484 1.149753570556640625 1 1 1.3286054134368896484 1.172961115837097168 2.2178356647491455078 2.1447799205780029297 2.5340948104858398438 2.3384315967559814453 2.4787187576293945313 1.9421523809432983398 1.9646390676498413086 2.2137556076049804688 2.5462903976440429688 2.3209962844848632813 1.5815271139144897461 2.9200258255004882813 2.1641547679901123047 2.7590532302856445313 2.7109589576721191406 1.9171030521392822266 2.2915244102478027344 2.6435711383819580078 2.3974969387054443359 4.5213723182678222656 2.5937645435333251953 1.9039353132247924805 3.5924725532531738281 2.6111156940460205078 2.1344366073608398438 2.9698655605316162109 3.6885650157928466797 3.1901619434356689453 3.1545097827911376953 2.5974762439727783203 3.2255730628967285156 2.9541168212890625 2.9134798049926757813 2.7245512008666992188 2.4532260894775390625 2.7929003238677978516 3.2657253742218017578 2.4323325157165527344 4.0680890083312988281 2.8933579921722412109 2.6121585369110107422 3.1212291717529296875 2.9601984024047851563 3.0608992576599121094 3.0837452411651611328 2.9959802627563476563 3.0099079608917236328 3.5118126869201660156 3.0321393013000488281 3.3511111736297607422 2.6295249462127685547 2.252593994140625 1.752438664436340332 2.7067124843597412109 2.3041670322418212891 2.5824496746063232422 2.7551391124725341797 3.5077359676361083984 
1 1.1812468767166137695 1 1 1 1 1 1.7561491727828979492 1 1 1 1.5037115812301635742 1.148396611213684082 2.1934177875518798828 1.8876547813415527344 2.5152425765991210938 1.9573105573654174805 1.4098987579345703125 1.7573640346527099609 1.6559424400329589844 2.0249187946319580078 2.1242299079895019531 1.2921909093856811523 2.1386957168579101563 1 2.1931531429290771484 2.257427215576171875 2.3097050189971923828 2.2151906490325927734 2.6059694290161132813 2.4445011615753173828 2.5164849758148193359 2.8495824337005615234 2.4710431098937988281 2.4860041141510009766 2.7446489334106445313 2.7971739768981933594 2.6278197765350341797 2.9446833133697509766 3.3155343532562255859 2.78801727294921875 2.6301679611206054688 1.5604163408279418945 2.7539753913879394531 1.7785271406173706055 2.6966574192047119141 2.1690280437469482422 2.8044903278350830078 2.6671552658081054688 2.3301672935485839844 1.8589512109756469727 1.9332431554794311523 1.2763957977294921875 2.2468972206115722656 2.3477532863616943359 1.5590749979019165039 2.0626161098480224609 1 1.315482020378112793 2.2266054153442382813 1 1 1.4198118448257446289 2.2336819171905517578 2.2779064178466796875 1.6166270971298217773 1.2190240621566772461 1 2.3200678825378417969 1 1 1 1.2212828397750854492 2.3851757049560546875 1.1399155855178833008 1 1.2349509000778198242 1.2481828927993774414 2.2004418373107910156 1.5386499166488647461 2.1785726547241210938 2.0123188495635986328 1.1489439010620117188 1.4034458398818969727 1.0122760534286499023 1 1 1 1 1.6636118888854980469 2.5925157070159912109 1.6636118888854980469 1 1.5607722997665405273 1 1 1.3035029172897338867 1 1 1.9296419620513916016 2.2497816085815429688 2.6814026832580566406 2.9622747898101806641 1.7886660099029541016 2.3731629848480224609 1.5407987833023071289 2.0268106460571289063 1.0428260564804077148 2.7877628803253173828 2.7486429214477539063 3.0300226211547851563 2.0607826709747314453 1.2713017463684082031 2.2824809551239013672 1 2.4703662395477294922 1.6363202333450317383 2.3859839439392089844 1.958623051643371582 1.9764105081558227539 1.8106441497802734375 1.8530938625335693359 2.2965333461761474609 1.070923924446105957 1 1.6230274438858032227 1.4938256740570068359 2.3851757049560546875 2.048839569091796875 1 1 1 1.0122760534286499023 1 1 1.1806674003601074219 1.1806674003601074219 1.1806674003601074219 1 1.0454745292663574219 1 1 2.2601251602172851563 2.8730139732360839844 2.8818993568420410156 2.6953499317169189453 1.8910776376724243164 2.6160333156585693359 2.4128158092498779297 1.8875905275344848633 2.5987641811370849609 2.0395033359527587891 2.1281917095184326172 2.6593008041381835938 2.8744275569915771484 1.5437561273574829102 1.9152855873107910156 1.8193910121917724609 2.7711873054504394531 2.1980154514312744141 1.8385322093963623047 2.2192275524139404297 2.7221381664276123047 2.5568964481353759766 1.6862076520919799805 3.0473606586456298828 2.3309416770935058594 2.7073619365692138672 3.5330507755279541016 2.8173964023590087891 3.13130950927734375 3.0779318809509277344 2.6843509674072265625 4.5198521614074707031 2.4342546463012695313 2.3323452472686767578 2.5511329174041748047 2.9065923690795898438 3.3657104969024658203 2.4764609336853027344 3.0931460857391357422 3.5094463825225830078 3.4440722465515136719 2.9857633113861083984 3.674968719482421875 3.73558807373046875 3.4735050201416015625 3.0007569789886474609 2.4735019207000732422 3.0751993656158447266 2.9031057357788085938 3.6764643192291259766 3.36429595947265625 1.406233668327331543 2.6030416488647460938 1.8418941497802734375 2.2169260978698730469 1.9261990785598754883 2.4967358112335205078 2.5361309051513671875 
1 2.0606834888458251953 1.1282495260238647461 1.6489013433456420898 1 2.3200678825378417969 1 1 1 1.5758814811706542969 2.1697785854339599609 1.4381324052810668945 1.2798808813095092773 2.3849384784698486328 1.2966744899749755859 1 1 1 2.2209618091583251953 1.5152117013931274414 1.7876012325286865234 2.3961689472198486328 1.43737030029296875 2.0334806442260742188 1.6879876852035522461 1.4495360851287841797 1.7919884920120239258 2.0869045257568359375 2.0968334674835205078 1.932238459587097168 2.2277479171752929688 2.2511744499206542969 2.4932949542999267578 2.6020216941833496094 2.2475876808166503906 2.4115719795227050781 3.0766856670379638672 3.1294085979461669922 3.085498809814453125 2.72399139404296875 3.2440805435180664063 2.4442436695098876953 2.2889897823333740234 3.1607716083526611328 3.3287253379821777344 1.7697876691818237305 2.0379691123962402344 2.7334053516387939453 2.1780383586883544922 2.1596281528472900391 2.09369659423828125 2.1518495082855224609 1.3999158143997192383 2.3501927852630615234 2.2844893932342529297 1.2674572467803955078 2.4473285675048828125 1.2047724723815917969 2.24495697021484375 1.4154137372970581055 1 1.7333734035491943359 1 1.0091935396194458008 1.2118371725082397461 2.3851757049560546875 1.0892996788024902344 1.2591799497604370117 1 1.1806674003601074219 1.0201439857482910156 1.3080642223358154297 2.3200678825378417969 1 1.2349509000778198242 1 2.0997419357299804688 1 1 1.3080642223358154297 2.2911133766174316406 1.2394182682037353516 1.0201439857482910156 1 1 1.15058135986328125 1 1 1 1 1 1 1.7561491727828979492 1 1 1 1.5339288711547851563 1.9182604551315307617 1 2.2032501697540283203 1.1409116983413696289 1.0186431407928466797 1.8352097272872924805 2.8819487094879150391 2.7332639694213867188 1 2.8754072189331054688 1.9823995828628540039 3.1335995197296142578 3.8288948535919189453 2.0168867111206054688 2.3804631233215332031 2.0828025341033935547 1.7833869457244873047 1.564618229866027832 2.1931531429290771484 1.796528935432434082 2.0518984794616699219 2.4785947799682617188 2.3140883445739746094 1.8787024021148681641 1.150935053825378418 1.5037339925765991211 1.2662241458892822266 1.7165768146514892578 1.8512506484985351563 1.0300425291061401367 1 1 1 1 1 1 1 1 1 1 1.1806674003601074219 1 1 2.0997419357299804688 1.4254764318466186523 1.7658878564834594727 2.9134874343872070313 2.7418777942657470703 2.930957794189453125 2.8162243366241455078 2.5693001747131347656 1.6852142810821533203 2.3172564506530761719 1.9264161586761474609 2.6698603630065917969 2.2470686435699462891 3.1752276420593261719 1.6815727949142456055 1.2932541370391845703 2.3781397342681884766 1.4494527578353881836 2.4388124942779541016 3.0502064228057861328 1.70221710205078125 2.2738842964172363281 1.448372960090637207 1.6258929967880249023 2.0544910430908203125 2.2028338909149169922 2.2372522354125976563 2.6779055595397949219 2.9716727733612060547 3.0724964141845703125 2.9188985824584960938 3.8874990940093994141 2.5966684818267822266 3.0508139133453369141 3.3154571056365966797 1.4718352556228637695 2.0805988311767578125 3.0284311771392822266 2.2784850597381591797 2.4517579078674316406 3.9000432491302490234 3.4813466072082519531 3.3273396492004394531 3.5362572669982910156 3.2986204624176025391 2.5220878124237060547 2.4005568027496337891 2.4943664073944091797 2.4453213214874267578 2.904758453369140625 3.5687053203582763672 2.8527915477752685547 2.645168304443359375 2.5298442840576171875 2.7603259086608886719 3.3464651107788085938 2.2250809669494628906 3.8120341300964355469 2.4058406352996826172 2.8069622516632080078 
1 1.1029417514801025391 1.1812468767166137695 1 1.6196088790893554688 1.1302753686904907227 1 1 1 2.0166919231414794922 1.3776839971542358398 2.3851757049560546875 1 1 1 1.5782716274261474609 2.4428822994232177734 1.7976992130279541016 1.8212398290634155273 2.7124333381652832031 2.5120098590850830078 1.7165768146514892578 1.2296007871627807617 1.3221335411071777344 2.9214956760406494141 1.3890067338943481445 1.8572804927825927734 2.1667971611022949219 2.2902188301086425781 1.8521779775619506836 1.9902724027633666992 2.4681148529052734375 2.8818070888519287109 2.6754040718078613281 3.3729045391082763672 3.1754899024963378906 3.4337005615234375 3.4213466644287109375 2.8804371356964111328 2.9405705928802490234 3.2991821765899658203 2.7600057125091552734 3.0844681262969970703 2.9148955345153808594 2.162181854248046875 2.2987575531005859375 1.1017880439758300781 2.1666498184204101563 2.0352520942687988281 1 1.9208962917327880859 1.5137059688568115234 1.1394679546356201172 1.486094355583190918 2.1299080848693847656 1.7623561620712280273 1.9376773834228515625 2.5172400474548339844 1.2118371725082397461 2.1179404258728027344 1 1.762204289436340332 2.0051195621490478516 1 2.0997419357299804688 1 1 1.0115836858749389648 1.0115836858749389648 1 1.0233190059661865234 1 1.224240422248840332 2.0051195621490478516 1.2118371725082397461 1.7754449844360351563 1.3456426858901977539 1.2333718538284301758 1 1 1 1.8318656682968139648 2.0466601848602294922 1.5353035926818847656 1.4667357206344604492 1.5037115812301635742 1 1.1582262516021728516 1 1.3830394744873046875 1.4381324052810668945 1.5037115812301635742 1.4663612842559814453 1.461832880973815918 1.653941035270690918 2.1780641078948974609 1 1 1.8942073583602905273 1.1603173017501831055 2.0634531974792480469 2.1736154556274414063 1.6354535818099975586 2.1413793563842773438 2.6329584121704101563 2.3057332038879394531 2.5968112945556640625 2.7540450096130371094 2.4667365550994873047 1.9280256032943725586 2.1220369338989257813 1.6442450284957885742 2.5317857265472412109 2.6102716922760009766 1.8376370668411254883 1.6273993253707885742 2.3757479190826416016 1.7740046977996826172 1.6410535573959350586 2.4789977073669433594 1.5063582658767700195 1.7597224712371826172 1.6901819705963134766 1.8023748397827148438 1.9788885116577148438 1 1.0598787069320678711 1.5985388755798339844 1 1.1291054487228393555 1 1 1.1302753686904907227 1 1 1.4034458398818969727 1.224240422248840332 1.15058135986328125 1 2.0051195621490478516 1 2.3429057598114013672 1 2.200595855712890625 2.3382806777954101563 2.5524277687072753906 2.7162978649139404297 2.1742119789123535156 2.2190692424774169922 1.7939853668212890625 2.2143151760101318359 1.3279082775115966797 2.4451501369476318359 1.9518387317657470703 1 2.07306671142578125 2.6329095363616943359 1 1 1 1 1.7561491727828979492 2.2033102512359619141 1 2.3617258071899414063 2.6571063995361328125 1.7522907257080078125 3.4313950538635253906 3.2801940441131591797 2.62873077392578125 2.9981968402862548828 2.9180998802185058594 3.1273517608642578125 2.6015264987945556641 3.6571640968322753906 2.3481607437133789063 2.7841753959655761719 3.3877656459808349609 2.3967785835266113281 2.8535833358764648438 3.0778675079345703125 3.4421482086181640625 3.7973015308380126953 2.7404053211212158203 2.5249042510986328125 3.0528507232666015625 3.9242098331451416016 2.1480269432067871094 3.3219296932220458984 2.8204631805419921875 3.9417040348052978516 2.81240081787109375 3.0474684238433837891 3.2468125820159912109 2.7724602222442626953 3.3479053974151611328 2.3115770816802978516 3.1176991462707519531 2.9535260200500488281 3.5203378200531005859 
1 1 1 1.1791369915008544922 1 1 1.1812468767166137695 1 1 1.2452390193939208984 1.7561491727828979492 1.4381324052810668945 1.1302753686904907227 1.0021946430206298828 2.7164177894592285156 1 1.905411839485168457 1.371266484260559082 2.1525731086730957031 1.6671935319900512695 1.9273459911346435547 1.0201439857482910156 1.3522214889526367188 1.7227816581726074219 1.1712651252746582031 2.4286386966705322266 1.9494518041610717773 2.1646535396575927734 2.1962082386016845703 2.0654344558715820313 2.4360451698303222656 3.0500376224517822266 2.8220722675323486328 3.0144240856170654297 3.9388594627380371094 2.7835175991058349609 3.6065495014190673828 3.5163693428039550781 3.3361804485321044922 3.283447265625 2.9100270271301269531 3.1263253688812255859 2.7439939975738525391 2.0316388607025146484 2.0298357009887695313 2.2288606166839599609 1.9376773834228515625 2.4547374248504638672 1.8689943552017211914 2.5729508399963378906 2.3134033679962158203 1 1.3221335411071777344 1.7913167476654052734 2.1921179294586181641 1.5375310182571411133 2.5039098262786865234 1.683047175407409668 1.764750361442565918 1.7561491727828979492 1 1 1.224240422248840332 1 1.7561491727828979492 1 1 1 1.1653940677642822266 1.1653940677642822266 1.9913885593414306641 1 1.5957909822463989258 1 1.2141321897506713867 1.3990994691848754883 1.2314015626907348633 1.8076318502426147461 1.5667102336883544922 1.8076318502426147461 1.3522214889526367188 2.0474362373352050781 1 1.1806674003601074219 1 1 1 2.0606834888458251953 1.0115836858749389648 1.0097109079360961914 2.1179404258728027344 1.351271510124206543 1 1 1.3456426858901977539 2.1179404258728027344 1.3080642223358154297 1 1.9755547046661376953 2.2536695003509521484 1.4447362422943115234 2.0313849449157714844 3.4149794578552246094 3.1974313259124755859 3.3062100410461425781 2.0690705776214599609 3.036937713623046875 3.4503633975982666016 4.1421723365783691406 3.2221009731292724609 2.7899167537689208984 2.0704376697540283203 2.4995243549346923828 2.8358643054962158203 1.7569648027420043945 1.9974993467330932617 2.3245344161987304688 1.8763796091079711914 2.9220759868621826172 1.9901127815246582031 2.2360870838165283203 1.952251434326171875 1.8322033882141113281 1.5324690341949462891 2.3158910274505615234 1.5878800153732299805 2.4759016036987304688 1.1229951381683349609 1 2.2249948978424072266 1.9259675741195678711 1.0664210319519042969 1.1489439010620117188 1 2.0997419357299804688 1.9712347984313964844 2.0051195621490478516 1.8055074214935302734 1.1966390609741210938 1.3057544231414794922 1 1.1806674003601074219 1.1806674003601074219 1.4501706361770629883 2.4625875949859619141 1.967568516731262207 2.2158117294311523438 2.3135194778442382813 1.9557193517684936523 1.6658066511154174805 1.3526781797409057617 2.1175382137298583984 2.7164006233215332031 2.5701661109924316406 2.5028932094573974609 1.3267627954483032227 1.0888841152191162109 2.3851757049560546875 2.3851757049560546875 1.6497210264205932617 1 1.5331820249557495117 1.3359429836273193359 1.6292502880096435547 2.2988843917846679688 2.5924365520477294922 2.6274461746215820313 1 3.3298966884613037109 2.9666879177093505859 2.9477951526641845703 2.963207244873046875 1.996664881706237793 3.3652994632720947266 2.5719902515411376953 4.0359349250793457031 2.5831258296966552734 2.6293959617614746094 2.8656458854675292969 2.9544034004211425781 3.6765313148498535156 3.1806402206420898438 3.5454392433166503906 3.7053508758544921875 3.3364453315734863281 3.1627645492553710938 4.2981901168823242188 2.9577074050903320313 3.1010229587554931641 3.2147548198699951172 3.1869359016418457031 3.3064758777618408203 3.1729080677032470703 2.3470864295959472656 3.419158935546875 2.824672698974609375 2.3476889133453369141 3.4898560047149658203 3.4590265750885009766 2.9883925914764404297 
1 1 1 1 1.2614188194274902344 1 1 1 1 1.0115836858749389648 1 1 1.420632481575012207 1.4034458398818969727 1.3454370498657226563 1.1670356988906860352 1.6186585426330566406 1.6187471151351928711 1.5262207984924316406 2.3214867115020751953 1.205159306526184082 1.8689943552017211914 1.9902595281600952148 1.6136653423309326172 1 1.4987589120864868164 1.7025755643844604492 2.2402157783508300781 1.7899575233459472656 1.9672194719314575195 2.2495911121368408203 2.8673858642578125 2.6648926734924316406 2.6196105480194091797 3.5695874691009521484 3.3661260604858398438 3.1109323501586914063 3.3266613483428955078 2.3694608211517333984 3.3369846343994140625 3.1399757862091064453 2.4976823329925537109 1.6753251552581787109 2.6519815921783447266 1.4531198740005493164 1.6358716487884521484 1.6230274438858032227 1.0202820301055908203 1.224240422248840332 1 1.1806674003601074219 1 1.7561491727828979492 1.2047193050384521484 3.2054007053375244141 2.4616515636444091797 2.3324036598205566406 1.7684493064880371094 1.2766677141189575195 1 1.6837804317474365234 1 1 1 1 1.1812468767166137695 1 1 1 1.1806674003601074219 1.1187440156936645508 1.4034458398818969727 1.2591799497604370117 1 1.2493931055068969727 1 1.6731530427932739258 2.1389698982238769531 1 1 1 1.3236827850341796875 1.1806674003601074219 1.3830394744873046875 1 1 1 1 1 1.4802713394165039063 2.0051195621490478516 1 2.0985126495361328125 1.0345132350921630859 2.4926066398620605469 1.3698375225067138672 1.5968191623687744141 2.6334042549133300781 1.0870661735534667969 2.8942332267761230469 2.2254123687744140625 2.9336159229278564453 3.6066660881042480469 2.5737025737762451172 3.6509852409362792969 3.1471903324127197266 2.4233987331390380859 2.64422607421875 2.1707761287689208984 4.1175942420959472656 3.1031696796417236328 2.6139812469482421875 2.8889157772064208984 1.7573640346527099609 2.5633220672607421875 1.829140782356262207 2.0789203643798828125 1.6715703010559082031 1.9964766502380371094 2.1348750591278076172 1.9906996488571166992 2.1154255867004394531 1.7687500715255737305 1.6314948797225952148 1.9704641103744506836 2.1242299079895019531 1.2067019939422607422 1.5193574428558349609 1.6136653423309326172 1.5738985538482666016 1.8076318502426147461 2.7690782546997070313 1 1.3718758821487426758 1 1 1 1.8076318502426147461 1.9955966472625732422 1.7099180221557617188 1 1.5009461641311645508 1.7797677516937255859 1 1 1.8327201604843139648 2.1870329380035400391 2.5546617507934570313 1.7576262950897216797 1.5169911384582519531 1.5769269466400146484 1.3569558858871459961 1 1.5335935354232788086 1.9101984500885009766 1 2.0997419357299804688 1 2.3134033679962158203 1 1 1.2591799497604370117 1.3367605209350585938 2.3272252082824707031 3.0052194595336914063 1 1.8019140958786010742 1.481136322021484375 2.5697095394134521484 2.8130662441253662109 3.0585114955902099609 2.9625849723815917969 3.7015085220336914063 2.9478306770324707031 3.5669574737548828125 2.4495851993560791016 2.0752477645874023438 2.8024044036865234375 2.3096716403961181641 2.2896230220794677734 3.2953424453735351563 3.65608978271484375 4.0923876762390136719 3.8048653602600097656 2.9352009296417236328 3.4826538562774658203 3.8726291656494140625 4.2402939796447753906 3.2772133350372314453 3.6437463760375976563 3.7612760066986083984 3.7144427299499511719 2.54372406005859375 3.2621505260467529297 3.0379245281219482422 3.2510609626770019531 2.9762163162231445313 3.0939438343048095703 2.9016528129577636719 3.4088990688323974609 
1 1 1 1.1812468767166137695 1 1 1 1 1.4721742868423461914 1 1 1.420632481575012207 1 1 1.135155797004699707 1.0160341262817382813 2.2911133766174316406 2.68122100830078125 2.0579044818878173828 1 2.0374515056610107422 2.0209710597991943359 2.1499533653259277344 1.8413025140762329102 1.7938426733016967773 1.1394679546356201172 1.6210135221481323242 2.3559577465057373047 1.6200356483459472656 2.4501526355743408203 2.7005357742309570313 2.5773375034332275391 2.8571867942810058594 2.5967173576354980469 2.9826178550720214844 3.2491817474365234375 2.730113983154296875 3.1687502861022949219 3.4355711936950683594 3.3753418922424316406 3.3769934177398681641 2.2855260372161865234 1.9312839508056640625 1.7754449844360351563 1.8048930168151855469 1 1 1.1806674003601074219 1 1.2118371725082397461 1.4034458398818969727 1 1 1.2500348091125488281 1 2.2945718765258789063 1.4972681999206542969 1.1917798519134521484 1 1 1 1 1 1 1 1 1.6636118888854980469 1 1 1 1 1 1 1 3.2657406330108642578 1 2.4470372200012207031 1 1.653941035270690918 1.8512506484985351563 1.4098987579345703125 1.6866780519485473633 2.6554493904113769531 1 1 1 1 1 1 1 1 1.8670791387557983398 2.4453456401824951172 2.249462127685546875 1.2916047573089599609 1.3791114091873168945 1.7561491727828979492 2.5660130977630615234 1.8630689382553100586 2.571811676025390625 2.0781323909759521484 3.1232619285583496094 3.6969723701477050781 2.5721070766448974609 2.9642741680145263672 3.4018785953521728516 2.7687792778015136719 3.1625027656555175781 2.3463256359100341797 1.9886527061462402344 3.2072856426239013672 1.3922826051712036133 1.8514734506607055664 2.173145294189453125 1.7536013126373291016 2.0457565784454345703 2.1142055988311767578 1.9343129396438598633 2.3621547222137451172 1.7225819826126098633 2.4787776470184326172 2.0127167701721191406 1.3805397748947143555 1.5815271139144897461 2.3086981773376464844 1.9376773834228515625 1.5603352785110473633 1.7356723546981811523 1.8572059869766235352 2.1331670284271240234 1 1.7165768146514892578 2.4759016036987304688 1.4145734310150146484 1 1 2.9214956760406494141 1.1659885644912719727 1.0657498836517333984 1.844344019889831543 1.3095566034317016602 1.8554160594940185547 1.8971270322799682617 2.7203173637390136719 2.1821854114532470703 1.9043904542922973633 2.5910928249359130859 2.7892811298370361328 2.2488760948181152344 1 1.6879876852035522461 1.3320616483688354492 1 1.5213490724563598633 1.0091935396194458008 1 1.5037115812301635742 1.7561491727828979492 1.15058135986328125 1 1 1.0097109079360961914 2.3851757049560546875 1.5431870222091674805 1.7965385913848876953 1.7834795713424682617 1.7708768844604492188 2.1611731052398681641 1 1.3273966312408447266 2.2560687065124511719 3.0453221797943115234 3.3801779747009277344 2.4493963718414306641 2.8044564723968505859 3.2775280475616455078 3.9814476966857910156 3.5724689960479736328 2.8096127510070800781 2.5915358066558837891 3.6029841899871826172 3.6595761775970458984 3.5659110546112060547 3.4053437709808349609 2.8176941871643066406 3.4481918811798095703 4.2857441902160644531 3.5559093952178955078 3.8824307918548583984 3.8419377803802490234 2.9375696182250976563 2.8727393150329589844 3.2444257736206054688 3.4515225887298583984 3.19412994384765625 3.5417337417602539063 3.3130829334259033203 3.1880900859832763672 2.855121612548828125 2.8330922126770019531 
1 1 1 1 1 1.149753570556640625 1 1 1 1 1 2.5925157070159912109 1.1812468767166137695 1 1 1.1806674003601074219 1 1.1291054487228393555 1 1.4533989429473876953 2.2412891387939453125 1.9324710369110107422 1.8433302640914916992 1.9391218423843383789 1.7356723546981811523 1.0015316009521484375 1.326617121696472168 1.7356723546981811523 2.3697731494903564453 2.1828136444091796875 2.0495200157165527344 2.3456151485443115234 2.1495227813720703125 2.5825219154357910156 2.7098701000213623047 3.0041713714599609375 3.2263009548187255859 3.1293466091156005859 3.1877858638763427734 2.7167928218841552734 2.9688320159912109375 2.246471405029296875 1.950886845588684082 2.0557529926300048828 1.5386499166488647461 1 2.0997419357299804688 1.0091935396194458008 1.2333718538284301758 1.1489439010620117188 2.1179404258728027344 1.7333734035491943359 2.3200678825378417969 2.1110303401947021484 1 1.0642144680023193359 1 1 1 1.2381321191787719727 1.2400240898132324219 1 1 1 1.2671102285385131836 1 2.0606834888458251953 1 1 1 1 1.9299159049987792969 1 2.0843112468719482422 1.7469447851181030273 2.5363521575927734375 1.4733208417892456055 1.9227170944213867188 1 1.4034458398818969727 1.4034458398818969727 1 1 1 1 1 1.0122760534286499023 1 1 1 1.8044849634170532227 2.6831636428833007813 2.9682025909423828125 2.4298012256622314453 2.2179157733917236328 1.7120536565780639648 1.5263876914978027344 2.1209425926208496094 1.4026510715484619141 2.0647456645965576172 1.4314625263214111328 2.3363139629364013672 2.7351489067077636719 2.2855966091156005859 3.4764969348907470703 3.0934557914733886719 3.4611196517944335938 2.7947287559509277344 3.0546324253082275391 3.4197771549224853516 2.1181621551513671875 2.7821934223175048828 2.2306606769561767578 1.7310606241226196289 1.5539404153823852539 2.3697731494903564453 2.1672003269195556641 2.4543657302856445313 1.6152138710021972656 1.7144250869750976563 2.2151117324829101563 1.8144153356552124023 2.0774796009063720703 1.8361978530883789063 1.3469767570495605469 1.1394679546356201172 1.8751968145370483398 2.1151719093322753906 1.8257665634155273438 1.6954572200775146484 1.629174351692199707 1.7770366668701171875 2.1987483501434326172 1.4469382762908935547 1.822552800178527832 1.6910586357116699219 2.0797631740570068359 1.8689943552017211914 2.0913910865783691406 1.2164301872253417969 2.0936245918273925781 2.4746086597442626953 2.2995171546936035156 1.9915509223937988281 2.3491179943084716797 1.7192374467849731445 2.1029291152954101563 2.3731534481048583984 1.7406463623046875 2.2336819171905517578 1 1 1 1 1 1.7561491727828979492 1.4381324052810668945 1 1 1.0122760534286499023 1 1 1.8032262325286865234 1.0512516498565673828 2.1893031597137451172 1 1.9353582859039306641 1.6732575893402099609 2.6400206089019775391 1.6370505094528198242 2.4102110862731933594 2.7484087944030761719 3.0049412250518798828 1.7648813724517822266 3.2674112319946289063 2.8787004947662353516 3.2148611545562744141 4.7873973846435546875 3.3396713733673095703 2.5897233486175537109 4.2623157501220703125 4.4860634803771972656 3.7719674110412597656 3.0455625057220458984 4.7532391548156738281 3.9475800991058349609 4.2282576560974121094 4.4846887588500976563 3.4456598758697509766 3.9987854957580566406 3.3732349872589111328 3.4278175830841064453 3.2448060512542724609 3.5059161186218261719 3.1028301715850830078 3.4896864891052246094 3.2232520580291748047 2.9667711257934570313 3.3724446296691894531 3.3310914039611816406 
1 1.1812468767166137695 1 1 1 1.2950332164764404297 1 1 1 1 1.1812468767166137695 1 1 1 2.0997419357299804688 1.1302753686904907227 1.4034458398818969727 1.6866780519485473633 1.0201439857482910156 2.0739710330963134766 2.2942132949829101563 2.3858094215393066406 1.7573640346527099609 2.5259671211242675781 1.7124642133712768555 2.0444028377532958984 1.4221968650817871094 1.6096417903900146484 1.5067596435546875 2.1511919498443603516 2.5149185657501220703 1.9450707435607910156 2.346813201904296875 2.6518385410308837891 3.1503069400787353516 3.6942532062530517578 2.7387573719024658203 3.9342324733734130859 3.2267673015594482422 2.7449297904968261719 3.0202128887176513672 2.9456512928009033203 1.9817206859588623047 1 1.9421523809432983398 1.8810631036758422852 2.1179404258728027344 1 1.2118371725082397461 1 1.324756622314453125 1 1.1747975349426269531 2.2249948978424072266 1.8076318502426147461 2.3851757049560546875 1 1 1 1 1 1.1812468767166137695 1 1 1 1 1 1 1.2591799497604370117 1 1.3865648508071899414 1 1 1.4956624507904052734 1 1 1 2.6073861122131347656 1 1 1.15058135986328125 1 1.0122760534286499023 1 1 1 2.0529191493988037109 2.5945494174957275391 2.0785639286041259766 1 1.688183903694152832 2.0707020759582519531 1.4459433555603027344 1.6828516721725463867 1.5797963142395019531 1 1.697048187255859375 1 1.7333734035491943359 1.2393637895584106445 1.3117079734802246094 1 1.0261782407760620117 1.8988846540451049805 2.1283509731292724609 2.1638722419738769531 3.3788046836853027344 2.6732516288757324219 2.4703752994537353516 3.0474061965942382813 1.9570349454879760742 2.6881613731384277344 2.58481597900390625 2.2327947616577148438 2.0262844562530517578 2.2977144718170166016 2.184894561767578125 2.8567624092102050781 2.3998439311981201172 1.8558393716812133789 1.8467257022857666016 2.020145416259765625 1.7592242956161499023 1.5439121723175048828 1.7362498044967651367 1.682362675666809082 2.1997771263122558594 2.610446929931640625 2.2978963851928710938 1.9034792184829711914 2.2280030250549316406 1.8338427543640136719 2.1511733531951904297 1.8669091463088989258 2.0012090206146240234 2.2442405223846435547 1.4107283353805541992 2.1151719093322753906 1.8217018842697143555 2.1448180675506591797 2.1506543159484863281 1.4114592075347900391 3.0629613399505615234 2.2947359085083007813 1.8052952289581298828 2.2792689800262451172 1.4748243093490600586 2.8755438327789306641 1.9653078317642211914 1.7024524211883544922 1.1584376096725463867 2.7690782546997070313 1.7165768146514892578 1 1 1 1 1 1 1 1 1 1 2.709980010986328125 1.2291333675384521484 2.3649234771728515625 1.9633738994598388672 2.7304537296295166016 1.6214537620544433594 1.5978820323944091797 2.8301908969879150391 2.3418302536010742188 2.8196713924407958984 3.1731276512145996094 3.1012470722198486328 3.5140061378479003906 2.7367846965789794922 3.0596902370452880859 3.6102163791656494141 3.9739704132080078125 3.6212143898010253906 3.5389418601989746094 4.1902794837951660156 3.7489883899688720703 4.3764219284057617188 4.8729319572448730469 4.135082244873046875 4.1715731620788574219 4.1239323616027832031 3.5236330032348632813 4.5676059722900390625 4.1980800628662109375 2.9095566272735595703 3.4576716423034667969 3.7921509742736816406 3.5396487712860107422 3.9168457984924316406 3.4511713981628417969 2.3023765087127685547 2.7434566020965576172 
1.1029417514801025391 1.5607722997665405273 1.1812468767166137695 1 1 1.1302753686904907227 1.653941035270690918 1 1 1 1 1.1812468767166137695 1 2.5925157070159912109 1 1 1 1.1139971017837524414 2.150951385498046875 2.1634585857391357422 2.2801334857940673828 1.9530913829803466797 1.7045975923538208008 1.2175258398056030273 1.7758247852325439453 1.2772659063339233398 1.7024524211883544922 2.3785381317138671875 2.1876463890075683594 1.4425206184387207031 2.5089104175567626953 1.9247201681137084961 2.3074300289154052734 2.8991882801055908203 3.1018881797790527344 3.2800621986389160156 2.7026224136352539063 2.8769421577453613281 3.0095682144165039063 1.6554048061370849609 2.5654621124267578125 2.4737186431884765625 2.5250921249389648438 1.7573640346527099609 2.2816455364227294922 1.5386499166488647461 1.1806674003601074219 1.324756622314453125 1 2.1271224021911621094 1 1.4381324052810668945 1.0097109079360961914 1.2333718538284301758 1.1806674003601074219 1.0122760534286499023 1.3244551420211791992 1 1 1 1 1 1 1 1 1 1.1029417514801025391 1 1 1 2.6550593376159667969 1.2330735921859741211 1 2.5925157070159912109 1 3.154331207275390625 1 1.5319910049438476563 1 1 1 1 1 1 1 2.93346405029296875 1.1094278097152709961 2.0472464561462402344 1.9416815042495727539 1.4121400117874145508 2.1126680374145507813 1.1127612590789794922 2.0221788883209228516 1.4198118448257446289 1.4667357206344604492 2.3134033679962158203 1.3092074394226074219 1.1806674003601074219 1 1 1 2.0604319572448730469 1.1924682855606079102 1.7965826988220214844 2.5449178218841552734 3.8199102878570556641 3.2805383205413818359 2.8904850482940673828 3.0641465187072753906 3.0605440139770507813 2.7723212242126464844 2.5052924156188964844 3.0940384864807128906 2.7191941738128662109 1.9866790771484375 2.6947767734527587891 1.8467257022857666016 2.2640314102172851563 1.7412590980529785156 2.1772162914276123047 2.1083481311798095703 1.6727095842361450195 2.2429976463317871094 2.1404783725738525391 1.9787195920944213867 2.1496524810791015625 1.6281987428665161133 1.7643069028854370117 1.9360244274139404297 1.3274179697036743164 1.7024524211883544922 2.4759016036987304688 2.2065384387969970703 1.2067019939422607422 1.8193583488464355469 1.7785276174545288086 1.3221335411071777344 1.9249604940414428711 1.6136653423309326172 2.0626161098480224609 1.8431791067123413086 2.1088445186614990234 1 1.0786687135696411133 2.1941230297088623047 2.3655214309692382813 1.7895742654800415039 1.9180684089660644531 2.4705395698547363281 1.8136157989501953125 1.479602813720703125 1.5985388755798339844 1.1489439010620117188 1.3830394744873046875 1 1 1 1 1 1 1 1 2.3851757049560546875 1 1.2149498462677001953 1 2.4691293239593505859 1.6346299648284912109 3.2215454578399658203 3.0039515495300292969 2.7756083011627197266 2.629093170166015625 3.1324481964111328125 4.5937442779541015625 3.9095525741577148438 3.9606716632843017578 4.3758182525634765625 4.4679412841796875 3.9951016902923583984 4.2900738716125488281 4.2448678016662597656 4.1141238212585449219 3.4000384807586669922 3.9415402412414550781 3.4496662616729736328 4.5131840705871582031 4.7330422401428222656 4.0619311332702636719 3.9819817543029785156 4.0991764068603515625 4.2131900787353515625 4.0041971206665039063 3.62252044677734375 3.8305149078369140625 3.5352540016174316406 4.2790555953979492188 3.4280359745025634766 2.9118916988372802734 2.8853130340576171875 2.5120012760162353516 
1 1.1029417514801025391 1 1 1.2185790538787841797 1 1 1 1 1 1 1 1.6938040256500244141 1 1 1.8537259101867675781 1.1653940677642822266 1.536858677864074707 1.8942774534225463867 2.264011383056640625 2.1460127830505371094 2.323543548583984375 1.5403076410293579102 1.6849004030227661133 1.4710280895233154297 1.7573640346527099609 1.8257665634155273438 2.3475129604339599609 2.3803429603576660156 2.2413411140441894531 1 2.6611621379852294922 2.4937970638275146484 2.7063722610473632813 2.6506454944610595703 2.8641688823699951172 3.4594545364379882813 3.2667553424835205078 2.6506431102752685547 2.4400548934936523438 2.8618175983428955078 1.5849441289901733398 2.1091947555541992188 1.9902595281600952148 1.768505096435546875 1 1 1.9955966472625732422 1.4034458398818969727 1 1 1 1 1 1 1 1 1 1.6938040256500244141 1.4221029281616210938 1 1 1.1029417514801025391 2.0816450119018554688 1 1 1 1 1 1 1.5607722997665405273 1 1 2.0816450119018554688 1 1.9513932466506958008 1 1.2988933324813842773 1.1806674003601074219 1 1 2.2213027477264404297 1 1 1.0834652185440063477 2.6170527935028076172 1.5991257429122924805 3.1929788589477539063 2.7760536670684814453 2.0710902214050292969 2.7401645183563232422 1.7076292037963867188 1 1 1.2582398653030395508 1.420632481575012207 1 2.0106885433197021484 2.1799945831298828125 1 2.3115689754486083984 2.8465280532836914063 3.0641798973083496094 2.8636033535003662109 2.7017247676849365234 2.8916051387786865234 3.3899888992309570313 2.8316297531127929688 2.3526675701141357422 2.7114963531494140625 2.8930094242095947266 3.1439638137817382813 3.0502805709838867188 2.8117997646331787109 2.6253793239593505859 2.4002480506896972656 2.5091230869293212891 1.6354019641876220703 1.9221606254577636719 2.2716267108917236328 1.7965325117111206055 2.4599649906158447266 1.8267873525619506836 1.6783143281936645508 2.1373755931854248047 1.7805422544479370117 2.1281492710113525391 1.5609995126724243164 1.5564444065093994141 1.5689965486526489258 1.4267956018447875977 1.8810631036758422852 1.3221335411071777344 2.0918228626251220703 1.9376773834228515625 1.2058587074279785156 1.302908778190612793 1.5937762260437011719 1.8072823286056518555 1.4461213350296020508 2.2336819171905517578 1.3221335411071777344 1.9955966472625732422 1.9955966472625732422 2.1081774234771728516 1.5920536518096923828 2.29352569580078125 1.9601929187774658203 1.5598100423812866211 2.1652874946594238281 1.7754449844360351563 1.3367605209350585938 2.3200678825378417969 1 2.0606834888458251953 2.5925157070159912109 1.0571595430374145508 1 1 1 1 1.3830394744873046875 2.117656707763671875 1.2267606258392333984 1 1 2.4161481857299804688 1 2.7384545803070068359 2.349269866943359375 1.8947815895080566406 3.4103450775146484375 2.266284942626953125 2.9564759731292724609 3.3109598159790039063 4.2328577041625976563 4.2241835594177246094 4.1563315391540527344 3.8566467761993408203 3.4929864406585693359 3.8515105247497558594 4.2142229080200195313 2.8267321586608886719 3.303127288818359375 4.1506910324096679688 4.6292128562927246094 4.4509062767028808594 4.4887919425964355469 3.9555654525756835938 4.2398653030395507813 3.879543304443359375 3.9187951087951660156 4.1567296981811523438 3.7587311267852783203 3.5305211544036865234 3.6651482582092285156 3.5885815620422363281 2.7459712028503417969 2.5064780712127685547 2.350482940673828125 
1 1 1 1 1.1812468767166137695 1.1029417514801025391 1.3438118696212768555 2.5925157070159912109 1 1.0113099813461303711 1.1582262516021728516 1 1 1.4663612842559814453 1 1.653941035270690918 1.0201439857482910156 1 1.9030240774154663086 1.5403076410293579102 1.8667001724243164063 1.5925414562225341797 1.5014295578002929688 1.7614591121673583984 1.4005215167999267578 2.3111743927001953125 1.5540728569030761719 2.0303597450256347656 1.4351439476013183594 2.0291321277618408203 2.3711020946502685547 2.2688558101654052734 2.4831197261810302734 2.4908938407897949219 2.5385160446166992188 3.1175625324249267578 2.9645898342132568359 3.4014375209808349609 2.5043687820434570313 2.7688953876495361328 2.1989424228668212891 2.52197265625 2.0899794101715087891 1.8613884449005126953 1.9421523809432983398 1.2720361948013305664 1.7810490131378173828 1.9194163084030151367 1.7468357086181640625 1 1.4034458398818969727 1 1 1 1 1.2185790538787841797 1 1 1 1 1 1 1 1 1 1.1029417514801025391 1 1 1 1 2.0606834888458251953 1.0025376081466674805 1.1199636459350585938 1.033008575439453125 1.2258889675140380859 1 1.5753241777420043945 1 1.4070298671722412109 1.1302753686904907227 2.1179404258728027344 1.2896414995193481445 2.1051149368286132813 1.5317862033843994141 2.65877532958984375 2.3634932041168212891 1.2975246906280517578 2.0726172924041748047 1.3599923849105834961 3.5117223262786865234 2.9369015693664550781 1.1086944341659545898 1 1.0091935396194458008 1 1.5037115812301635742 1.1291054487228393555 1.2118371725082397461 1.6236530542373657227 2.7189297676086425781 1.9256979227066040039 3.1349582672119140625 1.4514551162719726563 2.1802835464477539063 1.521602630615234375 2.6687610149383544922 2.492099761962890625 1.9870077371597290039 3.2728943824768066406 2.8955206871032714844 3.3063693046569824219 2.905853271484375 2.7006897926330566406 2.5373313426971435547 2.7726976871490478516 2.3017327785491943359 2.9117157459259033203 1.4742517471313476563 2.0269391536712646484 1.6727095842361450195 1.9114571809768676758 2.0300590991973876953 1.9503619670867919922 1.9608702659606933594 2.0602626800537109375 1.768543243408203125 2.1855034828186035156 2.1502091884613037109 1.6849004030227661133 1.7024524211883544922 1.5636153221130371094 1.7192500829696655273 1.0300425291061401367 1.1584376096725463867 1.3890067338943481445 1 1.8678678274154663086 1.9934517145156860352 1.4056422710418701172 1.7573640346527099609 1 1.7754449844360351563 1.2314015626907348633 2.1597521305084228516 1.2480027675628662109 2.3652474880218505859 1.4099156856536865234 2.0150086879730224609 1.9984861612319946289 1 1.4363151788711547852 1.1489439010620117188 1.1489439010620117188 1.4034458398818969727 1 1.1812468767166137695 1 1 1 1 1 2.0051195621490478516 1.3080642223358154297 1 1.0067081451416015625 1.1128090620040893555 1 1.0326340198516845703 1.4803792238235473633 3.0037438869476318359 2.7768778800964355469 2.3766481876373291016 4.0035648345947265625 3.9443500041961669922 3.4589478969573974609 3.4926428794860839844 3.3741319179534912109 3.8014204502105712891 3.2833247184753417969 3.8330357074737548828 4.0017232894897460938 3.0767426490783691406 3.0721468925476074219 3.5722403526306152344 4.3054027557373046875 3.7197437286376953125 3.7100012302398681641 4.2749114036560058594 4.092365264892578125 3.8944201469421386719 3.7624502182006835938 3.8022923469543457031 4.0293416976928710938 3.7136247158050537109 4.0901150703430175781 4.2626700401306152344 2.9378488063812255859 2.9509913921356201172 2.5228791236877441406 2.4361968040466308594 
1 1 1 1.0115836858749389648 1 1 1 2.5925157070159912109 1 1 1 1 1 1.4074978828430175781 1 1.2118371725082397461 2.3948893547058105469 1 1.4546514749526977539 1.8514734506607055664 1.5109831094741821289 2.6793787479400634766 1.4710280895233154297 2.5171525478363037109 1.252658843994140625 2.2880856990814208984 2.0519618988037109375 2.6112873554229736328 2.1009843349456787109 2.7034695148468017578 2.7319314479827880859 1.6822186708450317383 2.7534792423248291016 3.3089399337768554688 2.7184433937072753906 2.4020144939422607422 2.7854764461517333984 3.3797228336334228516 2.8431551456451416016 3.0495660305023193359 2.4689190387725830078 2.5449345111846923828 2.2282865047454833984 1.391559600830078125 1.8881642818450927734 1.4467499256134033203 2.5034239292144775391 1.2314015626907348633 1.5727313756942749023 1.224240422248840332 1.4381324052810668945 1 1 2.5925157070159912109 1 1 1 1 1 1.1029417514801025391 1 1 1 1 1 1 1 1 1 1.606797337532043457 1 1.2769207954406738281 1.1582262516021728516 1 1 1 1 1.2814713716506958008 1 1 1 1.4034458398818969727 2.2533671855926513672 1.5717711448669433594 1 2.4661133289337158203 2.0491704940795898438 2.8658928871154785156 2.1095447540283203125 2.1540563106536865234 2.4787833690643310547 1 1.7503491640090942383 2.7630417346954345703 2.1419932842254638672 1 2.0177862644195556641 2.1104705333709716797 1.781515955924987793 1.5475363731384277344 2.3704493045806884766 2.2003238201141357422 1.8518155813217163086 2.5899629592895507813 3.6338231563568115234 3.2199387550354003906 3.1485085487365722656 2.5077569484710693359 3.3097696304321289063 3.5730185508728027344 3.2694897651672363281 3.5576975345611572266 3.2506661415100097656 3.7264308929443359375 3.0214037895202636719 2.2701156139373779297 2.7327239513397216797 1.9635053873062133789 1.7977478504180908203 1.9638109207153320313 1.6181316375732421875 1.799119114875793457 2.4891719818115234375 1.7363594770431518555 2.1167635917663574219 2.409412384033203125 2.1263413429260253906 1.9681885242462158203 1.3274179697036743164 1.7295384407043457031 1.8136157989501953125 2.0334074497222900391 2.0028035640716552734 2.1331670284271240234 1.2455796003341674805 1.1584376096725463867 1 1.5196694135665893555 2.7985475063323974609 1.7356723546981811523 1.7913167476654052734 2.0626161098480224609 1.4145734310150146484 1.4838255643844604492 1.9788885116577148438 2.2681508064270019531 1.79608154296875 1.7816996574401855469 1.8174866437911987305 1.0664210319519042969 1.4054828882217407227 1 1.7333734035491943359 1 1 1 1 1 1 1.1812468767166137695 1.420632481575012207 1.4663612842559814453 1 1 1 1.2527483701705932617 1 1.6379330158233642578 1.6303287744522094727 2.2074582576751708984 3.1685647964477539063 2.7945334911346435547 2.1493358612060546875 5.0489277839660644531 3.5830328464508056641 4.4894909858703613281 3.9791371822357177734 3.4138829708099365234 4.0784025192260742188 3.8227846622467041016 3.1881022453308105469 3.9026651382446289063 4.0971121788024902344 3.720066070556640625 3.6633009910583496094 4.0002913475036621094 4.0248856544494628906 3.4511270523071289063 3.8135695457458496094 3.9254524707794189453 4.3370423316955566406 3.3161575794219970703 3.5881571769714355469 3.2443163394927978516 3.8288085460662841797 3.6082923412322998047 3.3986811637878417969 3.7089419364929199219 2.9929585456848144531 3.0396928787231445313 
1 1 2.3200678825378417969 2.3851757049560546875 1 1 1 1.5607722997665405273 1 1 1 1 2.1179404258728027344 1.0097109079360961914 1.4034458398818969727 1 1.6398446559906005859 1.7913167476654052734 1.9169355630874633789 1.1584376096725463867 1.9698922634124755859 1.6399793624877929688 1 1.8625233173370361328 2.1987483501434326172 2.6366984844207763672 2.5261933803558349609 2.0638453960418701172 2.4043536186218261719 2.3413770198822021484 3.0102317333221435547 2.8399608135223388672 3.1546125411987304688 1.8395422697067260742 2.4037528038024902344 1.5362446308135986328 2.9037837982177734375 2.7336871623992919922 2.3581039905548095703 2.4170162677764892578 2.5794994831085205078 2.8100986480712890625 2.595508575439453125 2.3141705989837646484 2.6126618385314941406 2.0267763137817382813 1.2979609966278076172 1 1 1.2333718538284301758 1.1302753686904907227 1 1 1.0115836858749389648 1 1 1 1 1.1098117828369140625 1.0367400646209716797 1 1 1 1 1 1 1 1 1 1 1 2.6831705570220947266 1 1 1 1 2.4251680374145507813 1 1.2450430393218994141 1 1.0091935396194458008 1.653941035270690918 1.4066528081893920898 1.3718758821487426758 2.4456021785736083984 1.8622277975082397461 1.6279892921447753906 1 2.6436796188354492188 2.3728764057159423828 1.9381853342056274414 1.1690196990966796875 2.1044409275054931641 1.407024383544921875 1.2333718538284301758 2.2222611904144287109 2.8748002052307128906 3.407299041748046875 2.5315086841583251953 2.8510630130767822266 2.3465774059295654297 3.0583319664001464844 3.9673864841461181641 3.9541277885437011719 3.7264804840087890625 3.6555624008178710938 3.3008513450622558594 3.6535177230834960938 3.2932593822479248047 4.3399791717529296875 4.1311450004577636719 3.7075133323669433594 4.3099513053894042969 3.3941717147827148438 2.9520020484924316406 3.2696261405944824219 3.0157656669616699219 2.5765829086303710938 2.5774283409118652344 2.2846353054046630859 1.8423089981079101563 2.2567265033721923828 1.8115975856781005859 1.9288800954818725586 2.3468127250671386719 2.452571868896484375 2.2385478019714355469 2.2225239276885986328 1.4297113418579101563 1.7310606241226196289 2.4452211856842041016 1.7770366668701171875 1.6565639972686767578 1.3448958396911621094 2.1331670284271240234 1.1317626237869262695 1.8613164424896240234 1.3106701374053955078 2.1711561679840087891 1.5815271139144897461 1.7913167476654052734 2.0725774765014648438 1.9747595787048339844 1.8613884449005126953 1.3056240081787109375 1.3455480337142944336 1.4491633176803588867 1.3100485801696777344 1.7913167476654052734 2.2647311687469482422 2.4286386966705322266 1 1.2190240621566772461 1 1 1 1 1 1 1 1.1806674003601074219 1.2126379013061523438 1 1 1 1.5156345367431640625 2.3434779644012451172 1.8876360654830932617 2.5292997360229492188 3.0149693489074707031 2.4275047779083251953 3.9255564212799072266 2.8566298484802246094 3.8304827213287353516 4.2183561325073242188 3.8357446193695068359 2.8681888580322265625 3.1461749076843261719 3.5385162830352783203 3.5726590156555175781 3.4130148887634277344 3.1654837131500244141 4.3733849525451660156 4.5473628044128417969 4.1024937629699707031 3.1344754695892333984 3.9175856113433837891 3.9133906364440917969 3.6748182773590087891 3.4900083541870117188 3.4489693641662597656 3.7340981960296630859 3.4584660530090332031 3.5519056320190429688 3.4287126064300537109 3.9522953033447265625 3.8289670944213867188 3.664989471435546875 2.6324701309204101563 2.2955803871154785156 
1.7333734035491943359 1.1806674003601074219 1 1.1806674003601074219 1 1 2.5925157070159912109 1 1 1 1 1.0021946430206298828 1.7894141674041748047 1.0201439857482910156 1 1 1.9312839508056640625 1.1228250265121459961 1.9398239850997924805 1.7573640346527099609 1.7974879741668701172 1.4030805826187133789 1.6565639972686767578 2.1494932174682617188 1.1543570756912231445 2.1814389228820800781 2.1594305038452148438 1.5705237388610839844 1.6379780769348144531 2.5464935302734375 3.1216373443603515625 2.3580830097198486328 2.0546660423278808594 2.6910779476165771484 2.2736499309539794922 2.3475129604339599609 2.0110847949981689453 2.1931531429290771484 2.4021108150482177734 1.8710935115814208984 2.192523956298828125 2.0014910697937011719 2.4932003021240234375 1.552540898323059082 1.9478005170822143555 1.8715665340423583984 2.1652874946594238281 2.4995641708374023438 1.6581586599349975586 1 1.9475523233413696289 1 1 1 1 1.2450430393218994141 1 1 1 1 1 1 1 1 1 1 1 1 1 2.0816450119018554688 1 1 1 1 1 1 1 2.0816450119018554688 1 1 1.4381324052810668945 1.420632481575012207 1 1 1.1342414617538452148 3.5652601718902587891 1.682286381721496582 1.2484765052795410156 1.2997701168060302734 1.8351342678070068359 3.4667205810546875 2.9398810863494873047 1.8629415035247802734 1 2.6646981239318847656 2.5394709110260009766 3.4869649410247802734 2.9236769676208496094 2.7216644287109375 1.7606596946716308594 2.6686055660247802734 4.1910881996154785156 3.52298736572265625 3.4877564907073974609 4.0882830619812011719 4.2880606651306152344 4.1699953079223632813 3.3132936954498291016 3.5481131076812744141 4.0657548904418945313 4.0304656028747558594 4.2792043685913085938 3.2089030742645263672 3.3664400577545166016 3.0609531402587890625 2.5719614028930664063 2.7058272361755371094 2.6167137622833251953 2.2103946208953857422 1.9824116230010986328 2.0978269577026367188 2.1912124156951904297 2.2360870838165283203 2.1793763637542724609 2.1922376155853271484 2.2985584735870361328 1.9622316360473632813 2.3356754779815673828 2.146728515625 2.2278316020965576172 1.79608154296875 2.2833871841430664063 1.8960567712783813477 1.7817462682723999023 1.3056240081787109375 2.3111743927001953125 2.4187915325164794922 1.7356723546981811523 1.8257665634155273438 2.1511733531951904297 1.5739107131958007813 1.3221335411071777344 2.4739699363708496094 1 1.5037339925765991211 1.6115127801895141602 2.4210414886474609375 1.5937762260437011719 1.1584376096725463867 1.7754449844360351563 1.7333734035491943359 1.1302753686904907227 2.3851757049560546875 1 1 1.7894141674041748047 1 1.0454745292663574219 2.3200678825378417969 1.0115836858749389648 1.0270597934722900391 1.4773753881454467773 1.2871518135070800781 2.2943403720855712891 1.8039453029632568359 1.8779034614562988281 1.3939634561538696289 2.5826182365417480469 1.8518378734588623047 3.9113228321075439453 2.2163166999816894531 3.4664130210876464844 4.1568970680236816406 4.1752252578735351563 4.01026153564453125 3.3346288204193115234 3.1144046783447265625 3.1612780094146728516 2.9879276752471923828 3.6478102207183837891 3.0179612636566162109 3.1402609348297119141 3.8559870719909667969 3.3753097057342529297 3.3682699203491210938 3.3430840969085693359 3.9940388202667236328 3.3939259052276611328 3.7305109500885009766 3.1962552070617675781 3.2741672992706298828 3.9563748836517333984 3.6756465435028076172 3.2360606193542480469 3.7045090198516845703 3.8872165679931640625 3.6487801074981689453 3.5206570625305175781 3.2901599407196044922 3.2455470561981201172 
1.3522214889526367188 1 1 1.7248748540878295898 2.1110303401947021484 2.5925157070159912109 1 1.1653940677642822266 1 1 1.7987500429153442383 1.1653940677642822266 1.1998038291931152344 1.9747595787048339844 1.9312839508056640625 1.4539853334426879883 2.2086551189422607422 1.3550626039505004883 1.4328169822692871094 1.490719914436340332 2.1169836521148681641 2.5521407127380371094 1.966921687126159668 2.0127167701721191406 1.9069141149520874023 2.1282567977905273438 1.6638946533203125 2.4236388206481933594 2.5311989784240722656 2.5375528335571289063 2.7885260581970214844 2.1613142490386962891 2.5740079879760742188 2.4228274822235107422 2.0150086879730224609 2.0187604427337646484 2.1092462539672851563 2.0208604335784912109 2.3440215587615966797 2.2647311687469482422 1.6847490072250366211 1.4838255643844604492 1.9526845216751098633 1.3834244012832641602 2.2895026206970214844 1.7983413934707641602 1.7299376726150512695 2.0650875568389892578 2.0468075275421142578 1 1.6188396215438842773 1 1.1029417514801025391 1 2.5925157070159912109 1.1812468767166137695 2.5925157070159912109 1 1 1 1 1 1 1 1 1 1 1 1 1.1812468767166137695 1 2.5925157070159912109 1 2.0606834888458251953 1 1 1 1 1 1.6938040256500244141 1 1 1.7561491727828979492 1.2716739177703857422 1.3167651891708374023 1.583422541618347168 1.5529184341430664063 1.596073150634765625 1.61751556396484375 1.4734951257705688477 1 1.9122788906097412109 1 1.3599570989608764648 2.4157755374908447266 1.3390015363693237305 2.8374791145324707031 2.5979301929473876953 1.8319981098175048828 2.0220851898193359375 2.5464649200439453125 3.3107652664184570313 4.1382617950439453125 4.0747761726379394531 4.8770747184753417969 4.423221588134765625 4.9817714691162109375 3.6838290691375732422 3.8005592823028564453 3.7866466045379638672 4.05941009521484375 3.5273144245147705078 3.1216957569122314453 3.1718161106109619141 2.6625273227691650391 2.3438327312469482422 3.3410947322845458984 2.7816867828369140625 2.1399734020233154297 1.867705225944519043 1.6314948797225952148 1.6483273506164550781 2.3270573616027832031 1.962073206901550293 2.1920962333679199219 2.1927099227905273438 2.2258718013763427734 2.3935921192169189453 2.4088284969329833984 1.7652661800384521484 1.7725157737731933594 1.8322033882141113281 2.4941692352294921875 1.7996884584426879883 2.4290037155151367188 1.5064535140991210938 1.4596401453018188477 1.3517829179763793945 1.391559600830078125 1.5046422481536865234 1.3056240081787109375 1.9929766654968261719 2.6999742984771728516 1.5613834857940673828 1.7573640346527099609 1.8257665634155273438 2.1627757549285888672 2.0127167701721191406 1 1 1 1.7333734035491943359 2.0051195621490478516 1 1.1317626237869262695 1 2.0997419357299804688 1 1 2.2308397293090820313 1 1.4034458398818969727 1.5350766181945800781 1.8542667627334594727 3.4903252124786376953 2.9113686084747314453 2.8819968700408935547 2.6584630012512207031 2.1425149440765380859 3.7929234504699707031 3.421932220458984375 1.9573450088500976563 3.6763682365417480469 3.2120540142059326172 3.8178834915161132813 3.5369787216186523438 2.9486176967620849609 4.1582255363464355469 3.4421846866607666016 2.4506309032440185547 2.6701142787933349609 4.1149244308471679688 4.1532983779907226563 4.2268481254577636719 3.8562946319580078125 3.0447208881378173828 4.2789483070373535156 2.9594128131866455078 3.9214537143707275391 3.0420491695404052734 3.8917474746704101563 4.1332278251647949219 3.0397906303405761719 4.0207085609436035156 3.9518404006958007813 4.01385498046875 3.6675937175750732422 3.1392369270324707031 3.2662405967712402344 3.1208341121673583984 
1.1594256162643432617 1.6039005517959594727 1.614284515380859375 2.2336819171905517578 1.1291054487228393555 1 1 1 1 1.6943464279174804688 1.2563434839248657227 2.0301828384399414063 1.4098987579345703125 1.0201439857482910156 1.9653078317642211914 1.9788885116577148438 2.0599057674407958984 1.6208757162094116211 1.9346624612808227539 2.4277474880218505859 2.8623991012573242188 1.2411657571792602539 2.0228071212768554688 1.441992640495300293 2.0380153656005859375 2.3697731494903564453 2.9530611038208007813 1.8763796091079711914 1.8627756834030151367 1.8624377250671386719 2.2862963676452636719 2.4421830177307128906 1.8542895317077636719 2.8860886096954345703 1.8060802221298217773 1.6546937227249145508 2.3125240802764892578 1.3231682777404785156 1.6333366632461547852 1.9086291790008544922 2.6795248985290527344 1 2.099109649658203125 1.0923918485641479492 1.7374097108840942383 1 2.2308323383331298828 2.0186898708343505859 1.7754449844360351563 1 1 1 1.2671102285385131836 1 2.0657415390014648438 1 1 1.1653940677642822266 1 1 1.1029417514801025391 1 1 1 1 1 1 1 1 1 1 1.2450430393218994141 1 2.5925157070159912109 1 1 1 1 1 1 1.2476290464401245117 1.461832880973815918 1 1.3959069252014160156 2.1633563041687011719 1 2.4911277294158935547 2.1527791023254394531 1.9434884786605834961 1 1.4841156005859375 1 1 1.2745734453201293945 1.8810631036758422852 2.3214266300201416016 2.6835546493530273438 3.1560266017913818359 2.7967321872711181641 2.9611840248107910156 2.9929356575012207031 3.0240175724029541016 3.9757244586944580078 4.0087213516235351563 4.7657895088195800781 4.5364637374877929688 4.4074263572692871094 4.004047393798828125 3.7585065364837646484 3.5721940994262695313 3.4408438205718994141 3.5996220111846923828 3.0681777000427246094 4.0592947006225585938 2.5025601387023925781 3.4655704498291015625 2.9828813076019287109 3.0844583511352539063 2.5778017044067382813 1.7054662704467773438 1.8427628278732299805 2.1069855690002441406 2.0534536838531494141 2.1286525726318359375 2.4888427257537841797 1.7041193246841430664 2.0397510528564453125 1.9732400178909301758 2.0245802402496337891 1.9359015226364135742 1.8294953107833862305 1.9054647684097290039 2.1997771263122558594 2.4841909408569335938 1.5395464897155761719 2.5462903976440429688 2.1961996555328369141 1.4609037637710571289 1.6546937227249145508 1.5815271139144897461 1.6776124238967895508 1.6249076128005981445 1.3274179697036743164 2.2045269012451171875 1 2.5137398242950439453 1.7888125181198120117 2.5630702972412109375 1.2604227066040039063 2.0301828384399414063 2.0051195621490478516 1.1806674003601074219 1 1.9194163084030151367 1.6559642553329467773 1 1 1 1 2.0997419357299804688 1 1.2837145328521728516 2.6933634281158447266 3.1919391155242919922 3.2426593303680419922 3.8249831199645996094 3.7244477272033691406 3.1106493473052978516 3.2097713947296142578 3.0206367969512939453 2.6627264022827148438 2.5645604133605957031 3.5863313674926757813 3.5576267242431640625 3.0855360031127929688 3.5679781436920166016 3.5425074100494384766 3.5401887893676757813 3.2955386638641357422 2.9032123088836669922 3.0902142524719238281 3.2815966606140136719 3.5976064205169677734 4.1144461631774902344 3.6024811267852783203 3.4349834918975830078 4.017299652099609375 2.9786450862884521484 3.6720435619354248047 3.5545017719268798828 4.1027069091796875 4.1349582672119140625 3.2530481815338134766 3.8225300312042236328 3.3296878337860107422 4.2190656661987304688 4.2768688201904296875 4.1198706626892089844 3.2527985572814941406 3.1373717784881591797 
1.2333718538284301758 2.0272638797760009766 1 1.0615265369415283203 1.1806674003601074219 1.7561491727828979492 1.1644139289855957031 1 1.5335935354232788086 1.1584376096725463867 1.3638455867767333984 1 1 1 1 1.2754104137420654297 2.6999742984771728516 1.9934517145156860352 1.5536988973617553711 2.7758421897888183594 1.8540328741073608398 1.9582539796829223633 2.2148802280426025391 2.8988587856292724609 2.1252067089080810547 2.5533132553100585938 2.3656694889068603516 1.3925777673721313477 1.4713354110717773438 1.4498211145401000977 2.2668938636779785156 2.0248892307281494141 2.6814615726470947266 1.2067019939422607422 1.736191868782043457 1.7094399929046630859 2.7498884201049804688 1.7552704811096191406 1.9644933938980102539 2.6303932666778564453 1 1.9654670953750610352 2.0208301544189453125 1.6992622613906860352 2.8001623153686523438 1.6014891862869262695 2.4841909408569335938 1.7024524211883544922 1.8512506484985351563 1 1 1 1 1 1 1 1 1 1 1.2671102285385131836 1.1029417514801025391 1 1 1 1 1 1 1 1.1029417514801025391 1.1029417514801025391 1 1.4501819610595703125 1 1 1 1 1 1 1 1 1 2.6272420883178710938 2.4853668212890625 1 1.1806674003601074219 1.1758731603622436523 1.8628393411636352539 1.3026160001754760742 2.1179404258728027344 1.6950714588165283203 1.6775838136672973633 1.1105865240097045898 1 1.6655725240707397461 1.7904692888259887695 1.9568308591842651367 3.0561001300811767578 3.1762363910675048828 2.3379981517791748047 2.18532562255859375 2.7642436027526855469 3.7785441875457763672 3.9837284088134765625 4.9325466156005859375 4.2124314308166503906 4.4873943328857421875 4.6957116127014160156 3.7634725570678710938 3.8800230026245117188 3.6828477382659912109 3.3046033382415771484 3.7887196540832519531 2.9850258827209472656 3.4855015277862548828 2.7363522052764892578 4.0229887962341308594 3.3022341728210449219 3.4113059043884277344 1.9718800783157348633 2.9099745750427246094 2.4539644718170166016 1.6749054193496704102 1.3789235353469848633 1.5674089193344116211 1.2509684562683105469 2.1363186836242675781 1.9877750873565673828 1.884674072265625 1.8908219337463378906 2.0055842399597167969 1.8270038366317749023 2.3111743927001953125 2.0209100246429443359 1.3639084100723266602 1.8705415725708007813 1.5674089193344116211 2.0703001022338867188 1.7685695886611938477 1.5263100862503051758 1.713043212890625 1.4710280895233154297 1.478974461555480957 1.7929273843765258789 1.3267627954483032227 1.7573640346527099609 1.7469292879104614258 1.7490316629409790039 1.2067019939422607422 1.6136653423309326172 1.1489439010620117188 1 1.653941035270690918 1 1.1712651252746582031 1.224343419075012207 1 1 1.2118371725082397461 2.3851757049560546875 1.6866780519485473633 1.2806227207183837891 1.3810329437255859375 2.6525220870971679688 2.9392817020416259766 2.7447636127471923828 3.4829237461090087891 3.1649620532989501953 3.3849554061889648438 3.0550136566162109375 2.8528778553009033203 3.8682546615600585938 2.7650272846221923828 2.9754662513732910156 2.8421456813812255859 3.2756435871124267578 3.3139801025390625 3.3618304729461669922 3.0275762081146240234 2.9113519191741943359 3.2902085781097412109 2.6323335170745849609 3.1890842914581298828 3.2977926731109619141 3.5402710437774658203 3.2347669601440429688 2.9895772933959960938 3.9247896671295166016 3.4662473201751708984 3.2449483871459960938 3.6324448585510253906 3.7763941287994384766 3.2318699359893798828 2.7667212486267089844 2.9413595199584960938 3.8888883590698242188 3.76801300048828125 4.3078451156616210938 3.8131241798400878906 3.9755346775054931641 3.2878067493438720703 
1.1983001232147216797 1.7999181747436523438 1.653941035270690918 1 1 1 1.2118371725082397461 1.1998038291931152344 1.1322900056838989258 1.1859188079833984375 1.3221335411071777344 1.1642774343490600586 2.6999742984771728516 1.4145734310150146484 1.7573640346527099609 1.404749751091003418 2.1981434822082519531 2.7941946983337402344 2.7553992271423339844 2.6756656169891357422 2.8649852275848388672 2.1901297569274902344 2.3050086498260498047 1.6646485328674316406 2.1198086738586425781 2.1703584194183349609 2.1599483489990234375 1.5205533504486083984 1.8933435678482055664 1.6350311040878295898 1.3474944829940795898 2.5459525585174560547 1.6930780410766601563 2.4373469352722167969 2.0041496753692626953 2.1365797519683837891 2.9140703678131103516 2.3609039783477783203 2.1711890697479248047 1.8795590400695800781 1.5520993471145629883 1.9594671726226806641 1.9421894550323486328 1.7310606241226196289 1.9518083333969116211 1.7542108297348022461 1.274907231330871582 2.1151719093322753906 1 2.0301828384399414063 1 1.7333734035491943359 1 1.0122760534286499023 1.0115836858749389648 1 2.5925157070159912109 1 1.2671102285385131836 2.5925157070159912109 1 1 1 1 1 1 1 1 1 1 1.1812468767166137695 1 1 1 1 1 1.1029417514801025391 1.0115836858749389648 1 1 1.15058135986328125 1 1.1797595024108886719 1 2.0051195621490478516 2.3733437061309814453 1.4765880107879638672 1.3585664033889770508 1.9152535200119018555 1 1.4198118448257446289 1.2850829362869262695 1.8585001230239868164 1.9560135602951049805 2.4525659084320068359 2.6782369613647460938 2.0791182518005371094 2.1301333904266357422 1.6883842945098876953 1.9548908472061157227 3.1396315097808837891 3.2692193984985351563 4.845867156982421875 4.6409697532653808594 4.2662096023559570313 4.2992739677429199219 4.4628286361694335938 4.0310587882995605469 3.5724012851715087891 4.0269198417663574219 3.0027883052825927734 2.8256781101226806641 2.9142749309539794922 2.8776524066925048828 3.0065393447875976563 3.1582190990447998047 3.5056777000427246094 3.2277991771697998047 2.2567317485809326172 2.2773211002349853516 1.990841984748840332 2.1291046142578125 1.7743130922317504883 2.5085015296936035156 1.7929273843765258789 1.4312723875045776367 2.2898192405700683594 1.7264484167098999023 1.2743868827819824219 1.7024524211883544922 1.1543920040130615234 1 1.7573640346527099609 1.6546937227249145508 1 1.6828376054763793945 1.2531121969223022461 1 2.3158910274505615234 1.5636153221130371094 1.8719393014907836914 1.391559600830078125 1.8695944547653198242 1.9902595281600952148 1.5824555158615112305 1.6878720521926879883 1.7913167476654052734 1.2455796003341674805 1.3367605209350585938 1.06850433349609375 1.9712347984313964844 2.1179404258728027344 1.5601974725723266602 1.1806674003601074219 1.6866780519485473633 2.2336819171905517578 2.0783851146697998047 1.0201439857482910156 1 1 1.3522214889526367188 1.3817065954208374023 2.6694345474243164063 2.3030238151550292969 3.7604854106903076172 2.8268988132476806641 3.5441277027130126953 4.01531982421875 3.9756655693054199219 2.4103963375091552734 3.2346131801605224609 4.1736063957214355469 3.3597598075866699219 2.9279427528381347656 3.3017337322235107422 3.1761815547943115234 3.2731318473815917969 2.8989009857177734375 2.6983668804168701172 2.8871872425079345703 3.577899932861328125 3.5523054599761962891 3.8058757781982421875 3.8891551494598388672 3.0478816032409667969 3.5373682975769042969 3.6162078380584716797 3.6131258010864257813 3.2503716945648193359 4.4551753997802734375 3.9980080127716064453 3.1641798019409179688 4.0967693328857421875 2.9815461635589599609 3.9335026741027832031 3.5742151737213134766 3.8892421722412109375 3.7322783470153808594 3.3089902400970458984 3.9041726589202880859 
1.5036436319351196289 1.4034458398818969727 1.1806674003601074219 1.653941035270690918 1 1 1.4198118448257446289 1.4413870573043823242 1.7913167476654052734 1.9653078317642211914 1.3221335411071777344 1 1.0598787069320678711 1.0658972263336181641 1.070923924446105957 1.5787085294723510742 2.3058035373687744141 1.9404954910278320313 2.2009854316711425781 2.7448611259460449219 1.9811059236526489258 2.2417361736297607422 1.9153550863265991211 1.7913167476654052734 2.3682885169982910156 2.1371176242828369141 1.7024524211883544922 2.080875396728515625 1.9179297685623168945 1.35599517822265625 1.9443223476409912109 2.6087713241577148438 2.6823484897613525391 2.2533395290374755859 2.4767508506774902344 2.5730047225952148438 2.0795779228210449219 2.1829063892364501953 1.6561235189437866211 1.6662198305130004883 2.1511733531951904297 3.0225908756256103516 1.3992640972137451172 2.1642680168151855469 1.6249076128005981445 1.9005079269409179688 1.4879693984985351563 1.8763796091079711914 1.6098593473434448242 1.3267627954483032227 2.4995641708374023438 1.0201439857482910156 1 1.2591799497604370117 1.4034458398818969727 1 1 1 1 1 1 1 1 1 1 1 1 1 1 1 1 1 1 1 2.0606834888458251953 1 1 1 1.2591799497604370117 1 2.1179404258728027344 1 2.3851757049560546875 2.3851757049560546875 2.0024030208587646484 2.3851757049560546875 1 2.05175018310546875 1.3372328281402587891 1.1806674003601074219 2.1622841358184814453 2.2004294395446777344 1.413219451904296875 1 1 1.7461869716644287109 2.6422777175903320313 2.3508062362670898438 2.7169044017791748047 2.5314586162567138672 3.0866341590881347656 3.1926395893096923828 2.9000730514526367188 3.3407590389251708984 4.3072981834411621094 4.4812827110290527344 3.8046503067016601563 3.8041186332702636719 3.9029996395111083984 2.9876024723052978516 3.35492706298828125 2.7831466197967529297 3.1493215560913085938 3.2597327232360839844 3.1002690792083740234 2.8981201648712158203 3.3358173370361328125 2.2342741489410400391 2.8534471988677978516 2.4382531642913818359 1.4004065990447998047 1.939509272575378418 2.1806995868682861328 1.8685609102249145508 2.0810253620147705078 1.9952127933502197266 2.0110292434692382813 1.5395464897155761719 2.1466023921966552734 1.2531121969223022461 2.2065384387969970703 1.7722284793853759766 1.2349509000778198242 1 1.633231043815612793 2.9214956760406494141 1 1.6230274438858032227 1.3367605209350585938 1.9913885593414306641 2.7690782546997070313 1.43737030029296875 1.8068392276763916016 1.9653078317642211914 1 1.0201439857482910156 1.5335935354232788086 1.9427442550659179688 1 1.3522214889526367188 1.4464757442474365234 1.6230274438858032227 2.0997419357299804688 1 2.3851757049560546875 1 1.3397669792175292969 2.1389698982238769531 2.6519815921783447266 1 1.7546519041061401367 2.2807266712188720703 3.2979307174682617188 2.0160853862762451172 2.6632630825042724609 2.6210246086120605469 4.0127253532409667969 1.9218318462371826172 2.1449582576751708984 2.6794102191925048828 3.7975890636444091797 3.5458495616912841797 2.7867336273193359375 3.3447902202606201172 3.8923821449279785156 3.8325750827789306641 4.5331983566284179688 4.43170166015625 3.8900978565216064453 3.4132456779479980469 3.5888307094573974609 4.0692896842956542969 3.3846852779388427734 3.9267952442169189453 3.0038177967071533203 3.9974339008331298828 3.5782768726348876953 3.3696672916412353516 3.6335663795471191406 4.0989699363708496094 4.2023148536682128906 2.7661154270172119141 2.8241760730743408203 2.8850338459014892578 3.8294196128845214844 3.8224763870239257813 3.2023453712463378906 2.9434342384338378906 4.0676851272583007813 3.4649491310119628906 
1.9573105573654174805 2.4289281368255615234 2.804058074951171875 1.9006125926971435547 1 1.1646089553833007813 1.2333718538284301758 1.6122052669525146484 2.3948893547058105469 2.1386957168579101563 1.3806585073471069336 1.9984861612319946289 2.4705395698547363281 1.479602813720703125 1.4495360851287841797 1.6546937227249145508 2.2870621681213378906 2.2622241973876953125 2.4655439853668212891 1.4417867660522460938 2.43206024169921875 2.9196348190307617188 2.9364800453186035156 2.2290129661560058594 1.2067019939422607422 2.3697731494903564453 1.5815271139144897461 2.3318271636962890625 1.5816397666931152344 2.0145661830902099609 2.6200015544891357422 1.2022141218185424805 2.5812516212463378906 2.7972142696380615234 3.077709197998046875 2.2347712516784667969 2.7909624576568603516 1.9842337369918823242 1.4021805524826049805 1.8514734506607055664 1.7573640346527099609 1.5205872058868408203 1.7381398677825927734 1.6002565622329711914 2.4314806461334228516 1.7573640346527099609 1.5628745555877685547 1.6457532644271850586 2.1242299079895019531 1.8431791067123413086 1.0201439857482910156 1.2000336647033691406 1.6230274438858032227 1.3080642223358154297 1.7810119390487670898 1 1 1 1 2.5925157070159912109 1 1 1 1 1 1 1 1 1 1 1 1 1 1.2185790538787841797 1 1 1.606797337532043457 1 1 1 1.1302753686904907227 1 1 1 1 1 1 1.0201439857482910156 2.0301828384399414063 1 1 1.7296619415283203125 1.9573105573654174805 1.4972100257873535156 2.1847622394561767578 1.2189776897430419922 1.9259458780288696289 2.2949926853179931641 2.82635498046875 2.9639220237731933594 3.2593634128570556641 3.9308183193206787109 3.3508780002593994141 3.3636159896850585938 3.2700326442718505859 3.8020458221435546875 3.2335147857666015625 3.1324343681335449219 3.4245111942291259766 2.5456759929656982422 2.9196524620056152344 2.7803232669830322266 3.4666914939880371094 3.079425811767578125 3.4869153499603271484 2.9050397872924804688 3.2700421810150146484 3.1896269321441650391 2.4194796085357666016 2.7309877872467041016 2.5981256961822509766 1.6136653423309326172 2.82820892333984375 2.04248809814453125 1.3100485801696777344 2.2360870838165283203 1.9977464675903320313 2.1296367645263671875 1.1002826690673828125 1.7552704811096191406 1.1934336423873901367 2.6519815921783447266 1.1998038291931152344 1.8048930168151855469 1 1.6921676397323608398 1.7248748540878295898 1 1 1.1489439010620117188 1.9194163084030151367 2.2911133766174316406 1.6556766033172607422 1.1584376096725463867 1 1 2.2336819171905517578 2.2552814483642578125 1 2.0301828384399414063 2.1179404258728027344 1.2333718538284301758 1.1806674003601074219 1.1806674003601074219 1.4034458398818969727 1 1.3718758821487426758 2.6858537197113037109 1.1712651252746582031 1 1.9028708934783935547 1.5841919183731079102 2.8827650547027587891 1.484598994255065918 3.3901307582855224609 2.7843739986419677734 3.7736515998840332031 2.7241556644439697266 2.4888093471527099609 3.6207089424133300781 3.2603087425231933594 3.5462546348571777344 3.5902101993560791016 4.1044001579284667969 3.7679591178894042969 3.4577996730804443359 3.3639245033264160156 3.0213258266448974609 2.8850846290588378906 3.4882965087890625 3.4230847358703613281 3.0732934474945068359 3.3262507915496826172 2.5305294990539550781 2.9778680801391601563 3.7563803195953369141 3.5479152202606201172 4.2842531204223632813 4.2771654129028320313 4.0993380546569824219 3.763660430908203125 4.0662107467651367188 2.8366947174072265625 3.5803658962249755859 3.9085674285888671875 3.461822509765625 3.6370646953582763672 3.0174803733825683594 3.7358424663543701172 3.2751073837280273438 
2.2926359176635742188 3.1048882007598876953 1.9277075529098510742 2.3607380390167236328 2.1096663475036621094 2.3891284465789794922 2.3903336524963378906 2.0812642574310302734 1.4461213350296020508 1 2.1652874946594238281 1.9788885116577148438 1.742982029914855957 1 1.7992126941680908203 1.9080164432525634766 1.6094138622283935547 3.2020995616912841797 2.9240143299102783203 2.8059401512145996094 2.8850181102752685547 2.3485774993896484375 2.6357288360595703125 2.1592259407043457031 2.7975428104400634766 2.0113461017608642578 2.2895026206970214844 1.6327635049819946289 2.0703001022338867188 1.9780279397964477539 2.5310530662536621094 2.3440074920654296875 1.7424007654190063477 1.7424619197845458984 1.6816599369049072266 2.2242472171783447266 1.8692830801010131836 2.2647311687469482422 1.8537868261337280273 1.984406590461730957 2.3103754520416259766 2.0483648777008056641 1.9951226711273193359 2.0750970840454101563 1.1584376096725463867 1.3522214889526367188 1.4017708301544189453 1.6581586599349975586 1.0201439857482910156 1.224343419075012207 1 2.0783851146697998047 1.1489439010620117188 1 1 1 1 1 1 1.0115836858749389648 2.5925157070159912109 1 1 1 1 1 1 1 1 2.5925157070159912109 1 1 1 1 1 1 1 1 1 2.0051195621490478516 1.2716739177703857422 1.7195149660110473633 1 1 1 1 2.5844242572784423828 1 1.3080642223358154297 1.161060333251953125 1 1.2478456497192382813 1.5234013795852661133 2.3596785068511962891 1.8092516660690307617 2.3707425594329833984 2.7408294677734375 2.0362339019775390625 2.0198488235473632813 2.7534167766571044922 2.9054853916168212891 3.2693905830383300781 2.9540750980377197266 3.2149815559387207031 2.6470973491668701172 3.0703983306884765625 3.4981648921966552734 2.6898152828216552734 3.0633358955383300781 3.2798566818237304688 2.9555392265319824219 3.19979095458984375 2.821071624755859375 3.1610360145568847656 3.6981244087219238281 3.4210703372955322266 3.0746605396270751953 3.2877473831176757813 2.9858720302581787109 2.1678423881530761719 1.6546937227249145508 2.069019317626953125 1.8528444766998291016 2.4739699363708496094 1.3553662300109863281 2.2965333461761474609 2.4208209514617919922 1.9534478187561035156 1.3528975248336791992 1.7802315950393676758 1.5598100423812866211 1 1.0787590742111206055 1 1 1.5985388755798339844 1.3456426858901977539 1.0201439857482910156 1.1806674003601074219 2.3851757049560546875 1.9294526576995849609 1 2.6650800704956054688 1 1.1594256162643432617 1.0300425291061401367 1.3718758821487426758 2.7690782546997070313 1.7734664678573608398 2.05175018310546875 1 1 1.1747975349426269531 1 1.0097109079360961914 1 1.8389708995819091797 1.9528033733367919922 1.8134254217147827148 1 1.3448958396911621094 1.2693095207214355469 1.6853712797164916992 2.7788321971893310547 3.0806970596313476563 2.6514592170715332031 2.6145417690277099609 2.7060153484344482422 2.9565827846527099609 3.0980608463287353516 3.3066265583038330078 3.7563579082489013672 3.9945006370544433594 3.2308750152587890625 3.5736396312713623047 4.3582010269165039063 3.6124205589294433594 3.3618080615997314453 3.0524113178253173828 3.1876852512359619141 2.4570627212524414063 3.3199138641357421875 2.9575181007385253906 2.5297820568084716797 2.778385162353515625 3.9434936046600341797 3.3796329498291015625 3.3148601055145263672 3.8145830631256103516 3.842067718505859375 4.0125446319580078125 4.1771197319030761719 3.3958442211151123047 3.318943023681640625 2.8581950664520263672 3.1967656612396240234 3.1288866996765136719 2.9809186458587646484 3.3390171527862548828 3.4041998386383056641 
1.0581002235412597656 2.9981608390808105469 2.0972576141357421875 2.6668164730072021484 2.9082207679748535156 1.9089225530624389648 2.2880856990814208984 1.5062009096145629883 1.3522214889526367188 2.0812642574310302734 1.4467499256134033203 1.4672832489013671875 2.1331670284271240234 1.1322900056838989258 1.3127595186233520508 3.0526666641235351563 2.27426910400390625 2.4796230792999267578 3.0734090805053710938 2.5170433521270751953 3.4471745491027832031 3.0419721603393554688 2.7739188671112060547 1.887242436408996582 2.5844492912292480469 2.4664747714996337891 1.9043904542922973633 1.9534478187561035156 2.3681185245513916016 2.3131880760192871094 2.4208252429962158203 2.0157549381256103516 2.7934079170227050781 2.5763120651245117188 2.5357096195220947266 2.6535055637359619141 2.3814527988433837891 1.5398929119110107422 1.9643862247467041016 1.6878759860992431641 1.5828289985656738281 2.5112900733947753906 2.6999742984771728516 1.9312839508056640625 1.5241041183471679688 1 1.2716739177703857422 1.4034458398818969727 1.3080642223358154297 2.2004418373107910156 1 1 1.0091935396194458008 1 1.653941035270690918 1 2.0606834888458251953 1 1 1.1653940677642822266 1 1 1 1 1 1 1 1 1 1 1 1 1 1 1 1 1 1.1812468767166137695 1 1 1 1.7561491727828979492 1 1 1 1 1 1.1806674003601074219 1.2839351892471313477 2.395214080810546875 1.9842274188995361328 2.2561752796173095703 1.4609742164611816406 2.4417822360992431641 2.3219330310821533203 3.2016813755035400391 3.2611029148101806641 2.7981781959533691406 2.9732058048248291016 2.7867667675018310547 3.0094025135040283203 2.9829175472259521484 2.8745336532592773438 3.0979013442993164063 2.6206221580505371094 2.8696444034576416016 3.2402622699737548828 2.8072543144226074219 2.8077483177185058594 2.8476045131683349609 3.3370811939239501953 3.4584133625030517578 3.5699992179870605469 3.0149981975555419922 3.7553915977478027344 3.8428499698638916016 3.9622960090637207031 3.4309597015380859375 2.9492654800415039063 2.8825514316558837891 2.3116221427917480469 1.9012169837951660156 1.7050540447235107422 1.9096086025238037109 2.4759016036987304688 2.0122745037078857422 1.5800821781158447266 1.5193574428558349609 2.4703662395477294922 1.3647191524505615234 1.4021805524826049805 1.8514734506607055664 1.1322900056838989258 1.4145734310150146484 2.64990997314453125 1 1 1 1 1 1.161060333251953125 1.2118371725082397461 1 1.7561491727828979492 1 1.9712347984313964844 1.1291054487228393555 1 1 1 1 1.0091935396194458008 1.1747975349426269531 1.0441677570343017578 1.8525749444961547852 1.3751664161682128906 1.8958280086517333984 1.2333718538284301758 1.3011339902877807617 2.2336819171905517578 2.5948872566223144531 1.1659885644912719727 2.3440215587615966797 2.2895026206970214844 1.6542499065399169922 2.3952493667602539063 2.5706844329833984375 3.3995079994201660156 3.2094075679779052734 2.8783419132232666016 2.5914831161499023438 3.1834628582000732422 3.8091619014739990234 3.5726478099822998047 3.0319998264312744141 3.3960244655609130859 3.5208973884582519531 3.2583775520324707031 2.5591208934783935547 3.250560760498046875 2.7915797233581542969 2.9777238368988037109 3.3440868854522705078 2.4673051834106445313 2.9315321445465087891 3.7597551345825195313 3.5730626583099365234 4.0309538841247558594 2.9973025321960449219 3.5192053318023681641 3.9660363197326660156 3.3489472866058349609 2.9212245941162109375 3.7196633815765380859 3.5890929698944091797 2.9579524993896484375 3.0929672718048095703 3.7240235805511474609 3.5437824726104736328 2.4723026752471923828 
1.4802105426788330078 2.0600531101226806641 2.2681317329406738281 2.1983635425567626953 2.3895652294158935547 1.9370808601379394531 1.1414452791213989258 1 2.5736227035522460938 1.0664210319519042969 1.3884559869766235352 1.4467499256134033203 2.5171525478363037109 2.7013306617736816406 1.9462856054306030273 2.8236134052276611328 2.8393735885620117188 3.1305227279663085938 3.0090606212615966797 3.2957172393798828125 2.7914152145385742188 2.7481749057769775391 1.4627630710601806641 2.3465719223022460938 2.3697731494903564453 1.8574477434158325195 1 1.7742937803268432617 1.7895742654800415039 1.9175631999969482422 1.9939486980438232422 1.5630179643630981445 1.9484896659851074219 2.0429468154907226563 2.0758273601531982422 1.932738184928894043 1.241953730583190918 1.070923924446105957 1.9071395397186279297 1.9639518260955810547 2.0527520179748535156 1.9501570463180541992 2.4452211856842041016 1.0786687135696411133 2.1386957168579101563 1.2439392805099487305 1.1806674003601074219 1 1 1 1 1 1 1 1 1 1 1.0115836858749389648 1.0097109079360961914 1 1 1 1 1 1 1 1 1 1 1.6938040256500244141 1.2450430393218994141 1 1 1 1 1 1 2.5925157070159912109 1 1 1.2591799497604370117 1 1 1 1 1 1.653941035270690918 2.3851757049560546875 1 1 2.4525785446166992188 1.140128016471862793 2.7358193397521972656 2.7349717617034912109 2.5174531936645507813 2.7351641654968261719 3.2910876274108886719 2.6603493690490722656 2.9467799663543701172 2.7371723651885986328 3.2037312984466552734 2.7639594078063964844 2.4402534961700439453 3.0864045619964599609 3.3751139640808105469 2.8812725543975830078 2.9452321529388427734 3.3178613185882568359 2.5677249431610107422 3.5277981758117675781 3.4970953464508056641 3.8638219833374023438 2.9982998371124267578 3.5601649284362792969 3.1968274116516113281 3.7496180534362792969 3.3716530799865722656 2.9641599655151367188 2.9977314472198486328 2.3925638198852539063 2.7544758319854736328 1.7967466115951538086 1.5423089265823364258 1.1584376096725463867 1.1229951381683349609 1.4145734310150146484 1 1 2.6999742984771728516 1.297898411750793457 1.7645841836929321289 1.3024914264678955078 1.7024524211883544922 1 1.0590193271636962891 1.8512506484985351563 1.8585001230239868164 2.2004418373107910156 1 1 1.0091935396194458008 1.653941035270690918 1 1.653941035270690918 1.1302753686904907227 1 1.8010681867599487305 2.1179404258728027344 1.1806674003601074219 2.3851757049560546875 1 1.2333718538284301758 1.9913885593414306641 1.8217177391052246094 1.8689943552017211914 1.9955966472625732422 1.7201269865036010742 1.3551175594329833984 1 2.0812642574310302734 1.3320616483688354492 1.4629825353622436523 1 1.9368387460708618164 2.1336345672607421875 3.3770954608917236328 2.8931243419647216797 1.6373407840728759766 3.5630385875701904297 3.1032621860504150391 3.0600430965423583984 2.4911437034606933594 3.4745953083038330078 2.951717376708984375 3.2422282695770263672 3.3866188526153564453 3.0255482196807861328 3.7910895347595214844 3.0951731204986572266 2.4079713821411132813 3.0089495182037353516 3.3404545783996582031 3.4144036769866943359 2.2104275226593017578 3.2376687526702880859 2.9796361923217773438 3.1478374004364013672 3.7318580150604248047 3.5734872817993164063 3.7402372360229492188 3.7417252063751220703 4.1988134384155273438 4.0197515487670898438 4.1163320541381835938 3.3416562080383300781 2.8680777549743652344 3.1537461280822753906 3.078388214111328125 3.3592321872711181641 3.2338383197784423828 
2.3316831588745117188 1.9578510522842407227 3.0233280658721923828 2.3957583904266357422 1 1 1 2.2515938282012939453 1.7573640346527099609 1.9653078317642211914 1.8572804927825927734 1.8572059869766235352 2.5171525478363037109 1.7024158239364624023 1.7852731943130493164 1.8190795183181762695 2.9122872352600097656 3.2198400497436523438 3.2285811901092529297 3.1068727970123291016 3.1252720355987548828 3.1219608783721923828 2.04901885986328125 2.0211038589477539063 1.4520688056945800781 1.5443744659423828125 2.1331670284271240234 1.5684140920639038086 2.0127167701721191406 1.9595018625259399414 2.5428247451782226563 2.6680285930633544922 2.8606634140014648438 1.7851756811141967773 1.7518967390060424805 1.3225694894790649414 1.475617527961730957 1.5240972042083740234 1.5840489864349365234 1.9962303638458251953 1.7356723546981811523 1.643496394157409668 1.7913167476654052734 1.3397669792175292969 2.0626161098480224609 1.224240422248840332 1.0091935396194458008 1.2439392805099487305 1 1.1806674003601074219 1 1.0115836858749389648 1.5607722997665405273 1 1 2.5925157070159912109 2.5925157070159912109 1 1 1 1 1 1 1 1 1.1029417514801025391 1 2.0606834888458251953 1.6938040256500244141 1 1 1.1812468767166137695 1 1 1 1 1 2.5925157070159912109 1 1 2.1179404258728027344 1 1.0942270755767822266 1.7333734035491943359 1 1.4381324052810668945 2.3851757049560546875 1.1015163660049438477 1 1.6618648767471313477 2.5095026493072509766 3.4873487949371337891 2.2201335430145263672 2.5518078804016113281 1.8430852890014648438 2.2410249710083007813 2.9894154071807861328 2.5129017829895019531 2.6134779453277587891 2.9620163440704345703 3.1253423690795898438 2.6244361400604248047 2.5716135501861572266 2.8376774787902832031 3.2651655673980712891 3.0026566982269287109 2.9081816673278808594 3.0359838008880615234 2.8398797512054443359 3.5114412307739257813 3.1153049468994140625 3.2249093055725097656 3.1767024993896484375 4.0089197158813476563 3.7015852928161621094 3.4018828868865966797 3.1405115127563476563 2.6490817070007324219 3.0054988861083984375 3.8130996227264404297 2.7871019840240478516 2.0335354804992675781 2.2882692813873291016 1.9259675741195678711 1.7227816581726074219 1.3604741096496582031 1 2.9214956760406494141 1.1998038291931152344 1.407568812370300293 2.0703001022338867188 1.3014446496963500977 1.6565639972686767578 1.9653078317642211914 1.1322900056838989258 1.1039593219757080078 1 2.0718338489532470703 2.0783851146697998047 1.7248748540878295898 1.4034458398818969727 1.420632481575012207 1 2.0051195621490478516 1 1 1.2386783361434936523 1.2190240621566772461 1 1.4381324052810668945 1.4663612842559814453 1 1 2.2249948978424072266 2.4235923290252685547 1.7483044862747192383 1.6123430728912353516 1.6581586599349975586 2.1694355010986328125 2.0718338489532470703 1.1507860422134399414 1.7913167476654052734 1.9541169404983520508 2.1621072292327880859 1.9359086751937866211 2.3404002189636230469 3.0199067592620849609 2.9101991653442382813 3.4427492618560791016 2.2501213550567626953 2.6107823848724365234 2.4328594207763671875 3.3854291439056396484 2.6923434734344482422 2.6866166591644287109 2.9672124385833740234 3.9478240013122558594 3.1472077369689941406 2.8610792160034179688 3.2309472560882568359 2.9184534549713134766 2.3115503787994384766 3.2437217235565185547 3.2806923389434814453 2.9563765525817871094 3.0376591682434082031 2.9502637386322021484 3.6953046321868896484 3.9477999210357666016 3.3386003971099853516 4.0010595321655273438 4.2628779411315917969 4.1901264190673828125 3.3434073925018310547 3.5363934040069580078 3.4121100902557373047 2.8733975887298583984 2.9366385936737060547 3.1853582859039306641 3.0668661594390869141 
2.7600793838500976563 3.1445662975311279297 2.0511913299560546875 1.9209982156753540039 2.3495204448699951172 2.7595114707946777344 2.3616883754730224609 1.7497812509536743164 1.8904750347137451172 1.9534314870834350586 1.8967106342315673828 2.2617380619049072266 3.0882542133331298828 1.4054828882217407227 1.6830648183822631836 2.2126584053039550781 2.8714456558227539063 2.1479399204254150391 3.0847635269165039063 3.3158729076385498047 3.1077685356140136719 2.6956782341003417969 2.0667283535003662109 2.2826304435729980469 1.9653078317642211914 1.2653762102127075195 1.3787486553192138672 1.8598951101303100586 2.0694050788879394531 1.7345983982086181641 2.6720840930938720703 2.2870419025421142578 1.5126088857650756836 2.1168365478515625 2.0304882526397705078 1.4190647602081298828 1.8299716711044311523 1.7665202617645263672 2.1361184120178222656 1.2361191511154174805 2.3440215587615966797 2.1652874946594238281 1.6546937227249145508 1.2630890607833862305 1.2118371725082397461 1 1.1806674003601074219 2.0051195621490478516 1.4034458398818969727 1 1 1 1 1.5607722997665405273 1 1.5607722997665405273 1 1 1 1 1 1 1 1 1 1.1029417514801025391 1 1.4062725305557250977 1 1.5607722997665405273 1 1 1.1806674003601074219 1 1 2.048839569091796875 1.3598095178604125977 1 1 1 2.0024030208587646484 1 2.3851757049560546875 1.7561491727828979492 2.048839569091796875 1.1806674003601074219 1.1947941780090332031 1 2.2745089530944824219 2.6045033931732177734 1.8600792884826660156 1 1.9210877418518066406 2.7605185508728027344 1.8425136804580688477 2.6741502285003662109 2.8249192237854003906 2.484592437744140625 2.6953542232513427734 2.7608885765075683594 2.2166004180908203125 2.4152784347534179688 2.3773629665374755859 2.5881366729736328125 2.9295907020568847656 3.5834779739379882813 3.2831006050109863281 3.0583314895629882813 3.8202357292175292969 3.9593589305877685547 3.8173298835754394531 2.9921889305114746094 3.5454497337341308594 3.0572257041931152344 4.1955881118774414063 3.2219574451446533203 3.1582551002502441406 2.48586273193359375 2.8197693824768066406 3.2707669734954833984 2.4625458717346191406 1.7024524211883544922 2.3023200035095214844 1 1 1.4261039495468139648 1.9747595787048339844 1.479602813720703125 1.9653078317642211914 1.5395464897155761719 2.0317440032958984375 1.1374485492706298828 1.682362675666809082 2.2031257152557373047 1.3397669792175292969 1.9466162919998168945 1 1.5727313756942749023 1 1.8477345705032348633 1 1.4034458398818969727 1 2.1110303401947021484 1.149753570556640625 2.1110303401947021484 1 1 2.0997419357299804688 1 2.3134033679962158203 1 1.9931465387344360352 2.2517919540405273438 1.9181928634643554688 1.4035934209823608398 1.0812668800354003906 2.3125483989715576172 1 1.7573640346527099609 2.2007486820220947266 1.3496124744415283203 1.2067019939422607422 1 1.6798764467239379883 1.907596588134765625 2.4238874912261962891 3.0085763931274414063 2.1879529953002929688 2.6699950695037841797 3.1179845333099365234 3.0160882472991943359 3.2880754470825195313 3.3521752357482910156 3.1022284030914306641 3.5531432628631591797 2.9604601860046386719 2.6061699390411376953 2.6227495670318603516 3.5538840293884277344 2.7552628517150878906 3.0384821891784667969 2.6306810379028320313 2.5183217525482177734 2.7127735614776611328 3.70886993408203125 3.2928569316864013672 3.4600293636322021484 4.1868748664855957031 4.0709180831909179688 3.5779352188110351563 3.8209605216979980469 4.5271167755126953125 4.0342278480529785156 3.1628351211547851563 3.4038455486297607422 3.3298616409301757813 3.1488080024719238281 3.6894524097442626953 3.1845738887786865234 
2.6116683483123779297 2.5895278453826904297 2.2869632244110107422 2.2912945747375488281 2.4897398948669433594 3.1672945022583007813 2.8418478965759277344 2.5487194061279296875 2.8407878875732421875 1.5983874797821044922 1.4495360851287841797 1.5372898578643798828 2.3050086498260498047 1.960930943489074707 1.3505035638809204102 2.2445714473724365234 2.2033650875091552734 2.4166817665100097656 2.6982266902923583984 2.1234960556030273438 2.0127167701721191406 2.2965333461761474609 2.2860107421875 2.7718052864074707031 2.3012535572052001953 1.6546937227249145508 1.8572804927825927734 1.9748495817184448242 1.682362675666809082 1.5674089193344116211 1.6249076128005981445 1.7878395318984985352 2.0528337955474853516 2.3475129604339599609 2.4841909408569335938 1.7370686531066894531 1.1243193149566650391 1.9417836666107177734 1.0483713150024414063 1.3780103921890258789 1.5461980104446411133 2.3210537433624267578 1.0598787069320678711 1.3397669792175292969 1.0289336442947387695 2.5460247993469238281 1.1291054487228393555 1 2.1179404258728027344 1.7561491727828979492 1 1 2.0606834888458251953 1 1 1 1 1.6938040256500244141 1 1 1 1 1 1 1 1 1 1 1.1812468767166137695 1 1 1.4381324052810668945 1.1302753686904907227 1.1806674003601074219 1 1 1 1 2.4869897365570068359 2.1179404258728027344 2.3851757049560546875 1 2.3851757049560546875 1.3080642223358154297 1.0091935396194458008 2.5049028396606445313 1.161060333251953125 1.4825048446655273438 1 1.6840958595275878906 2.4022164344787597656 1.6999802589416503906 1.6129633188247680664 2.4115591049194335938 1.4201318025588989258 2.2633447647094726563 2.5865960121154785156 3.508586883544921875 3.1657545566558837891 2.4645669460296630859 2.1541981697082519531 2.2495989799499511719 2.4339270591735839844 2.9071547985076904297 3.1216094493865966797 2.8712363243103027344 3.1824595928192138672 3.7843394279479980469 3.8291010856628417969 3.4804108142852783203 2.9179644584655761719 3.7920663356781005859 3.1435139179229736328 3.8270347118377685547 3.7216057777404785156 3.2775771617889404297 2.6073861122131347656 2.247356414794921875 2.5122790336608886719 2.8010523319244384766 3.2611234188079833984 1.7374097108840942383 1.7165768146514892578 1 1.2285091876983642578 1.9955966472625732422 1 1.682362675666809082 1.7024524211883544922 2.1454246044158935547 2.1142055988311767578 1.206151127815246582 2.0127167701721191406 1.9376773834228515625 1.1646089553833007813 1.161060333251953125 1.7333734035491943359 1.4198118448257446289 1.1322900056838989258 1.7165768146514892578 2.3851757049560546875 1.7561491727828979492 1.1653940677642822266 1 2.0051195621490478516 1.473889470100402832 1 1 1.1170318126678466797 1.8801056146621704102 1.4670041799545288086 1.3765121698379516602 1.9791026115417480469 1.3522214889526367188 1 1.4267956018447875977 1 2.4401123523712158203 1.2906194925308227539 2.3086981773376464844 2.5813164710998535156 1.7666481733322143555 2.3071877956390380859 2.4016363620758056641 1.8777142763137817383 2.1618545055389404297 2.1102247238159179688 1.7146482467651367188 2.3432834148406982422 2.5985569953918457031 2.8403260707855224609 2.9333164691925048828 3.1851301193237304688 3.7999272346496582031 2.9517424106597900391 3.0116255283355712891 3.2570652961730957031 2.9131357669830322266 3.1978535652160644531 3.2757594585418701172 3.2809188365936279297 3.5778887271881103516 1.836459040641784668 2.7081990242004394531 2.4685590267181396484 2.9895682334899902344 2.8000974655151367188 3.548336029052734375 3.7237668037414550781 3.9773437976837158203 3.5681335926055908203 4.1072115898132324219 4.2840814590454101563 3.4103045463562011719 3.782703399658203125 3.6112926006317138672 3.4134891033172607422 3.0139291286468505859 2.7667760848999023438 3.3937795162200927734 
2.9523653984069824219 2.7257513999938964844 3.0175867080688476563 2.4696671962738037109 3.3184199333190917969 2.8457345962524414063 3.0260281562805175781 1.7721073627471923828 2.4039587974548339844 1.9915975332260131836 1.4030805826187133789 1.6928446292877197266 1.7493238449096679688 2.0209100246429443359 2.3183622360229492188 1.6170060634613037109 1.6546937227249145508 1.2087839841842651367 1.9652439355850219727 3.0056121349334716797 1.9660624265670776367 1.8787757158279418945 2.0321123600006103516 2.7325360774993896484 1.869403839111328125 1.0556559562683105469 2.6773209571838378906 1.4721263647079467773 1.4989572763442993164 2.490215301513671875 2.4755237102508544922 1.7552704811096191406 1.9034792184829711914 2.2332997322082519531 2.4259247779846191406 1.796061396598815918 2.0860545635223388672 1.7789661884307861328 2.1426303386688232422 1.2422018051147460938 1.3537505865097045898 1.4672832489013671875 1.8668384552001953125 1.7374097108840942383 1.3535138368606567383 1.8208062648773193359 1.4198118448257446289 1.7561491727828979492 1 1 1.1653940677642822266 1 1 1 1 1.1029417514801025391 1 1.1812468767166137695 1 1 1 1 1 1 1 1 2.0816450119018554688 1 1 1.2450430393218994141 1 1 1.1653940677642822266 1.5037115812301635742 2.0051195621490478516 2.1166210174560546875 1 1.4034458398818969727 1.7333734035491943359 1 1 1 2.3851757049560546875 1.1747975349426269531 1.351271510124206543 1 2.3948893547058105469 2.4269886016845703125 1.5590749979019165039 1.9934517145156860352 1.2563434839248657227 1.9255884885787963867 2.6519815921783447266 2.6176865100860595703 1.6136732101440429688 2.5153574943542480469 2.1439039707183837891 2.7684977054595947266 2.2321259975433349609 2.8179242610931396484 1.9004950523376464844 2.2238698005676269531 2.3935303688049316406 2.4826090335845947266 2.4941294193267822266 2.9216895103454589844 3.1815574169158935547 2.76824951171875 3.6697990894317626953 3.1533501148223876953 3.8919878005981445313 3.6876699924468994141 2.9894945621490478516 2.9708187580108642578 2.6136078834533691406 2.3995559215545654297 3.3099749088287353516 2.3692128658294677734 2.445201873779296875 2.9200811386108398438 2.9557464122772216797 2.1358706951141357422 1.8853193521499633789 1.0487116575241088867 1.3221335411071777344 1.6581586599349975586 1.6048829555511474609 1.4055457115173339844 1.662196040153503418 1.2743868827819824219 1.6636445522308349609 2.6316678524017333984 1.4012234210968017578 1.558138728141784668 1.3221335411071777344 1.7754449844360351563 1 2.0098664760589599609 1.1584376096725463867 1.8318656682968139648 1 1.7561491727828979492 2.0024030208587646484 1.1653940677642822266 1.8788331747055053711 1 1.8048930168151855469 1.1667560338973999023 1.4142925739288330078 2.0023927688598632813 2.1625101566314697266 1.2333718538284301758 1.6552804708480834961 2.9214956760406494141 2.1634585857391357422 1 1.5598100423812866211 1.8514734506607055664 2.1961996555328369141 2.1981792449951171875 2.2549846172332763672 2.5368678569793701172 2.8159563541412353516 3.1775426864624023438 2.3775112628936767578 2.8481326103210449219 2.0618386268615722656 2.1793911457061767578 2.0117058753967285156 2.3757615089416503906 2.6445729732513427734 3.2455248832702636719 3.2698500156402587891 3.2897241115570068359 3.2532663345336914063 2.7711992263793945313 2.7647349834442138672 2.7721493244171142578 3.4877278804779052734 3.0464618206024169922 3.4111883640289306641 3.1456091403961181641 3.2800469398498535156 2.0003569126129150391 2.4004521369934082031 2.6439905166625976563 3.2831654548645019531 3.7404627799987792969 3.55223846435546875 3.3031802177429199219 3.262226104736328125 3.9808599948883056641 3.5095164775848388672 3.6496338844299316406 3.3083412647247314453 2.6526455879211425781 3.03575897216796875 3.142177581787109375 3.5750751495361328125 2.9472410678863525391 
2.6653833389282226563 2.9315185546875 2.5414614677429199219 2.7433686256408691406 2.3788173198699951172 2.8283112049102783203 2.4849259853363037109 2.0373163223266601563 2.2000186443328857422 2.2722933292388916016 2.2246961593627929688 1.9191130399703979492 2.5078160762786865234 1.9787195920944213867 1.8389095067977905273 2.1680097579956054688 1.9838286638259887695 2.1219818592071533203 2.2965333461761474609 2.2920074462890625 2.3238689899444580078 2.4898045063018798828 2.2492229938507080078 1.7801098823547363281 2.0340824127197265625 1.6135183572769165039 1.5434637069702148438 1.6249076128005981445 1.9820156097412109375 1.7271730899810791016 1.6016185283660888672 1.4810980558395385742 2.1576724052429199219 2.1296045780181884766 2.8699266910552978516 1.336247563362121582 2.70101165771484375 2.6283373832702636719 1.5394388437271118164 2.1532955169677734375 2.1058413982391357422 1.8613884449005126953 1.7270232439041137695 2.3366754055023193359 2.6730535030364990234 1.8048930168151855469 1.9294526576995849609 1.1806674003601074219 1 2.0057253837585449219 1 1 1 1 1 1.6938040256500244141 1 1 1 1 1 1 1 1 1 1 1 1 1 1 1 1 1.1302753686904907227 1.9712347984313964844 1 1 1.7459661960601806641 1.5386499166488647461 2.0783851146697998047 1.0201439857482910156 1.8746845722198486328 1.1998038291931152344 1.9941362142562866211 1 1.6230274438858032227 2.4319424629211425781 2.0812642574310302734 1.3862323760986328125 1.4234768152236938477 1.5209428071975708008 2.2419307231903076172 2.5092375278472900391 2.3619759082794189453 2.1136009693145751953 2.0034451484680175781 2.8300008773803710938 2.5788273811340332031 3.0311803817749023438 2.5735809803009033203 2.0990803241729736328 2.4508237838745117188 2.107921600341796875 1.9972729682922363281 2.3092396259307861328 2.4057285785675048828 2.7076215744018554688 2.7193381786346435547 3.75876617431640625 3.5757806301116943359 3.1111156940460205078 2.7625098228454589844 3.1582629680633544922 2.7743418216705322266 3.5129630565643310547 3.1952431201934814453 2.7345550060272216797 2.3571336269378662109 2.9669022560119628906 2.0414583683013916016 2.270427703857421875 2.57410430908203125 2.1984107494354248047 1.1394679546356201172 1.5985388755798339844 2.6519815921783447266 1 1.9747595787048339844 2.1242299079895019531 1.0413283109664916992 1.2531121969223022461 2.3893601894378662109 1.2979609966278076172 2.1358518600463867188 1.5985388755798339844 2.3948893547058105469 1 1.7165768146514892578 2.1389698982238769531 1 1.9722270965576171875 1.1806674003601074219 1.3830394744873046875 1.1489439010620117188 1 1.0091935396194458008 1 1.536224365234375 1.2118371725082397461 1.1659885644912719727 1.3320616483688354492 1.4098987579345703125 1 1.4938256740570068359 1.7722284793853759766 1.3221335411071777344 1.6136653423309326172 1.6090576648712158203 1.3316056728363037109 1.5636153221130371094 1.1045502424240112305 2.0362462997436523438 2.9740052223205566406 2.9955668449401855469 2.6425018310546875 2.9832146167755126953 2.3721401691436767578 2.2123188972473144531 1.9275296926498413086 2.1023933887481689453 2.1948029994964599609 2.7052435874938964844 2.5356748104095458984 2.7015357017517089844 3.0283863544464111328 2.7743999958038330078 3.5456666946411132813 2.572605133056640625 3.0385129451751708984 3.3316192626953125 2.7475218772888183594 2.47861480712890625 2.2800743579864501953 2.8452804088592529297 2.5661060810089111328 2.4440908432006835938 2.3790445327758789063 2.4793567657470703125 2.2787487506866455078 3.2185873985290527344 3.0629053115844726563 3.8327667713165283203 3.4309582710266113281 3.6040625572204589844 3.7011578083038330078 3.5336244106292724609 3.4328892230987548828 2.1366705894470214844 2.7762081623077392578 3.4425504207611083984 3.3609936237335205078 
2.8426828384399414063 3.6381154060363769531 2.5431761741638183594 3.0779607295989990234 2.9682559967041015625 2.1302721500396728516 2.8129334449768066406 2.2833459377288818359 2.3690788745880126953 2.7543365955352783203 1.7635039091110229492 2.3891046047210693359 1.7985973358154296875 2.5672576427459716797 2.1745946407318115234 2.6706426143646240234 2.1931531429290771484 1.8154901266098022461 2.2582027912139892578 2.0915660858154296875 1.6498283147811889648 1.7911245822906494141 2.0104639530181884766 1.8943028450012207031 1.7573640346527099609 1.9934517145156860352 2.0209100246429443359 1.8077449798583984375 2.2035610675811767578 2.1633558273315429688 1 1 2.4374949932098388672 3.2517976760864257813 2.23506927490234375 2.7851095199584960938 2.4938664436340332031 2.2635109424591064453 2.5345594882965087891 2.4276988506317138672 1.3448958396911621094 2.1763596534729003906 2.3112442493438720703 2.6563870906829833984 2.1668820381164550781 2.2980933189392089844 1.2763884067535400391 1.8076318502426147461 2.3912851810455322266 1.2129361629486083984 1 2.5925157070159912109 1 1.1812468767166137695 1 2.5925157070159912109 1.0115836858749389648 1 1 1 1 1 1 1 1 1 1 1 2.5925157070159912109 1 1.5607722997665405273 2.0657415390014648438 1 1.7561491727828979492 1.3372328281402587891 1.1806674003601074219 1 1 1.161060333251953125 1.2630890607833862305 1.9504588842391967773 1.4467499256134033203 1.9236534833908081055 1.1139971017837524414 1.1646089553833007813 1.3397669792175292969 1 1.9945284128189086914 1.8950464725494384766 2.3928852081298828125 1.9754738807678222656 1.4102771282196044922 2.2211813926696777344 1.5401083230972290039 2.5899858474731445313 2.5268445014953613281 2.3755824565887451172 2.1669781208038330078 2.7251985073089599609 1.6113289594650268555 1.9359015226364135742 2.1645591259002685547 2.5719850063323974609 2.2022387981414794922 2.2778813838958740234 3.7854247093200683594 3.4759981632232666016 4.2279019355773925781 3.2647597789764404297 3.4977209568023681641 3.1637938022613525391 3.1910309791564941406 2.9609189033508300781 3.2269060611724853516 3.0285413265228271484 2.3445355892181396484 2.3429210186004638672 2.1677069664001464844 2.1168065071105957031 2.1793620586395263672 2.1818447113037109375 1.8265314102172851563 1.1332709789276123047 1.297799229621887207 1.0664210319519042969 2.9214956760406494141 2.2336819171905517578 1.3397669792175292969 1.4145734310150146484 1.4005215167999267578 1.8299716711044311523 1.7010489702224731445 1 1 1 1 1.0201439857482910156 1.0091935396194458008 2.0812642574310302734 1.1873899698257446289 1 1.2118371725082397461 1.3522214889526367188 1.8810631036758422852 1.3221335411071777344 1 1.6230274438858032227 1.1998038291931152344 1 1 1 1 1.5213490724563598633 1.8689943552017211914 1.8676153421401977539 1.7385818958282470703 1.7543140649795532227 2.1810634136199951172 1.9044340848922729492 2.1331670284271240234 2.5380713939666748047 2.03147125244140625 2.8521060943603515625 2.7637412548065185547 3.0043251514434814453 3.3378703594207763672 3.0130336284637451172 3.2800664901733398438 1.6982642412185668945 1.6579635143280029297 2.2518956661224365234 2.7763056755065917969 2.2554686069488525391 2.4522731304168701172 3.0014674663543701172 2.4671165943145751953 2.8462984561920166016 2.4880366325378417969 3.1774408817291259766 2.7333483695983886719 2.6926336288452148438 3.5814445018768310547 2.6609392166137695313 2.6539311408996582031 2.2399916648864746094 1.9273451566696166992 2.1565060615539550781 2.4141786098480224609 2.6020729541778564453 3.2621014118194580078 3.8585672378540039063 3.2540006637573242188 3.2229986190795898438 3.6887638568878173828 2.5232396125793457031 2.5713543891906738281 3.3211984634399414063 3.016460418701171875 2.9261875152587890625 3.4185590744018554688 
2.8822515010833740234 2.3578112125396728516 3.4538397789001464844 2.8524262905120849609 2.9380221366882324219 2.6112909317016601563 2.9211223125457763672 2.0127167701721191406 2.1106190681457519531 1.8425828218460083008 2.3606762886047363281 2.4856014251708984375 1.5048679113388061523 1.8477958440780639648 1.5493535995483398438 2.0185396671295166016 1.8007080554962158203 2.4358797073364257813 1.682362675666809082 1.1436560153961181641 1.3448958396911621094 1.3353151082992553711 1.0210853815078735352 2.3269083499908447266 1.174445033073425293 1.6849004030227661133 1.6401838064193725586 1.7668421268463134766 1.6546022891998291016 1.1820173263549804688 1.9312839508056640625 1.9376773834228515625 1.186318516731262207 2.4311299324035644531 2.3725559711456298828 3.2117371559143066406 2.6593291759490966797 2.1194984912872314453 1.8145799636840820313 1.877165675163269043 2.1583073139190673828 1.8524576425552368164 2.3523001670837402344 2.3368551731109619141 1.9519567489624023438 1.8522903919219970703 1.7646769285202026367 2.4627048969268798828 1.7617216110229492188 1 1 1 1.1582262516021728516 1 1 1 1 1 1.1812468767166137695 2.0816450119018554688 1 1 1 1 1 1 1 2.0816450119018554688 1 1 1.1812468767166137695 1 1.1806674003601074219 2.1179404258728027344 1.3718758821487426758 2.0812642574310302734 1.0201439857482910156 1.0201439857482910156 2.3312354087829589844 1.4854272603988647461 1.8763796091079711914 1.5279611349105834961 1.3034176826477050781 2.0718338489532470703 2.0718338489532470703 1 1.3221335411071777344 2.0028035640716552734 1.349003911018371582 2.4163401126861572266 2.1956372261047363281 2.1155452728271484375 2.5169088840484619141 1.9909912347793579102 2.9737479686737060547 3.141788482666015625 1.9850790500640869141 2.1162302494049072266 1.7617715597152709961 1.9756801128387451172 1.6249076128005981445 1.4217413663864135742 1.5727115869522094727 2.6629719734191894531 2.4206569194793701172 3.0243647098541259766 3.9248685836791992188 3.8418438434600830078 3.4049921035766601563 3.4635453224182128906 3.2017700672149658203 3.5092620849609375 3.0856354236602783203 2.6696486473083496094 2.7856833934783935547 2.1526336669921875 2.2854311466217041016 1.8102033138275146484 2.6761271953582763672 2.1253707408905029297 2.4396810531616210938 2.5062155723571777344 2.6316678524017333984 1.5937762260437011719 1.161060333251953125 1.0201439857482910156 1 2.2249948978424072266 1.5724573135375976563 1.9653078317642211914 1.2067019939422607422 1.6457532644271850586 2.1358518600463867188 1 1 2.0997419357299804688 1.1489439010620117188 1 1 2.0812642574310302734 1.3367605209350585938 1 1 1.3469767570495605469 1.7902677059173583984 1.3221335411071777344 1 1 1.1139971017837524414 1.3522214889526367188 1 1 1.0786687135696411133 1.968493342399597168 2.6345148086547851563 1.9684776067733764648 2.2642412185668945313 1.812216639518737793 1.2022141218185424805 1.8365571498870849609 1.5351710319519042969 2.6531848907470703125 2.30806732177734375 2.9751434326171875 2.9002077579498291016 2.6921222209930419922 2.3576116561889648438 2.3906340599060058594 3.2795555591583251953 2.5740211009979248047 1.8316500186920166016 2.90300750732421875 2.9555163383483886719 3.1110470294952392578 1.9555894136428833008 2.3428223133087158203 2.2304608821868896484 2.2298612594604492188 2.5855906009674072266 2.4469234943389892578 2.4793317317962646484 2.7634897232055664063 2.7951009273529052734 1.9306316375732421875 2.8016026020050048828 2.4413385391235351563 1.738539576530456543 2.5065021514892578125 3.1060340404510498047 2.9363229274749755859 3.4414236545562744141 3.9341242313385009766 3.4071278572082519531 3.1205890178680419922 2.9666538238525390625 2.5639667510986328125 3.4852612018585205078 2.6823346614837646484 2.1894242763519287109 2.5801093578338623047 
2.7357466220855712891 3.16300201416015625 3.2925198078155517578 3.7567877769470214844 3.2147040367126464844 3.2622992992401123047 2.7392346858978271484 2.8466920852661132813 2.1604661941528320313 1.9521781206130981445 1.7594124078750610352 2.6503255367279052734 1.932238459587097168 2.0012109279632568359 2.0374276638031005859 1.1747586727142333984 1.8706121444702148438 2.0204682350158691406 1.4044420719146728516 1 2.7690782546997070313 1.3448958396911621094 1.2688323259353637695 1.6546937227249145508 2.1652874946594238281 1.1496064662933349609 1 1.4810980558395385742 1.8615753650665283203 1.0499100685119628906 1.1712651252746582031 1.822552800178527832 1.8986350297927856445 1.642819523811340332 1.6509745121002197266 2.3279290199279785156 2.5651566982269287109 3.2398388385772705078 2.5146949291229248047 2.7735586166381835938 1.8423455953598022461 2.7784647941589355469 2.5807240009307861328 2.6662890911102294922 2.6027917861938476563 2.2028307914733886719 1.4967108964920043945 2.3243992328643798828 1.0122760534286499023 1.4536737203598022461 2.0657415390014648438 1.2714512348175048828 1 1 2.0606834888458251953 1 1 1 1 2.0606834888458251953 1 1 1 1 1 1 1 1 1 1 1 1.3080642223358154297 1.1806674003601074219 2.0301828384399414063 1.0786687135696411133 1 1.8470424413681030273 2.7690782546997070313 1.1642774343490600586 2.2965333461761474609 2.0643849372863769531 1.5045014619827270508 1.4637620449066162109 1.0331531763076782227 2.1657261848449707031 1.8689943552017211914 1.7754449844360351563 1.9934517145156860352 1.9746052026748657227 2.9932217597961425781 2.72905731201171875 2.0669915676116943359 3.0256052017211914063 2.1716806888580322266 3.8448214530944824219 3.4775996208190917969 3.1909124851226806641 2.3049311637878417969 1.7157922983169555664 2.2917878627777099609 2.3086981773376464844 2.360782623291015625 2.3327226638793945313 1.7669378519058227539 2.0425562858581542969 2.8044922351837158203 3.3057429790496826172 2.9788939952850341797 3.1769382953643798828 3.0377371311187744141 3.1117789745330810547 3.84906768798828125 3.0328342914581298828 2.7743487358093261719 2.4432184696197509766 2.4959745407104492188 2.1932916641235351563 1.7235676050186157227 1.5818235874176025391 1.5637499094009399414 1.5564444065093994141 1.6314948797225952148 2.1346440315246582031 2.2647311687469482422 1 2.0997419357299804688 1.224240422248840332 1 1.2716739177703857422 1.9208962917327880859 1.9259675741195678711 1.6614432334899902344 1.1659885644912719727 2.0997419357299804688 1 1 1.0091935396194458008 1.9101984500885009766 1 1.8076318502426147461 1.4461213350296020508 1.0070079565048217773 1.4582444429397583008 1 1.1083528995513916016 1.3221335411071777344 2.1358518600463867188 1.8889622688293457031 1 1 1 1.653941035270690918 1.7685923576354980469 1.4924744367599487305 2.7819666862487792969 2.4437367916107177734 2.1317696571350097656 1.8689794540405273438 2.5085015296936035156 2.1970572471618652344 1.8163183927536010742 1.8410888910293579102 1.8034307956695556641 2.8329484462738037109 2.8109519481658935547 2.3521199226379394531 2.5305981636047363281 2.6063778400421142578 2.5865547657012939453 2.8907995223999023438 1.9531908035278320313 2.7233231067657470703 2.8337559700012207031 2.7112076282501220703 2.2151057720184326172 2.3485889434814453125 1.9798582792282104492 1.6862646341323852539 2.2293870449066162109 2.5651233196258544922 3.0087714195251464844 2.8117277622222900391 2.2664027214050292969 3.3464179039001464844 2.7241764068603515625 1.6975314617156982422 2.2312273979187011719 2.6935245990753173828 2.7764873504638671875 2.6571977138519287109 3.0635120868682861328 2.5350930690765380859 3.0831179618835449219 2.596927642822265625 2.8052530288696289063 2.2843604087829589844 3.745937347412109375 1.935953974723815918 2.3459732532501220703 2.6555981636047363281 
3.1135637760162353516 2.9254844188690185547 3.9609758853912353516 3.4833598136901855469 4.0444626808166503906 3.2579364776611328125 3.0009577274322509766 3.2303676605224609375 2.1348385810852050781 2.7921192646026611328 2.1345415115356445313 1.5948868989944458008 2.1911487579345703125 2.0012109279632568359 1.662196040153503418 2.1536374092102050781 2.2902188301086425781 1.8900673389434814453 2.0127167701721191406 1.5196694135665893555 1 1.8916822671890258789 1.2531121969223022461 1.7595804929733276367 1.8514734506607055664 2.1511733531951904297 1.5469286441802978516 1.3448958396911621094 1.2320525646209716797 1.213901519775390625 2.1318924427032470703 1.8763796091079711914 1.5877473354339599609 2.4497289657592773438 2.3509953022003173828 1.6366890668869018555 2.0606987476348876953 2.4254691600799560547 2.0251893997192382813 1.9217315912246704102 1.7735619544982910156 2.1178641319274902344 2.1426527500152587891 2.5253379344940185547 2.754512786865234375 1.9308594465255737305 1.7437931299209594727 1.6866780519485473633 1.420632481575012207 1.0122760534286499023 1.4381324052810668945 1 2.1884229183197021484 1 1.0122760534286499023 1 2.5925157070159912109 1 1 1 1 1 1.1302753686904907227 2.05175018310546875 1 1 1 1 2.0606834888458251953 1 1.2591799497604370117 1.3080642223358154297 2.0997419357299804688 1 1 1.9208962917327880859 1.3221335411071777344 2.3948893547058105469 2.0377218723297119141 1.8615753650665283203 2.2647311687469482422 2.6316678524017333984 1.6546937227249145508 1 1.6581586599349975586 1.9573105573654174805 1.3397669792175292969 1 1 2.4759016036987304688 2.1719548702239990234 2.8837239742279052734 1.5270264148712158203 2.5142357349395751953 3.1662061214447021484 2.5972728729248046875 2.2773063182830810547 1.8116954565048217773 2.1636962890625 1.6181445121765136719 1 1.6809433698654174805 1.9518599510192871094 2.1894180774688720703 2.6385223865509033203 2.2166361808776855469 2.0666460990905761719 3.2236177921295166016 3.1978819370269775391 3.71712493896484375 3.6465795040130615234 2.9217870235443115234 3.0971148014068603516 2.9353907108306884766 2.8895931243896484375 2.2922255992889404297 1.6566711664199829102 1.870921015739440918 2.1466023921966552734 2.1481838226318359375 2.2676393985748291016 2.4877953529357910156 1.5424941778182983398 1.8668384552001953125 1.4461213350296020508 1.8076318502426147461 1.6581586599349975586 1 1.9573105573654174805 1.7754449844360351563 1.8076318502426147461 1.1998038291931152344 1.6581586599349975586 1.8802127838134765625 2.0997419357299804688 1 1 1.3080642223358154297 1.7646229267120361328 1 1.6230274438858032227 1 1.1646089553833007813 2.4995641708374023438 1 1.9842832088470458984 1.161060333251953125 2.0098664760589599609 1.2716739177703857422 1 1.8318656682968139648 2.0997419357299804688 1 3.0883336067199707031 2.3004443645477294922 2.5324769020080566406 2.8698260784149169922 3.2436070442199707031 2.4164860248565673828 2.3659048080444335938 2.0841581821441650391 2.4765493869781494141 3.0117938518524169922 3.4581167697906494141 3.223987579345703125 2.87100982666015625 2.7519116401672363281 2.7741103172302246094 2.2007091045379638672 2.3872256278991699219 2.1483943462371826172 2.2964150905609130859 2.2484283447265625 2.2264575958251953125 2.1461610794067382813 1.7789506912231445313 2.1515028476715087891 2.2131364345550537109 2.5594890117645263672 3.2924127578735351563 2.2241122722625732422 2.6117994785308837891 3.3329977989196777344 2.1968898773193359375 2.2209944725036621094 2.6063094139099121094 2.29587554931640625 2.2558798789978027344 3.0553038120269775391 2.5966808795928955078 2.8254625797271728516 3.0495314598083496094 2.9544034004211425781 3.3340642452239990234 3.6177923679351806641 2.5550627708435058594 3.0149481296539306641 2.6346843242645263672 2.7739663124084472656 2.1115224361419677734 
2.7534804344177246094 3.3899378776550292969 4.2791695594787597656 3.2382173538208007813 3.4257566928863525391 3.4116928577423095703 2.9687790870666503906 2.5972888469696044922 2.2185361385345458984 2.586727142333984375 1.8061306476593017578 2.0423824787139892578 1.6433652639389038086 2.3412206172943115234 1.9977464675903320313 1.7641950845718383789 1.9834617376327514648 1.9824116230010986328 1.8277226686477661133 1.7573640346527099609 2.1331670284271240234 1.9947183132171630859 1.5205533504486083984 2.2617380619049072266 1.3115415573120117188 2.3697731494903564453 1.9064866304397583008 1.7892127037048339844 1.7758247852325439453 1.7429152727127075195 2.1838517189025878906 1.2247663736343383789 1.070923924446105957 1 2.3302195072174072266 1.4890742301940917969 1.9840358495712280273 2.5200757980346679688 3.0980005264282226563 2.6725201606750488281 2.8629355430603027344 3.0196154117584228516 2.9800729751586914063 1.5936921834945678711 2.0312798023223876953 2.4743888378143310547 1 1 1.0115836858749389648 1 1 1 1 1 2.3851757049560546875 1 1 1 1.4034458398818969727 1 1 1 1 1.4663612842559814453 1 1 2.5925157070159912109 1 1.2591799497604370117 1 1 1.9712347984313964844 1 1.8389708995819091797 1.1317626237869262695 1.8668384552001953125 1.4261039495468139648 1.0664210319519042969 2.5972020626068115234 1.9902595281600952148 1.6955333948135375977 1.9541169404983520508 1.8613884449005126953 1.8787024021148681641 1.9955966472625732422 1.0646628141403198242 1.2000336647033691406 2.4759016036987304688 1.070923924446105957 2.2653498649597167969 1.9662079811096191406 2.1073956489562988281 2.2434957027435302734 2.0726375579833984375 2.5409064292907714844 2.5437002182006835938 2.2853741645812988281 2.5595424175262451172 2.3050086498260498047 1 2.009578704833984375 1.6061626672744750977 2.6877439022064208984 1.9496544599533081055 2.9336020946502685547 2.4829030036926269531 2.6539165973663330078 2.8404548168182373047 3.0169665813446044922 3.2343356609344482422 2.9738454818725585938 3.1641163825988769531 3.0555238723754882813 2.2481894493103027344 2.5013277530670166016 2.1747241020202636719 1.9591633081436157227 1.4841568470001220703 1.6249076128005981445 2.1818447113037109375 1.662196040153503418 2.275928497314453125 2.4452211856842041016 1.0847316980361938477 1 1 2.1773211956024169922 1 2.1110303401947021484 1 1 1.3522214889526367188 2.2336819171905517578 1 1.1806674003601074219 1 1.3830394744873046875 1 1.9955966472625732422 2.3200678825378417969 1.1399838924407958984 1 1.7754449844360351563 1 1 2.0997419357299804688 1.3367605209350585938 1.1806674003601074219 1.2192426919937133789 1 1.8585001230239868164 1.7195149660110473633 1.3367605209350585938 2.0957326889038085938 1 1.3690295219421386719 1.514194488525390625 1.9981924295425415039 1.070923924446105957 1.6691443920135498047 2.9948101043701171875 2.3429856300354003906 3.0723059177398681641 3.6105365753173828125 3.0942971706390380859 2.9255502223968505859 2.4397614002227783203 2.2821056842803955078 2.4670238494873046875 2.3566181659698486328 2.2750048637390136719 2.4414546489715576172 2.3218615055084228516 2.41900634765625 2.151493072509765625 2.2081024646759033203 2.0522191524505615234 2.4238762855529785156 2.2488429546356201172 2.3650181293487548828 2.0709521770477294922 2.7177402973175048828 3.0925252437591552734 3.0811059474945068359 2.4697842597961425781 2.2961070537567138672 2.2268137931823730469 2.6543321609497070313 2.8193986415863037109 3.5050325393676757813 3.6894297599792480469 2.6351754665374755859 3.5484077930450439453 2.8723263740539550781 2.7863895893096923828 3.1220431327819824219 2.2918548583984375 2.8723618984222412109 2.3590042591094970703 2.1188936233520507813 
3.2631876468658447266 3.3619716167449951172 3.6480152606964111328 3.7056784629821777344 3.7390470504760742188 3.2030234336853027344 2.8205401897430419922 2.2417142391204833984 2.2015469074249267578 1.8540005683898925781 1.8506180047988891602 1.6404545307159423828 1.9271931648254394531 1.5219961404800415039 1.8838480710983276367 1.8231363296508789063 2.3697731494903564453 2.049442291259765625 2.1168177127838134766 1.407568812370300293 1.3528975248336791992 2.1864986419677734375 2.1291046142578125 1.7552704811096191406 2.29352569580078125 2.2704768180847167969 1.871373295783996582 1.9094215631484985352 1.6457532644271850586 1 2.6316678524017333984 2.0812642574310302734 1.0166537761688232422 2.3650226593017578125 2.3337416648864746094 2.6671288013458251953 2.9144616127014160156 2.5693078041076660156 2.3681316375732421875 2.1414692401885986328 1.6433734893798828125 2.597625732421875 2.3294019699096679688 2.4498410224914550781 1.8484990596771240234 1.6891541481018066406 1 1.2333718538284301758 1.4034458398818969727 1.1653940677642822266 1 1 1 1 1 1.4034458398818969727 1 1.06850433349609375 1 1.653941035270690918 1 1 1 1 1.0122760534286499023 1 1 1 1.4034458398818969727 2.1179404258728027344 1.9712347984313964844 1 1.0166537761688232422 1.4098987579345703125 2.7690782546997070313 1.1584376096725463867 1 1.588345646858215332 1.8076318502426147461 2.0812642574310302734 1.1584376096725463867 1.9997614622116088867 1.516385197639465332 1.7295384407043457031 1.0786687135696411133 1.1998038291931152344 1 1.7502071857452392578 3.1655321121215820313 1.9028708934783935547 1.4760216474533081055 2.1027550697326660156 2.0804159641265869141 2.6871190071105957031 3.1956951618194580078 3.0221014022827148438 2.6098017692565917969 1.7648664712905883789 1.6557809114456176758 2.3399291038513183594 1.5397111177444458008 2.0910179615020751953 2.0315675735473632813 2.1165513992309570313 2.6018178462982177734 2.6424422264099121094 2.9542424678802490234 3.1454033851623535156 3.2637581825256347656 3.6202263832092285156 3.0015392303466796875 3.2130339145660400391 3.0862863063812255859 2.4054322242736816406 1.9850804805755615234 2.5833323001861572266 1.9965643882751464844 1.8082169294357299805 1.5424941778182983398 2.0127167701721191406 2.020145416259765625 1.9688109159469604492 2.1466023921966552734 1.2080910205841064453 1.5193574428558349609 2.1331670284271240234 1.0808541774749755859 1.1046483516693115234 1.4461213350296020508 1.6866780519485473633 1.8431791067123413086 1.2439392805099487305 1 2.0051195621490478516 1 1 1 2.1386957168579101563 1.1291054487228393555 1 1.7987500429153442383 1 1.0201439857482910156 1 1.1139971017837524414 1 1.7333734035491943359 1 1.5411094427108764648 1 1.2049859762191772461 1.901211857795715332 1.6039252281188964844 2.1478364467620849609 1.6148307323455810547 1.2118371725082397461 1.1735665798187255859 1.5496622323989868164 2.2336819171905517578 1.4842678308486938477 2.5250184535980224609 2.3802876472473144531 2.8509781360626220703 3.8049235343933105469 3.0601720809936523438 3.1863489151000976563 2.7137017250061035156 2.8706891536712646484 2.9504945278167724609 2.7404139041900634766 2.6085147857666015625 3.0289788246154785156 2.7501373291015625 2.3959491252899169922 3.0071582794189453125 2.8137960433959960938 2.1380383968353271484 2.2485973834991455078 2.3422620296478271484 2.8271489143371582031 1.9123854637145996094 3.3347935676574707031 2.1031882762908935547 2.2937176227569580078 2.7338762283325195313 2.1407134532928466797 2.4432578086853027344 2.5098657608032226563 3.5700821876525878906 3.3858048915863037109 2.87178802490234375 2.6551373004913330078 2.3790030479431152344 2.4225871562957763672 3.0166976451873779297 2.6439149379730224609 3.0243744850158691406 2.2140340805053710938 2.3054420948028564453 2.2638535499572753906 
2.9779698848724365234 2.4638390541076660156 3.0639145374298095703 3.4127700328826904297 3.5376393795013427734 2.9997320175170898438 2.6917848587036132813 2.4929044246673583984 2.6541185379028320313 1.7441138029098510742 1.9526921510696411133 2.026744842529296875 1.8467257022857666016 1.9877750873565673828 1.932238459587097168 1.7736952304840087891 2.0894706249237060547 1.7846647500991821289 2.1808731555938720703 1.682362675666809082 1.9934517145156860352 1.5193574428558349609 1.5234930515289306641 1.3056240081787109375 2.1931531429290771484 2.1211047172546386719 1.4221968650817871094 2.0252039432525634766 2.3275344371795654297 1.070923924446105957 1.3221335411071777344 1 1.8072823286056518555 1.8981931209564208984 1.7481315135955810547 3.1930000782012939453 1.929085850715637207 1.6869609355926513672 2.9423053264617919922 1.8366174697875976563 2.1619427204132080078 1.5842975378036499023 1.9203100204467773438 2.2896947860717773438 1.0356322526931762695 2.0688180923461914063 2.2424716949462890625 1.7333734035491943359 1.4034458398818969727 1 1 1 1 2.5925157070159912109 1 1 1.1806674003601074219 1 1.653941035270690918 1.2591799497604370117 1 1 1 1 1 1.0115836858749389648 1.1302753686904907227 1 1 1.1653940677642822266 1.3862323760986328125 1.5335935354232788086 1.0300425291061401367 1 1.9194163084030151367 1.0487116575241088867 2.4995641708374023438 1.0091935396194458008 2.9214956760406494141 1.0990613698959350586 1.131493687629699707 1.6955333948135375977 1.2058587074279785156 1.0598787069320678711 2.0812642574310302734 2.1389698982238769531 1.5738985538482666016 1.1794439554214477539 2.1511733531951904297 1.2067019939422607422 1.8528444766998291016 2.1152472496032714844 1.8484514951705932617 2.3118395805358886719 2.0909776687622070313 2.9918255805969238281 2.9904997348785400391 2.0411374568939208984 2.3978073596954345703 2.0519747734069824219 2.8993425369262695313 1.7801755666732788086 2.4966583251953125 2.4597389698028564453 2.2119126319885253906 2.5045564174652099609 2.685550689697265625 2.7334835529327392578 2.9025499820709228516 2.6804680824279785156 2.8926920890808105469 2.8091478347778320313 3.3186507225036621094 2.8547494411468505859 2.5501508712768554688 2.2983045578002929688 2.1686379909515380859 1.6493947505950927734 1.4373646974563598633 2.049442291259765625 2.1092691421508789063 1.79608154296875 1.5674089193344116211 1.0709496736526489258 2.0150086879730224609 1.2087839841842651367 2.0401525497436523438 1.6316181421279907227 1.5556302070617675781 1.8689943552017211914 1.2333718538284301758 2.0301828384399414063 1.0201439857482910156 1 1 1 1.0091935396194458008 1.1291054487228393555 1.2349509000778198242 1 1 2.2004418373107910156 1.3456426858901977539 1.1584376096725463867 1 2.0051195621490478516 1 1.2716739177703857422 1.1806674003601074219 1.1806674003601074219 1.7346516847610473633 1.0362865924835205078 1.2319892644882202148 1.4219762086868286133 1 2.3358082771301269531 1 2.0997419357299804688 1.6230274438858032227 2.3044254779815673828 2.7353386878967285156 2.0368399620056152344 2.4535300731658935547 2.7459959983825683594 2.9091379642486572266 3.2453532218933105469 3.1719448566436767578 2.4921209812164306641 3.4294824600219726563 2.1350014209747314453 2.90770721435546875 2.6172578334808349609 2.4021248817443847656 2.1904671192169189453 2.4788718223571777344 3.2041976451873779297 2.5842688083648681641 3.2751500606536865234 2.6814811229705810547 1.880556941032409668 2.5490298271179199219 2.9549748897552490234 2.9649662971496582031 2.8192179203033447266 2.9524865150451660156 2.1911318302154541016 2.4538090229034423828 2.4862253665924072266 2.9029626846313476563 2.6606452465057373047 2.8909115791320800781 2.5930619239807128906 2.2905161380767822266 2.4086267948150634766 2.0999915599822998047 2.3516342639923095703 2.70513916015625 2.3603074550628662109 2.1456415653228759766 2.3620507717132568359 
3.5826992988586425781 3.0206727981567382813 2.9906954765319824219 3.9120385646820068359 2.4480068683624267578 2.8039951324462890625 2.2416708469390869141 2.0617833137512207031 2.2892768383026123047 1.8204522132873535156 1.7479003667831420898 2.2043216228485107422 2.0558977127075195313 1.602070927619934082 2.1550784111022949219 1.7169266939163208008 1.9359015226364135742 1.7939735651016235352 2.1764142513275146484 2.4452211856842041016 1.6631902456283569336 1.6398446559906005859 1.407568812370300293 1.4323679208755493164 1.3100485801696777344 2.2965333461761474609 2.2702085971832275391 1.7700673341751098633 1.9028072357177734375 1.7777162790298461914 1.4489238262176513672 1.2926484346389770508 1.2067019939422607422 2.2188956737518310547 2.1811697483062744141 1.9338549375534057617 3.1636106967926025391 2.6410489082336425781 2.8125712871551513672 2.1331670284271240234 1.6487942934036254883 1.8839962482452392578 1.3130867481231689453 1.6230274438858032227 1.0675522089004516602 1.2357633113861083984 1 1.5386499166488647461 1 1.461832880973815918 1 1 1 1 1 1 2.0051195621490478516 2.1179404258728027344 1 1.0115836858749389648 1 1.2450430393218994141 1 1 1 2.3851757049560546875 1.3080642223358154297 1.8053239583969116211 1.9955966472625732422 1.9560135602951049805 1 1.8048930168151855469 1.1967895030975341797 1.6136653423309326172 1 1.8299716711044311523 2.2311627864837646484 1 1 1.5738985538482666016 1.0836261510848999023 1 1.2080910205841064453 1 1.1584376096725463867 2.4759016036987304688 1 1.869192957878112793 1 1.2058587074279785156 1.8075361251831054688 1.7310606241226196289 1.5238062143325805664 2.2731955051422119141 2.7576339244842529297 2.7258937358856201172 2.5862610340118408203 1.885125279426574707 1.1455926895141601563 1.6316832304000854492 2.2666375637054443359 1.7037944793701171875 2.049442291259765625 2.8606364727020263672 2.6229674816131591797 2.4752793312072753906 2.4426257610321044922 2.8254001140594482422 3.4949877262115478516 2.6377661228179931641 2.9458425045013427734 2.4321484565734863281 3.1915814876556396484 2.9356272220611572266 2.44873809814453125 2.2860827445983886719 2.0314564704895019531 1.911845088005065918 1.6453948020935058594 1 1.7024524211883544922 2.7193202972412109375 1.9179297685623168945 2.3393521308898925781 1.5063582658767700195 1.2205873727798461914 1.0655617713928222656 2.5675165653228759766 2.1981434822082519531 1.1229951381683349609 1.6122052669525146484 2.1389698982238769531 1 1 1 1.3522214889526367188 1.3522214889526367188 1.3367605209350585938 1.1998038291931152344 1 1.8477345705032348633 1.2563434839248657227 1.9421523809432983398 2.2895026206970214844 1.7333734035491943359 1 1 1.9712347984313964844 1 1.7987500429153442383 2.2392060756683349609 2.5030755996704101563 2.2896792888641357422 1.8689943552017211914 1 1 1.1806674003601074219 1 2.4739699363708496094 1.1376438140869140625 1.0021134614944458008 1.8265802860260009766 2.0365543365478515625 2.3854527473449707031 2.9131066799163818359 2.9186687469482421875 2.9503676891326904297 2.905635833740234375 2.3136858940124511719 2.9747676849365234375 2.8879420757293701172 2.4382345676422119141 2.4323511123657226563 2.0476961135864257813 2.4412343502044677734 3.1154379844665527344 2.5161938667297363281 2.6991994380950927734 2.6014778614044189453 2.3259656429290771484 2.7652137279510498047 2.5385529994964599609 2.3281977176666259766 2.3569376468658447266 2.6786429882049560547 2.2992849349975585938 2.1700246334075927734 2.7390766143798828125 2.9923806190490722656 2.8875901699066162109 2.4797792434692382813 2.4265735149383544922 2.695159912109375 2.39330291748046875 3.1812117099761962891 2.8674471378326416016 3.0157270431518554688 2.8394899368286132813 2.7760555744171142578 1.7326329946517944336 
3.0874724388122558594 3.0260677337646484375 3.0089502334594726563 2.7712831497192382813 2.9605677127838134766 2.5504043102264404297 2.3858518600463867188 2.1717236042022705078 2.3081257343292236328 1.9724068641662597656 2.4945940971374511719 2.2881288528442382813 1.8456646203994750977 1.6009536981582641602 1.8998147249221801758 2.3073077201843261719 2.2906916141510009766 1.5461702346801757813 1.6724917888641357422 1.6484192609786987305 1.7356723546981811523 1.2531121969223022461 1.7587482929229736328 1.843771815299987793 1.4721263647079467773 2.0703001022338867188 2.049442291259765625 2.3990464210510253906 2.0137915611267089844 1.8731478452682495117 1.8763796091079711914 1.2067019939422607422 2.1652874946594238281 1.8299986124038696289 2.3327608108520507813 2.3779633045196533203 1.336047053337097168 1.9051158428192138672 1.8402544260025024414 2.2714352607727050781 2.7538614273071289063 2.0882618427276611328 2.3861649036407470703 1.8048930168151855469 1 1.3235155344009399414 1 1 1 1 1 1 1 2.0606834888458251953 1 1 1.1653940677642822266 2.0997419357299804688 1 1.1812468767166137695 1.1812468767166137695 1 1 1.1653940677642822266 1.0091935396194458008 1 1 2.2336819171905517578 2.1331670284271240234 2.7690782546997070313 1.2333718538284301758 1.1998038291931152344 1.0201439857482910156 1.6546937227249145508 1.619810938835144043 2.3440215587615966797 1.7785276174545288086 2.1320009231567382813 1.7024524211883544922 1.7880367040634155273 1.9376773834228515625 1.4495360851287841797 1.8423637151718139648 1.170779109001159668 2.3210537433624267578 1.7271730899810791016 1.79608154296875 1.7084313631057739258 2.1981434822082519531 1.2743868827819824219 1.886479496955871582 1.6565639972686767578 2.5702252388000488281 2.8588232994079589844 2.5783643722534179688 3.0751774311065673828 2.5432915687561035156 2.2860066890716552734 2.1663439273834228516 1.3626496791839599609 1.6069290637969970703 1.9973926544189453125 2.26940155029296875 2.4578611850738525391 2.1955151557922363281 2.24604034423828125 2.8342137336730957031 3.0871019363403320313 3.1836385726928710938 2.9187388420104980469 2.3630719184875488281 2.5892083644866943359 2.3699707984924316406 1.956808924674987793 1.6562404632568359375 1.8450791835784912109 2.6859045028686523438 1.751110076904296875 1.9653078317642211914 1.6879876852035522461 1.4711010456085205078 1.2531121969223022461 1.2067019939422607422 1.3528975248336791992 1.2067019939422607422 1.9713016748428344727 2.3393521308898925781 1.349003911018371582 2.1291046142578125 1 2.0783851146697998047 2.0783851146697998047 2.2424716949462890625 1 1.1291054487228393555 2.3200678825378417969 1 1.9955966472625732422 2.1386957168579101563 1 1.8512506484985351563 1 2.2336819171905517578 1.315482020378112793 1.7333734035491943359 2.3851757049560546875 1.1806674003601074219 1 1.2117344141006469727 2.0864398479461669922 2.6357569694519042969 1.869118809700012207 1 1.4265509843826293945 1 1.5037115812301635742 1.4034458398818969727 1.5667102336883544922 1.7248748540878295898 1 1.4838892221450805664 2.3832700252532958984 2.0802826881408691406 2.2634987831115722656 2.7087101936340332031 3.0791471004486083984 2.9252831935882568359 3.2790162563323974609 2.9813203811645507813 2.9791927337646484375 2.8706007003784179688 3.2061524391174316406 2.3332605361938476563 2.282135009765625 2.8983025550842285156 2.2819657325744628906 2.0102922916412353516 2.6296529769897460938 2.7353558540344238281 2.7613584995269775391 3.2533130645751953125 2.7114350795745849609 1.9288032054901123047 1.932238459587097168 2.2158410549163818359 1.8272650241851806641 2.2297077178955078125 2.8308019638061523438 2.7789983749389648438 2.4107613563537597656 2.2901837825775146484 2.2689900398254394531 2.3724956512451171875 2.1757907867431640625 2.4255526065826416016 2.7239062786102294922 2.5247511863708496094 2.4796438217163085938 2.3168561458587646484 2.4081695079803466797 
2.9413878917694091797 2.3710703849792480469 3.2438781261444091797 2.7412004470825195313 2.9963176250457763672 2.6830251216888427734 2.0744149684906005859 2.2068731784820556641 1.9389441013336181641 2.4296114444732666016 2.2065432071685791016 2.0413699150085449219 1.6055271625518798828 1.6354019641876220703 1.1917883157730102539 1.870921015739440918 1.7814097404479980469 2.1595256328582763672 1.9180684089660644531 1.9820156097412109375 1.404749751091003418 1.4182735681533813477 1.6493947505950927734 2.2151117324829101563 1.148436427116394043 1.6696178913116455078 1.5043936967849731445 1.2668395042419433594 1.8492997884750366211 1.3346691131591796875 1.3159022331237792969 2.1989424228668212891 2.0246064662933349609 2.1511733531951904297 2.5834271907806396484 2.6184651851654052734 1.9700871706008911133 2.2772922515869140625 1.8894356489181518555 2.6544594764709472656 2.2087721824645996094 2.0125858783721923828 2.2755510807037353516 1.7913167476654052734 1.6457532644271850586 1.9091287851333618164 1 1.1806674003601074219 1 1 2.0024030208587646484 1 1 1.1812468767166137695 1 1 1 1.0122760534286499023 1 1 1.0115836858749389648 1.3372328281402587891 1.1806674003601074219 1 1 1.1482465267181396484 1.7913167476654052734 2.3440215587615966797 1 1.3492071628570556641 2.0812642574310302734 1.9955966472625732422 1.9955966472625732422 1.302908778190612793 1.1229951381683349609 1.4727208614349365234 1 2.3676228523254394531 1.0847316980361938477 2.0498540401458740234 1.9972989559173583984 1.9482620954513549805 1.8763796091079711914 2.1511733531951904297 1.5037339925765991211 2.5087575912475585938 2.2402157783508300781 1.2743868827819824219 2.4452211856842041016 1.9095475673675537109 2.3885343074798583984 1.779293060302734375 2.2819356918334960938 1.4407058954238891602 3.1700558662414550781 2.6441648006439208984 1.6133518218994140625 2.4553952217102050781 1.6893804073333740234 1 1 2.6839222908020019531 2.2110121250152587891 2.8326199054718017578 2.1418008804321289063 2.616359710693359375 2.2757680416107177734 2.630016326904296875 3.0892949104309082031 3.1845881938934326172 2.9797856807708740234 2.7056686878204345703 1.9071295261383056641 2.2948870658874511719 2.1732549667358398438 1.7535521984100341797 2.6506726741790771484 1.5067596435546875 1.171950221061706543 1.6546937227249145508 2.6274201869964599609 1.2008152008056640625 1.9541169404983520508 1.4810980558395385742 2.1511733531951904297 1.6546937227249145508 1.1700326204299926758 1.7479677200317382813 1.3148851394653320313 1 1.9653078317642211914 1.6136653423309326172 1.6879876852035522461 2.1358518600463867188 1.3236827850341796875 1 1 1.1489439010620117188 1 1.6021916866302490234 1 1.0201439857482910156 1.7333734035491943359 1.7561491727828979492 1.1806674003601074219 1.4198118448257446289 2.3851757049560546875 1 1 1.6558502912521362305 1.5856395959854125977 1.6851230859756469727 1.426211237907409668 1 1 2.2308397293090820313 1 1 1 1.3989063501358032227 2.3001718521118164063 1.1624234914779663086 2.5836613178253173828 2.4194734096527099609 3.2016401290893554688 2.8893191814422607422 3.1204175949096679688 2.6789412498474121094 2.5871057510375976563 2.6145179271697998047 2.5953299999237060547 2.7853248119354248047 2.3899128437042236328 2.2716381549835205078 2.8149204254150390625 2.4594690799713134766 2.5563123226165771484 3.111560821533203125 2.5773377418518066406 2.4579632282257080078 2.2426612377166748047 2.9465732574462890625 2.2268483638763427734 1.867705225944519043 2.4933071136474609375 2.6605229377746582031 2.2659349441528320313 2.6259207725524902344 3.0170252323150634766 2.6230270862579345703 2.1198403835296630859 2.3208420276641845703 2.3677258491516113281 2.2385478019714355469 2.1388845443725585938 2.6427989006042480469 2.5048162937164306641 2.4845347404479980469 2.6998739242553710938 2.4320807456970214844 
2.4081628322601318359 2.2269451618194580078 2.926334381103515625 2.8134751319885253906 2.4674513339996337891 2.5287652015686035156 2.5212614536285400391 2.1125230789184570313 2.0287938117980957031 2.9376916885375976563 2.1193020343780517578 2.1438024044036865234 2.1930551528930664063 1.8058698177337646484 1.9829199314117431641 1.9915100336074829102 2.3892111778259277344 1.9834617376327514648 1.6707239151000976563 1.5091953277587890625 1.6448240280151367188 2.4108374118804931641 2.1404783725738525391 1.7800475358963012695 2.5313937664031982422 1.7702773809432983398 2.1931531429290771484 1.6546937227249145508 2.0127167701721191406 1.6138787269592285156 1.8514734506607055664 1.2531121969223022461 1.5403076410293579102 2.3558793067932128906 2.2295706272125244141 2.9906117916107177734 1.8836560249328613281 2.6563417911529541016 2.0260565280914306641 2.2931449413299560547 2.2957553863525390625 2.6205394268035888672 1.9155939817428588867 2.1333606243133544922 1.0912609100341796875 1.7381415367126464844 1 1.1806674003601074219 1 1 1 2.3851757049560546875 2.5925157070159912109 1 1 1 1 1 1 1 1.1653940677642822266 1.3367605209350585938 1.8076318502426147461 1 1.1983001232147216797 1.7754449844360351563 1 2.2461249828338623047 2.3948893547058105469 1 1.6546937227249145508 1.5636153221130371094 1.0406560897827148438 1.1998038291931152344 1.6457532644271850586 1.2563434839248657227 1.35599517822265625 1.5037339925765991211 2.4759016036987304688 1 1 1.6467750072479248047 1.7244582176208496094 1.407568812370300293 1.7499072551727294922 2.4452211856842041016 1.4721263647079467773 2.3050086498260498047 1.2067019939422607422 1.8178106546401977539 1.9179297685623168945 2.2407784461975097656 1.6661223173141479492 1.9688870906829833984 1.9374278783798217773 1.8983967304229736328 2.9470574855804443359 2.3440215587615966797 1.932564854621887207 1.0433813333511352539 1.3267627954483032227 1.5261250734329223633 2.4899768829345703125 2.3103718757629394531 2.3345758914947509766 2.2740969657897949219 2.2879731655120849609 2.1412000656127929688 2.3233554363250732422 2.3574399948120117188 2.4955182075500488281 2.1698729991912841797 1.932238459587097168 1.502516627311706543 2.1337115764617919922 1.8232213258743286133 1.1976947784423828125 1.5589582920074462891 1.7552704811096191406 1.8514734506607055664 2.2647311687469482422 1.9259675741195678711 1.6879876852035522461 1.7374097108840942383 1.7024524211883544922 1.7412483692169189453 2.0549442768096923828 1.2531121969223022461 1.1543920040130615234 1.1039593219757080078 1.2494169473648071289 1.8245882987976074219 1.7913167476654052734 1 1.1659885644912719727 1 1 1.15058135986328125 1 1 1 2.1179404258728027344 1.2386783361434936523 1.2716739177703857422 1.4034458398818969727 1 1 1.5601974725723266602 1 1.6569119691848754883 1.073880314826965332 1.5571142435073852539 1.1806674003601074219 1.224240422248840332 1.4034458398818969727 2.3200678825378417969 1 2.0626161098480224609 1.5590749979019165039 1.5590749979019165039 1.9101984500885009766 1.4811753034591674805 1.9832352399826049805 2.1308486461639404297 2.3984346389770507813 3.7189130783081054688 2.3361260890960693359 2.2147722244262695313 2.3207190036773681641 2.5482299327850341797 2.5021054744720458984 2.4736456871032714844 2.6068093776702880859 2.0353443622589111328 2.5040149688720703125 2.1554176807403564453 2.6356642246246337891 2.6899600028991699219 2.1377980709075927734 2.470703125 2.5468957424163818359 2.3415231704711914063 2.2636764049530029297 2.3053619861602783203 2.7721543312072753906 2.1139459609985351563 2.2546434402465820313 2.1728723049163818359 2.8382868766784667969 3.5287485122680664063 2.2725470066070556641 2.8165292739868164063 2.2806591987609863281 2.0389926433563232422 1.8702617883682250977 2.1941003799438476563 2.4667403697967529297 2.1345698833465576172 2.0125975608825683594 2.1743783950805664063 
1.9130876064300537109 2.0472855567932128906 2.2782778739929199219 2.2760367393493652344 2.5109813213348388672 2.5118839740753173828 2.6359415054321289063 1.9756894111633300781 2.3613219261169433594 2.4011540412902832031 1.5772687196731567383 2.2754006385803222656 2.0225882530212402344 1.9380484819412231445 2.4866437911987304688 2.1575434207916259766 1.9056624174118041992 1.6339715719223022461 1.6387563943862915039 1.5937275886535644531 2.2213542461395263672 1.931759953498840332 1.2329553365707397461 1.6249076128005981445 2.1346440315246582031 1.4648777246475219727 1.6632634401321411133 1.6099348068237304688 1.911845088005065918 1.9702475070953369141 1.7931323051452636719 1.4572509527206420898 1.8763796091079711914 1.4810980558395385742 1.6933692693710327148 1.9944891929626464844 2.316661834716796875 2.7086315155029296875 1.6557370424270629883 1 1.9818092584609985352 2.5172255039215087891 3.3431482315063476563 1.5438750982284545898 1.939090728759765625 1.821477055549621582 1.224240422248840332 2.3134033679962158203 1 1.0613925457000732422 1.3194695711135864258 2.1668782234191894531 1 1 2.3851757049560546875 1.1806674003601074219 1.3080642223358154297 1 1 1.7561491727828979492 1 2.3948893547058105469 1.2118371725082397461 2.0626161098480224609 1.4003952741622924805 1.5386499166488647461 1.4727208614349365234 1.2921909093856811523 1.9421523809432983398 1.0070079565048217773 1.1642774343490600586 1 1.297799229621887207 1 2.2895026206970214844 2.5137398242950439453 2.1320009231567382813 1.72434234619140625 1.79608154296875 2.0904219150543212891 1.6845636367797851563 1.8493647575378417969 2.5062155723571777344 1.2180734872817993164 1.8514734506607055664 1.8787024021148681641 2.6782369613647460938 1 1.5928918123245239258 1.8572059869766235352 1.8916456699371337891 2.418304443359375 1.7276446819305419922 1.7153823375701904297 2.5588543415069580078 2.0253567695617675781 2.5953047275543212891 1.8404955863952636719 1.5985388755798339844 1.9421523809432983398 2.5171525478363037109 2.3344576358795166016 2.320026397705078125 2.5683591365814208984 2.2097499370574951172 2.7249782085418701172 2.4232223033905029297 2.9724097251892089844 3.0114114284515380859 2.4076986312866210938 2.6145229339599609375 1.5580382347106933594 2.5027711391448974609 2.2151117324829101563 2.0354137420654296875 2.2355754375457763672 1.7703216075897216797 2.1404783725738525391 1.326617121696472168 1.7929273843765258789 2.585628509521484375 1 1.2050306797027587891 1 2.0429468154907226563 1.7493238449096679688 1.8577705621719360352 1.7024524211883544922 1.7272309064865112305 1.9421523809432983398 1.7573640346527099609 1.6491115093231201172 1.0590193271636962891 1.302908778190612793 1.479602813720703125 1 2.3598663806915283203 1.0091935396194458008 1 2.2308397293090820313 1.653941035270690918 1.224240422248840332 1 1 1 1 1.5601974725723266602 2.2336819171905517578 1 1.6190035343170166016 3.0801324844360351563 2.1992871761322021484 1 1.5605345964431762695 1 1 1 2.4926066398620605469 1.9849121570587158203 1.893916010856628418 1.1584376096725463867 1.2349509000778198242 2.6419146060943603516 2.1443035602569580078 2.9127409458160400391 2.3946101665496826172 2.596462249755859375 2.2980284690856933594 2.4908361434936523438 2.6162655353546142578 3.2865669727325439453 2.8431673049926757813 2.4990811347961425781 2.4259612560272216797 2.3551855087280273438 2.7146227359771728516 2.2607245445251464844 2.3726613521575927734 2.5365619659423828125 2.4980928897857666016 2.7177877426147460938 2.2544920444488525391 2.1239173412322998047 2.0123279094696044922 2.0044853687286376953 2.1861445903778076172 2.3357393741607666016 2.5939900875091552734 2.6938240528106689453 3.0224442481994628906 2.8653738498687744141 2.1606945991516113281 2.6384854316711425781 2.2204034328460693359 1.7566398382186889648 2.1018373966217041016 1.6223088502883911133 1.7619864940643310547 2.3357436656951904297 2.8100118637084960938 
2.1422753334045410156 2.4703767299652099609 2.0339760780334472656 2.0363650321960449219 2.0624070167541503906 2.3685922622680664063 2.4247477054595947266 2.3531470298767089844 2.0963754653930664063 2.8465435504913330078 2.0270552635192871094 1.7519317865371704102 2.2730569839477539063 1.9152933359146118164 2.2516109943389892578 1.5388197898864746094 1.8275666236877441406 2.0380153656005859375 2.1310629844665527344 1.9844923019409179688 2.0270278453826904297 1.9588867425918579102 1.9058960676193237305 1.5324690341949462891 1.752202153205871582 2.0655896663665771484 1.8505010604858398438 2.1683411598205566406 1.8662587404251098633 2.1279942989349365234 2.6093232631683349609 1 1.4720553159713745117 2.2617380619049072266 2.8185687065124511719 2.3699352741241455078 2.9391350746154785156 2.4151248931884765625 2.2010679244995117188 2.9615359306335449219 2.64015960693359375 2.4319703578948974609 2.9031219482421875 2.3679056167602539063 2.8488900661468505859 1 1 1 1 1.9029200077056884766 1.0104684829711914063 1 1.1302753686904907227 1.1806674003601074219 2.0626161098480224609 1 1 1 1.2333718538284301758 1 1.7754449844360351563 1.1608994007110595703 1.8048930168151855469 1 2.3948893547058105469 2.4926066398620605469 1 1.7573640346527099609 1.7827785015106201172 1.302908778190612793 1 1.1507860422134399414 1.0300425291061401367 1.7356723546981811523 1 1 2.5137398242950439453 1.8615753650665283203 1.404749751091003418 2.1233932971954345703 1.7518012523651123047 1.460347294807434082 2.1310629844665527344 2.2617380619049072266 1.4934008121490478516 1.9312839508056640625 1.9934517145156860352 1.5965502262115478516 2.2065384387969970703 1.1914029121398925781 1.9034792184829711914 2.4580223560333251953 2.4354505538940429688 2.2617380619049072266 2.9936280250549316406 2.244197845458984375 2.5094397068023681641 1.1453983783721923828 1.5370160341262817383 1.8528444766998291016 1.8355989456176757813 1.822552800178527832 2.2895026206970214844 2.5677852630615234375 2.8840665817260742188 2.8013396263122558594 2.9054632186889648438 2.2917597293853759766 1.3675905466079711914 1.6165907382965087891 2.1722321510314941406 1.9926400184631347656 1.8426405191421508789 2.1097230911254882813 2.2046377658843994141 2.3121407032012939453 2.0152504444122314453 2.1108429431915283203 1.3546689748764038086 2.2833871841430664063 1.3060431480407714844 1.8514734506607055664 2.2895026206970214844 2.4452211856842041016 1.2237340211868286133 1.9902595281600952148 1.8096891641616821289 1.8514734506607055664 1.4323679208755493164 1.9704641103744506836 1.3397669792175292969 1.8999196290969848633 1.9194163084030151367 2.1981434822082519531 1.9653078317642211914 1.3267627954483032227 2.3948893547058105469 2.0918228626251220703 1 1.2126379013061523438 1 2.3851757049560546875 2.1179404258728027344 1.2386783361434936523 1 1.1302753686904907227 2.4995641708374023438 1.9242511987686157227 1.4012159109115600586 1.4211617708206176758 1.2249435186386108398 1.0091935396194458008 1.5037115812301635742 1.0892996788024902344 1.4321142435073852539 1 1 1.8999196290969848633 1.8540076017379760742 2.3850958347320556641 1.7671134471893310547 1.9208962917327880859 1.9968440532684326172 1.8673700094223022461 2.3685402870178222656 2.2254700660705566406 2.5313189029693603516 2.5597348213195800781 2.5101294517517089844 2.3582854270935058594 2.7347955703735351563 2.5391759872436523438 2.4885418415069580078 2.6670489311218261719 2.42493438720703125 2.1388845443725585938 2.5584216117858886719 2.3302304744720458984 2.7064998149871826172 2.5661962032318115234 1.9262068271636962891 2.1370518207550048828 2.2521040439605712891 2.8102157115936279297 2.9530096054077148438 2.3325598239898681641 2.0013592243194580078 2.3162095546722412109 3.4797115325927734375 3.1137437820434570313 2.8381094932556152344 2.5945656299591064453 2.6261625289916992188 2.3879933357238769531 2.7950899600982666016 2.4761633872985839844 2.4886636734008789063 2.2845540046691894531 2.7166070938110351563 2.0936424732208251953 
2.2703878879547119141 1.8862662315368652344 2.6393027305603027344 2.0662579536437988281 2.6484525203704833984 2.2664227485656738281 2.2357516288757324219 2.1412444114685058594 2.1031713485717773438 2.3691728115081787109 2.1101078987121582031 1.783612370491027832 2.0217835903167724609 2.4094023704528808594 2.1565275192260742188 1.8998147249221801758 1.8501260280609130859 1.7846647500991821289 2.5062155723571777344 2.1404783725738525391 2.0073611736297607422 1.8738729953765869141 1.5684140920639038086 1.6189864873886108398 1.783905029296875 2.1395831108093261719 2.0457978248596191406 2.1663658618927001953 1.8159447908401489258 2.4492559432983398438 2.9301390647888183594 2.1129255294799804688 1.557883143424987793 1.6589713096618652344 1.9419866800308227539 2.6119782924652099609 3.1773302555084228516 2.9647035598754882813 2.8756413459777832031 2.7808170318603515625 2.4834258556365966797 2.2153182029724121094 1.8826404809951782227 2.5492005348205566406 2.2779064178466796875 1 1 1 1.4381324052810668945 1 1 1.4098987579345703125 1 1 1 2.4995641708374023438 2.3412442207336425781 1.1584376096725463867 1 1.2333718538284301758 1.0300425291061401367 1 1.7880367040634155273 2.4504714012145996094 1.9573105573654174805 1.7165768146514892578 2.2249948978424072266 1.9788885116577148438 2.1331670284271240234 1.0664210319519042969 1.3367605209350585938 1.7754449844360351563 1.7248748540878295898 1.7573640346527099609 1.9259675741195678711 1.9043904542922973633 2.4739699363708496094 1.4495360851287841797 1.0662090778350830078 2.0340824127197265625 1.682362675666809082 1 1.8277226686477661133 1.8294953107833862305 1 1.8967106342315673828 1.5815271139144897461 2.3269083499908447266 1.5970280170440673828 1.3074247837066650391 1.391559600830078125 1.9704641103744506836 1.7326959371566772461 2.7996103763580322266 2.3715755939483642578 2.1216711997985839844 2.6573939323425292969 1.7024524211883544922 1.4710280895233154297 1.1925474405288696289 2.4841909408569335938 2.2617380619049072266 2.6804113388061523438 2.1180086135864257813 2.7406065464019775391 2.0000731945037841797 2.9427196979522705078 1.8918077945709228516 2.1931531429290771484 1.8174866437911987305 2.2633373737335205078 2.0945453643798828125 2.1772162914276123047 2.0565397739410400391 2.5332810878753662109 1.6433652639389038086 2.4664306640625 2.004611968994140625 2.1432247161865234375 2.0399539470672607422 1.8738729953765869141 1.4426567554473876953 2.1633558273315429688 1.4221968650817871094 1.6269991397857666016 2.3210537433624267578 2.3035907745361328125 1.6064499616622924805 1 1.4145734310150146484 1 1.2921909093856811523 1.5598100423812866211 2.1634585857391357422 1.9902595281600952148 2.6782369613647460938 1.3221335411071777344 1.8048930168151855469 1 1 1.1806674003601074219 1 1.653941035270690918 1.1806674003601074219 1 2.0051195621490478516 1.2563434839248657227 1.9572950601577758789 2.0869154930114746094 1.1686623096466064453 1.6625030040740966797 2.3448739051818847656 1.151661992073059082 1.2118371725082397461 1.5901015996932983398 1.3367605209350585938 1.4758143424987792969 2.2722833156585693359 1.7218737602233886719 1.1046483516693115234 1.1497281789779663086 1.351271510124206543 1 1.3306409120559692383 1.5018374919891357422 1.7796202898025512695 1.9457412958145141602 2.3739335536956787109 2.2190248966217041016 2.5579335689544677734 2.4081108570098876953 2.0976405143737792969 2.7186512947082519531 1.9335503578186035156 2.2577149868011474609 2.0828301906585693359 2.3473067283630371094 2.8664159774780273438 2.4818902015686035156 2.9045383930206298828 2.7636215686798095703 2.180820465087890625 2.3380992412567138672 2.5004007816314697266 2.8932638168334960938 2.9541516304016113281 2.4830150604248046875 3.0627090930938720703 3.2411963939666748047 3.1397871971130371094 2.8926358222961425781 3.2328522205352783203 3.3109767436981201172 2.3745627403259277344 2.4594514369964599609 2.3722259998321533203 2.5299010276794433594 1.9759403467178344727 2.6992795467376708984 3.1852705478668212891 
1.9443316459655761719 2.1819083690643310547 2.5511183738708496094 2.4088284969329833984 2.1744818687438964844 2.387332916259765625 2.2133717536926269531 2.0688831806182861328 2.0037343502044677734 2.4945414066314697266 1.741970062255859375 2.4755759239196777344 2.3350899219512939453 2.2571938037872314453 1.9770843982696533203 2.053234100341796875 2.020145416259765625 1.7895742654800415039 1.8957998752593994141 1.4416441917419433594 2.0836081504821777344 1.9981944561004638672 2.1947276592254638672 1.8409672975540161133 1.9627960920333862305 2.5484404563903808594 2.4171278476715087891 2.1616184711456298828 1.8385717868804931641 2.3036646842956542969 2.3304898738861083984 2.1082932949066162109 1.8337274789810180664 2.9777312278747558594 2.3475129604339599609 2.3228688240051269531 3.1104407310485839844 2.6749637126922607422 3.3859033584594726563 3.1742906570434570313 3.3923616409301757813 2.4525201320648193359 1.8825689554214477539 1.7688935995101928711 1.5407919883728027344 1.2118371725082397461 1.0410745143890380859 2.2911133766174316406 1.6006939411163330078 1 1 1 1.2118371725082397461 1.8477345705032348633 2.3586115837097167969 1.8421638011932373047 2.7960698604583740234 1.1775965690612792969 1.4261039495468139648 1 2.0301828384399414063 1.7722284793853759766 1.0300425291061401367 1.6136653423309326172 1.132847905158996582 2.1331670284271240234 1 1 1.1646089553833007813 1 1.8048930168151855469 1.1584376096725463867 2.2065384387969970703 1 1.5628745555877685547 1.7913167476654052734 2.2895026206970214844 1.8705415725708007813 1.3056240081787109375 1.070923924446105957 1.4012234210968017578 2.7193202972412109375 1.2531121969223022461 1.4498211145401000977 1.9637441635131835938 1.5017746686935424805 1.9180684089660644531 1.3267627954483032227 1.5495320558547973633 2.0739710330963134766 1.4556494951248168945 1.4828065633773803711 2.7056066989898681641 3.0096468925476074219 2.5738654136657714844 2.3370871543884277344 2.7918992042541503906 2.7191035747528076172 1.7693479061126708984 1.71753692626953125 1.8434391021728515625 2.5247809886932373047 2.1491546630859375 1.9457710981369018555 2.3510961532592773438 2.9278464317321777344 2.4756650924682617188 3.5344076156616210938 2.6086943149566650391 2.0081593990325927734 2.7376194000244140625 2.0630106925964355469 1.9780279397964477539 2.3047657012939453125 2.1131620407104492188 1.9758476018905639648 3.2829070091247558594 1.9247183799743652344 2.0943813323974609375 2.3704116344451904297 1.7791218757629394531 1.5622115135192871094 2.0297977924346923828 2.1987483501434326172 1 1.6849004030227661133 1.6453948020935058594 1.0479973554611206055 1.8514734506607055664 1.349003911018371582 1.6631902456283569336 1.9902595281600952148 1.5815271139144897461 1.3056240081787109375 1 1 1.6546937227249145508 1.2349509000778198242 1.1998038291931152344 1.3862323760986328125 1.8431791067123413086 1.5601974725723266602 1 1 1.653941035270690918 1.1806674003601074219 2.2424716949462890625 1.6189380884170532227 2.3113477230072021484 1.4841910600662231445 1.130732417106628418 1.3325723409652709961 1.4249105453491210938 3.1304576396942138672 2.2327356338500976563 1 1.8369569778442382813 1.1712651252746582031 1.5423216819763183594 1.014307856559753418 1.1462973356246948242 2.2412467002868652344 2.0277521610260009766 1 1.536858677864074707 2.1748816967010498047 2.4980130195617675781 2.4667150974273681641 2.3836095333099365234 2.1920733451843261719 2.1469314098358154297 2.0557320117950439453 2.0725965499877929688 2.2878360748291015625 2.0467584133148193359 2.2508008480072021484 2.6887109279632568359 2.647556304931640625 2.4607648849487304688 2.4575340747833251953 3.3006262779235839844 2.5323390960693359375 2.4178106784820556641 3.2060189247131347656 2.7596189975738525391 2.434368133544921875 2.8542332649230957031 2.9433526992797851563 3.5401561260223388672 3.4104282855987548828 3.6112310886383056641 2.5886464118957519531 2.6100199222564697266 2.4601547718048095703 2.1573979854583740234 2.2515766620635986328 2.9956262111663818359 2.0903382301330566406 2.4970858097076416016 2.5552129745483398438 
2.3624634742736816406 2.2912857532501220703 2.43475341796875 1.7856882810592651367 2.1349871158599853516 1.6649688482284545898 1.8486045598983764648 2.3421261310577392578 2.6138226985931396484 2.0258297920227050781 2.3998417854309082031 1.9081249237060546875 2.7227699756622314453 2.3338978290557861328 2.2361502647399902344 1.6912474632263183594 2.3918716907501220703 2.0172398090362548828 1.8220866918563842773 1.6055271625518798828 1.5609995126724243164 1.8738729953765869141 1.7704904079437255859 2.4971632957458496094 2.1402974128723144531 2.2401540279388427734 2.4947810173034667969 2.4976239204406738281 1.5341609716415405273 2.6009855270385742188 2.3206024169921875 2.0430085659027099609 1.9593833684921264648 1.7094885110855102539 2.6042506694793701172 2.7634198665618896484 2.8613340854644775391 2.8939218521118164063 3.3240697383880615234 3.4940478801727294922 2.2256979942321777344 2.6513631343841552734 1.8295694589614868164 2.5258131027221679688 1.7005436420440673828 1.9030650854110717773 1.2333718538284301758 1 1.2404626607894897461 2.3023200035095214844 2.6416404247283935547 2.1150698661804199219 2.3401892185211181641 1.9934517145156860352 2.2155184745788574219 2.5541706085205078125 2.1832449436187744141 2.1754438877105712891 1.0201439857482910156 1.6866780519485473633 1.1998038291931152344 1.8512506484985351563 1.8689943552017211914 1.4838255643844604492 1 1.1646089553833007813 1.1039593219757080078 1.4145734310150146484 2.3893601894378662109 1.5725082159042358398 1.6910586357116699219 1.9399118423461914063 2.2895026206970214844 1.822552800178527832 1.6546937227249145508 1.5928918123245239258 1.6546937227249145508 1.2067019939422607422 1.5636153221130371094 1.1998038291931152344 2.9214956760406494141 1 1.4672832489013671875 2.3597817420959472656 1.6249076128005981445 2.4578821659088134766 2.4074797630310058594 1.8615753650665283203 1.2080910205841064453 1.1584376096725463867 1.2414767742156982422 2.1909918785095214844 2.5515205860137939453 2.7899575233459472656 2.8894927501678466797 2.1311218738555908203 2.2533252239227294922 3.413532257080078125 2.169666290283203125 3.0982494354248046875 2.5758526325225830078 2.5253851413726806641 3.0577485561370849609 2.1764826774597167969 3.355037689208984375 3.7081437110900878906 3.6226928234100341797 3.0275547504425048828 2.3280236721038818359 2.4571826457977294922 2.0693593025207519531 2.3614377975463867188 2.5321810245513916016 2.4858167171478271484 1.9366450309753417969 2.2198164463043212891 2.8125905990600585938 2.38116455078125 2.5123896598815917969 1.6748564243316650391 1.4689680337905883789 1.5592684745788574219 1.5407117605209350586 1.2180734872817993164 2.6184630393981933594 1.7356723546981811523 2.6316678524017333984 1.102931976318359375 1.3513269424438476563 2.3086981773376464844 1.6069290637969970703 1.4323679208755493164 1.6314783096313476563 1.3626384735107421875 1.5432355403900146484 1.4995453357696533203 1.0240589380264282227 2.0334806442260742188 1 1.8999196290969848633 1.0201439857482910156 1.7245807647705078125 1 1.15058135986328125 1.7333734035491943359 1.1806674003601074219 1.9376773834228515625 2.4504714012145996094 1.1735665798187255859 1.7650394439697265625 1.8622368574142456055 2.3614227771759033203 1.4285920858383178711 1 1.4849201440811157227 2.0051195621490478516 2.0997419357299804688 1.3456426858901977539 1.3236827850341796875 1.8125694990158081055 1.7137441635131835938 2.2712748050689697266 1.4506893157958984375 1.7016643285751342773 1.424921870231628418 1.6766310930252075195 1.7410085201263427734 2.0137798786163330078 2.6669900417327880859 1.7776447534561157227 1.9583662748336791992 2.5659177303314208984 2.5816135406494140625 1.506531834602355957 2.549556732177734375 1.6727095842361450195 2.6404347419738769531 2.3292074203491210938 2.2352416515350341797 3.4634697437286376953 2.7502744197845458984 2.9216823577880859375 2.6136157512664794922 2.4857842922210693359 2.3502817153930664063 3.2014853954315185547 2.9486525058746337891 3.8711137771606445313 3.4545557498931884766 3.6054606437683105469 4.0294013023376464844 3.2241306304931640625 3.0106866359710693359 2.4494807720184326172 1.8586699962615966797 2.7186739444732666016 2.6556022167205810547 2.2837586402893066406 2.5581929683685302734 2.9160468578338623047 
2.1927895545959472656 2.0932104587554931641 1.9120862483978271484 2.1388845443725585938 2.1721704006195068359 2.0059347152709960938 2.1892735958099365234 2.0224602222442626953 2.1772162914276123047 1.9622316360473632813 2.3415231704711914063 2.0473546981811523438 2.1370708942413330078 2.5312364101409912109 2.4441707134246826172 2.3459165096282958984 2.2899944782257080078 2.2802734375 1.9834522008895874023 1.8029750585556030273 2.0192523002624511719 2.1324524879455566406 2.2325932979583740234 2.7931473255157470703 2.7263197898864746094 2.2852380275726318359 2.4325776100158691406 2.1383144855499267578 1.6568224430084228516 1.7222929000854492188 2.4377396106719970703 2.1870007514953613281 2.2535889148712158203 1.6607090234756469727 2.8479318618774414063 3.0953364372253417969 3.1162858009338378906 3.1440131664276123047 3.2225940227508544922 3.1093766689300537109 2.9605906009674072266 2.8298478126525878906 2.3568172454833984375 1.7118614912033081055 1.3471738100051879883 2.1953420639038085938 1 1 2.2622280120849609375 1.4141650199890136719 2.0137705802917480469 1.0837857723236083984 1.9835915565490722656 2.3218431472778320313 2.3066473007202148438 3.0128531455993652344 2.9600713253021240234 1.2698615789413452148 1 1.0091935396194458008 1 1.4461213350296020508 1.5386499166488647461 1.1998038291931152344 1 1.2333718538284301758 1.7153789997100830078 2.1198086738586425781 1.5757824182510375977 1.9028708934783935547 2.0580334663391113281 1.9399118423461914063 1.3837295770645141602 2.0774796009063720703 1.7899575233459472656 1.8277226686477661133 1.7552704811096191406 1.460126042366027832 1.3890067338943481445 1.1584376096725463867 1.315482020378112793 1 2.1838517189025878906 1.8528444766998291016 1.9764105081558227539 1.9713016748428344727 2.3210537433624267578 1.4987589120864868164 1.4012234210968017578 1.5006388425827026367 1.4539060592651367188 1.7241250276565551758 2.6882889270782470703 2.9865241050720214844 2.8449921607971191406 2.7610034942626953125 2.6056180000305175781 2.9096510410308837891 3.2816443443298339844 2.5624215602874755859 3.9669115543365478516 3.7190823554992675781 2.8491315841674804688 3.1109471321105957031 4.3083863258361816406 3.9054746627807617188 3.7265665531158447266 3.6478095054626464844 2.8115255832672119141 2.3422536849975585938 2.4377801418304443359 2.2874219417572021484 2.2505092620849609375 3.1914632320404052734 2.8452210426330566406 2.4602429866790771484 2.3763060569763183594 2.7595212459564208984 2.5207133293151855469 2.7352972030639648438 2.1448652744293212891 1.8795093297958374023 1.6061626672744750977 1.162119746208190918 1.4500498771667480469 2.1838517189025878906 1.4561089277267456055 2.3440215587615966797 1.337710261344909668 1.1394679546356201172 1.8431791067123413086 1 1.1794439554214477539 1.9704641103744506836 1.2531121969223022461 1.6535865068435668945 1.2349509000778198242 1.6866780519485473633 1.3367605209350585938 1.6559642553329467773 1 1 1.2000336647033691406 1 1.5601974725723266602 2.1179404258728027344 2.0997419357299804688 1 1.0767174959182739258 2.1917357444763183594 2.4336924552917480469 1.5565413236618041992 1.6151275634765625 2.2294824123382568359 1.0097109079360961914 1 1 1 1.4034458398818969727 1 1.2118371725082397461 1.9169048070907592773 2.3345029354095458984 3.5911774635314941406 2.2294077873229980469 2.1315608024597167969 2.3777222633361816406 1.804513096809387207 2.0439536571502685547 2.4641757011413574219 1.8736827373504638672 1.9207369089126586914 2.0745623111724853516 1.8250360488891601563 2.0611765384674072266 1.8401243686676025391 2.4807312488555908203 2.7047541141510009766 2.7800006866455078125 3.2595119476318359375 3.4002754688262939453 2.9795732498168945313 2.8080456256866455078 2.2466826438903808594 2.7528467178344726563 2.2180287837982177734 3.7486822605133056641 4.3146219253540039063 3.2419435977935791016 3.7974085807800292969 3.6548123359680175781 3.2301270961761474609 3.0664198398590087891 2.5191569328308105469 2.7715444564819335938 2.4247314929962158203 2.4713423252105712891 2.5192615985870361328 2.8650090694427490234 2.8403315544128417969 
2.5701737403869628906 2.3553593158721923828 2.2151496410369873047 1.8112833499908447266 2.0346040725708007813 2.2147057056427001953 2.2460660934448242188 2.253200531005859375 2.2970790863037109375 2.1457455158233642578 2.0761599540710449219 2.2385478019714355469 2.1214630603790283203 2.054195404052734375 1.956808924674987793 2.1192650794982910156 2.0559606552124023438 1.7354053258895874023 2.2791616916656494141 1.9595518112182617188 1.5484131574630737305 1.9791653156280517578 2.1950137615203857422 2.7320210933685302734 2.3601474761962890625 2.984363555908203125 3.0526056289672851563 2.5094587802886962891 2.1959848403930664063 2.3759891986846923828 2.2911956310272216797 2.0073750019073486328 2.3177654743194580078 1.8694207668304443359 2.3061182498931884766 2.2080411911010742188 3.5959560871124267578 3.5900499820709228516 3.7192730903625488281 3.8536777496337890625 3.2952415943145751953 3.4832925796508789063 2.847843170166015625 2.3571901321411132813 2.5408613681793212891 2.5315427780151367188 1.5738985538482666016 1.9460695981979370117 2.6912195682525634766 2.7520682811737060547 1.5104368925094604492 3.0492622852325439453 2.0642273426055908203 1.5978629589080810547 2.4858744144439697266 3.5273661613464355469 1.8425858020782470703 2.1378133296966552734 1.5985388755798339844 1.1998038291931152344 1 1.2333718538284301758 1.7646229267120361328 1 1 1.0240589380264282227 1.9997614622116088867 1.0028601884841918945 1 1.6069290637969970703 2.1942925453186035156 1.5064535140991210938 2.0403738021850585938 2.1673002243041992188 2.0127167701721191406 1.4021805524826049805 1.9240413904190063477 1 1.7880367040634155273 2.0739710330963134766 2.3948893547058105469 1.1584376096725463867 2.4759016036987304688 1.3034176826477050781 1.4469382762908935547 1.5920536518096923828 1.4711010456085205078 2.0429468154907226563 1.7271730899810791016 2.0062646865844726563 1.724596858024597168 1.6530122756958007813 2.23337554931640625 2.0367832183837890625 2.5097725391387939453 2.548145294189453125 2.6901886463165283203 2.9079720973968505859 3.1571004390716552734 2.9290609359741210938 2.8452997207641601563 3.34389495849609375 3.7028195858001708984 3.5147526264190673828 4.3026933670043945313 4.774166107177734375 3.9859561920166015625 3.1600458621978759766 2.9912960529327392578 2.7159211635589599609 2.7697980403900146484 2.5616991519927978516 2.7206342220306396484 2.6318504810333251953 2.7259106636047363281 2.6993350982666015625 2.6573560237884521484 2.5991716384887695313 2.5567326545715332031 2.1038441658020019531 2.5773961544036865234 1.8345772027969360352 1.4112464189529418945 1.6070350408554077148 1.3274179697036743164 1 1.6955734491348266602 1.0146458148956298828 1.1584376096725463867 1.4838255643844604492 1.2630890607833862305 2.2424716949462890625 1 2.0812642574310302734 1.8048930168151855469 1 1 1 1.1291054487228393555 1 1.8076318502426147461 1.2563434839248657227 1 2.0997419357299804688 1 1 1.0091935396194458008 1.2118371725082397461 1.1983001232147216797 1 1.4058433771133422852 1.5171141624450683594 1.4329488277435302734 1.7957237958908081055 1.5763479471206665039 1.6572215557098388672 1 1.218531489372253418 1 1.1806674003601074219 1.7333734035491943359 1.3308024406433105469 1.6201225519180297852 1 2.7507698535919189453 2.6640987396240234375 2.0639581680297851563 1.6408714056015014648 2.4083874225616455078 2.4125652313232421875 2.0794663429260253906 2.0247275829315185547 2.4440195560455322266 2.0353167057037353516 2.3388936519622802734 1.8880110979080200195 2.22275543212890625 2.5518734455108642578 2.4674215316772460938 3.048736572265625 3.0251572132110595703 2.9725437164306640625 2.9524636268615722656 2.7349879741668701172 3.1037111282348632813 2.7134342193603515625 3.2526564598083496094 3.2441623210906982422 3.0667369365692138672 3.7170531749725341797 3.2190263271331787109 3.0214011669158935547 3.0358273983001708984 2.1147212982177734375 2.0643680095672607422 2.3199648857116699219 2.2879438400268554688 2.8341486454010009766 2.7771065235137939453 2.7489731311798095703 
1.8517282009124755859 2.2069044113159179688 1.9437029361724853516 2.3871607780456542969 2.2156093120574951172 2.3558220863342285156 1.827044367790222168 1.9113241434097290039 2.4420247077941894531 2.0808691978454589844 2.0570816993713378906 1.8630822896957397461 1.8622126579284667969 2.0595805644989013672 1.8115975856781005859 2.4039587974548339844 1.8738729953765869141 2.0933413505554199219 1.2299875020980834961 1.8900762796401977539 1.7399400472640991211 2.020145416259765625 1.9873675107955932617 2.4252083301544189453 2.4720673561096191406 3.0566077232360839844 2.8429327011108398438 2.4770197868347167969 2.5730810165405273438 2.7212550640106201172 2.884784698486328125 2.9934506416320800781 2.8516085147857666016 3.0601618289947509766 3.0052762031555175781 2.5695176124572753906 3.2262783050537109375 3.9110238552093505859 3.3484058380126953125 3.0976929664611816406 3.6506569385528564453 3.0762550830841064453 3.6343674659729003906 2.1131994724273681641 2.4648036956787109375 2.6974813938140869141 2.1703634262084960938 3.1031110286712646484 1.7264474630355834961 2.0783851146697998047 1.7434797286987304688 3.2827272415161132813 1.9245645999908447266 2.3937823772430419922 2.2734017372131347656 2.3038244247436523438 2.4358415603637695313 1.8643246889114379883 1.5740336179733276367 1.8810631036758422852 1.5386499166488647461 2.4995641708374023438 1.1229951381683349609 1.4461213350296020508 1.4838255643844604492 1.6059319972991943359 2.1931531429290771484 1.9704641103744506836 1 1.6523402929306030273 1.9058170318603515625 2.0528337955474853516 2.0978269577026367188 1.9707771539688110352 1.8900762796401977539 1.682362675666809082 1 2.4187915325164794922 1 1 1 1.4467499256134033203 1 2.6782369613647460938 1.7024524211883544922 1.4609037637710571289 1.1575329303741455078 1.9764105081558227539 1.7962647676467895508 2.7395005226135253906 2.3393521308898925781 1.4099156856536865234 2.2163231372833251953 2.0539362430572509766 2.43602752685546875 3.2045111656188964844 3.213451385498046875 1.9202477931976318359 2.4667248725891113281 2.7260625362396240234 3.2988011837005615234 3.8056547641754150391 3.3041660785675048828 3.6520202159881591797 3.8299129009246826172 4.5370378494262695313 3.5423977375030517578 3.4197080135345458984 3.4001305103302001953 3.2505147457122802734 3.5921223163604736328 4.4336028099060058594 3.2602026462554931641 3.7373216152191162109 3.5126476287841796875 2.8610239028930664063 2.0505881309509277344 2.6807718276977539063 2.0501019954681396484 2.7940127849578857422 2.2702085971832275391 2.3496737480163574219 1.6081444025039672852 2.0283365249633789063 1.930585026741027832 1 2.0334074497222900391 1.1584376096725463867 2.6519815921783447266 2.2762210369110107422 1 1.3313735723495483398 1 1.9294526576995849609 1.1806674003601074219 1 1.4034458398818969727 2.0024030208587646484 1 1.5601974725723266602 1 1.1998038291931152344 1 1 1.4034458398818969727 1.0122760534286499023 1 1 1 1.4034458398818969727 1 2.048839569091796875 2.3851757049560546875 1.9370011091232299805 2.0227997303009033203 1.4828261137008666992 1 1 1 1.324756622314453125 1.2349509000778198242 2.7305078506469726563 2.5429966449737548828 2.1230261325836181641 1.1707168817520141602 2.5670797824859619141 2.7876601219177246094 2.5676176548004150391 2.9049842357635498047 2.4946315288543701172 1.5715676546096801758 2.3680112361907958984 1.969828486442565918 1.8998147249221801758 2.0428576469421386719 2.4117932319641113281 2.1662364006042480469 2.6366581916809082031 2.5893614292144775391 2.9601299762725830078 2.8801319599151611328 3.1136531829833984375 2.4645972251892089844 3.4405226707458496094 2.5978062152862548828 2.9212386608123779297 3.0639226436614990234 2.7279794216156005859 2.748821258544921875 2.3553092479705810547 2.2022249698638916016 2.6745228767395019531 3.5233376026153564453 2.8620257377624511719 2.4883806705474853516 2.4467008113861083984 2.2345123291015625 2.2084405422210693359 2.8488631248474121094 3.2787382602691650391 
1.4099156856536865234 1.79608154296875 2.1780171394348144531 1.7625862360000610352 2.4799840450286865234 2.2547502517700195313 2.0643725395202636719 2.1605579853057861328 1.845673680305480957 2.6656272411346435547 1.7479003667831420898 1.7597224712371826172 1.9834617376327514648 2.0917251110076904297 1.4935623407363891602 1.8900673389434814453 1.2180734872817993164 1.9834617376327514648 1.2643368244171142578 2.0127167701721191406 2.2087836265563964844 1.7361342906951904297 2.053234100341796875 2.2579569816589355469 2.0505909919738769531 3.3225245475769042969 2.4789214134216308594 2.8625314235687255859 2.4005765914916992188 2.5088326930999755859 2.8901040554046630859 2.4985601902008056641 1.8555428981781005859 2.3856770992279052734 3.1585156917572021484 2.4380223751068115234 3.2603967189788818359 2.9426388740539550781 3.3974847793579101563 3.1268117427825927734 3.2433526515960693359 3.4702920913696289063 3.1749367713928222656 2.5107393264770507813 2.9482877254486083984 2.2440259456634521484 2.0667965412139892578 2.9090399742126464844 2.3007180690765380859 2.6519815921783447266 1.4264928102493286133 2.7798058986663818359 1.4769916534423828125 2.4356703758239746094 2.18328857421875 1.9421523809432983398 1.3493175506591796875 1.3415057659149169922 2.6519815921783447266 1.7292388677597045898 1.9258850812911987305 1 1.7754449844360351563 1.2563434839248657227 1.5959850549697875977 1.3397669792175292969 1.0316591262817382813 1.1595361232757568359 1.0016720294952392578 1.326617121696472168 1.6373285055160522461 2.2702085971832275391 1.5079861879348754883 2.020145416259765625 1.9293096065521240234 1.6256356239318847656 1.4012234210968017578 2.4127461910247802734 1.9399118423461914063 1.3647191524505615234 2.5028932094573974609 1.3448958396911621094 1 2.1652874946594238281 1.3024914264678955078 1.2717616558074951172 1.7024524211883544922 2.2617380619049072266 1.7493238449096679688 1.6661223173141479492 1.8738729953765869141 2.4141409397125244141 2.0859463214874267578 2.5601620674133300781 2.3505766391754150391 2.8779590129852294922 2.3013601303100585938 3.0054218769073486328 2.0529780387878417969 2.3894536495208740234 3.5749125480651855469 3.8505096435546875 3.8025760650634765625 3.7195086479187011719 3.8194971084594726563 4.0959653854370117188 3.9163999557495117188 4.34102630615234375 4.6673259735107421875 3.7232010364532470703 3.8016505241394042969 3.3078589439392089844 3.7741141319274902344 2.8624944686889648438 3.2715198993682861328 2.8942966461181640625 2.81314849853515625 2.4676995277404785156 2.6650233268737792969 2.1378984451293945313 2.8210024833679199219 2.8381497859954833984 2.1702282428741455078 2.2324419021606445313 2.4990971088409423828 2.3050086498260498047 1.7024524211883544922 1.742982029914855957 1.0249292850494384766 2.2336819171905517578 1.3267627954483032227 1 2.3948893547058105469 2.3851757049560546875 2.1179404258728027344 1 1.4034458398818969727 1.1806674003601074219 1 1 2.1634585857391357422 1.8649717569351196289 1.5590749979019165039 1 1.2386783361434936523 1 2.0918228626251220703 1 1.8689943552017211914 1.3080642223358154297 2.3851757049560546875 1 1 1.5562918186187744141 1.353982090950012207 2.2187144756317138672 1 1 1.0844023227691650391 1.1447794437408447266 1.9280533790588378906 1.2971282005310058594 1 1.4039773941040039063 1.9560141563415527344 1.7276353836059570313 2.0092217922210693359 2.4866151809692382813 1.4317719936370849609 1.3565980195999145508 2.2965333461761474609 1.503033757209777832 2.5943422317504882813 2.0656113624572753906 1.58737945556640625 2.0053613185882568359 2.0603702068328857422 2.544403076171875 2.2001557350158691406 3.521770477294921875 3.1175158023834228516 3.1826417446136474609 3.1119074821472167969 3.3947796821594238281 2.6338133811950683594 2.3205249309539794922 2.2750902175903320313 3.1546232700347900391 2.8093805313110351563 2.3756833076477050781 2.1061148643493652344 2.2053284645080566406 2.9660100936889648438 2.6918818950653076172 2.7348189353942871094 2.4200716018676757813 2.6837246417999267578 2.4740827083587646484 2.7428274154663085938 2.3464074134826660156 
2.1320009231567382813 1.4752953052520751953 1.6713653802871704102 1.7687500715255737305 2.2885901927947998047 1.6701055765151977539 1.9968951940536499023 2.7349658012390136719 1.9936685562133789063 2.0602712631225585938 2.0978269577026367188 2.4208209514617919922 1.2922399044036865234 1.5637499094009399414 2.3311438560485839844 1.478974461555480957 1.5517632961273193359 1.8943024873733520508 1.3639115095138549805 1.9705237150192260742 2.204906463623046875 1.8544399738311767578 1.8825469017028808594 2.3997962474822998047 2.5846910476684570313 2.4038920402526855469 3.0500245094299316406 2.9864449501037597656 2.4892928600311279297 2.6440396308898925781 2.9037392139434814453 2.7071261405944824219 2.7657523155212402344 2.1437528133392333984 2.2363519668579101563 2.8820567131042480469 3.0145022869110107422 2.7857887744903564453 2.818145751953125 3.1828374862670898438 3.0891194343566894531 3.0648913383483886719 3.6938252449035644531 3.1061022281646728516 2.9869203567504882813 1.9145770072937011719 2.4690747261047363281 2.1183359622955322266 3.1055655479431152344 1.789702296257019043 1.9608874320983886719 2.378993988037109375 2.2504200935363769531 2.1711788177490234375 1.7573640346527099609 1.9376773834228515625 1 1.1584376096725463867 1 1.9028708934783935547 2.3059117794036865234 1.6955734491348266602 2.2336819171905517578 2.2336819171905517578 1.6455211639404296875 1 2.2271759510040283203 1.1914463043212890625 2.5135443210601806641 1.72434234619140625 2.1092691421508789063 1.5388197898864746094 2.0415349006652832031 1.867705225944519043 2.1608114242553710938 1.2717616558074951172 1.9844923019409179688 1.79608154296875 1.2295614480972290039 2.1942925453186035156 1.3060431480407714844 1.7310606241226196289 1.3274179697036743164 1.7996884584426879883 2.0978269577026367188 1.6353203058242797852 2.2650542259216308594 1.3247183561325073242 2.2702085971832275391 2.2805986404418945313 2.4596142768859863281 2.6264071464538574219 2.2633697986602783203 2.6460449695587158203 2.2178120613098144531 3.2003386020660400391 2.1527347564697265625 2.7359712123870849609 2.6543152332305908203 2.5102422237396240234 2.7772417068481445313 3.0768716335296630859 3.6518557071685791016 3.7885305881500244141 3.205108642578125 4.5988216400146484375 4.6250557899475097656 4.4316229820251464844 4.0072302818298339844 4.3096213340759277344 4.0345273017883300781 3.3658266067504882813 3.3802862167358398438 2.7509047985076904297 2.9567923545837402344 3.67554473876953125 3.260986328125 3.0769135951995849609 3.3044903278350830078 3.3454849720001220703 1.840288996696472168 2.3905298709869384766 1.8930150270462036133 2.982723236083984375 2.3670160770416259766 1.7136921882629394531 2.2834184169769287109 1.407568812370300293 1.9788885116577148438 1 2.1512470245361328125 1.5878800153732299805 1 1.0201439857482910156 1 1.2190240621566772461 1.1291054487228393555 1.8431791067123413086 1.315482020378112793 2.0725774765014648438 1.9312839508056640625 1.2067019939422607422 1.1584376096725463867 1.6866780519485473633 1 1 2.1179404258728027344 2.0051195621490478516 1.8512506484985351563 1.0644807815551757813 1 1.3529950380325317383 1 1.2233021259307861328 1.4029662609100341797 1.5522617101669311523 1 1 1 1 1.1109651327133178711 1.1806674003601074219 1 1.5985388755798339844 2.0814058780670166016 1.3130867481231689453 1.7573640346527099609 1.7098519802093505859 1.6249076128005981445 2.0209100246429443359 2.1941230297088623047 2.0423524379730224609 2.2818520069122314453 1.7653899192810058594 2.144683837890625 2.22507476806640625 2.0943419933319091797 2.7477695941925048828 2.9273803234100341797 2.9064493179321289063 2.6104934215545654297 3.1427683830261230469 3.1038520336151123047 3.0929734706878662109 2.6432659626007080078 1.7306932210922241211 2.1840064525604248047 2.7109484672546386719 2.8077874183654785156 2.6737968921661376953 1.7906340360641479492 2.8186788558959960938 2.4370362758636474609 2.6669709682464599609 2.5458590984344482422 2.52388763427734375 2.7228193283081054688 2.9565117359161376953 2.5819027423858642578 2.2113223075866699219 
2.0340824127197265625 1.4987589120864868164 1.4973641633987426758 1.8802340030670166016 1.7042502164840698242 1.8035982847213745117 1.827044367790222168 1.9709695577621459961 1.7800475358963012695 1.7839803695678710938 2.3050086498260498047 1.4046524763107299805 1 1.8226472139358520508 1.8620226383209228516 2.2447302341461181641 1.9228776693344116211 2.5819976329803466797 1.6247359514236450195 2.0325798988342285156 1.8073444366455078125 2.2122325897216796875 2.0895917415618896484 2.1064128875732421875 2.3810112476348876953 2.4415361881256103516 2.9755532741546630859 3.0115153789520263672 2.5365586280822753906 2.519191741943359375 2.0206182003021240234 2.4766905307769775391 2.5633366107940673828 2.5109651088714599609 2.7560088634490966797 2.6439411640167236328 2.477420806884765625 3.1338737010955810547 2.865589141845703125 2.6690135002136230469 2.5207667350769042969 2.3694429397583007813 2.7410719394683837891 3.3885412216186523438 2.4137837886810302734 1.8361272811889648438 1.9361383914947509766 2.0829935073852539063 2.4381186962127685547 1.8482241630554199219 2.2771227359771728516 2.1569676399230957031 2.3413698673248291016 2.1566448211669921875 2.1127207279205322266 2.3655214309692382813 1.1507860422134399414 1 1.0054743289947509766 1.6509979963302612305 2.0140461921691894531 1.3310837745666503906 1.174445033073425293 1.9934517145156860352 1.7827785015106201172 1.5636153221130371094 1.5881267786026000977 2.2551608085632324219 2.2650542259216308594 1.5124461650848388672 1.7552704811096191406 1.9095475673675537109 1.9449075460433959961 1.6863024234771728516 2.1094148159027099609 1.7645841836929321289 1.2743868827819824219 2.0399539470672607422 2.1107704639434814453 1.7602065801620483398 2.3425648212432861328 1.3647308349609375 2.1862235069274902344 1.3247183561325073242 1.4865772724151611328 2.0614914894104003906 2.1895339488983154297 2.1715068817138671875 1.7588411569595336914 2.3892266750335693359 1.9730488061904907227 2.4176075458526611328 2.6602613925933837891 3.0322396755218505859 2.4169056415557861328 2.4286825656890869141 2.7616546154022216797 2.7075660228729248047 2.2907595634460449219 2.8654897212982177734 3.5754199028015136719 3.9223127365112304688 4.0396633148193359375 4.28710174560546875 4.7015233039855957031 4.5566525459289550781 4.0982341766357421875 4.2158999443054199219 4.47705078125 4.3755006790161132813 4.5256938934326171875 4.649265289306640625 3.3937802314758300781 3.5412251949310302734 3.0296428203582763672 3.7493932247161865234 2.7015964984893798828 2.5065219402313232422 3.0688564777374267578 2.8265657424926757813 1.8715552091598510742 2.4258646965026855469 2.3401608467102050781 2.1909017562866210938 2.2968869209289550781 2.3385555744171142578 2.0209100246429443359 1.1421487331390380859 1.5046422481536865234 1.6546937227249145508 1 2.5118017196655273438 1.9747595787048339844 1.2563434839248657227 1.7333734035491943359 1 1.8076318502426147461 1.4751893281936645508 1 1 2.7690782546997070313 1.9653078317642211914 1.9934517145156860352 1 2.0812642574310302734 2.3851757049560546875 1 1 1 1.7333734035491943359 1.4034458398818969727 1 1 1 1 2.1359236240386962891 1 1 1 1 1.4034458398818969727 1 1.653941035270690918 1.4198118448257446289 1.1584376096725463867 1 1.4540337324142456055 1.7586466073989868164 1.2343844175338745117 2.1331670284271240234 1.6281371116638183594 1.3879038095474243164 2.2474417686462402344 2.7984302043914794922 2.1420564651489257813 2.9386274814605712891 2.8531751632690429688 3.0788927078247070313 2.0510678291320800781 2.6299538612365722656 2.0768842697143554688 2.5565426349639892578 2.3548777103424072266 2.7977073192596435547 2.6304690837860107422 2.4863581657409667969 2.1730110645294189453 3.2167644500732421875 2.2640657424926757813 2.7420554161071777344 1.7139087915420532227 2.7211318016052246094 2.0000989437103271484 2.6179444789886474609 2.8901286125183105469 2.7219641208648681641 2.4058423042297363281 2.3796470165252685547 2.6162545680999755859 2.5793523788452148438 
1.7785276174545288086 1.5630679130554199219 1.7573640346527099609 2.2617380619049072266 1.6989214420318603516 1.6633090972900390625 1.6481531858444213867 1.7345983982086181641 1.4648777246475219727 1.7299376726150512695 1.6445393562316894531 1.4401268959045410156 1.5067596435546875 1.874995112419128418 1.635666966438293457 1.9359015226364135742 1.8764870166778564453 1.7919924259185791016 1.9834617376327514648 2.3910810947418212891 2.5376980304718017578 1.7397133111953735352 1.9421008825302124023 2.4219601154327392578 2.1078083515167236328 2.2036993503570556641 2.6637146472930908203 2.8042111396789550781 2.7654771804809570313 1.9900404214859008789 1.9898788928985595703 2.6578278541564941406 2.3331012725830078125 1.7332080602645874023 2.2788531780242919922 2.4751405715942382813 2.7580103874206542969 2.9889402389526367188 3.3011031150817871094 3.2985968589782714844 2.6255333423614501953 2.7274222373962402344 2.8052449226379394531 3.0010817050933837891 2.3979523181915283203 1.7614591121673583984 2.1066536903381347656 2.6062600612640380859 2.4524316787719726563 2.7247757911682128906 2.5348377227783203125 2.2404730319976806641 3.0936210155487060547 2.2508442401885986328 2.1866681575775146484 2.0130612850189208984 1.9788885116577148438 1.8361978530883789063 1.2594140768051147461 2.1511733531951904297 2.2559854984283447266 2.1198086738586425781 1.6742676496505737305 1.2087839841842651367 2.2584400177001953125 1 2.3086981773376464844 1.6009865999221801758 1.2798299789428710938 1.5610889196395874023 1.880209803581237793 1.2913520336151123047 1.9756801128387451172 1.4360170364379882813 1.7929273843765258789 1.5063582658767700195 2.0893273353576660156 2.2385478019714355469 2.1634240150451660156 2.2555959224700927734 2.1625587940216064453 2.096347808837890625 2.2881288528442382813 1.9113241434097290039 1.7901198863983154297 1.6696178913116455078 2.1054837703704833984 2.1904084682464599609 1.9559737443923950195 2.1934709548950195313 2.2604372501373291016 2.3932981491088867188 2.1414101123809814453 2.9105246067047119141 2.9879906177520751953 3.4809026718139648438 3.0638058185577392578 3.3879408836364746094 2.4580800533294677734 3.4191901683807373047 3.6801943778991699219 4.2694964408874511719 3.8016567230224609375 3.8164906501770019531 4.2304286956787109375 4.337383270263671875 3.3139514923095703125 4.6216230392456054688 4.1321396827697753906 4.0658087730407714844 4.4047608375549316406 4.374813079833984375 3.9290673732757568359 3.1204154491424560547 3.8117733001708984375 3.6861274242401123047 3.2857396602630615234 3.0320398807525634766 2.7067511081695556641 2.2598621845245361328 3.0666763782501220703 3.3240895271301269531 3.2330543994903564453 2.768459320068359375 2.3339352607727050781 2.0428452491760253906 1.5598202943801879883 1.6498711109161376953 1.9655302762985229492 1.9653078317642211914 1.2563434839248657227 1.423244476318359375 1.1659885644912719727 1.1229951381683349609 1.0201439857482910156 1 1.1584376096725463867 1 1.3367605209350585938 1 1.479602813720703125 1.1659885644912719727 2.6999742984771728516 1.6065132617950439453 1.7754449844360351563 1.3820184469223022461 1.5386499166488647461 1.0201439857482910156 1 1.7561491727828979492 1.7333734035491943359 1.3080642223358154297 1 1 1 1 1 1 1 2.0051195621490478516 1 1.0122760534286499023 1.2591799497604370117 2.0301828384399414063 1.3397669792175292969 1.4098987579345703125 1.6939942836761474609 1 1.1595361232757568359 1.1298608779907226563 1.7573640346527099609 2.4385900497436523438 2.4398593902587890625 2.8812143802642822266 2.7302582263946533203 2.8027975559234619141 2.1891565322875976563 2.6633183956146240234 1.9353808164596557617 2.5153298377990722656 3.2734041213989257813 2.6434671878814697266 1.8103373050689697266 2.1709048748016357422 2.6429700851440429688 2.6070806980133056641 2.879383087158203125 2.4487161636352539063 2.8161344528198242188 2.6982491016387939453 3.0813236236572265625 2.2416715621948242188 2.5058624744415283203 2.5214354991912841797 2.3307974338531494141 2.2914547920227050781 2.5950164794921875 2.3531470298767089844 2.2278478145599365234 2.4969136714935302734 
1.1727908849716186523 1.7469292879104614258 1.8358727693557739258 2.0373396873474121094 1.6877093315124511719 1.8841940164566040039 1.1747586727142333984 2.2704768180847167969 1.9866161346435546875 1.679795384407043457 1.7839803695678710938 1.4866467714309692383 1.5043936967849731445 2.2559854984283447266 1.7846647500991821289 2.0524909496307373047 1.7237046957015991211 2.3440692424774169922 1.4353711605072021484 1.8901271820068359375 2.1296367645263671875 2.2399904727935791016 2.3866860866546630859 2.4875876903533935547 1.8065569400787353516 2.493320465087890625 2.3026266098022460938 2.4394690990447998047 2.2954039573669433594 2.5233793258666992188 2.7810165882110595703 2.2417967319488525391 1.9881256818771362305 2.5132756233215332031 2.7663393020629882813 2.5228328704833984375 2.5864174365997314453 2.2761051654815673828 2.9643492698669433594 2.8770322799682617188 2.8716456890106201172 2.7351400852203369141 2.6828548908233642578 2.1401834487915039063 2.7911360263824462891 2.8646538257598876953 2.5701718330383300781 2.429233551025390625 2.6717805862426757813 2.6466159820556640625 2.7715709209442138672 2.9876346588134765625 2.5975329875946044922 2.9351823329925537109 2.9141378402709960938 1.8021641969680786133 1.6102871894836425781 1.6546937227249145508 1 1.8257665634155273438 1.8277226686477661133 2.1175382137298583984 2.0173285007476806641 1.3639084100723266602 1.472988128662109375 1.9788885116577148438 1.070923924446105957 2.6274201869964599609 1.7469292879104614258 1.3334383964538574219 1.2067019939422607422 1 1.3274179697036743164 1.8944329023361206055 1.79608154296875 1.5091953277587890625 2.4208209514617919922 1.8385351896286010742 1.9238379001617431641 2.1443679332733154297 2.0555250644683837891 2.219146728515625 2.3558385372161865234 2.3513290882110595703 2.0760056972503662109 1.8250360488891601563 2.3733489513397216797 2.5218749046325683594 2.0260426998138427734 2.4801418781280517578 2.3397722244262695313 2.6340076923370361328 2.3565948009490966797 2.8850078582763671875 2.7701814174652099609 2.8762116432189941406 3.1949720382690429688 2.8151025772094726563 2.681545257568359375 3.9092972278594970703 3.7924005985260009766 4.2552695274353027344 4.1598949432373046875 4.4705295562744140625 4.0918121337890625 3.6657843589782714844 4.0142965316772460938 4.5025238990783691406 4.0736403465270996094 4.0367870330810546875 4.0820126533508300781 4.3105740547180175781 4.5192699432373046875 3.3252282142639160156 4.4092907905578613281 3.2867290973663330078 3.2714345455169677734 3.2605390548706054688 3.3342180252075195313 2.8437230587005615234 2.7818171977996826172 3.0470535755157470703 3.4211983680725097656 2.6491031646728515625 3.3051116466522216797 2.5468392372131347656 2.1615941524505615234 2.0400006771087646484 2.8537971973419189453 1.5512070655822753906 1.585343480110168457 1.1646089553833007813 1 2.0334806442260742188 1 1 1.8076318502426147461 2.0626161098480224609 1.9101984500885009766 2.1385762691497802734 1.9043904542922973633 1.7607041597366333008 1.4838255643844604492 1 2.0812642574310302734 1.8076318502426147461 2.0301828384399414063 1.9259675741195678711 1.1747975349426269531 1.2314015626907348633 1 2.0997419357299804688 1.1806674003601074219 1.7810119390487670898 2.2004418373107910156 1 1 1 1 1 1 1.3830394744873046875 2.0997419357299804688 1 1.2061605453491210938 1.1642774343490600586 1.9934517145156860352 1.302908778190612793 1.5569522380828857422 2.4465985298156738281 2.4681453704833984375 3.0666456222534179688 2.1566030979156494141 2.0573327541351318359 2.4380595684051513672 2.5458562374114990234 3.2371141910552978516 2.319156646728515625 2.7059504985809326172 2.5855507850646972656 2.5911242961883544922 2.5703988075256347656 2.2993872165679931641 1.8602713346481323242 2.3111026287078857422 2.2441861629486083984 2.1454534530639648438 3.1580369472503662109 3.0914063453674316406 2.8107199668884277344 2.5790083408355712891 2.5041141510009765625 2.4769341945648193359 2.1170113086700439453 1.8904318809509277344 1.904591679573059082 2.2919361591339111328 2.1643033027648925781 2.4441018104553222656 2.5581295490264892578 
2.2647311687469482422 2.1131870746612548828 1.6014891862869262695 2.4452211856842041016 1.6913355588912963867 2.0254075527191162109 1.6565639972686767578 2.0127167701721191406 1.3526624441146850586 1.6240699291229248047 1.9958751201629638672 1.5471912622451782227 2.3393259048461914063 2.1634240150451660156 1.9990742206573486328 1.7548371553421020508 1.9735364913940429688 1.774660944938659668 2.0978269577026367188 1.2875335216522216797 1.5114458799362182617 2.0085053443908691406 2.2730536460876464844 2.2477433681488037109 2.1772162914276123047 2.3582122325897216797 2.5601484775543212891 2.3968667984008789063 2.3552408218383789063 2.4889268875122070313 2.5105340480804443359 2.3664388656616210938 2.3190929889678955078 2.3306834697723388672 2.5744023323059082031 2.3346018791198730469 2.2772324085235595703 2.8048825263977050781 2.8365085124969482422 2.9702298641204833984 2.9528660774230957031 2.1969666481018066406 2.5401029586791992188 3.083225250244140625 1.8199807405471801758 1.9204367399215698242 2.2110140323638916016 2.4094471931457519531 2.1234555244445800781 2.6988930702209472656 2.6179206371307373047 3.1294410228729248047 2.8899171352386474609 2.9683969020843505859 2.1225993633270263672 2.3440074920654296875 2.2495026588439941406 1 1.2531121969223022461 1.407568812370300293 1.9399118423461914063 1.9589200019836425781 1.6457532644271850586 1.9312839508056640625 1.7827785015106201172 1.1584376096725463867 2.1331670284271240234 1.9504588842391967773 1.3356341123580932617 1.742982029914855957 1.1700326204299926758 1.9698922634124755859 1.7878659963607788086 1.5050613880157470703 1.1747586727142333984 2.1404783725738525391 1.7063788175582885742 1.8467257022857666016 2.0969154834747314453 2.6135499477386474609 2.0393369197845458984 1.9306724071502685547 1.9657382965087890625 1.9972070455551147461 2.6085467338562011719 1.9351401329040527344 2.3178088665008544922 2.7341630458831787109 2.3348331451416015625 2.5644974708557128906 2.4186429977416992188 2.5727524757385253906 2.4853310585021972656 2.5748486518859863281 2.1153993606567382813 2.5924932956695556641 2.8548882007598876953 3.2233364582061767578 3.2236473560333251953 3.4646468162536621094 3.1671900749206542969 3.7142689228057861328 3.7325360774993896484 4.1814026832580566406 3.9569208621978759766 3.69586181640625 3.3085570335388183594 4.0321164131164550781 4.4005112648010253906 4.0810232162475585938 3.79203033447265625 4.2647495269775390625 3.8274352550506591797 3.5566399097442626953 3.9020750522613525391 3.3319392204284667969 3.1636366844177246094 3.3290359973907470703 3.2486124038696289063 3.7867865562438964844 3.1332263946533203125 2.6147108078002929688 3.1190745830535888672 2.9651827812194824219 3.5822069644927978516 2.8144545555114746094 2.7434988021850585938 2.5234997272491455078 1.8357889652252197266 2.3585631847381591797 2.5715858936309814453 1.1659885644912719727 1.6279683113098144531 1.9596166610717773438 1.7218737602233886719 2.0918228626251220703 1.066537022590637207 1.1229951381683349609 1 2.0298855304718017578 1.3221335411071777344 1.3884559869766235352 1.9468702077865600586 1.3221335411071777344 1 1 1.6230274438858032227 2.0812642574310302734 2.0301828384399414063 2.3506488800048828125 1 1 1 1.1806674003601074219 1 1.1806674003601074219 1 1 1 1 2.3134033679962158203 1.4098987579345703125 1 2.2249948978424072266 1.7722284793853759766 1.5121725797653198242 1 1 2.1331670284271240234 1.070923924446105957 1.6076791286468505859 1.8198851346969604492 2.1504945755004882813 3.1618018150329589844 1.9223591089248657227 3.2440896034240722656 2.5797686576843261719 2.6828825473785400391 2.2916774749755859375 3.0221076011657714844 2.7548732757568359375 2.3127884864807128906 3.3804798126220703125 2.3094575405120849609 2.3632426261901855469 2.3129456043243408203 2.8684685230255126953 2.9811282157897949219 3.4397256374359130859 2.865509033203125 3.39678192138671875 2.2673246860504150391 2.4397873878479003906 2.1026444435119628906 1.6116211414337158203 2.2233517169952392578 1.8082169294357299805 2.5189652442932128906 1.8035982847213745117 2.2591292858123779297 
1.8514734506607055664 1.2356706857681274414 1.2329553365707397461 1.9512876272201538086 1.5630707740783691406 1.765782475471496582 1.3622776269912719727 2.1172132492065429688 2.4039587974548339844 2.3214654922485351563 1.9819290637969970703 1.8959918022155761719 2.0771341323852539063 2.1745772361755371094 2.2506532669067382813 1.8674002885818481445 1.8089836835861206055 2.3311438560485839844 2.1146526336669921875 2.0249693393707275391 1.5298581123352050781 2.26584625244140625 2.0564401149749755859 1.8425174951553344727 2.1772162914276123047 2.2846269607543945313 2.2513449192047119141 2.0697789192199707031 2.25965118408203125 2.3677899837493896484 1.8383516073226928711 2.2226979732513427734 2.4400815963745117188 2.1059253215789794922 2.2284855842590332031 2.9012804031372070313 2.6668388843536376953 2.7074284553527832031 2.4605913162231445313 2.9634413719177246094 2.5753529071807861328 3.2320516109466552734 3.0275444984436035156 2.2525544166564941406 1.532520294189453125 2.4682853221893310547 1.8195470571517944336 1.8539870977401733398 3.4088578224182128906 3.2783105373382568359 3.30374908447265625 3.6665341854095458984 3.0306992530822753906 3.0725650787353515625 2.6248216629028320313 1.6849004030227661133 1 1.3517829179763793945 2.0924384593963623047 1.5495320558547973633 1.7573640346527099609 1.4145734310150146484 1.6879876852035522461 1 1.0201439857482910156 1.8076318502426147461 1.9504588842391967773 2.0812642574310302734 1.822552800178527832 1.8838471174240112305 1.1956706047058105469 1.6287798881530761719 1.1914029121398925781 1.5837389230728149414 1.5395464897155761719 2.0577993392944335938 1.4112869501113891602 1.8285276889801025391 2.4275162220001220703 2.4458947181701660156 2.0862848758697509766 2.3178715705871582031 2.5117094516754150391 2.3354351520538330078 2.4470171928405761719 2.2200183868408203125 2.0716671943664550781 2.4260241985321044922 2.5846626758575439453 2.3679301738739013672 2.6099958419799804688 2.8175499439239501953 2.7534432411193847656 2.6282727718353271484 2.6267285346984863281 2.9392254352569580078 3.7160701751708984375 2.9991259574890136719 3.2429080009460449219 3.3261036872863769531 3.4939284324645996094 3.3797385692596435547 3.6690981388092041016 3.7295858860015869141 4.1525826454162597656 3.7736520767211914063 3.0625364780426025391 3.2236468791961669922 3.1835446357727050781 3.4213774204254150391 3.8747701644897460938 4.1890711784362792969 3.4577736854553222656 3.5821452140808105469 3.0282135009765625 3.2765209674835205078 3.2640376091003417969 3.4034516811370849609 4.0175261497497558594 3.0852451324462890625 3.048015594482421875 3.3535933494567871094 3.3461878299713134766 2.57163238525390625 2.7331116199493408203 2.7572393417358398438 3.7164251804351806641 2.3815515041351318359 2.3260354995727539063 1.9670416116714477539 1.5463526248931884766 1.9649816751480102539 2.1692523956298828125 1.5510348081588745117 3.1967060565948486328 2.6090147495269775391 1.129763484001159668 1.1646089553833007813 1.8473207950592041016 1.0130846500396728516 1.6910586357116699219 2.1331670284271240234 1.7024524211883544922 1.1822514533996582031 1 1 1.2311950922012329102 1.9955966472625732422 1.1998038291931152344 1.1998038291931152344 1.7810119390487670898 1.0091935396194458008 1 1.4461213350296020508 1.7248748540878295898 1.1806674003601074219 1 1 1 1.15058135986328125 1.3830394744873046875 1.6122052669525146484 1.8810631036758422852 1 1.0240589380264282227 1 1.3221335411071777344 1.6005625724792480469 1.6546937227249145508 1 1 1.1322900056838989258 3.02044677734375 2.7120592594146728516 2.3390364646911621094 2.6960551738739013672 2.0310254096984863281 3.5725126266479492188 3.7151596546173095703 3.5677561759948730469 2.6940834522247314453 3.0949585437774658203 2.6532475948333740234 2.8568329811096191406 2.3821082115173339844 3.1167879104614257813 2.2167742252349853516 3.0030410289764404297 2.9753508567810058594 3.7701363563537597656 3.5276641845703125 2.7623536586761474609 1.7121443748474121094 1.3647308349609375 2.2564692497253417969 1.8627797365188598633 1.9551650285720825195 2.1627569198608398438 1.6038001775741577148 2.1595256328582763672 
1.3265140056610107422 2.2704768180847167969 2.0546832084655761719 1.3217899799346923828 1.682362675666809082 1.5506615638732910156 1.5526723861694335938 1.7561638355255126953 2.1349871158599853516 2.0823218822479248047 2.2274243831634521484 2.1772162914276123047 2.2250058650970458984 2.3850414752960205078 1.9748624563217163086 1.9684058427810668945 1.9748997688293457031 1.9551650285720825195 2.3205208778381347656 1.6659474372863769531 1.7684587240219116211 2.2452807426452636719 2.0334110260009765625 1.9180684089660644531 1.8042382001876831055 2.1557331085205078125 2.1215984821319580078 2.1249165534973144531 1.9595371484756469727 2.2218694686889648438 1.7263436317443847656 1.5580816268920898438 1.7594064474105834961 2.4201614856719970703 2.1755659580230712891 2.8107721805572509766 1.5960541963577270508 2.5140225887298583984 2.2613875865936279297 2.0821866989135742188 3.1418581008911132813 2.9464316368103027344 2.5735263824462890625 2.7072679996490478516 2.1122481822967529297 2.3317611217498779297 3.2591080665588378906 2.4162981510162353516 3.3384144306182861328 3.1086275577545166016 2.7957999706268310547 2.6660420894622802734 3.2295308113098144531 2.7510449886322021484 3.0449185371398925781 1.9101182222366333008 2.0071737766265869141 1.5415334701538085938 1.9972989559173583984 2.1597521305084228516 1.9312839508056640625 1.6039005517959594727 1.7754449844360351563 1.4838255643844604492 1.5386499166488647461 1.4586597681045532227 1.6457532644271850586 2.1838517189025878906 1.7573640346527099609 2.2599439620971679688 1.9928058385848999023 1.1068385839462280273 2.4208209514617919922 1.6249076128005981445 2.0125641822814941406 1.6417003870010375977 2.1083528995513916016 2.2895319461822509766 2.7122361660003662109 2.3303496837615966797 2.4762263298034667969 2.9654192924499511719 2.1150979995727539063 2.56908416748046875 2.2177741527557373047 2.0935127735137939453 2.3100402355194091797 2.5534250736236572266 2.7893912792205810547 2.50511932373046875 2.1262860298156738281 2.3503963947296142578 2.7376852035522460938 2.72948455810546875 2.6158051490783691406 2.5672566890716552734 2.4603397846221923828 3.3547039031982421875 3.1120486259460449219 2.7993283271789550781 3.0988078117370605469 2.9504449367523193359 2.8757917881011962891 3.4376285076141357422 3.5179014205932617188 2.7374148368835449219 2.8306250572204589844 3.0458557605743408203 2.7641031742095947266 3.0898029804229736328 4.2741746902465820313 3.8365657329559326172 3.9497590065002441406 3.0300602912902832031 2.5502443313598632813 3.6785833835601806641 3.2717635631561279297 4.0941357612609863281 3.6304187774658203125 3.9331872463226318359 3.6125884056091308594 2.8251359462738037109 2.9152224063873291016 3.3142559528350830078 3.1090970039367675781 2.9534423351287841797 2.4078309535980224609 2.1974096298217773438 1.6987600326538085938 2.3179829120635986328 1.7987961769104003906 2.2148025035858154297 1.3068178892135620117 1.8446726799011230469 1.2436101436614990234 2.2347033023834228516 2.0113215446472167969 2.1277778148651123047 2.1335785388946533203 2.2458796501159667969 2.4759016036987304688 1.935984492301940918 1.5930023193359375 1.9312839508056640625 1.794472813606262207 1 1 1.1659885644912719727 1.5985388755798339844 1.7754449844360351563 1 1 1 1 1.1712651252746582031 1.2118371725082397461 2.048839569091796875 1 1.7561491727828979492 1.1653940677642822266 1 1.5386499166488647461 2.0718338489532470703 2.4995641708374023438 1.5386499166488647461 1.2563434839248657227 1.3106701374053955078 1.7153789997100830078 1 1.3397669792175292969 1.7573640346527099609 2.3035907745361328125 1.535143733024597168 2.4608211517333984375 2.5851216316223144531 2.4917998313903808594 2.853565216064453125 3.3069407939910888672 3.0895092487335205078 3.8867423534393310547 3.909149169921875 3.4182846546173095703 3.4118969440460205078 2.9861369132995605469 2.6349561214447021484 3.1340112686157226563 2.2152664661407470703 2.5399761199951171875 3.5613646507263183594 2.7599091529846191406 2.9906117916107177734 2.3263890743255615234 2.2129352092742919922 2.5562551021575927734 2.0851266384124755859 2.0549323558807373047 1.5185278654098510742 2.0399539470672607422 1.992415308952331543 1.8267804384231567383 
1.4145734310150146484 2.5401778221130371094 1.7303256988525390625 1.6390461921691894531 2.0274183750152587891 2.0127167701721191406 1.7855463027954101563 1.6451152563095092773 1.6874414682388305664 2.5035345554351806641 1.9551650285720825195 2.0327534675598144531 2.2128419876098632813 2.3406302928924560547 2.2469816207885742188 2.3164141178131103516 2.3030304908752441406 2.1677622795104980469 1.7345983982086181641 1.4373646974563598633 1.6727095842361450195 1.8756515979766845703 2.1673002243041992188 2.2888703346252441406 1.6504133939743041992 2.3967502117156982422 2.1471767425537109375 2.4853465557098388672 2.6325068473815917969 2.4919848442077636719 2.8552126884460449219 1.9604032039642333984 1.9707937240600585938 1.6341027021408081055 2.6843645572662353516 2.6505751609802246094 2.9438636302947998047 3.0037305355072021484 2.8417706489562988281 2.6250040531158447266 2.5723690986633300781 3.1703138351440429688 3.2386417388916015625 3.5743603706359863281 2.0369930267333984375 1.7356169223785400391 2.2835078239440917969 1.8276441097259521484 2.310504913330078125 2.3733654022216796875 2.0483696460723876953 2.7308173179626464844 3.3991796970367431641 2.7333745956420898438 2.5248906612396240234 2.7592709064483642578 1.438785552978515625 2.4187915325164794922 2.2843008041381835938 1.070923924446105957 2.1219048500061035156 1.0070079565048217773 1.0201439857482910156 2.6519815921783447266 1.1584376096725463867 1.4838255643844604492 2.0718338489532470703 1.1584376096725463867 1.6069290637969970703 1.443343043327331543 1.5782312154769897461 1.4810980558395385742 1.5920536518096923828 2.1404783725738525391 2.1502091884613037109 1.5759333372116088867 1.6678700447082519531 1.9134302139282226563 2.0733709335327148438 2.2850253582000732422 2.04701995849609375 2.3140676021575927734 2.216640472412109375 2.5855591297149658203 1.9092957973480224609 2.2587347030639648438 2.3477675914764404297 3.1651873588562011719 2.7251806259155273438 2.5626549720764160156 2.6382274627685546875 2.4854569435119628906 2.9403386116027832031 2.4057309627532958984 2.2896926403045654297 2.8115668296813964844 2.9762620925903320313 3.0778756141662597656 2.8362262248992919922 2.8529288768768310547 2.7370588779449462891 2.7846252918243408203 2.8905346393585205078 3.3048148155212402344 3.0559229850769042969 2.7360405921936035156 2.5874052047729492188 2.4591956138610839844 2.7090358734130859375 4.0217742919921875 3.5530548095703125 2.8549828529357910156 4.0152268409729003906 3.5159840583801269531 3.1464293003082275391 3.5581953525543212891 3.4697442054748535156 3.8967492580413818359 4.0289092063903808594 3.4838404655456542969 2.9878609180450439453 3.3641924858093261719 3.3187708854675292969 2.8524234294891357422 3.4146668910980224609 2.6068565845489501953 2.5915975570678710938 2.6328153610229492188 2.2098662853240966797 2.4209153652191162109 1.9216758012771606445 1.6496623754501342773 2.2005391120910644531 1.8590418100357055664 1.0104773044586181641 2.5531184673309326172 2.5803754329681396484 1.1584376096725463867 2.4919273853302001953 1.5539511442184448242 1.9475586414337158203 2.6589722633361816406 1.9704641103744506836 1.2221889495849609375 2.2424716949462890625 2.1110303401947021484 1.420632481575012207 1.6161748170852661133 1.0201439857482910156 2.0012090206146240234 1.6230274438858032227 1.2716739177703857422 2.0301828384399414063 1.2126379013061523438 1 1 1 2.3851757049560546875 1 1.1806674003601074219 1.0201439857482910156 1.6230274438858032227 1.7573640346527099609 1.9842832088470458984 2.4995641708374023438 1.7573640346527099609 1.5244326591491699219 1 1.1291054487228393555 1.7827785015106201172 1.9541169404983520508 1.2067019939422607422 1.0819288492202758789 1.9604239463806152344 2.3840382099151611328 2.3691434860229492188 3.7475023269653320313 2.3341269493103027344 2.6206543445587158203 2.9355645179748535156 3.3334729671478271484 4.2429761886596679688 2.9358038902282714844 2.4756574630737304688 2.5569353103637695313 2.8690583705902099609 2.4554860591888427734 2.2198100090026855469 3.0460410118103027344 2.8639211654663085938 2.8429656028747558594 1.7272953987121582031 2.1938748359680175781 1.8491487503051757813 1.9625012874603271484 2.1456151008605957031 2.4167027473449707031 1.6387563943862915039 1.9877982139587402344 1.9529899358749389648 
1 1.5014295578002929688 1.423244476318359375 1.7024524211883544922 2.1175382137298583984 2.0468227863311767578 2.3639476299285888672 2.4039587974548339844 1.6727095842361450195 2.1068089008331298828 2.1846990585327148438 2.11908721923828125 2.0599877834320068359 2.0558977127075195313 2.0458428859710693359 1.7742824554443359375 1.6991250514984130859 1.7175267934799194336 1.9814459085464477539 1.6997245550155639648 1.6661223173141479492 1.5205533504486083984 2.0127167701721191406 1.6095552444458007813 1.2022141218185424805 1.7573177814483642578 2.1514675617218017578 2.3697731494903564453 1.6564840078353881836 2.2567145824432373047 2.4016926288604736328 3.1076998710632324219 2.1069116592407226563 2.1475477218627929688 2.6963405609130859375 2.4108119010925292969 2.6101160049438476563 2.9793336391448974609 2.4033761024475097656 2.3495023250579833984 2.8417980670928955078 2.4211647510528564453 3.3115172386169433594 3.5929338932037353516 2.7871520519256591797 3.024829864501953125 1.8717203140258789063 3.3330757617950439453 2.9044358730316162109 3.3706827163696289063 2.5458967685699462891 3.2663228511810302734 2.8298785686492919922 2.3301262855529785156 2.7840528488159179688 2.6854641437530517578 2.7621045112609863281 1.7199007272720336914 2.0781404972076416016 2.1264262199401855469 1.3820184469223022461 1 1.8470424413681030273 1.3718758821487426758 1.3820184469223022461 1.1745371818542480469 2.2336819171905517578 1.6546937227249145508 1 2.1081774234771728516 1.3647191524505615234 1.005570530891418457 1.7929273843765258789 2.29352569580078125 2.2617380619049072266 1.3139096498489379883 1.6437675952911376953 2.0809252262115478516 2.3298926353454589844 2.3927469253540039063 2.3040859699249267578 2.2217268943786621094 2.3113088607788085938 1.7467989921569824219 1.9184843301773071289 2.0388903617858886719 2.7413690090179443359 2.6015760898590087891 2.5080215930938720703 2.6694631576538085938 2.9071352481842041016 2.6853139400482177734 2.5129048824310302734 2.2744209766387939453 2.3271701335906982422 2.7206943035125732422 2.8590719699859619141 2.2867248058319091797 2.772247314453125 2.3333775997161865234 2.2602818012237548828 3.2029922008514404297 3.1366565227508544922 3.3278326988220214844 3.2918562889099121094 3.2064723968505859375 2.3913941383361816406 2.7389802932739257813 2.8766851425170898438 3.0024356842041015625 3.0840640068054199219 3.3956313133239746094 3.2287564277648925781 2.8062446117401123047 3.2974541187286376953 3.5597450733184814453 2.7343266010284423828 4.2546243667602539063 4.135250091552734375 4.0509810447692871094 3.9136638641357421875 4.1287140846252441406 3.6004555225372314453 2.8424913883209228516 3.2168979644775390625 2.8927969932556152344 2.4116842746734619141 3.0038444995880126953 3.3887608051300048828 2.240325927734375 1 2.2620427608489990234 3.0270669460296630859 3.5819888114929199219 2.3082518577575683594 2.7102806568145751953 2.2758576869964599609 2.5224611759185791016 2.440521240234375 2.54241180419921875 2.2410995960235595703 2.7662203311920166016 1.7629064321517944336 2.1418211460113525391 1.0786687135696411133 1.2349509000778198242 1 2.0997419357299804688 1.1806674003601074219 2.0812642574310302734 2.6519815921783447266 1.3469767570495605469 1.2314015626907348633 1.3080642223358154297 1 1.1302753686904907227 1.2386783361434936523 1 1 1.224240422248840332 1.8076318502426147461 1.3522214889526367188 1 1.7506655454635620117 1.4390410184860229492 1.7243165969848632813 1.1507860422134399414 1 1.4267956018447875977 2.2647311687469482422 1.1322900056838989258 1.6888211965560913086 1.2233873605728149414 2.7366094589233398438 2.5000455379486083984 2.6826655864715576172 3.0121114253997802734 3.1445062160491943359 2.5106425285339355469 1.8052191734313964844 2.9768006801605224609 3.47737884521484375 2.4221646785736083984 2.2060098648071289063 2.1803536415100097656 2.3752672672271728516 2.9614202976226806641 2.4308023452758789063 2.9598228931427001953 2.4473516941070556641 2.9284031391143798828 2.0567638874053955078 2.1996490955352783203 2.0800323486328125 2.2982509136199951172 1.9194396734237670898 1.8450835943222045898 1.7913291454315185547 1.932238459587097168 2.3422374725341796875 
2.1652874946594238281 2.3210537433624267578 1.6399793624877929688 1.5921403169631958008 1.5008022785186767578 1.1055738925933837891 2.2765972614288330078 2.0601933002471923828 2.2301514148712158203 2.4125647544860839844 2.4664065837860107422 2.0512804985046386719 1.9132896661758422852 1.7248271703720092773 2.1750166416168212891 1.6037082672119140625 2.0835025310516357422 1.924473881721496582 1.8738145828247070313 1.8267656564712524414 1.8738729953765869141 2.1092691421508789063 1.71669769287109375 1.35599517822265625 1.6346521377563476563 2.2161629199981689453 1.6170716285705566406 1.994107365608215332 2.3056569099426269531 2.1847519874572753906 1.9686971902847290039 2.0978667736053466797 1.645563960075378418 1.9726603031158447266 2.1134934425354003906 2.1921606063842773438 2.3940041065216064453 3.0770285129547119141 3.0950186252593994141 3.6304776668548583984 2.6133580207824707031 3.3241076469421386719 3.4977295398712158203 3.5630323886871337891 2.9952936172485351563 2.5390446186065673828 3.2832598686218261719 2.7398579120635986328 1.9666898250579833984 3.2480394840240478516 3.3105428218841552734 2.3954987525939941406 2.0151071548461914063 3.1545536518096923828 1 2.1915898323059082031 1.4951194524765014648 2.1490437984466552734 1.9630458354949951172 1.4172956943511962891 1.3522214889526367188 1.5601974725723266602 1.161060333251953125 2.0051195621490478516 1.5037115812301635742 1.7333734035491943359 1 1 2.0812642574310302734 1 1.2058587074279785156 1.9421523809432983398 2.6327524185180664063 2.0429468154907226563 1.4738787412643432617 2.177524566650390625 1.0784714221954345703 2.1219685077667236328 2.1035604476928710938 1.6347222328186035156 2.0139496326446533203 2.1296367645263671875 2.0558719635009765625 1.9141784906387329102 2.0887699127197265625 1.7994453907012939453 2.4965944290161132813 2.6847524642944335938 2.3970265388488769531 2.7708051204681396484 2.8563599586486816406 2.6165575981140136719 2.5953669548034667969 2.7997655868530273438 2.4499268531799316406 2.6660110950469970703 2.80251312255859375 2.9437606334686279297 2.3701910972595214844 2.7605686187744140625 2.4378230571746826172 3.0313754081726074219 3.4329581260681152344 2.701690673828125 3.2389957904815673828 2.6843550205230712891 2.2759144306182861328 2.7275433540344238281 2.6074984073638916016 2.8672530651092529297 2.3969438076019287109 3.7297070026397705078 2.5876507759094238281 2.3543956279754638672 2.7831652164459228516 3.203304290771484375 3.8806350231170654297 3.9987947940826416016 4.5642237663269042969 3.7683708667755126953 4.2226467132568359375 3.7884047031402587891 3.5514698028564453125 3.0603606700897216797 3.4681577682495117188 3.0210392475128173828 2.3998498916625976563 2.1442890167236328125 2.4888670444488525391 2.3848731517791748047 2.1439356803894042969 3.1167972087860107422 2.6452493667602539063 2.4262721538543701172 3.2606484889984130859 3.1379532814025878906 2.8712458610534667969 3.0875139236450195313 2.8314297199249267578 1.6771438121795654297 2.7013428211212158203 2.4344506263732910156 1.7246726751327514648 2.6613962650299072266 1.3890067338943481445 1.9236534833908081055 1 1.7561491727828979492 1.315482020378112793 1.8512506484985351563 1 1 1.3522214889526367188 1 1.1806674003601074219 2.1179404258728027344 1.7561491727828979492 1.224240422248840332 1 1.2333718538284301758 1 1.0590193271636962891 1.8076318502426147461 1 1.9541169404983520508 1.9653078317642211914 1.822552800178527832 2.2193474769592285156 1.0762324333190917969 1.9902595281600952148 1.6379059553146362305 1.9662173986434936523 2.7434489727020263672 2.2593252658843994141 2.4622826576232910156 2.8405175209045410156 2.7032001018524169922 2.5652012825012207031 2.5873148441314697266 2.5441172122955322266 2.5726304054260253906 2.6332583427429199219 2.4755682945251464844 2.3319835662841796875 1.6072711944580078125 2.5018241405487060547 3.1085205078125 3.1033062934875488281 2.6868369579315185547 2.8962860107421875 2.3488612174987792969 2.4730234146118164063 2.3386111259460449219 2.7149922847747802734 2.8274621963500976563 1.9190279245376586914 2.2472777366638183594 2.020145416259765625 2.1918084621429443359 1.9132896661758422852 
2.0122745037078857422 1.070923924446105957 2.2950191497802734375 1.24103546142578125 1.8019630908966064453 2.0751657485961914063 1.8143736124038696289 2.0631687641143798828 1.9946200847625732422 1.7038948535919189453 2.2204563617706298828 1.999837040901184082 2.5394043922424316406 2.1599016189575195313 2.1537959575653076172 2.1619575023651123047 2.3100719451904296875 2.1295001506805419922 2.3557076454162597656 1.9711018800735473633 2.177524566650390625 1.6916272640228271484 1.8257665634155273438 1.5152238607406616211 1.7271199226379394531 2.2695913314819335938 1.9841175079345703125 1.7722461223602294922 2.7496588230133056641 2.5003149509429931641 2.1358721256256103516 2.2343575954437255859 2.0127167701721191406 1.9287371635437011719 2.5376980304718017578 2.5099513530731201172 1.8448770046234130859 2.2707803249359130859 2.4379699230194091797 3.4402213096618652344 3.7266151905059814453 3.4720454216003417969 3.1225974559783935547 2.3716561794281005859 2.0337462425231933594 3.0936288833618164063 2.8486268520355224609 3.453914642333984375 3.9034092426300048828 1.8687061071395874023 3.4251799583435058594 2.6329813003540039063 1.752689361572265625 1.6412997245788574219 1.2898446321487426758 1.7011463642120361328 1.1582558155059814453 1.3267627954483032227 2.3440215587615966797 1.7165768146514892578 1 1.9842832088470458984 1.4098987579345703125 1.0514827966690063477 1.1302753686904907227 1.1302753686904907227 1 2.3851757049560546875 1.2459125518798828125 1 1.7374097108840942383 1.1642774343490600586 2.3393521308898925781 2.0127167701721191406 2.0788772106170654297 1.8226472139358520508 1.4055457115173339844 1.5196694135665893555 2.3086981773376464844 1.7647114992141723633 1.3459030389785766602 1.8976502418518066406 1.8139704465866088867 2.1012828350067138672 1.9285573959350585938 1.7263484001159667969 1.8738729953765869141 2.9745631217956542969 3.0354533195495605469 2.4977736473083496094 2.5951695442199707031 2.7478411197662353516 2.6078648567199707031 2.2860341072082519531 2.7965018749237060547 2.6958281993865966797 2.8254160881042480469 2.7549805641174316406 3.2258822917938232422 2.7907476425170898438 3.0221688747406005859 3.1905064582824707031 2.2394685745239257813 2.680248260498046875 2.4986853599548339844 2.9928624629974365234 2.5090730190277099609 2.7882776260375976563 2.7867288589477539063 2.6872000694274902344 2.1145079135894775391 2.6265997886657714844 2.8856859207153320313 2.2327866554260253906 2.0882015228271484375 2.8054816722869873047 3.8163387775421142578 3.437957763671875 3.8781311511993408203 4.1647057533264160156 3.9210441112518310547 3.7649407386779785156 2.7207968235015869141 3.8280262947082519531 2.9630978107452392578 3.4578762054443359375 3.0092427730560302734 2.7770440578460693359 2.2653779983520507813 3.0578072071075439453 2.4912517070770263672 3.0033056735992431641 1.6644510030746459961 1.5451819896697998047 3.0839831829071044922 3.4544193744659423828 2.6677196025848388672 2.6894459724426269531 1.944253087043762207 2.3607087135314941406 2.05352783203125 2.24053955078125 2.1586565971374511719 1.9881393909454345703 1.8695944547653198242 2.4504714012145996094 1 1 1.3080642223358154297 1.1291054487228393555 1 1.8048930168151855469 1.3367605209350585938 2.4995641708374023438 1 1.2118371725082397461 1 1.1291054487228393555 2.6519815921783447266 1 1.1806674003601074219 2.4995641708374023438 1.5738985538482666016 2.1652874946594238281 1.5963904857635498047 2.3409419059753417969 2.4187915325164794922 1.174445033073425293 2.2895026206970214844 1.8689943552017211914 1.7573640346527099609 1.540194392204284668 2.0003993511199951172 2.2171571254730224609 3.2483227252960205078 3.3274374008178710938 2.9178965091705322266 2.6103982925415039063 2.6303436756134033203 2.1662192344665527344 2.9239754676818847656 1.939744114875793457 3.0728871822357177734 2.2094557285308837891 1.7439372539520263672 1.8343057632446289063 3.04190826416015625 2.4007270336151123047 3.0710537433624267578 2.1868386268615722656 2.8977892398834228516 3.0885703563690185547 2.4240007400512695313 2.325801849365234375 2.1999673843383789063 1.962168574333190918 1.9810020923614501953 1.7946562767028808594 2.3602967262268066406 2.4388840198516845703 
1.7024524211883544922 1.8111683130264282227 2.0901858806610107422 1.5328675508499145508 2.3451261520385742188 1.264880061149597168 2.7931470870971679688 2.1292901039123535156 2.0871484279632568359 1.8189508914947509766 2.3802862167358398438 1.6791727542877197266 2.4153227806091308594 2.3370058536529541016 1.9620341062545776367 2.0011782646179199219 2.5546336174011230469 1.9964157342910766602 1.8385351896286010742 1.5682086944580078125 1.9683852195739746094 1.7561638355255126953 1.3714832067489624023 1.7424968481063842773 1.6474436521530151367 2.3655214309692382813 1.0808541774749755859 2.59869384765625 2.9784953594207763672 1.7130469083786010742 1.9095475673675537109 2.4959454536437988281 2.1712090969085693359 1.4249728918075561523 2.3487279415130615234 2.2563838958740234375 2.0359015464782714844 2.3823561668395996094 2.9545445442199707031 3.0060582160949707031 2.4021210670471191406 2.7773241996765136719 2.3921175003051757813 2.6345293521881103516 2.0971245765686035156 1.4587397575378417969 1.6316609382629394531 2.0060036182403564453 2.2141239643096923828 2.9592640399932861328 2.5893988609313964844 2.0672600269317626953 1.4327244758605957031 2.4892802238464355469 1.2209074497222900391 1.5461615324020385742 1.5246537923812866211 1 1 2.1110303401947021484 1 1.7810119390487670898 1.1806674003601074219 2.05175018310546875 1 2.048839569091796875 1 1.4034458398818969727 1.7333734035491943359 1 1.9747595787048339844 1 1.9903494119644165039 1.2743868827819824219 1.7742806673049926758 1.7023129463195800781 1.3448958396911621094 2.1331670284271240234 1 1.3661866188049316406 1.4629825353622436523 1.0808541774749755859 1.5849514007568359375 2.0592467784881591797 1.9441045522689819336 2.52764129638671875 1.774340510368347168 2.0952527523040771484 2.933727264404296875 2.4025135040283203125 2.5420758724212646484 2.4176688194274902344 3.1812460422515869141 2.8714878559112548828 2.7372057437896728516 2.3787910938262939453 2.9432399272918701172 3.0695497989654541016 2.8366920948028564453 2.9339625835418701172 2.9179785251617431641 2.5261938571929931641 2.3579452037811279297 2.867420196533203125 2.5892071723937988281 2.2530229091644287109 2.3556606769561767578 2.7427041530609130859 2.4554784297943115234 2.5500924587249755859 2.8820278644561767578 2.2426156997680664063 2.8631575107574462891 1.9771471023559570313 2.7137711048126220703 2.5937035083770751953 3.5297861099243164063 3.2616827487945556641 4.2793951034545898438 4.11336517333984375 3.8579192161560058594 3.8022587299346923828 2.5518679618835449219 2.8139977455139160156 3.1749010086059570313 3.5681645870208740234 2.0287847518920898438 2.5092310905456542969 2.4497461318969726563 3.3075399398803710938 2.9045307636260986328 2.6587405204772949219 2.0830912590026855469 2.9957728385925292969 3.8772017955780029297 3.0686266422271728516 3.0523386001586914063 3.2545588016510009766 2.5692822933197021484 1.6052914857864379883 2.5463192462921142578 1.4601274728775024414 1.6269979476928710938 2.5209143161773681641 2.6218390464782714844 1.9034658670425415039 1 1.0072821378707885742 1 1.1983001232147216797 1.351271510124206543 1.3522214889526367188 1.3862323760986328125 1.1553331613540649414 1.8076318502426147461 1.1747975349426269531 1 1 2.3200678825378417969 1 1 1 1.5213490724563598633 1.7827785015106201172 1.0428711175918579102 1.8299716711044311523 1.7024524211883544922 2.6999742984771728516 1.4145734310150146484 1.3267627954483032227 1.8916822671890258789 2.6068623065948486328 2.1511423587799072266 1.9717092514038085938 2.8300685882568359375 2.8408262729644775391 2.1861693859100341797 2.0260598659515380859 2.95003509521484375 3.0419926643371582031 3.0407862663269042969 3.0099668502807617188 1.6165152788162231445 2.4036712646484375 2.4763152599334716797 1.3971909284591674805 2.6480581760406494141 2.5920264720916748047 2.5280308723449707031 3.0262835025787353516 2.3831791877746582031 2.5404217243194580078 2.5775682926177978516 2.2169282436370849609 2.5471506118774414063 1.819676518440246582 2.0975174903869628906 1.8409672975540161133 1.7091883420944213867 2.4920194149017333984 
2.2933716773986816406 1.9317059516906738281 2.1208782196044921875 2.2680051326751708984 2.2936544418334960938 2.0428922176361083984 2.035366058349609375 2.2932515144348144531 2.1271069049835205078 2.2851812839508056641 2.0718221664428710938 2.0713891983032226563 1.5400704145431518555 2.0695698261260986328 2.219146728515625 2.1180784702301025391 2.2903087139129638672 2.0825550556182861328 2.1769475936889648438 1.5705711841583251953 2.3594293594360351563 2.4974853992462158203 1.6089049577713012695 1.8725504875183105469 1.892476201057434082 2.0979559421539306641 2.3633646965026855469 1.8249750137329101563 2.529552459716796875 1.8567234277725219727 1.8580389022827148438 2.0391635894775390625 2.0450944900512695313 1.9171707630157470703 2.261470794677734375 2.5592567920684814453 2.797580718994140625 3.0814936161041259766 2.9466755390167236328 2.7121548652648925781 2.5692744255065917969 2.4700644016265869141 2.4254190921783447266 1.435321807861328125 1.8730657100677490234 1.1258627176284790039 1.443274378776550293 2.2367613315582275391 1.224240422248840332 2.4031398296356201172 2.2873597145080566406 2.1834857463836669922 3.0958955287933349609 1.5437514781951904297 1 1.8615459203720092773 1 1.7333734035491943359 1.420632481575012207 2.5925157070159912109 1 1 1 1 1.2190240621566772461 1.1653940677642822266 1 1.7561491727828979492 1 1 1.5985388755798339844 1.6955734491348266602 1.9112893342971801758 2.1466023921966552734 2.2617380619049072266 2.899753570556640625 1.9235898256301879883 1.6136653423309326172 1.9043904542922973633 1.7573640346527099609 2.0334074497222900391 1.3647191524505615234 1.1700326204299926758 2.1511733531951904297 2.4517693519592285156 2.2732839584350585938 2.5272157192230224609 2.2869458198547363281 2.4838786125183105469 2.5178821086883544922 2.6407263278961181641 2.8277392387390136719 3.0740680694580078125 2.6670191287994384766 3.1985604763031005859 2.4761004447937011719 2.5674149990081787109 2.5929226875305175781 2.3700757026672363281 2.8116502761840820313 2.3859136104583740234 1.880389094352722168 2.6241934299468994141 2.48126983642578125 2.5985486507415771484 2.347808837890625 2.8008387088775634766 2.7921772003173828125 2.5090818405151367188 2.1590518951416015625 3.3744633197784423828 2.8345835208892822266 2.5779430866241455078 2.800350189208984375 2.6832334995269775391 2.9917893409729003906 3.4129188060760498047 3.3069610595703125 3.2491905689239501953 3.7054345607757568359 3.7520387172698974609 2.7387187480926513672 2.8222370147705078125 3.1053817272186279297 2.5907161235809326172 2.3823134899139404297 2.1747345924377441406 2.1310343742370605469 2.8753349781036376953 1.747752070426940918 3.0124392509460449219 3.4706027507781982422 2.9106044769287109375 2.6803798675537109375 3.2261376380920410156 3.9756937026977539063 2.9052879810333251953 2.1586234569549560547 1.8488658666610717773 2.1220312118530273438 1.9101984500885009766 2.1319501399993896484 2.2215712070465087891 1.6171038150787353516 3.12883758544921875 2.0783851146697998047 1.0201439857482910156 1.9573105573654174805 1.302908778190612793 1.9955966472625732422 1.8810631036758422852 1.5303548574447631836 1.6660790443420410156 3.1924912929534912109 2.0478572845458984375 2.0464150905609130859 1 2.0657415390014648438 1.3367605209350585938 1 1.224343419075012207 1 2.4995641708374023438 2.2895026206970214844 1.5689965486526489258 1.9902595281600952148 1 1.0787590742111206055 1.6770482063293457031 1.7898404598236083984 2.1987483501434326172 2.4203400611877441406 1.1584376096725463867 1.3631190061569213867 2.0525152683258056641 2.3959290981292724609 2.4100759029388427734 2.6052527427673339844 2.6144561767578125 3.1661005020141601563 2.8961529731750488281 2.2134995460510253906 1.3350964784622192383 2.1906254291534423828 2.4187915325164794922 1.7560793161392211914 2.0265269279479980469 2.3820719718933105469 2.3509047031402587891 2.7043063640594482422 2.2414352893829345703 2.1880025863647460938 2.6613914966583251953 1.7576485872268676758 2.1009640693664550781 2.3612616062164306641 2.1201825141906738281 1.8738729953765869141 1.8319594860076904297 2.1506464481353759766 
1.5324690341949462891 2.4019019603729248047 1.8216260671615600586 1.8506189584732055664 1.6925400495529174805 2.4680306911468505859 2.0814359188079833984 2.2019929885864257813 2.0960001945495605469 2.054195404052734375 2.3356251716613769531 2.4147715568542480469 2.2118618488311767578 2.263214111328125 2.1507258415222167969 2.1595294475555419922 2.4291160106658935547 2.0126132965087890625 1.8174240589141845703 2.2863085269927978516 2.054195404052734375 2.4627845287322998047 2.2381908893585205078 2.4377191066741943359 1.4573739767074584961 2.2067928314208984375 2.2773013114929199219 2.4512472152709960938 2.5727107524871826172 2.2718627452850341797 1.9165422916412353516 2.0559399127960205078 1.8852565288543701172 2.2196848392486572266 2.5279762744903564453 2.4613087177276611328 2.2534754276275634766 2.1555581092834472656 3.0636799335479736328 2.5160844326019287109 1.2349090576171875 1.9043904542922973633 1 1 1.7333734035491943359 1 1.1291054487228393555 1 1.3012075424194335938 2.2991421222686767578 3.4399309158325195313 1.3897491693496704102 2.3904364109039306641 1.8076318502426147461 1.2716739177703857422 1.3456426858901977539 1.5037115812301635742 1 1.0115836858749389648 1.1812468767166137695 1 1 1 1 1 1.4198118448257446289 1.3862323760986328125 1.8076318502426147461 1.1291054487228393555 1.0072821378707885742 1.3397669792175292969 1.3469767570495605469 1.887477874755859375 2.0297553539276123047 1.6249076128005981445 2.1151719093322753906 2.2895026206970214844 2.2065384387969970703 1.4190089702606201172 1.4561089277267456055 1.2205873727798461914 1.6518038511276245117 2.1466023921966552734 2.3165283203125 2.1931531429290771484 2.1808469295501708984 2.5828359127044677734 1.9212660789489746094 2.2896392345428466797 2.6265809535980224609 2.4741818904876708984 2.6728727817535400391 2.7528898715972900391 3.3252592086791992188 2.6727466583251953125 2.5335934162139892578 2.2489261627197265625 2.4837534427642822266 2.3380694389343261719 2.2966732978820800781 2.1052463054656982422 2.2599103450775146484 2.200527191162109375 2.3290016651153564453 2.5321052074432373047 2.7011365890502929688 2.3144276142120361328 2.8296582698822021484 2.4311203956604003906 2.2190999984741210938 2.7948565483093261719 2.8202116489410400391 2.5113034248352050781 2.7746558189392089844 2.9553134441375732422 3.1343128681182861328 3.7509799003601074219 3.5566534996032714844 3.9828956127166748047 4.2557506561279296875 2.374027252197265625 2.9225666522979736328 3.4600267410278320313 2.0785076618194580078 2.9027490615844726563 3.0047216415405273438 2.3050086498260498047 1.7475732564926147461 2.7383706569671630859 2.7302067279815673828 2.7040820121765136719 2.5132603645324707031 1.6806828975677490234 2.6731371879577636719 2.1477222442626953125 2.8369696140289306641 1.8290860652923583984 3.1601235866546630859 2.1665308475494384766 1.4364380836486816406 1.792269587516784668 2.5603697299957275391 1.4420646429061889648 2.492702484130859375 1 1.9987484216690063477 1.975403904914855957 1.3773931264877319336 1.9421523809432983398 1.1646089553833007813 1.7020944356918334961 1.8299716711044311523 1.3634083271026611328 2.4283478260040283203 1.6059943437576293945 1.7271625995635986328 1.607577204704284668 1.7920958995819091797 1.9374363422393798828 2.7142176628112792969 1.222319483757019043 1 2.0718338489532470703 1 1.5937762260437011719 1 1.9620591402053833008 2.1181714534759521484 1.2067019939422607422 1.738335728645324707 2.1770441532135009766 2.238018035888671875 1.6133795976638793945 2.4720168113708496094 2.3528592586517333984 3.3934407234191894531 2.4319958686828613281 2.7172863483428955078 3.0388660430908203125 1.9740875959396362305 2.1969094276428222656 2.3959109783172607422 1.6854215860366821289 1.3699178695678710938 1.6714000701904296875 2.0115804672241210938 1.9717401266098022461 1.9519530534744262695 1.9592634439468383789 1.9545022249221801758 2.0157299041748046875 2.2536637783050537109 2.0556991100311279297 2.0340096950531005859 1.9391458034515380859 2.0243570804595947266 2.4188644886016845703 2.0996785163879394531 2.2182526588439941406 2.3570802211761474609 
1.3539056777954101563 1.4407058954238891602 2.0000224113464355469 2.5016241073608398438 1.9391775131225585938 2.3104512691497802734 2.5797631740570068359 2.403125762939453125 2.0978245735168457031 2.6450624465942382813 2.1461036205291748047 2.3189530372619628906 1.9165874719619750977 2.4748687744140625 2.0199642181396484375 2.3102591037750244141 2.4005370140075683594 2.3760273456573486328 1.7690217494964599609 2.7605075836181640625 2.5111634731292724609 2.6228795051574707031 1.7160065174102783203 2.1945717334747314453 2.6884610652923583984 2.0892682075500488281 2.6407287120819091797 1.8412595987319946289 2.0339457988739013672 2.7034769058227539063 2.24323272705078125 1.547855377197265625 2.4208209514617919922 2.1139822006225585938 2.0565021038055419922 2.147464752197265625 2.2510180473327636719 2.6061468124389648438 2.24669647216796875 2.3610045909881591797 1.9603191614151000977 1.8578115701675415039 2.1179404258728027344 1.224240422248840332 1 1.2118371725082397461 1.3495311737060546875 1 1 1 1 1 2.3257098197937011719 1.0091935396194458008 1 1.4381324052810668945 1 1 1.0122760534286499023 1.0115836858749389648 1 1.2333718538284301758 1 1.1653940677642822266 1.2716739177703857422 1.3236827850341796875 1 1 1 1 1.4142925739288330078 1 1.9261786937713623047 1.4810980558395385742 2.2895026206970214844 2.1151719093322753906 1.9312839508056640625 1.9788885116577148438 2.9520707130432128906 1.1272231340408325195 1.4178849458694458008 1.1184471845626831055 2.0729653835296630859 1.4710280895233154297 2.1963863372802734375 1.1039593219757080078 1.6845636367797851563 2.2964701652526855469 2.2186865806579589844 2.748565673828125 2.9673213958740234375 2.5436227321624755859 2.2733092308044433594 2.7382214069366455078 2.6154463291168212891 2.3986849784851074219 2.06699371337890625 2.2865290641784667969 2.1694724559783935547 2.049083709716796875 2.4301128387451171875 2.48360443115234375 2.4606146812438964844 3.1117951869964599609 2.6261105537414550781 2.9121959209442138672 2.2920191287994384766 2.7182936668395996094 2.5248777866363525391 2.3945548534393310547 2.4469237327575683594 2.7552568912506103516 2.12918853759765625 2.5196902751922607422 2.7909326553344726563 3.1984477043151855469 3.1870851516723632813 3.0725769996643066406 2.8444795608520507813 3.6936261653900146484 3.4863908290863037109 3.4999058246612548828 2.8186631202697753906 2.49291229248046875 1.8427993059158325195 2.5481085777282714844 2.5219948291778564453 1.5249080657958984375 1.3909575939178466797 1.3025835752487182617 2.1686165332794189453 2.3131544589996337891 2.6814882755279541016 1.7023600339889526367 2.1999728679656982422 2.8144128322601318359 2.2506630420684814453 2.1790223121643066406 1.0784306526184082031 3.0306317806243896484 3.1640050411224365234 3.0819337368011474609 2.6403417587280273438 2.1244180202484130859 1.3680452108383178711 2.6500105857849121094 2.0882258415222167969 1.6365540027618408203 1.4921509027481079102 1.3267627954483032227 1.6546937227249145508 1.9772305488586425781 2.7709875106811523438 2.7917461395263671875 2.6442515850067138672 3.0188107490539550781 2.402034759521484375 2.4475359916687011719 3.0658764839172363281 1.2843762636184692383 1.3491835594177246094 1.2333718538284301758 1 2.3948893547058105469 1.822552800178527832 1.2145522832870483398 2.6071774959564208984 1.9518280029296875 1.7591135501861572266 2.7991037368774414063 2.3508098125457763672 2.4841339588165283203 2.5566699504852294922 2.7632584571838378906 2.6715400218963623047 3.1936013698577880859 2.4933519363403320313 1.8178192377090454102 3.2561609745025634766 2.2058722972869873047 2.7690355777740478516 1.8278248310089111328 1.7375615835189819336 1.1910370588302612305 1.1317626237869262695 1.8514734506607055664 1.6484192609786987305 2.3474433422088623047 2.3803203105926513672 2.2749495506286621094 2.5158116817474365234 2.5313937664031982422 1.6965062618255615234 2.2978963851928710938 1.8294953107833862305 2.0127167701721191406 1.9031727313995361328 2.2246778011322021484 2.1689944267272949219 2.8202044963836669922 
1.8734831809997558594 2.4125742912292480469 1.9132896661758422852 2.7844815254211425781 2.7025935649871826172 2.39273834228515625 2.4094414710998535156 2.0657057762145996094 2.7495398521423339844 2.6096804141998291016 2.0098328590393066406 2.2904791831970214844 2.3218951225280761719 2.2485482692718505859 2.5869462490081787109 2.5319416522979736328 2.4930856227874755859 2.1872544288635253906 2.5272920131683349609 2.4256114959716796875 2.2103326320648193359 2.097713470458984375 2.1061322689056396484 1.9646033048629760742 2.0715043544769287109 2.1872847080230712891 2.2578568458557128906 2.2305231094360351563 2.2135188579559326172 1.7774014472961425781 2.3014845848083496094 1.8889598846435546875 2.0103261470794677734 1.5798462629318237305 2.0995402336120605469 2.1032314300537109375 2.1781487464904785156 2.5559251308441162109 2.4401755332946777344 1.2376534938812255859 1.8428932428359985352 1.3221335411071777344 2.0334806442260742188 1 1.9560135602951049805 1.4461213350296020508 1.2118371725082397461 1.1653940677642822266 1.1302753686904907227 1 1.1708271503448486328 1 2.0657415390014648438 1.420632481575012207 1 1.1806674003601074219 1.7561491727828979492 1.1653940677642822266 1 1.4034458398818969727 2.3851757049560546875 1.4123321771621704102 1 2.394435882568359375 1 1.8431791067123413086 1.8608592748641967773 1 1.4198118448257446289 1.3322530984878540039 1.1584376096725463867 1.9312839508056640625 1.410937190055847168 1.5734933614730834961 2.1825075149536132813 1.7913167476654052734 1.4838255643844604492 1.6039005517959594727 1.1543920040130615234 1.4759948253631591797 2.0498540401458740234 2.1511733531951904297 2.3847494125366210938 1.4363151788711547852 1 1.7525227069854736328 1.5520135164260864258 1.8485481739044189453 1.9822980165481567383 2.3557906150817871094 2.8046824932098388672 2.0830633640289306641 2.2372601032257080078 2.3130776882171630859 2.393741607666015625 2.0767993927001953125 2.4663710594177246094 2.2311215400695800781 2.1946244239807128906 2.5136494636535644531 2.3583250045776367188 2.4742720127105712891 2.2715394496917724609 2.4562256336212158203 2.7711334228515625 2.5248332023620605469 2.3880710601806640625 2.9993426799774169922 2.4630081653594970703 2.1519587039947509766 2.5448663234710693359 2.2597932815551757813 2.3621728420257568359 3.1453726291656494141 2.9809911251068115234 2.2332227230072021484 2.6881856918334960938 2.5131947994232177734 3.5343022346496582031 3.2740359306335449219 3.4298486709594726563 3.3815510272979736328 2.4068899154663085938 2.8880512714385986328 1.8033726215362548828 2.3968329429626464844 2.7993588447570800781 2.29579925537109375 2.0536828041076660156 2.4560692310333251953 2.8140997886657714844 3.4746108055114746094 2.3102514743804931641 2.7712881565093994141 2.528209686279296875 3.1450622081756591797 2.9763269424438476563 1.9722201824188232422 1.9841479063034057617 2.3140101432800292969 2.1919903755187988281 3.2669053077697753906 2.7419931888580322266 3.8358976840972900391 1.9520307779312133789 2.5156097412109375 2.8611264228820800781 2.3455801010131835938 2.3821468353271484375 1.4689353704452514648 2.4921000003814697266 2.8815433979034423828 2.8787174224853515625 2.4718635082244873047 2.7015297412872314453 1.9508775472640991211 2.2873287200927734375 1 2.0253286361694335938 1.9842832088470458984 1 1 1.5241041183471679688 2.6519815921783447266 1.3221335411071777344 1.0228751897811889648 1.53820037841796875 1.787539362907409668 2.4321339130401611328 2.8274292945861816406 2.0986697673797607422 2.2129571437835693359 2.2060492038726806641 2.0748729705810546875 1.7339658737182617188 2.2307896614074707031 2.8951268196105957031 2.4460453987121582031 2.717754364013671875 2.5016925334930419922 2.1524641513824462891 1.9458011388778686523 1.0753445625305175781 1.5465066432952880859 2.1634585857391357422 1.9747595787048339844 1.5258138179779052734 1.6149404048919677734 1.7979940176010131836 2.1127810478210449219 2.2962970733642578125 2.2204189300537109375 1.35599517822265625 2.4452211856842041016 2.1482396125793457031 1.8831295967102050781 2.4903805255889892578 2.4757938385009765625 2.8568627834320068359 2.3982117176055908203 
2.1762256622314453125 2.1075296401977539063 2.371063232421875 2.3423473834991455078 2.0699810981750488281 2.2258718013763427734 2.5491392612457275391 2.7655744552612304688 2.1613631248474121094 2.0501487255096435547 2.4899003505706787109 2.0565552711486816406 2.3305258750915527344 2.2977275848388671875 2.2680611610412597656 2.0610649585723876953 2.6418278217315673828 2.467906951904296875 2.3528280258178710938 2.5134527683258056641 2.2384049892425537109 2.7356781959533691406 2.7978839874267578125 2.2847752571105957031 2.5155360698699951172 2.0520689487457275391 1.7593160867691040039 2.0833384990692138672 2.1575727462768554688 2.3900671005249023438 1.832754969596862793 1.9360736608505249023 2.0978269577026367188 1.5927160978317260742 1.7517931461334228516 1.9386183023452758789 1.6696178913116455078 1.3766537904739379883 2.3893601894378662109 1.1322900056838989258 1.4838255643844604492 2.0812642574310302734 1 1.224240422248840332 1 1 1.224240422248840332 1 1 1 1.2386783361434936523 1.0115836858749389648 1 1.7544069290161132813 1.653941035270690918 1.0091935396194458008 1.5601974725723266602 1 1 1.4712158441543579102 2.3851757049560546875 1.4511393308639526367 1.4023596048355102539 1 1 1 1.6866780519485473633 1 2.0997419357299804688 1.9955966472625732422 1.7913167476654052734 1.822552800178527832 1.8110134601593017578 1 2.4759016036987304688 1.8072823286056518555 1.0300425291061401367 1 1.1584376096725463867 1.7913167476654052734 1.8759905099868774414 1.8081606626510620117 2.3440215587615966797 2.3111743927001953125 1.6537076234817504883 1.0902509689331054688 2.1877393722534179688 2.1673002243041992188 1.8279992341995239258 1.4671653509140014648 1.6737394332885742188 2.0136482715606689453 2.0761055946350097656 2.5458376407623291016 2.6597964763641357422 2.5403647422790527344 2.0257947444915771484 2.0104238986968994141 2.0595805644989013672 2.2441220283508300781 2.0088541507720947266 2.1167004108428955078 2.4277520179748535156 2.1568782329559326172 2.21540069580078125 2.8267412185668945313 2.2624375820159912109 2.2852628231048583984 2.226589202880859375 2.4316594600677490234 2.6235830783843994141 2.9026651382446289063 2.5729572772979736328 2.2968740463256835938 2.6723997592926025391 2.1274297237396240234 2.8781971931457519531 2.7718708515167236328 2.9872868061065673828 3.0188558101654052734 3.2308948040008544922 2.243988037109375 2.3816986083984375 1.606112360954284668 1.9333349466323852539 2.3187825679779052734 2.4202985763549804688 1.7887601852416992188 1.9179297685623168945 2.3005280494689941406 2.7131152153015136719 2.3279147148132324219 2.1814520359039306641 2.359645843505859375 3.6452665328979492188 3.1478188037872314453 2.7441873550415039063 2.7190449237823486328 2.4898884296417236328 2.6705155372619628906 2.6629323959350585938 2.2587835788726806641 3.0922200679779052734 2.1667263507843017578 2.6122944355010986328 2.386257171630859375 1.936308741569519043 2.1158781051635742188 3.2572214603424072266 2.4976828098297119141 2.2568595409393310547 2.5970709323883056641 3.3638153076171875 2.8183991909027099609 2.8226821422576904297 3.082508087158203125 2.6216082572937011719 1 2.3853909969329833984 1.0487116575241088867 1.8362476825714111328 2.1386957168579101563 2.1652874946594238281 2.5137398242950439453 1.0990613698959350586 2.0429468154907226563 1.6677925586700439453 2.1387460231781005859 2.1777753829956054688 2.3451032638549804688 1.9914907217025756836 2.1615817546844482422 1.5116690397262573242 2.4873573780059814453 2.7708768844604492188 2.1981413364410400391 1.904391169548034668 1.4585623741149902344 1.5566719770431518555 2.3088216781616210938 2.6545374393463134766 1.2393364906311035156 1.176013946533203125 2.2442405223846435547 1 1.7754449844360351563 1.1036884784698486328 1.7320727109909057617 1.7229477167129516602 1.558968663215637207 2.2924335002899169922 1.7597224712371826172 1.8683023452758789063 2.1931531429290771484 1.6407774686813354492 2.1671564579010009766 2.4112415313720703125 2.8893327713012695313 2.1931605339050292969 2.5278291702270507813 
1.9361960887908935547 2.4047811031341552734 2.0315001010894775391 2.10367584228515625 2.287811279296875 2.6364367008209228516 2.0867733955383300781 2.7624197006225585938 2.5746634006500244141 2.6056916713714599609 2.2484478950500488281 3.0683917999267578125 2.3105683326721191406 2.6387207508087158203 2.7143597602844238281 2.7684836387634277344 2.5340552330017089844 2.7577588558197021484 2.0701518058776855469 2.0144553184509277344 2.0938255786895751953 2.1810445785522460938 1.5494278669357299805 2.3281109333038330078 2.6791441440582275391 2.3076045513153076172 2.5831887722015380859 2.6915655136108398438 2.0723831653594970703 2.5298643112182617188 1.9068939685821533203 1.5835083723068237305 1.9765794277191162109 1.8278880119323730469 1.3453347682952880859 1.5636981725692749023 2.1998856067657470703 1.3056240081787109375 1 1.9312839508056640625 2.1652874946594238281 2.2386803627014160156 1 1.0021946430206298828 1.9712347984313964844 1 1.4034458398818969727 1.0097109079360961914 1 1.0115836858749389648 1 1.1812468767166137695 1 1 1.1806674003601074219 1 1.1967895030975341797 1 1.4461213350296020508 1.2042523622512817383 2.1125690937042236328 1.6242444515228271484 1 1.4239662885665893555 1 2.1574335098266601563 2.2424716949462890625 1.4198118448257446289 1.3367605209350585938 2.7690782546997070313 2.2424716949462890625 1 1.8615753650665283203 1.9853910207748413086 1 1.7685923576354980469 1.4838255643844604492 1.1309969425201416016 2.1987483501434326172 1 1.7614591121673583984 1 1.7024524211883544922 2.3050086498260498047 2.0586550235748291016 1.8296924829483032227 1.8683854341506958008 1.679795384407043457 1.7785276174545288086 1.8214985132217407227 1.6879876852035522461 1.0233097076416015625 1.9179297685623168945 2.0661008358001708984 2.5265932083129882813 1.9763909578323364258 1.9385561943054199219 1.8320676088333129883 2.2156450748443603516 2.1281688213348388672 1.7580003738403320313 2.8409357070922851563 2.1892154216766357422 2.1539275646209716797 2.6494767665863037109 2.4707994461059570313 2.4487051963806152344 2.4893982410430908203 2.621417999267578125 2.52286529541015625 2.5597980022430419922 2.9146645069122314453 2.9276974201202392578 2.5028476715087890625 2.5519437789916992188 1.9936609268188476563 1.6221925020217895508 2.7487146854400634766 2.7866322994232177734 3.1652367115020751953 3.1252493858337402344 2.1704134941101074219 1.4902789592742919922 2.7834579944610595703 2.5145449638366699219 2.0348196029663085938 2.0430757999420166016 1.6223194599151611328 1.6744437217712402344 2.5010857582092285156 2.683849334716796875 2.6457645893096923828 2.5182316303253173828 2.1506969928741455078 2.8186128139495849609 2.3568274974822998047 2.5043251514434814453 2.2248678207397460938 1.6078497171401977539 2.3954796791076660156 3.0224487781524658203 3.1220314502716064453 3.3689136505126953125 3.4402117729187011719 3.4899148941040039063 2.15096282958984375 2.5825483798980712891 1.9242163896560668945 1.3828803300857543945 2.5032866001129150391 2.7650110721588134766 3.1016852855682373047 2.9004933834075927734 3.0350244045257568359 3.0004937648773193359 2.8010361194610595703 2.76116180419921875 2.8683857917785644531 1.8966567516326904297 1.1659885644912719727 1 1 1.7425704002380371094 2.1331670284271240234 1.6828376054763793945 1.2563434839248657227 1.4179120063781738281 1.9894338846206665039 2.9256184101104736328 2.2446742057800292969 2.7794547080993652344 1.7552704811096191406 2.3357634544372558594 1.5000858306884765625 2.5896773338317871094 2.8983905315399169922 1.5353690385818481445 1.4013479948043823242 1.6176935434341430664 1.4363151788711547852 2.3837132453918457031 2.4547374248504638672 1 1.8697612285614013672 1.6230274438858032227 1.0854777097702026367 1.7573640346527099609 1 1.070923924446105957 2.2131340503692626953 2.4452211856842041016 2.0055842399597167969 1.9213505983352661133 2.3796203136444091797 2.6369321346282958984 1.9263262748718261719 2.2472760677337646484 2.6441388130187988281 2.18994140625 2.6474866867065429688 
2.2853097915649414063 2.7453539371490478516 2.7554559707641601563 2.0384674072265625 2.0308322906494140625 2.2047436237335205078 2.6130218505859375 2.5250394344329833984 2.7030405998229980469 2.5395860671997070313 2.8258674144744873047 2.0857419967651367188 2.9441783428192138672 2.5335268974304199219 2.7678990364074707031 2.4050526618957519531 2.669658660888671875 2.4343111515045166016 2.2848229408264160156 3.0036184787750244141 2.2105109691619873047 2.941059112548828125 2.1430711746215820313 2.9426376819610595703 2.2129812240600585938 2.3386301994323730469 2.30622100830078125 1.9491716623306274414 1.9755431413650512695 2.1908512115478515625 2.3710188865661621094 1.7055103778839111328 1.7024524211883544922 1.6738008260726928711 2.5375587940216064453 2.4452211856842041016 2.0122745037078857422 2.0667545795440673828 1.3267627954483032227 1 1.1554094552993774414 1.4003952741622924805 1 1 1 1 1 1.0122760534286499023 1.1302753686904907227 1 1 1 1 1 1 1.4034458398818969727 1.1291054487228393555 1.461832880973815918 1 1.2716739177703857422 1.2953575849533081055 1.9466162919998168945 1 1 1.0653214454650878906 2.3401892185211181641 1 1.9312839508056640625 1.8514734506607055664 2.1634585857391357422 1.4672832489013671875 1.4390410184860229492 1.7295384407043457031 1.1745371818542480469 1.6136653423309326172 1.8104270696640014648 2.1358518600463867188 1 2.1981434822082519531 1.661233067512512207 1.682362675666809082 1.7024524211883544922 1.4354577064514160156 1.2087001800537109375 2.2578754425048828125 2.1378755569458007813 1.6329897642135620117 1.2067019939422607422 2.2004802227020263672 2.1242299079895019531 1.5244326591491699219 1.5233324766159057617 2.4091904163360595703 2.1489086151123046875 2.0235753059387207031 2.3892502784729003906 1.9784215688705444336 1.2604551315307617188 2.2617380619049072266 1.0983512401580810547 2.082851409912109375 2.0333919525146484375 2.0896282196044921875 1.7376332283020019531 2.1451277732849121094 2.5491940975189208984 2.1869928836822509766 2.3860063552856445313 2.0923390388488769531 2.4085958003997802734 2.7532315254211425781 3.3457949161529541016 2.7325599193572998047 2.9190108776092529297 2.4282691478729248047 2.7934935092926025391 1.9445703029632568359 1.9349117279052734375 2.8893146514892578125 3.1954567432403564453 1.7910505533218383789 1.7614591121673583984 2.3153836727142333984 2.7020294666290283203 2.6507596969604492188 2.2893362045288085938 2.6819961071014404297 1.7522330284118652344 1.4099572896957397461 1.9539619684219360352 2.4646167755126953125 2.7203099727630615234 2.814968109130859375 2.6769173145294189453 1.8681906461715698242 2.5820763111114501953 1 2.7382881641387939453 2.0894289016723632813 3.2313673496246337891 3.5206897258758544922 3.0277915000915527344 3.8897848129272460938 3.2808387279510498047 2.7330293655395507813 2.3851850032806396484 3.2340714931488037109 3.0186269283294677734 3.5440754890441894531 3.9912030696868896484 2.5086431503295898438 3.1882336139678955078 3.1668949127197265625 2.4000029563903808594 3.2392907142639160156 1.5767652988433837891 2.4167680740356445313 1.1584376096725463867 1 1.3522214889526367188 1.224343419075012207 1.7546519041061401367 1.2067019939422607422 1.822552800178527832 2.3843648433685302734 1.3884559869766235352 1.0146775245666503906 1.66036224365234375 2.7104794979095458984 1.6664577722549438477 2.3051302433013916016 1.7356723546981811523 1.9910929203033447266 1.5920011997222900391 1.9208558797836303711 2.8297131061553955078 2.3806595802307128906 2.4208209514617919922 1.8265314102172851563 1.7597224712371826172 1.7145577669143676758 1 1.6358716487884521484 1 1 1.1584376096725463867 1.3221335411071777344 1.7573640346527099609 2.1774525642395019531 1.3610547780990600586 2.3542087078094482422 1.9754400253295898438 1.8930150270462036133 2.4916238784790039063 2.1230859756469726563 1.9095475673675537109 2.0008141994476318359 1.4528219699859619141 1.9553730487823486328 2.1402840614318847656 
2.1887304782867431641 2.2905037403106689453 2.5291845798492431641 2.4428679943084716797 2.2670145034790039063 2.5756967067718505859 2.7416236400604248047 2.3513026237487792969 2.4004962444305419922 2.2956094741821289063 2.5090045928955078125 2.8498463630676269531 2.0886063575744628906 2.3659129142761230469 2.6660640239715576172 2.5653095245361328125 2.3286769390106201172 2.5149300098419189453 2.4985811710357666016 1.8814797401428222656 2.120830535888671875 2.3206713199615478516 1.8335648775100708008 2.0897424221038818359 2.4294855594635009766 2.1327013969421386719 2.5008349418640136719 2.2232999801635742188 1.6920511722564697266 1.8010934591293334961 1.8010905981063842773 1.7667548656463623047 2.2048163414001464844 2.1320009231567382813 2.1175382137298583984 2.6316678524017333984 2.3086981773376464844 1.5242793560028076172 2.0739710330963134766 1 1.0085905790328979492 2.1110303401947021484 1.7561491727828979492 1.9712347984313964844 1 1 1 1 1 1 1 2.0657415390014648438 1.1653940677642822266 1 1.0790971517562866211 1 1.7333734035491943359 1.161060333251953125 1 1.0201439857482910156 1 1 1.4586597681045532227 2.0718338489532470703 1 1.7010489702224731445 1.5893580913543701172 1.5815271139144897461 2.3665380477905273438 1.7374097108840942383 1.1223181486129760742 1.9747595787048339844 2.1511733531951904297 1.4068716764450073242 1.8128235340118408203 2.0334806442260742188 2.0626161098480224609 1.4145734310150146484 1.9193084239959716797 1.422053217887878418 1.7913167476654052734 1 1.9421523809432983398 1.7973893880844116211 2.2113728523254394531 2.0497829914093017578 1.4797122478485107422 1.7573640346527099609 1.7573640346527099609 1 2.0319457054138183594 1.3789701461791992188 1.8774118423461914063 1.830407261848449707 1.4099572896957397461 1.5545600652694702148 2.1153371334075927734 1.8740389347076416016 2.1642680168151855469 1.7789500951766967773 2.0791239738464355469 2.020145416259765625 2.3143165111541748047 2.7425909042358398438 2.1749422550201416016 2.7134885787963867188 2.3493783473968505859 2.2207357883453369141 2.2692964076995849609 2.5985963344573974609 2.6134464740753173828 2.6066808700561523438 2.5814270973205566406 2.6224503517150878906 2.3149497509002685547 2.0143404006958007813 2.4254384040832519531 2.6355614662170410156 3.0635645389556884766 2.2230072021484375 2.7249233722686767578 2.1642680168151855469 2.1628262996673583984 2.383617401123046875 1.9985520839691162109 2.6957259178161621094 2.1947267055511474609 2.6791980266571044922 1.9068198204040527344 2.5812237262725830078 2.3247959613800048828 2.6087572574615478516 2.1465773582458496094 2.210979461669921875 2.6200940608978271484 1.5478131771087646484 2.3535811901092529297 2.6571056842803955078 2.2059864997863769531 3.3456249237060546875 2.1530461311340332031 3.9357297420501708984 3.9238555431365966797 3.6037058830261230469 2.9779379367828369141 3.4172351360321044922 3.0127255916595458984 3.3336203098297119141 3.2193899154663085938 3.4970924854278564453 3.3836081027984619141 2.3524262905120849609 2.8550455570220947266 2.9149188995361328125 1.9887413978576660156 1.7655851840972900391 1.6136653423309326172 1 1.1507860422134399414 2.0725774765014648438 2.0718338489532470703 1.6457532644271850586 1.1584376096725463867 1 1.6546937227249145508 2.2392625808715820313 2.1086277961730957031 2.1354305744171142578 1.5862625837326049805 1.5263680219650268555 1.5230273008346557617 1.8916822671890258789 1.7024524211883544922 1.5815271139144897461 1.7493238449096679688 1.6140042543411254883 1.9828243255615234375 1.7055103778839111328 1.8978875875473022461 2.2704768180847167969 1.4838255643844604492 2.2336819171905517578 1.9294526576995849609 1.5667102336883544922 1 1.1646089553833007813 1.9421523809432983398 1.5636153221130371094 1.9312839508056640625 2.0884642601013183594 2.9945275783538818359 2.266170501708984375 2.0731298923492431641 1.35599517822265625 2.0115797519683837891 1.6061626672744750977 1.765782475471496582 2.6068623065948486328 2.0095832347869873047 1.4988160133361816406 
2.5812401771545410156 2.6061167716979980469 2.1977717876434326172 2.4390397071838378906 2.3874728679656982422 2.4955813884735107422 2.0802690982818603516 2.2426667213439941406 2.5388264656066894531 2.5258145332336425781 2.7200996875762939453 2.3454313278198242188 2.2163016796112060547 2.3703434467315673828 2.7604427337646484375 2.2076847553253173828 2.1534414291381835938 2.2582833766937255859 2.0157756805419921875 2.4163258075714111328 2.2111577987670898438 2.1283195018768310547 1.9228180646896362305 2.2336156368255615234 2.5191457271575927734 2.1237876415252685547 1.4144468307495117188 2.1092691421508789063 1.6153917312622070313 1.8610121011734008789 2.3497295379638671875 2.4401123523712158203 2.2895026206970214844 2.1331670284271240234 1 1.7714323997497558594 1.7573640346527099609 1.0664210319519042969 1.9421523809432983398 2.0812642574310302734 1.9955966472625732422 1 1.1302753686904907227 1 1 2.0051195621490478516 1.7195149660110473633 1.15058135986328125 1 1 1 1 1 1 1 1.7561491727828979492 2.3851757049560546875 1.7561491727828979492 1 2.0812642574310302734 1.5636153221130371094 1 1.8615753650665283203 1.6798764467239379883 1.2067019939422607422 2.1331670284271240234 2.3035907745361328125 2.0334074497222900391 1.7218737602233886719 2.1597521305084228516 1.7356723546981811523 1.4221949577331542969 1.7321221828460693359 1.9312839508056640625 1.9704641103744506836 1.1584376096725463867 1 1.3267627954483032227 1.9044340848922729492 1.7573640346527099609 1.1367467641830444336 1.7165768146514892578 1.4145734310150146484 1 2.1331484317779541016 1.1633524894714355469 1.7533047199249267578 2.0334074497222900391 1.4467499256134033203 1.7374097108840942383 1.6453909873962402344 1.9159723520278930664 2.0655488967895507813 2.1609885692596435547 1.9595518112182617188 2.0345594882965087891 1.689902186393737793 2.1296367645263671875 2.2715544700622558594 1.9861576557159423828 2.0206067562103271484 2.5029881000518798828 2.4333796501159667969 2.4539592266082763672 2.1979246139526367188 2.7357776165008544922 2.074932098388671875 2.48590850830078125 1.732664942741394043 2.0824568271636962891 2.2270293235778808594 3.1254031658172607422 2.3330483436584472656 2.4416992664337158203 2.4216380119323730469 2.4944720268249511719 3.1911394596099853516 2.5281922817230224609 2.1444156169891357422 2.3499681949615478516 2.2986469268798828125 2.4459257125854492188 2.2324659824371337891 2.1095125675201416016 1.2579342126846313477 1.8916535377502441406 2.7422685623168945313 1.9127877950668334961 2.1927547454833984375 2.9292814731597900391 2.4450483322143554688 3.1521573066711425781 2.924282073974609375 2.5960376262664794922 2.4542405605316162109 1.9632958173751831055 2.1154627799987792969 3.0087189674377441406 2.5452542304992675781 3.1164755821228027344 3.0422830581665039063 3.4512920379638671875 3.4540054798126220703 2.07295989990234375 3.0698063373565673828 2.9294056892395019531 2.6380379199981689453 2.9755694866180419922 3.3184092044830322266 3.5302097797393798828 2.9885401725769042969 2.2209475040435791016 2.6460750102996826172 3.106334686279296875 1.9461271762847900391 1.3752608299255371094 1.4289264678955078125 1.5937762260437011719 1.8136157989501953125 2.2103235721588134766 2.7493975162506103516 1 2.2522261142730712891 1.6136653423309326172 1.6457532644271850586 1.5591380596160888672 1.0787590742111206055 1 1.8119460344314575195 2.0731420516967773438 1.8103340864181518555 2.1010358333587646484 1.2029908895492553711 2.3050086498260498047 2.1511733531951904297 1.6249076128005981445 2.2944216728210449219 1.4266457557678222656 1.5618048906326293945 1 1.7024524211883544922 1.7024524211883544922 1 2.4995641708374023438 1.8318656682968139648 1.0201439857482910156 2.0579152107238769531 2.1869940757751464844 1.7735819816589355469 1.6330643892288208008 2.1349763870239257813 2.0524320602416992188 1.861073613166809082 2.1983344554901123047 2.2121655941009521484 1.7714684009552001953 2.6656816005706787109 1.5205533504486083984 1.4230669736862182617 2.0088114738464355469 
2.3344254493713378906 2.1090977191925048828 2.4078090190887451172 1.9396663904190063477 2.1605973243713378906 2.7920334339141845703 2.1476230621337890625 2.1062707901000976563 2.3581066131591796875 2.3240990638732910156 2.1295402050018310547 2.9109485149383544922 2.4610970020294189453 2.2259237766265869141 2.4494266510009765625 2.3272829055786132813 2.6007084846496582031 2.0440251827239990234 3.0515875816345214844 2.261508941650390625 2.4451611042022705078 2.3644678592681884766 2.8969061374664306641 2.2979726791381835938 2.2626051902770996094 2.5599200725555419922 2.0843853950500488281 1.6775722503662109375 2.1774139404296875 1.9232426881790161133 2.3393521308898925781 1.1879854202270507813 1.7913167476654052734 1.9376773834228515625 1.5386499166488647461 1.1229951381683349609 1.7588403224945068359 2.6519815921783447266 2.0098664760589599609 1.0021946430206298828 1.7561491727828979492 1 1 1 1 1.1806674003601074219 1.653941035270690918 1.1132206916809082031 1.7561491727828979492 1 2.5925157070159912109 1 1 1.0097109079360961914 2.3851757049560546875 1 1 1 1.6230274438858032227 1.5878800153732299805 1.5234930515289306641 1.6241879463195800781 1.2067019939422607422 1.1039593219757080078 1.2677576541900634766 1.1659885644912719727 1.3469767570495605469 1.3397669792175292969 1 1 1.8930150270462036133 1.7493238449096679688 1.7490316629409790039 1.3217933177947998047 1.961110234260559082 1 1 2.0812642574310302734 1.4467499256134033203 1.742982029914855957 1.8572059869766235352 2.3542616367340087891 2.5171525478363037109 2.1159462928771972656 2.3000934123992919922 1.3267627954483032227 1.9788885116577148438 2.236873626708984375 1.8277226686477661133 1.4167298078536987305 1.3817231655120849609 1.8103063106536865234 2.2962775230407714844 1.8738729953765869141 2.4398753643035888672 1.9593833684921264648 1.8738729953765869141 2.5225172042846679688 2.4075276851654052734 2.0735614299774169922 2.3355686664581298828 2.1747479438781738281 2.5680763721466064453 2.4795866012573242188 2.3997538089752197266 2.35498809814453125 2.5506885051727294922 2.5569446086883544922 2.4895818233489990234 2.2353482246398925781 2.1560113430023193359 2.3505539894104003906 2.5104105472564697266 2.0633502006530761719 1.9276797771453857422 2.2626252174377441406 2.1315591335296630859 2.374736785888671875 2.3952932357788085938 1.9878133535385131836 2.0055911540985107422 2.2833871841430664063 2.3064970970153808594 2.3431351184844970703 1.4584864377975463867 2.3200967311859130859 2.5621638298034667969 2.176937103271484375 2.5814578533172607422 2.4354264736175537109 1.9546597003936767578 1.980891108512878418 2.3087933063507080078 2.7833306789398193359 2.9062283039093017578 2.3470597267150878906 1.310162663459777832 2.6021628379821777344 2.7384765148162841797 3.1597874164581298828 2.7261135578155517578 3.1390566825866699219 2.8112785816192626953 3.2596879005432128906 2.4969587326049804688 2.0899233818054199219 3.0616466999053955078 3.1008665561676025391 3.0046088695526123047 3.1131200790405273438 2.3456723690032958984 2.0536808967590332031 2.2915265560150146484 1.5268421173095703125 1.5082689523696899414 2.1166636943817138672 1.4742057323455810547 2.2065384387969970703 1 1.5815271139144897461 1.5578368902206420898 1 1.9653078317642211914 1.5738985538482666016 1.4838255643844604492 1.7299376726150512695 2.2647311687469482422 1.7146070003509521484 3.1608395576477050781 1.8257665634155273438 2.6184630393981933594 1.6149475574493408203 2.4159188270568847656 1.8074601888656616211 1.0032238960266113281 1.8615753650665283203 1.9223580360412597656 1.5911149978637695313 1.362894892692565918 1.9190535545349121094 1.9175975322723388672 1 1.2333718538284301758 1.3397669792175292969 2.4926066398620605469 1.3611809015274047852 2.3227112293243408203 2.1916613578796386719 2.5571818351745605469 1.933411717414855957 1.298313140869140625 2.2691490650177001953 2.4671261310577392578 2.2698915004730224609 1.8613884449005126953 1.2913216352462768555 1.3564835786819458008 1.0979961156845092773 1.9673546552658081055 1.6493947505950927734 
2.2210013866424560547 2.4809999465942382813 2.2723658084869384766 2.0329177379608154297 2.2442526817321777344 2.1069827079772949219 2.5550355911254882813 2.6561162471771240234 2.1667456626892089844 2.6352787017822265625 2.6780583858489990234 2.1671428680419921875 2.7667646408081054688 2.9244425296783447266 2.3029925823211669922 2.2424819469451904297 2.2197473049163818359 2.9203002452850341797 2.9055116176605224609 2.6275608539581298828 2.555019378662109375 2.5291640758514404297 2.4969475269317626953 2.2459232807159423828 2.0910193920135498047 2.5331575870513916016 2.3697731494903564453 1.7662804126739501953 2.1987483501434326172 1.7614591121673583984 1.8563609123229980469 1.6633045673370361328 1.7913167476654052734 1.1642774343490600586 1.7165768146514892578 1.1821324825286865234 1.1584376096725463867 1.1998038291931152344 1.1806674003601074219 1.224240422248840332 1 1 1.0115836858749389648 2.5925157070159912109 1 2.3851757049560546875 1.2591799497604370117 1 1 2.5925157070159912109 1 1 1.0122760534286499023 1 1.4433472156524658203 1.1302753686904907227 1.4663612842559814453 1.1399155855178833008 1.0201439857482910156 1.8689943552017211914 1.7573640346527099609 2.2895026206970214844 1.8106698989868164063 1.9605340957641601563 1.7913167476654052734 1.0487116575241088867 1.7941987514495849609 1.8689943552017211914 1 1.7871738672256469727 1.9044340848922729492 1.8610709905624389648 1.5332305431365966797 1.8501213788986206055 1.070923924446105957 1.3367605209350585938 1.2783262729644775391 1.5376964807510375977 1 2.3440215587615966797 1.9653078317642211914 1.8902126550674438477 1.8905570507049560547 2.188404083251953125 1.6121289730072021484 2.2011561393737792969 2.3655214309692382813 2.4117789268493652344 1.7356723546981811523 1.7621675729751586914 1.4332742691040039063 2.1274449825286865234 2.6243398189544677734 2.28858184814453125 2.2687053680419921875 2.0324890613555908203 2.3074877262115478516 1.9226677417755126953 2.4758613109588623047 2.4296755790710449219 2.8823971748352050781 2.4426352977752685547 2.8589351177215576172 2.7228817939758300781 2.3752164840698242188 2.3961458206176757813 2.8611013889312744141 2.6349935531616210938 1.9515823125839233398 1.9550620317459106445 2.4026174545288085938 2.2833871841430664063 1.7731651067733764648 2.4958386421203613281 2.3206670284271240234 2.3744680881500244141 2.3103754520416259766 1.7574311494827270508 1.8763796091079711914 1.401111602783203125 1.7336394786834716797 1.9910929203033447266 1.1486446857452392578 2.3649652004241943359 1.9980525970458984375 2.0229308605194091797 2.3936052322387695313 2.5648629665374755859 2.1073565483093261719 2.8719174861907958984 2.5395064353942871094 2.5725979804992675781 2.0163075923919677734 2.0101888179779052734 2.2304120063781738281 2.7283773422241210938 2.7174515724182128906 1.6253663301467895508 1.9493215084075927734 3.2257821559906005859 3.4842729568481445313 2.8627953529357910156 3.4838581085205078125 3.190395355224609375 2.9005947113037109375 2.7041862010955810547 3.3056201934814453125 2.7889721393585205078 2.1056795120239257813 2.0136311054229736328 2.9663953781127929688 2.6205615997314453125 2.8530912399291992188 1.8375804424285888672 1.8290537595748901367 1.9384255409240722656 2.5768532752990722656 1.742982029914855957 1.3221335411071777344 1.2067019939422607422 2.1774525642395019531 1.9312839508056640625 2.1633558273315429688 2.0812642574310302734 1.041577458381652832 1.5244326591491699219 1.1745371818542480469 2.1223359107971191406 1.2741585969924926758 1.6096619367599487305 1.9984861612319946289 1.6032952070236206055 2.1989424228668212891 2.0573406219482421875 2.2704768180847167969 1.9068913459777832031 2.0148572921752929688 1.9043904542922973633 1.6484192609786987305 1.1393475532531738281 2.1838517189025878906 1.3522214889526367188 1 2.2647311687469482422 1.5815703868865966797 1.8086096048355102539 1.9035118818283081055 2.6931915283203125 2.9650704860687255859 2.2435047626495361328 1.8615753650665283203 2.1401555538177490234 2.7457947731018066406 2.0299923419952392578 1.579631805419921875 1.4451433420181274414 1.1646089553833007813 1.461007237434387207 2.2265200614929199219 2.2143976688385009766 
2.9127600193023681641 2.066532135009765625 2.5983641147613525391 2.3327894210815429688 2.5442335605621337891 2.9445242881774902344 2.8365268707275390625 2.68061065673828125 2.4564619064331054688 2.5295546054840087891 2.5661673545837402344 2.7567174434661865234 2.8842518329620361328 2.9059007167816162109 3.1459841728210449219 2.5880680084228515625 2.6729681491851806641 2.3745203018188476563 2.2643744945526123047 2.2684946060180664063 2.2525625228881835938 1.8950067758560180664 2.6287722587585449219 2.2634866237640380859 2.4098169803619384766 2.2324798107147216797 1.7024524211883544922 1.8809535503387451172 1.8713016510009765625 1.7326891422271728516 1.7487605810165405273 1.4705220460891723633 1.9259675741195678711 1.1659885644912719727 2.4995641708374023438 1.9573105573654174805 1.9101984500885009766 2.0783851146697998047 1.7754449844360351563 1.1302753686904907227 2.1110303401947021484 1 1.4034458398818969727 1.4034458398818969727 1 1.653941035270690918 1 1 1 1.2185790538787841797 1 1 1 1.1653940677642822266 1.1806674003601074219 1 1.15058135986328125 2.3851757049560546875 1 1 1.1659885644912719727 1.9043904542922973633 2.2736499309539794922 1 1.8989527225494384766 1.2349509000778198242 1 1.3221335411071777344 1.4976316690444946289 2.0564317703247070313 2.0334074497222900391 1.6495699882507324219 2.0401525497436523438 2.1511733531951904297 1.7614591121673583984 1.5590749979019165039 1.214694976806640625 2.2647311687469482422 2.1331670284271240234 1.8257665634155273438 2.1291148662567138672 1.7375615835189819336 1.87651824951171875 1.9043904542922973633 1.7356723546981811523 2.3136386871337890625 1.8236700296401977539 1.6228302717208862305 2.3498854637145996094 1.5689965486526489258 1.9789552688598632813 1.7356723546981811523 1.9421523809432983398 2.1511733531951904297 1.5846914052963256836 2.1298139095306396484 2.3970217704772949219 2.5313937664031982422 1.817774653434753418 2.4472403526306152344 2.2360749244689941406 1.9780279397964477539 1.862772822380065918 2.1718204021453857422 2.5152175426483154297 2.69026947021484375 2.2984149456024169922 3.0139021873474121094 2.3776845932006835938 2.0170392990112304688 2.5952801704406738281 2.2189364433288574219 1 2.1657609939575195313 1.3406157493591308594 1.5283569097518920898 1.7192500829696655273 1 1.9259675741195678711 1.6230274438858032227 1 2.7365345954895019531 1.3609988689422607422 2.1808423995971679688 2.2654731273651123047 1.5465342998504638672 2.0463633537292480469 1.6919025182723999023 1.9692122936248779297 2.4605851173400878906 2.4017693996429443359 2.5184473991394042969 2.3732199668884277344 2.3102104663848876953 1.9821540117263793945 2.3750238418579101563 1.7251939773559570313 1.5203762054443359375 2.1567518711090087891 2.6413977146148681641 2.7015717029571533203 3.2693178653717041016 3.2309286594390869141 2.2983231544494628906 2.4983632564544677734 3.2944731712341308594 2.9794628620147705078 2.5289604663848876953 2.5883500576019287109 3.1047930717468261719 2.9536383152008056641 2.7665438652038574219 2.9258821010589599609 2.2944650650024414063 2.1047968864440917969 1.6470625400543212891 2.3035907745361328125 1.4675983190536499023 1.7248748540878295898 1.5590749979019165039 1.5170675516128540039 1 1.4838255643844604492 1.5386499166488647461 1.7625896930694580078 1 1.2360405921936035156 2.240894317626953125 2.2385513782501220703 1.6973888874053955078 1.7573640346527099609 1.0331765413284301758 1.0331765413284301758 2.3445901870727539063 1.5658088922500610352 1.7114663124084472656 1.4390410184860229492 1.501421809196472168 2.1276757717132568359 2.2647311687469482422 1.6546937227249145508 1 1.6910851001739501953 1.6824780702590942383 2.4282686710357666016 2.6249892711639404297 2.1188321113586425781 2.7461850643157958984 2.666652679443359375 2.1689238548278808594 1.8091005086898803711 2.2895026206970214844 1.8716061115264892578 1.7022488117218017578 1.9580290317535400391 1.4672832489013671875 1.6136653423309326172 1.6124715805053710938 2.0551421642303466797 2.2209525108337402344 
2.3865854740142822266 2.4314999580383300781 2.8849709033966064453 2.4964146614074707031 2.6154503822326660156 2.7346808910369873047 2.6877460479736328125 2.3945410251617431641 2.8592932224273681641 2.4014117717742919922 2.7721505165100097656 2.5192751884460449219 2.7105805873870849609 2.2471950054168701172 2.3337483406066894531 2.0764386653900146484 2.7517368793487548828 1.9853632450103759766 2.5624375343322753906 2.5251748561859130859 2.2910518646240234375 2.1565275192260742188 2.3244154453277587891 2.2702085971832275391 2.1092691421508789063 2.4143362045288085938 2.1331670284271240234 2.1838517189025878906 1.4689680337905883789 1.5230712890625 1.8516950607299804688 2.4703662395477294922 1.2300078868865966797 2.2424716949462890625 1 2.0725774765014648438 1.5017626285552978516 2.0051195621490478516 1 1 1.7333734035491943359 1.8053239583969116211 1.0091935396194458008 2.3851757049560546875 1.1302753686904907227 2.3851757049560546875 1 1 1 1 1 1.653941035270690918 1.2126379013061523438 2.0997419357299804688 2.3200678825378417969 1.2439392805099487305 1.0201439857482910156 1 1.2314015626907348633 1 2.1298069953918457031 1.0641729831695556641 2.1683909893035888672 2.4759016036987304688 1.3320616483688354492 2.1246447563171386719 1.3166471719741821289 1.9626262187957763672 1.6249076128005981445 2.7359700202941894531 1.9902595281600952148 1 1.2391226291656494141 1.5668058395385742188 2.1511733531951904297 2.3050086498260498047 1.8823020458221435547 2.0209100246429443359 1.2067019939422607422 1.8828096389770507813 1.9594768285751342773 1.8572804927825927734 1.3674290180206298828 1.7758247852325439453 1.5598100423812866211 1.0198445320129394531 1.7024524211883544922 2.3393521308898925781 1.7922730445861816406 2.0689318180084228516 2.2068207263946533203 2.3110814094543457031 2.5410778522491455078 2.0819680690765380859 2.3012754917144775391 1.9739942550659179688 2.3495194911956787109 2.3111743927001953125 2.3057322502136230469 2.2318720817565917969 1.6888211965560913086 2.440738677978515625 1.7597224712371826172 2.4305446147918701172 1.8482050895690917969 1.9683774709701538086 2.2274229526519775391 2.7480585575103759766 2.3045210838317871094 2.1187319755554199219 2.4516239166259765625 2.4421684741973876953 1.1584376096725463867 2.1890926361083984375 1.7880367040634155273 1.3383997678756713867 1.5878800153732299805 2.1652874946594238281 1 1 2.1919155120849609375 1.3672196865081787109 2.4053797721862792969 2.1437122821807861328 1.6200356483459472656 1.8510756492614746094 2.5748469829559326172 1.9031777381896972656 1.2206759452819824219 1.8639917373657226563 1.8024196624755859375 2.1371877193450927734 3.1144366264343261719 2.5344302654266357422 2.3308610916137695313 2.8725600242614746094 1.9683367013931274414 2.4035503864288330078 2.6140580177307128906 2.2983775138854980469 3.0770766735076904297 2.8358571529388427734 2.9242222309112548828 2.9174420833587646484 3.4114789962768554688 2.9540760517120361328 3.4324924945831298828 2.9254996776580810547 2.7251334190368652344 3.2494161128997802734 3.1213996410369873047 2.9805321693420410156 2.4144284725189208984 2.7037954330444335938 2.5725436210632324219 1.6908282041549682617 1.7220934629440307617 1.4005327224731445313 1.1335140466690063477 1.7913167476654052734 1.7295384407043457031 1 2.2336819171905517578 1.9722270965576171875 1.1998038291931152344 1.3820184469223022461 1.7727867364883422852 2.5803685188293457031 1.6159024238586425781 1.9424266815185546875 2.166934967041015625 1.2067019939422607422 1.7835569381713867188 1.6948665380477905273 2.5099513530731201172 1.7573640346527099609 1.9236534833908081055 1.6329162120819091797 1.1646089553833007813 2.1331670284271240234 1.6546937227249145508 1.7045975923538208008 1.4851546287536621094 1.6118432283401489258 1.2381646633148193359 3.357585906982421875 1.7978253364562988281 1.658008575439453125 2.5467317104339599609 2.8885991573333740234 2.4475598335266113281 2.6942000389099121094 1.2867829799652099609 2.7811362743377685547 2.5247523784637451172 1.1229951381683349609 1.7302577495574951172 2.2330851554870605469 1.6086527109146118164 2.3745417594909667969 
2.2983098030090332031 2.5844674110412597656 2.2745976448059082031 2.4283308982849121094 2.3393776416778564453 2.8772418498992919922 2.3468592166900634766 2.5709805488586425781 3.1387822628021240234 2.8033294677734375 2.9315600395202636719 2.5045278072357177734 2.5293610095977783203 2.72353363037109375 2.4234783649444580078 2.6407406330108642578 2.7083313465118408203 2.2458066940307617188 2.6540429592132568359 2.5334475040435791016 2.0307328701019287109 2.6639807224273681641 2.3436992168426513672 2.1542682647705078125 1.7925800085067749023 1.6882761716842651367 1.8184905052185058594 1.9043904542922973633 2.4913666248321533203 1.679795384407043457 1.5845230817794799805 1.4987589120864868164 1.8999196290969848633 2.4640564918518066406 1.8810631036758422852 1.6230274438858032227 1 1 1 1.5037115812301635742 1.1806674003601074219 1.4663612842559814453 1 1 1 1 1 1 1 1.1302753686904907227 2.1110303401947021484 1 1.1399155855178833008 1.5667102336883544922 2.4995641708374023438 1 1 1 1 1.2918376922607421875 1.5804083347320556641 1.3221335411071777344 1.302908778190612793 1.9346704483032226563 1 1.3862323760986328125 1.5646510124206542969 2.3924782276153564453 2.414447784423828125 2.132564544677734375 1.8257665634155273438 1.7853899002075195313 2.3403635025024414063 1.6555385589599609375 1.8780561685562133789 1.1355063915252685547 1.6930696964263916016 1.4982450008392333984 2.1539015769958496094 1.8257665634155273438 1.7758247852325439453 2.2243316173553466797 1.8175306320190429688 1.9047549962997436523 2.4972403049468994141 2.0222070217132568359 2.3035907745361328125 1.6403623819351196289 2.0429468154907226563 1.4399724006652832031 2.8004481792449951172 2.47162628173828125 2.3581116199493408203 2.0659909248352050781 2.3010625839233398438 2.0090868473052978516 2.4659264087677001953 1.7513124942779541016 2.3819525241851806641 2.6697969436645507813 2.2875406742095947266 2.3086981773376464844 2.1736981868743896484 1.9498447179794311523 1.9787195920944213867 1.8693704605102539063 2.1176195144653320313 2.1651756763458251953 2.0322804450988769531 1.8615020513534545898 1.8502802848815917969 1.9160933494567871094 1.9586801528930664063 1.6617335081100463867 2.1173939704895019531 1.7024524211883544922 1.9421523809432983398 1.5590749979019165039 1 1 1 1.3367605209350585938 1.9421523809432983398 2.2336819171905517578 2.2895026206970214844 2.2082498073577880859 1.7536013126373291016 2.1224188804626464844 1.6972604990005493164 2.4576907157897949219 1.7886432409286499023 3.0329875946044921875 2.5087497234344482422 2.5816802978515625 2.6765182018280029297 2.1980576515197753906 2.5316030979156494141 1.8614459037780761719 2.2074615955352783203 2.7488799095153808594 2.9371709823608398438 3.1211886405944824219 3.3681209087371826172 3.7718758583068847656 3.3921141624450683594 3.0260231494903564453 2.9715418815612792969 3.1759545803070068359 3.4337198734283447266 2.8919568061828613281 3.1433970928192138672 3.3810162544250488281 3.4654610157012939453 2.7930791378021240234 2.4093387126922607422 1.2926524877548217773 2.0976152420043945313 1.7958830595016479492 2.5912089347839355469 2.0334806442260742188 2.1331670284271240234 1.1507860422134399414 2.2165410518646240234 1.9421523809432983398 1.7546519041061401367 1.1166385412216186523 2.2003126144409179688 1.4851574897766113281 2.3620500564575195313 1.7024524211883544922 1.2104855775833129883 2.2198355197906494141 2.3755013942718505859 1.8928338289260864258 2.1051981449127197266 1.8257665634155273438 1.5815271139144897461 1 1.828751683235168457 1.6020430326461791992 1.3221335411071777344 2.4299366474151611328 2.5848741531372070313 2.5441520214080810547 1.8943991661071777344 2.2882299423217773438 2.4838726520538330078 2.2661228179931640625 2.6713438034057617188 3.4015574455261230469 2.2642767429351806641 2.2434003353118896484 1.4182473421096801758 2.4078426361083984375 2.7095513343811035156 2.0574669837951660156 1 1.3202825784683227539 2.1331670284271240234 2.4411084651947021484 
2.6382083892822265625 2.5347123146057128906 2.3386657238006591797 2.4688007831573486328 2.6432502269744873047 2.4996278285980224609 2.5734572410583496094 2.9700474739074707031 3.0129601955413818359 2.39325714111328125 2.8707382678985595703 2.6138339042663574219 2.5318968296051025391 2.7779211997985839844 2.6309528350830078125 2.7744624614715576172 2.7081429958343505859 3.1069884300231933594 2.2790722846984863281 2.7631773948669433594 2.9061598777770996094 2.1505868434906005859 2.2696177959442138672 1.8442538976669311523 2.2879395484924316406 1.9682760238647460938 1.6546937227249145508 2.1156632900238037109 1.7183582782745361328 2.2363398075103759766 1.5983655452728271484 2.2273566722869873047 1.8299716711044311523 1 1.0201439857482910156 1 1.3522214889526367188 1.3522214889526367188 1 1.3830394744873046875 1 1 1 1 1 1.0122760534286499023 1 1 1 1 2.0051195621490478516 1.4034458398818969727 1 1.6230274438858032227 1.4071416854858398438 1.3862323760986328125 2.6143667697906494141 2.6678981781005859375 1 1.6039005517959594727 2.4579331874847412109 1.5213490724563598633 2.1838517189025878906 2.2600331306457519531 1.8514734506607055664 1.7546519041061401367 1.9043904542922973633 2.1987483501434326172 1.7908273935317993164 1.8216260671615600586 1.7725157737731933594 1.679795384407043457 1.2610377073287963867 1.4834710359573364258 1.7790607213973999023 2.1977074146270751953 2.0015165805816650391 1.6615698337554931641 2.2968726158142089844 1.7024524211883544922 1.7309565544128417969 1.2612491846084594727 1 2.1548066139221191406 1.7552704811096191406 2.6474421024322509766 1 1.9653078317642211914 1.0544878244400024414 1.4176626205444335938 2.3013350963592529297 2.4906411170959472656 2.5069472789764404297 2.713134765625 2.0054793357849121094 2.0384857654571533203 2.2647850513458251953 3.0250723361968994141 2.1976284980773925781 2.3475289344787597656 2.0201370716094970703 2.532135009765625 2.1853463649749755859 2.8611369132995605469 2.1687264442443847656 2.4166877269744873047 3.0632047653198242188 2.2393717765808105469 2.5003385543823242188 2.364627838134765625 1.8990405797958374023 1.0608925819396972656 1.7913167476654052734 1.5937762260437011719 1.8274911642074584961 2.1869921684265136719 1.1851772069931030273 1 2.1259319782257080078 1 1.2716739177703857422 2.0997419357299804688 2.3200678825378417969 1.161060333251953125 1.5496250391006469727 1.8257665634155273438 1.9188247919082641602 2.0769836902618408203 1.2015445232391357422 2.0814917087554931641 2.9488294124603271484 3.198184967041015625 2.1070032119750976563 2.190319061279296875 2.5307168960571289063 2.5639054775238037109 1.5567128658294677734 2.5148577690124511719 2.4925692081451416016 2.5505433082580566406 2.5266437530517578125 2.8391883373260498047 3.4808020591735839844 2.9107489585876464844 3.1338810920715332031 3.5942440032958984375 2.6011147499084472656 3.3577344417572021484 3.418041229248046875 3.4392170906066894531 3.25677490234375 2.5778381824493408203 2.7709660530090332031 2.2283892631530761719 1.9601221084594726563 1.1020097732543945313 1.2320657968521118164 2.1789259910583496094 1.9424633979797363281 1.7573640346527099609 2.2647311687469482422 1.1584376096725463867 2.3440215587615966797 1.7168004512786865234 1.9421523809432983398 1.7469292879104614258 1 2.0731337070465087891 2.4553380012512207031 1.5570135116577148438 2.5167105197906494141 2.0443384647369384766 2.272003173828125 2.2751157283782958984 2.3710160255432128906 2.1021745204925537109 1.9301617145538330078 1.8573026657104492188 1.9675486087799072266 1.9354897737503051758 1.0562655925750732422 1.6514434814453125 2.3962252140045166016 2.41819000244140625 2.2806684970855712891 1.7856012582778930664 2.8496737480163574219 3.02968597412109375 3.3687632083892822266 4.0414028167724609375 2.9527518749237060547 2.6378762722015380859 2.5589253902435302734 1.7250918149948120117 1.5178961753845214844 1.8698410987854003906 2.6467921733856201172 1.1507860422134399414 1.3904752731323242188 2.3676390647888183594 
2.7806916236877441406 2.3734943866729736328 2.2515509128570556641 2.7694208621978759766 2.5434806346893310547 2.5255248546600341797 2.9170210361480712891 2.6071989536285400391 2.3383882045745849609 2.9836130142211914063 2.7815287113189697266 3.0384197235107421875 2.7172815799713134766 2.7584526538848876953 2.5652399063110351563 2.6875257492065429688 2.7578632831573486328 2.3430819511413574219 2.5929217338562011719 2.5073904991149902344 2.4835705757141113281 2.1707046031951904297 1.9627004861831665039 2.1404783725738525391 1.5715123414993286133 2.2065384387969970703 2.3440215587615966797 1.3723425865173339844 2.2426998615264892578 2.6624016761779785156 1.6546937227249145508 1.7364104986190795898 1.1243786811828613281 1 1.9955966472625732422 1 2.3023200035095214844 1 1.8548398017883300781 1.0091935396194458008 1.2333718538284301758 2.1110303401947021484 1 1 1.6021916866302490234 1 1.1806674003601074219 1 1 1 1 1.7333734035491943359 1.8585001230239868164 1.4667357206344604492 1.4098987579345703125 1.2563434839248657227 1 2.5068380832672119141 2.8238468170166015625 1.7393068075180053711 1.6911029815673828125 2.0274279117584228516 1.1584376096725463867 1.1584376096725463867 1.6136653423309326172 1.288640141487121582 1.742982029914855957 2.3215248584747314453 2.6184630393981933594 2.4086513519287109375 2.3790557384490966797 1.9694461822509765625 2.0038657188415527344 2.0238935947418212891 2.1819357872009277344 1.8213131427764892578 2.1346440315246582031 1.9034792184829711914 1.8900524377822875977 1.9399118423461914063 1.8926335573196411133 2.0140461921691894531 1.9997614622116088867 1.6069290637969970703 2.2010667324066162109 2.3440074920654296875 1.9204267263412475586 1.9549947977066040039 1.7924596071243286133 1.5109438896179199219 1.8554471731185913086 1.7716239690780639648 1.9791669845581054688 2.6910636425018310547 2.0836031436920166016 2.2395486831665039063 2.9116446971893310547 2.7395546436309814453 2.5097129344940185547 2.2282862663269042969 2.7704770565032958984 2.4156935214996337891 2.3076932430267333984 2.8300454616546630859 2.4168980121612548828 2.0311405658721923828 2.6434824466705322266 2.5139691829681396484 2.5954654216766357422 1.3252128362655639648 1.6136653423309326172 1.5723623037338256836 1.5241041183471679688 1.0240589380264282227 1.5937762260437011719 1.4387829303741455078 1.4145734310150146484 1.9747595787048339844 1 1 1.1806674003601074219 2.2532405853271484375 1.5213490724563598633 2.2249948978424072266 2.4759016036987304688 1.276519775390625 1.7407209873199462891 1.8221224546432495117 1.2014670372009277344 2.6230254173278808594 2.851848602294921875 2.5360326766967773438 2.7741570472717285156 2.3880519866943359375 2.4265615940093994141 1.4693981409072875977 2.3919861316680908203 1.9192202091217041016 1.6227955818176269531 2.2433555126190185547 2.3181350231170654297 2.9652872085571289063 2.8257093429565429688 2.640697479248046875 3.0626227855682373047 3.6760084629058837891 2.75994873046875 2.6237590312957763672 2.6168644428253173828 2.4559621810913085938 2.7436201572418212891 3.4649682044982910156 3.2577223777770996094 2.6437549591064453125 2.2718715667724609375 2.0265443325042724609 1.9902595281600952148 1.6379059553146362305 1.2067019939422607422 1.7295384407043457031 2.7840576171875 1.7374097108840942383 1.7344846725463867188 1.4353097677230834961 1.8526370525360107422 1.7750399112701416016 1.070923924446105957 2.2469041347503662109 1.5794352293014526367 1.9927828311920166016 2.3255431652069091797 2.6852362155914306641 2.9871730804443359375 2.6122503280639648438 2.7475671768188476563 2.8623692989349365234 2.3029787540435791016 2.3322699069976806641 2.0834996700286865234 2.1201314926147460938 1.9720052480697631836 2.1398289203643798828 2.6025214195251464844 2.4508566856384277344 2.5439829826354980469 2.2376787662506103516 2.6562452316284179688 3.6853270530700683594 2.1686913967132568359 2.8205761909484863281 3.0525739192962646484 2.3606448173522949219 1.5294828414916992188 2.157375335693359375 1.7585645914077758789 1.1086908578872680664 1.6155147552490234375 1.1708818674087524414 1.8689943552017211914 2.1168258190155029297 
2.7587003707885742188 2.3589129447937011719 2.48900604248046875 2.5141060352325439453 2.4216005802154541016 2.1811413764953613281 2.5053465366363525391 2.7944855690002441406 2.4471836090087890625 2.6902103424072265625 2.5663933753967285156 2.4605908393859863281 2.5085356235504150391 2.7792036533355712891 2.6959104537963867188 2.4823544025421142578 2.3026838302612304688 2.9517986774444580078 2.2634947299957275391 2.1353211402893066406 2.2591063976287841797 2.0675094127655029297 2.7131795883178710938 2.1998856067657470703 2.1488404273986816406 1.9019505977630615234 2.0272684097290039063 1.9788885116577148438 1.3465893268585205078 1.3469767570495605469 1.7532323598861694336 1.5224455595016479492 2.9214956760406494141 1.3367605209350585938 2.2249948978424072266 1 1.7754449844360351563 2.2882692813873291016 1 2.0051195621490478516 1.161060333251953125 1.3456426858901977539 1 2.0051195621490478516 1 1.3367605209350585938 1.4938256740570068359 1 1.5386499166488647461 1.4461213350296020508 1 1 1.2314015626907348633 1.6230274438858032227 1.8689943552017211914 1 1.3164401054382324219 1.7913167476654052734 2.6545686721801757813 1.6114554405212402344 2.278636932373046875 2.179470062255859375 1.3725941181182861328 1.5335935354232788086 1.7218737602233886719 1.5197072029113769531 2.0764794349670410156 2.1734478473663330078 1.3134047985076904297 1.4205095767974853516 1.7929706573486328125 1.8126337528228759766 1.883880615234375 2.0528337955474853516 2.1109967231750488281 1.8450731039047241211 1.7449517250061035156 2.6849429607391357422 1.4484411478042602539 1.9458515644073486328 2.251129150390625 1.1514718532562255859 1.6162534952163696289 1.612256169319152832 1.6399793624877929688 1.7493238449096679688 1.7822347879409790039 1.2426687479019165039 1.8078576326370239258 2.1421055793762207031 1.4960800409317016602 2.0675437450408935547 2.4554681777954101563 1.8163036108016967773 2.3868010044097900391 2.4978051185607910156 2.6751778125762939453 2.8221554756164550781 2.2190141677856445313 1.9303202629089355469 2.5268337726593017578 2.5416166782379150391 2.8226923942565917969 2.8115358352661132813 2.0256175994873046875 2.6182806491851806641 2.0521781444549560547 2.261444091796875 2.4765102863311767578 1 2.6016809940338134766 2.0599000453948974609 1.9764626026153564453 1.7341552972793579102 1.6691603660583496094 1.0200474262237548828 1.7938426733016967773 1.5386499166488647461 1.7754449844360351563 1.2333718538284301758 1.5386499166488647461 1.0201439857482910156 2.2336819171905517578 1.8689943552017211914 1.0547209978103637695 2.1554825305938720703 2.2330191135406494141 1.157502293586730957 1.367829442024230957 2.327037811279296875 2.3974916934967041016 2.4168102741241455078 2.0787906646728515625 2.1669735908508300781 2.5361857414245605469 2.0071737766265869141 1.4389499425888061523 2.1406600475311279297 1.8061196804046630859 2.8330621719360351563 2.9344110488891601563 2.4545278549194335938 2.5489108562469482422 2.4108719825744628906 2.8272693157196044922 2.8362381458282470703 3.2689120769500732422 3.4491593837738037109 2.8347160816192626953 2.6838839054107666016 3.0039389133453369141 3.0165059566497802734 2.7232680320739746094 2.5168619155883789063 1.7460981607437133789 1.9902595281600952148 2.1642680168151855469 1.9950239658355712891 2.1768851280212402344 1 1.0606038570404052734 1.7356723546981811523 1.2486511468887329102 1.2180460691452026367 1.520890355110168457 2.4088258743286132813 1.6993737220764160156 2.00072479248046875 2.6200785636901855469 1.2964116334915161133 2.0970194339752197266 1.8388239145278930664 2.4713819026947021484 2.6892185211181640625 3.0266208648681640625 3.0391242504119873047 2.9043927192687988281 2.7822663784027099609 2.6299443244934082031 1.9456641674041748047 2.0602209568023681641 2.1121423244476318359 2.1930425167083740234 2.7589063644409179688 1.8402274847030639648 2.3507304191589355469 2.5795602798461914063 2.1089527606964111328 1.546713709831237793 2.0769495964050292969 1.7995485067367553711 2.6506412029266357422 1 1.6462621688842773438 1.9114763736724853516 1.9859976768493652344 1.7464674711227416992 1.1787831783294677734 1.8548398017883300781 1.4140329360961914063 
2.3430726528167724609 2.2941160202026367188 2.3759438991546630859 2.9288256168365478516 2.6667537689208984375 2.3720304965972900391 2.6389865875244140625 2.5409693717956542969 2.6457452774047851563 2.6085708141326904297 2.4983565807342529297 2.1604878902435302734 2.8307871818542480469 2.3053984642028808594 2.7432177066802978516 2.5654518604278564453 2.6658544540405273438 2.2994301319122314453 2.9572815895080566406 2.2071402072906494141 2.2405807971954345703 1.8363294601440429688 2.6899144649505615234 2.2457075119018554688 2.4917798042297363281 1.2067019939422607422 1.9312839508056640625 1.3334383964538574219 1.2067019939422607422 1.7469292879104614258 1.9541169404983520508 1.4838255643844604492 1.1394679546356201172 1.9955966472625732422 1.3221335411071777344 1.6893804073333740234 1 1.1584376096725463867 1 1.2118371725082397461 1.9955966472625732422 1.2880803346633911133 2.0051195621490478516 1 1.1983001232147216797 1 1.4098987579345703125 1 1.2257611751556396484 1 1.5386499166488647461 1.9101984500885009766 1.6230274438858032227 1.3267627954483032227 2.2032709121704101563 1.9115221500396728516 1.949124455451965332 1.1775673627853393555 1.887987971305847168 2.070041656494140625 1.4229428768157958984 1.4409021139144897461 2.4134900569915771484 1.8404085636138916016 2.5725739002227783203 1.8855550289154052734 1.5250452756881713867 2.1838023662567138672 2.1931531429290771484 1.2448952198028564453 1.5393898487091064453 2.3369317054748535156 1.7736721038818359375 1.9877369403839111328 1.825776219367980957 1.7947325706481933594 1.4439423084259033203 1.7478719949722290039 2.1305708885192871094 1.77732086181640625 2.3099048137664794922 2.0019676685333251953 2.0208704471588134766 2.007549285888671875 1.7010676860809326172 2.2013306617736816406 1.7373458147048950195 1.1584376096725463867 1.9995887279510498047 2.5368862152099609375 1.98326873779296875 2.2295751571655273438 1.7670937776565551758 2.5044901371002197266 2.3736507892608642578 2.8987982273101806641 2.6331222057342529297 2.54107666015625 2.7514793872833251953 2.6305665969848632813 2.9084718227386474609 2.2956826686859130859 2.2217574119567871094 2.589908599853515625 2.5419173240661621094 2.8189072608947753906 2.8568623065948486328 2.8904531002044677734 2.1382706165313720703 2.2617380619049072266 2.0513167381286621094 1.99246978759765625 2.1838517189025878906 2.0189599990844726563 1.3006280660629272461 1.5878800153732299805 1 1.5738985538482666016 1.7573640346527099609 1.8053239583969116211 1.5724573135375976563 1.2314015626907348633 1.0201439857482910156 1.8095923662185668945 1 1 1.5815801620483398438 1 1.7754449844360351563 2.0797631740570068359 2.4374434947967529297 1.6589326858520507813 1.8971581459045410156 2.2458631992340087891 2.1131541728973388672 2.4048376083374023438 1.5411739349365234375 2.5073528289794921875 1.7919514179229736328 1.9400725364685058594 3.3867323398590087891 2.2723531723022460938 2.5270562171936035156 1.8892748355865478516 2.1889386177062988281 2.1560118198394775391 2.1992442607879638672 2.8638272285461425781 2.48523712158203125 1.788685917854309082 2.4242012500762939453 1.9283425807952880859 2.3550565242767333984 1.7096104621887207031 1.7493238449096679688 1 2.3575866222381591797 1.8717538118362426758 1.7310606241226196289 2.1291046142578125 2.0840091705322265625 2.2696390151977539063 1.4847115278244018555 1.9445244073867797852 1.8078840970993041992 2.0401525497436523438 1.6692465543746948242 2.6921927928924560547 2.1564617156982421875 2.0255267620086669922 1.9600185155868530273 2.5020284652709960938 1.6260278224945068359 2.6910753250122070313 3.0035405158996582031 2.78893280029296875 3.2888784408569335938 2.6975820064544677734 2.7861003875732421875 2.659496307373046875 1.5343775749206542969 1.7960807085037231445 1.6993337869644165039 2.6997091770172119141 1.9419072866439819336 1.9013679027557373047 2.6365227699279785156 3.0821704864501953125 2.5250236988067626953 3.0455915927886962891 2.0861663818359375 2.0161156654357910156 2.7776648998260498047 2.0016167163848876953 2.6772134304046630859 1.4643644094467163086 1.8308614492416381836 1.2563434839248657227 1.8512506484985351563 1 
2.5470283031463623047 2.6158640384674072266 2.4174940586090087891 2.6528995037078857422 2.3942418098449707031 2.354282379150390625 2.6600425243377685547 2.7681703567504882813 2.6114828586578369141 2.9531278610229492188 2.837371826171875 2.2263898849487304688 2.6927585601806640625 2.0667073726654052734 2.8639471530914306641 2.8161191940307617188 2.7316982746124267578 2.6392145156860351563 2.3715853691101074219 2.2298407554626464844 1.9813122749328613281 2.5180077552795410156 2.2433300018310546875 2.7017190456390380859 2.4254055023193359375 1.6855112314224243164 1.7469292879104614258 1.3048087358474731445 2.0493724346160888672 1.2368026971817016602 1.7827204465866088867 2.2312810420989990234 1.3397669792175292969 1.3367605209350585938 1.9101984500885009766 1.8299716711044311523 2.2424716949462890625 2.4995641708374023438 1.2118371725082397461 2.1389698982238769531 1.1910628080368041992 1.4198118448257446289 1 1.5213490724563598633 1 1 1.1229951381683349609 1.5113556385040283203 1.9955966472625732422 1.6230274438858032227 1.3522214889526367188 1.8286224603652954102 2.1331670284271240234 1.4674125909805297852 1.1436204910278320313 1 1.6535865068435668945 2.4985957145690917969 1 2.5517640113830566406 1.7573640346527099609 1.2575114965438842773 1.9789811372756958008 2.2336819171905517578 1.1659885644912719727 1.6852152347564697266 2.2674250602722167969 2.6832325458526611328 2.1633558273315429688 1.5411593914031982422 2.4452211856842041016 2.8175141811370849609 1.952640533447265625 2.1246662139892578125 2.2012333869934082031 2.3065917491912841797 1.7882707118988037109 1.91497039794921875 1.6322798728942871094 1.4770146608352661133 1 1.7024524211883544922 1.6967141628265380859 1.867749333381652832 2.1497874259948730469 2.3407087326049804688 2.4036865234375 1.8554869890213012695 2.0618758201599121094 2.2980201244354248047 2.2307837009429931641 2.4095816612243652344 2.3981218338012695313 2.4061386585235595703 2.3734214305877685547 2.2394454479217529297 2.3926270008087158203 3.13451385498046875 2.9633457660675048828 2.9000480175018310547 2.7237861156463623047 2.4057488441467285156 1.679795384407043457 2.5248823165893554688 2.2321274280548095703 2.3065059185028076172 2.3247280120849609375 2.7264580726623535156 2.6511888504028320313 1.7144850492477416992 2.0665853023529052734 2.5467953681945800781 2.1511733531951904297 1.9934517145156860352 1.7573640346527099609 2.5409319400787353516 2.2424716949462890625 1.9259675741195678711 1.7754449844360351563 1.2349509000778198242 1.8318656682968139648 1.3267408609390258789 1.4198118448257446289 1.3221335411071777344 2.298053741455078125 1.8465025424957275391 1.5305515527725219727 1.1507860422134399414 1.3320616483688354492 1.0258793830871582031 1.4256043434143066406 1.1291383504867553711 2.0932440757751464844 2.0471031665802001953 1.9556474685668945313 1.1015827655792236328 1.9777399301528930664 1.8161375522613525391 2.1863014698028564453 2.2623820304870605469 2.2297146320343017578 2.4688694477081298828 1.6728502511978149414 2.2691481113433837891 1.9422821998596191406 2.1871950626373291016 2.1244833469390869141 2.9439756870269775391 2.6567270755767822266 3.1775214672088623047 2.8940808773040771484 1.2276165485382080078 1.9505007266998291016 2.55788421630859375 1.7758247852325439453 1.273100733757019043 2.1506390571594238281 1.6384928226470947266 1.6345299482345581055 1.6414130926132202148 2.5606760978698730469 2.1343679428100585938 1.6524118185043334961 2.4081695079803466797 1.7607294321060180664 1.4424841403961181641 1.1091812849044799805 2.3309862613677978516 2.0648274421691894531 2.8344163894653320313 2.6448388099670410156 2.1404187679290771484 2.3138720989227294922 2.3937349319458007813 2.4086096286773681641 2.3397090435028076172 2.6341717243194580078 3.1126880645751953125 2.3119099140167236328 2.4265055656433105469 2.1560196876525878906 1.9047207832336425781 1 1.8439224958419799805 3.0557122230529785156 2.8323545455932617188 2.2920491695404052734 3.559024810791015625 2.1428124904632568359 2.4566431045532226563 2.9804542064666748047 3.3916711807250976563 1.6168274879455566406 1 2.3129422664642333984 2.4778852462768554688 1.2563434839248657227 1.7754449844360351563 1.0664210319519042969 2.1077826023101806641 
2.2774114608764648438 2.6497178077697753906 2.1485748291015625 2.6522495746612548828 2.7397556304931640625 2.3311934471130371094 2.8650028705596923828 2.6587238311767578125 2.6653325557708740234 2.5410809516906738281 2.8224577903747558594 2.3671414852142333984 3.0418360233306884766 2.1399903297424316406 2.4102885723114013672 2.9044322967529296875 2.2791411876678466797 2.3832027912139892578 2.7224996089935302734 2.1228263378143310547 2.5591828823089599609 1.9664586782455444336 1.8343505859375 2.1236352920532226563 1.8763080835342407227 1.8517540693283081055 2.0649509429931640625 2.1948797702789306641 1.9870550632476806641 1.9747595787048339844 2.0173892974853515625 1.4002348184585571289 2.0812642574310302734 1.8076318502426147461 2.2336819171905517578 1.9298759698867797852 1.1584376096725463867 1.9421523809432983398 1.7469292879104614258 1.6798764467239379883 1.7374097108840942383 2.1862914562225341797 1.4687966108322143555 1.8076318502426147461 1.3367605209350585938 1.8276075124740600586 1.4696586132049560547 1.1584376096725463867 1.7913167476654052734 1.7236468791961669922 2.1179404258728027344 1 1.0906528234481811523 2.2178049087524414063 2.1634585857391357422 1 1.8009866476058959961 2.0885462760925292969 1.7573640346527099609 1.7714035511016845703 2.3050086498260498047 1.4697599411010742188 1.4919579029083251953 1.9278724193572998047 2.0718338489532470703 2.9214956760406494141 1.2857782840728759766 1 1.9411460161209106445 1.0808541774749755859 2.2895026206970214844 2.8275120258331298828 2.0705206394195556641 2.18524932861328125 1.5815271139144897461 1.6262614727020263672 1.8048759698867797852 1.6798764467239379883 1.5550612211227416992 2.5621662139892578125 2.1850810050964355469 2.0166227817535400391 2.1151719093322753906 1.7783246040344238281 2.6494600772857666016 2.620147705078125 2.4994130134582519531 2.3286614418029785156 1.915753483772277832 2.9063327312469482422 2.4198160171508789063 2.2670836448669433594 2.3646411895751953125 2.5738544464111328125 2.5283670425415039063 3.0399522781372070313 3.076812744140625 2.4754004478454589844 2.6378660202026367188 2.9837083816528320313 2.6739919185638427734 1.893900752067565918 2.8074083328247070313 2.4487440586090087891 2.3176894187927246094 2.4665422439575195313 2.8527390956878662109 2.3318080902099609375 2.3820779323577880859 2.4033234119415283203 2.57820892333984375 2.1019971370697021484 2.4512474536895751953 2.3374388217926025391 1.1584376096725463867 1.9259675741195678711 1 1 1 1.6866780519485473633 1.3311647176742553711 1.6581586599349975586 2.2336819171905517578 1.9519536495208740234 1.6333515644073486328 2.3301827907562255859 1.7585793733596801758 1.9972574710845947266 1.2692521810531616211 1.9421523809432983398 2.241943359375 2.4759016036987304688 1.1932799816131591797 1.9328454732894897461 1.3287452459335327148 1.0120041370391845703 2.0979969501495361328 1.614136815071105957 1.7607083320617675781 1.978783726692199707 2.5232224464416503906 1.8322629928588867188 1.704402923583984375 1.3333327770233154297 2.7310683727264404297 2.0395915508270263672 1.0217859745025634766 2.2613089084625244141 2.6079392433166503906 3.1737995147705078125 2.698368072509765625 2.0731172561645507813 2.1335554122924804688 1.2531545162200927734 1.4480003118515014648 1.7018604278564453125 2.1922256946563720703 1.7919740676879882813 2.5068299770355224609 2.0298442840576171875 1.6542427539825439453 1.7607804536819458008 2.2222676277160644531 1.8665335178375244141 1.0166537761688232422 1 2.4942507743835449219 1.8727151155471801758 2.2954592704772949219 2.5378975868225097656 2.0934436321258544922 1.9912047386169433594 2.6054096221923828125 2.3158862590789794922 2.4243271350860595703 2.3311817646026611328 3.1088557243347167969 2.4727666378021240234 2.77260589599609375 2.1725523471832275391 1.9337228536605834961 2.4789025783538818359 3.0276641845703125 3.2569849491119384766 3.3198740482330322266 3.5219407081604003906 3.9922275543212890625 3.2179517745971679688 2.3638715744018554688 2.9499115943908691406 2.8575284481048583984 1.7983248233795166016 1.4631414413452148438 1.9674699306488037109 1.6758406162261962891 1.5327196121215820313 1.7248748540878295898 1 1.1659885644912719727 1.2641986608505249023 
2.4077179431915283203 2.5073380470275878906 2.6948478221893310547 2.1176407337188720703 2.2103807926177978516 2.4860179424285888672 2.3113577365875244141 2.4618153572082519531 2.3892002105712890625 2.6892116069793701172 2.6984064579010009766 3.0591325759887695313 2.0144867897033691406 2.8488490581512451172 2.7193319797515869141 2.7985026836395263672 2.4505989551544189453 2.6754333972930908203 2.5297815799713134766 2.2874491214752197266 2.059688568115234375 2.7613186836242675781 2.0830597877502441406 1.646117091178894043 2.3086981773376464844 2.0012090206146240234 1.5317728519439697266 1.9442824125289916992 2.3680951595306396484 2.0685212612152099609 2.4388356208801269531 2.4319097995758056641 2.2254412174224853516 1 1 1.2499268054962158203 2.3393521308898925781 2.1962094306945800781 2.0157856941223144531 2.5701975822448730469 1.8164347410202026367 1 1.7827785015106201172 2.4995641708374023438 1.9312839508056640625 1.4016534090042114258 1.1584376096725463867 1.9101984500885009766 1.1229951381683349609 1.4838255643844604492 1.3221335411071777344 1.3267627954483032227 2.8502254486083984375 1.1050838232040405273 1.0875641107559204102 1.3030159473419189453 1.7251703739166259766 1.8810631036758422852 1.3267627954483032227 1.2762227058410644531 1.6605764627456665039 1.9441951513290405273 1.620974421501159668 1.7754449844360351563 1.1659885644912719727 3.0776150226593017578 1.4676851034164428711 3.0865292549133300781 1.7573640346527099609 2.0116240978240966797 1 1.5057339668273925781 1.8971030712127685547 1.8356807231903076172 1.6342836618423461914 2.0429468154907226563 1.8882325887680053711 1.5828210115432739258 2.2972521781921386719 1.712528228759765625 1.5715123414993286133 2.2814693450927734375 1.4058500528335571289 1.1584376096725463867 2.4327378273010253906 2.1961996555328369141 2.8546497821807861328 2.8573262691497802734 2.298614501953125 2.3360402584075927734 2.2023284435272216797 2.3447022438049316406 2.7703168392181396484 2.7568173408508300781 2.723659515380859375 2.7492246627807617188 3.5414831638336181641 2.8871157169342041016 2.6134686470031738281 2.5942692756652832031 2.5465779304504394531 2.6439368724822998047 3.4839663505554199219 2.4870438575744628906 1.9309530258178710938 2.3794870376586914063 2.0181412696838378906 2.7094745635986328125 2.4615356922149658203 2.2941455841064453125 2.3732802867889404297 2.6434302330017089844 2.3110003471374511719 2.3928682804107666016 1 1.2716739177703857422 1 1 1.7987500429153442383 1 1.4142925739288330078 1.3397669792175292969 1.0867837667465209961 2.4183020591735839844 2.0336437225341796875 1.6185919046401977539 1.956602931022644043 1.7573640346527099609 2.1622841358184814453 1.2333718538284301758 1.3259108066558837891 2.2552702426910400391 2.1025016307830810547 1.6221401691436767578 1.2333718538284301758 1.0780428647994995117 1 2.1179404258728027344 1.3812218904495239258 2.8047749996185302734 1.5718827247619628906 2.4558365345001220703 1.7580410242080688477 2.4487433433532714844 1 1.7236816883087158203 2.6781592369079589844 2.7736384868621826172 1.674615025520324707 2.1623549461364746094 2.4688479900360107422 2.1158709526062011719 1 1.3283601999282836914 2.3578922748565673828 1.8895164728164672852 2.6794345378875732422 2.4465837478637695313 2.6404871940612792969 2.3964297771453857422 2.5648388862609863281 2.3074228763580322266 1.7169073820114135742 1.8317580223083496094 1.2894889116287231445 1.1511145830154418945 1.6728653907775878906 2.1133828163146972656 2.3443846702575683594 2.2111873626708984375 2.2614471912384033203 2.6417999267578125 2.3392343521118164063 2.0594630241394042969 2.3149359226226806641 2.3345978260040283203 3.1297037601470947266 2.7563185691833496094 2.7575066089630126953 2.0253262519836425781 2.0615870952606201172 2.34860992431640625 2.4617116451263427734 2.7723948955535888672 3.6497910022735595703 2.3578882217407226563 2.2909619808197021484 3.1994760036468505859 3.2708868980407714844 2.5369610786437988281 1.504256129264831543 2.2683699131011962891 1.6854829788208007813 2.04434967041015625 2.1422524452209472656 1.2841507196426391602 2.2336819171905517578 1 1.1747975349426269531 1.7434488534927368164 
2.7954518795013427734 2.5407083034515380859 2.7329945564270019531 2.7158923149108886719 2.342472076416015625 2.9790067672729492188 2.4634537696838378906 2.6505196094512939453 3.0825555324554443359 2.5574221611022949219 2.1982228755950927734 2.9648458957672119141 2.7394344806671142578 2.5621383190155029297 2.517803192138671875 2.2801797389984130859 2.2681405544281005859 2.7264893054962158203 2.3339331150054931641 1.7626018524169921875 2.06127166748046875 2.7960968017578125 2.0519461631774902344 1.8852177858352661133 1.8109227418899536133 1.9043904542922973633 2.1403355598449707031 1.9521819353103637695 1.823157191276550293 1.6920348405838012695 1.9661972522735595703 1.4212219715118408203 2.4871706962585449219 2.5627689361572265625 2.2082240581512451172 1.6249076128005981445 1.9066385030746459961 1.9626046419143676758 2.2044727802276611328 1.9328691959381103516 2.1717183589935302734 2.2031588554382324219 1.1362719535827636719 1.1872371435165405273 1.9215339422225952148 1.4145734310150146484 1 1.3264101743698120117 1.1794439554214477539 1.5335935354232788086 1.3267627954483032227 1.3622814416885375977 1.7617038488388061523 2.2342879772186279297 2.0209100246429443359 1.7356723546981811523 3.0386698246002197266 1.8158144950866699219 1.4134832620620727539 1 2.3440215587615966797 1.6940757036209106445 1.6230274438858032227 1 1 1.0091935396194458008 1.1282786130905151367 1.3236827850341796875 2.0626161098480224609 1.0091935396194458008 1.3522214889526367188 1 2.2736499309539794922 1.3614271879196166992 1.5590749979019165039 1.3352798223495483398 1.7119578123092651367 1.9147055149078369141 2.7157237529754638672 2.0037946701049804688 2.5243616104125976563 2.0372478961944580078 2.3201282024383544922 1.2604227066040039063 2.4739699363708496094 2.1291046142578125 1.6249076128005981445 2.5880136489868164063 2.3155150413513183594 2.6231942176818847656 2.6466836929321289063 2.302459716796875 2.4660069942474365234 2.5752141475677490234 2.4927065372467041016 2.5173368453979492188 3.7359936237335205078 2.661510467529296875 3.0337522029876708984 2.5669960975646972656 3.2355685234069824219 2.2176730632781982422 2.9099209308624267578 2.7652697563171386719 2.1008772850036621094 1.6711735725402832031 2.4006686210632324219 2.0606629848480224609 2.5194411277770996094 2.2559854984283447266 1.9569993019104003906 2.1532306671142578125 1.7059278488159179688 1.8322629928588867188 2.9214956760406494141 1.5386499166488647461 1.1806674003601074219 1 1.4034458398818969727 1.3372328281402587891 1.9955966472625732422 1 1.6963474750518798828 1.7031006813049316406 2.2296473979949951172 1.0300425291061401367 2.4547374248504638672 1.3236827850341796875 1.2118371725082397461 1 1.6581586599349975586 2.7106969356536865234 1.4297020435333251953 1.2116240262985229492 1 1.2118371725082397461 1 1 1.399519801139831543 2.3412461280822753906 1.20891571044921875 1 1 2.1809294223785400391 2.6189582347869873047 2.1958796977996826172 2.5493619441986083984 2.4659810066223144531 2.0013899803161621094 2.6757493019104003906 1.5964519977569580078 1 1 1.2294335365295410156 1.8936959505081176758 1.4829093217849731445 1 2.0845630168914794922 1.8261075019836425781 2.6807699203491210938 3.01473236083984375 2.6092133522033691406 2.1821780204772949219 2.3528635501861572266 1.5862079858779907227 1.3039988279342651367 2.4241127967834472656 2.1033549308776855469 2.3467824459075927734 1.7023725509643554688 2.3224084377288818359 1.909304499626159668 2.3180251121520996094 2.1104688644409179688 2.5323605537414550781 2.7994782924652099609 2.0643239021301269531 2.3623204231262207031 2.2085928916931152344 2.2714314460754394531 2.6699433326721191406 2.5428175926208496094 3.4831018447875976563 3.0007648468017578125 3.1283535957336425781 3.8481256961822509766 2.8096461296081542969 2.7674543857574462891 2.7722544670104980469 2.7721226215362548828 1.9257062673568725586 2.8818652629852294922 2.7951149940490722656 1.842583775520324707 2.284503936767578125 1.5402622222900390625 1.5704121589660644531 1.5799133777618408203 1.5273107290267944336 1.806798100471496582 
2.5315008163452148438 2.5027298927307128906 2.3585073947906494141 2.8622763156890869141 2.4605286121368408203 2.6615319252014160156 2.7555325031280517578 2.9871070384979248047 2.445468902587890625 2.5420219898223876953 2.5389530658721923828 2.8696877956390380859 2.7465488910675048828 2.7121906280517578125 1.9095475673675537109 2.1996729373931884766 2.1450593471527099609 2.6411750316619873047 2.0576634407043457031 2.4742116928100585938 1.9333962202072143555 1.9213840961456298828 2.5938513278961181641 1.9506857395172119141 2.0927059650421142578 2.6184630393981933594 1.6399793624877929688 1.9986126422882080078 2.0743155479431152344 2.0673234462738037109 2.0813162326812744141 2.4076426029205322266 1.9500890970230102539 2.6094448566436767578 1.5905306339263916016 2.4368131160736083984 2.5593292713165283203 2.2082488536834716797 1.94184112548828125 2.3703866004943847656 2.5338768959045410156 2.0225803852081298828 2.6201090812683105469 1.9859083890914916992 1.7356723546981811523 1.602021336555480957 1.7295384407043457031 2.6034448146820068359 1.394565582275390625 2.4759016036987304688 1.8034776449203491211 1.6760427951812744141 2.2563254833221435547 2.2953989505767822266 1.669039607048034668 1.3280843496322631836 1.687117457389831543 1.4655673503875732422 1.2593102455139160156 1.3985038995742797852 2.3926050662994384766 2.2336819171905517578 1.1747975349426269531 1.0892996788024902344 2.3851757049560546875 1.2118371725082397461 1.3522214889526367188 1 1.5601974725723266602 2.3134033679962158203 2.7690782546997070313 1.0201439857482910156 1.3397669792175292969 1.786458134651184082 2.3948893547058105469 1.9472538232803344727 1 1.1298818588256835938 2.2895026206970214844 2.1314680576324462891 2.489734649658203125 2.1012926101684570313 2.6018443107604980469 1.4672832489013671875 1.6230274438858032227 1.8423187732696533203 1.5815271139144897461 1.1642774343490600586 1.3157930374145507813 2.5314013957977294922 2.5865342617034912109 3.2025239467620849609 2.3130917549133300781 2.4535973072052001953 2.4179580211639404297 2.7398195266723632813 3.2721304893493652344 2.6622061729431152344 3.5832245349884033203 3.4401252269744873047 3.3992562294006347656 3.4326629638671875 2.8343176841735839844 2.8654575347900390625 1.7853305339813232422 2.2694165706634521484 2.1545958518981933594 2.3703446388244628906 1.8897053003311157227 1.6534315347671508789 2.0356838703155517578 1.7582232952117919922 2.2963211536407470703 1 1.1584376096725463867 2.2336819171905517578 2.3134033679962158203 1 1 1.7333734035491943359 1.1806674003601074219 1.7031127214431762695 1.3397669792175292969 2.2336819171905517578 2.4995641708374023438 1 2.0347855091094970703 1.0091935396194458008 1 1 1.6746473312377929688 1 1.6402025222778320313 2.0413744449615478516 1.2209904193878173828 1.0201439857482910156 1 1.8771699666976928711 2.2717041969299316406 1.9747595787048339844 2.0384886264801025391 1.3890067338943481445 2.011585235595703125 1.6496711969375610352 2.3699853420257568359 2.2496140003204345703 1.5485994815826416016 2.1949112415313720703 1.8815439939498901367 1.8998664617538452148 2.3779439926147460938 1 1.4154405593872070313 2.0276403427124023438 2.2037837505340576172 1.7010489702224731445 1.8743158578872680664 1.3522214889526367188 2.3490452766418457031 2.1601788997650146484 2.3936369419097900391 2.1421635150909423828 1.4073011875152587891 2.7690782546997070313 2.2627816200256347656 2.7253546714782714844 2.2963936328887939453 1.8133429288864135742 1.8350088596343994141 1.5582975149154663086 2.3384001255035400391 1.4276152849197387695 1.9395276308059692383 1.6769309043884277344 2.0146090984344482422 2.8680918216705322266 2.5452799797058105469 2.799549102783203125 2.7202663421630859375 2.7536935806274414063 2.8139469623565673828 2.8188054561614990234 3.9105341434478759766 3.4986052513122558594 3.0035498142242431641 3.2211377620697021484 2.6947929859161376953 2.5980501174926757813 3.1209959983825683594 2.3724470138549804688 2.4600269794464111328 1.8540030717849731445 2.5790345668792724609 2.0227351188659667969 2.6900315284729003906 1.3039336204528808594 2.2397778034210205078 1.7660849094390869141 1 2.0324623584747314453 
2.5399298667907714844 2.3224718570709228516 2.4781458377838134766 2.9241845607757568359 2.6791505813598632813 2.5405240058898925781 2.9278073310852050781 2.5696241855621337891 3.1215436458587646484 2.1773157119750976563 2.7546913623809814453 2.6831254959106445313 2.0052173137664794922 2.2391307353973388672 2.1663925647735595703 2.3465514183044433594 2.0211999416351318359 2.4783673286437988281 2.865634918212890625 2.4947233200073242188 2.0826165676116943359 2.6047983169555664063 3.0337917804718017578 1.4374120235443115234 2.1919553279876708984 2.1015965938568115234 1.9357773065567016602 2.0497012138366699219 2.2147734165191650391 2.1413843631744384766 2.4659829139709472656 2.1489212512969970703 2.6346573829650878906 2.4114267826080322266 2.3881437778472900391 2.08416748046875 2.5810658931732177734 2.7724168300628662109 2.2232439517974853516 2.1938693523406982422 2.4477925300598144531 2.8826086521148681641 2.2848570346832275391 2.3039276599884033203 2.3229494094848632813 1.9701393842697143555 2.8145608901977539063 2.6035621166229248047 1.7780801057815551758 2.3440074920654296875 2.3536353111267089844 2.1829254627227783203 1.9482511281967163086 1.2814933061599731445 2.0446939468383789063 1.9118307828903198242 1.7454990148544311523 2.2669248580932617188 2.5771608352661132813 1.3890067338943481445 1.9590396881103515625 1.6005625724792480469 1.7165768146514892578 1.0201439857482910156 1.2349509000778198242 1 1 1 1.7333734035491943359 1.2950332164764404297 2.0024030208587646484 2.3851757049560546875 1.2118371725082397461 1.7070553302764892578 1.1229951381683349609 2.0790407657623291016 1.8730820417404174805 1.3221335411071777344 2.2647311687469482422 2.1364612579345703125 1.447768092155456543 2.1220018863677978516 2.2880856990814208984 2.0713009834289550781 1.7042374610900878906 1 1.9421523809432983398 1.6956837177276611328 1.1595361232757568359 2.9054648876190185547 2.5420548915863037109 2.8860321044921875 2.5797913074493408203 2.0354859828948974609 2.6807618141174316406 2.7720100879669189453 2.8252077102661132813 2.8061954975128173828 2.8126459121704101563 3.2955152988433837891 2.7624595165252685547 2.9474689960479736328 2.929931640625 2.5163085460662841797 2.4591324329376220703 1.91617584228515625 2.0678730010986328125 2.0735256671905517578 2.6424977779388427734 2.3894932270050048828 1.7840157747268676758 2.5030605792999267578 1.5179501771926879883 1.6145368814468383789 1.4389703273773193359 1.4198118448257446289 1 1.1653940677642822266 1.6849426031112670898 1.9466162919998168945 2.1443533897399902344 1.6457532644271850586 1.051021575927734375 1.1584376096725463867 1.2118371725082397461 1.0091935396194458008 1 1.0454745292663574219 1.4034458398818969727 1.0892996788024902344 1.7333734035491943359 1.2333718538284301758 2.105663299560546875 1.5132755041122436523 1 1.3286594152450561523 1.0390191078186035156 1.4995034933090209961 2.7339258193969726563 1.8842884302139282227 2.0341117382049560547 1.1584376096725463867 1 1.1394679546356201172 1.4922225475311279297 1.7696312665939331055 1.6343590021133422852 1 2.5592799186706542969 2.8586249351501464844 1 2.1110303401947021484 1.1466308832168579102 2.2161459922790527344 2.7336559295654296875 1.4030517339706420898 1 1.7754449844360351563 1.9902595281600952148 1.8721233606338500977 2.5815494060516357422 1.1041154861450195313 1.5555703639984130859 1.3221335411071777344 2.2887465953826904297 2.3434591293334960938 2.4728257656097412109 2.6273655891418457031 1.8514734506607055664 2.3158910274505615234 2.6375224590301513672 2.3861978054046630859 1.3397669792175292969 2.1122734546661376953 1.9958235025405883789 2.8941717147827148438 2.6793534755706787109 2.8313994407653808594 2.4512348175048828125 2.7648077011108398438 3.0800268650054931641 3.4048006534576416016 3.7399232387542724609 3.6940054893493652344 3.9608054161071777344 3.1729333400726318359 3.4218437671661376953 2.9143881797790527344 3.1812882423400878906 2.9083540439605712891 3.3119871616363525391 2.9779903888702392578 3.0300357341766357422 2.8724663257598876953 2.6810460090637207031 1.5471384525299072266 1.6973977088928222656 2.0265946388244628906 2.5253081321716308594 1.1274511814117431641 
2.3726103305816650391 1.979342341423034668 2.3057279586791992188 2.5568895339965820313 2.8063814640045166016 2.6653761863708496094 2.6538412570953369141 2.3524663448333740234 2.7739875316619873047 2.6763451099395751953 2.7539775371551513672 3.1240704059600830078 2.6900756359100341797 2.5649788379669189453 1.6827950477600097656 2.1762742996215820313 2.5042128562927246094 2.6425504684448242188 2.0156724452972412109 3.2329735755920410156 2.7860813140869140625 2.1921982765197753906 2.6914999485015869141 1.7552704811096191406 2.7490057945251464844 2.2117822170257568359 2.4289765357971191406 2.7538909912109375 1.9853318929672241211 2.9184765815734863281 2.8998498916625976563 2.2984056472778320313 2.2946600914001464844 2.5583479404449462891 3.1819894313812255859 2.5701191425323486328 2.8337457180023193359 2.8119962215423583984 3.0132002830505371094 2.6589875221252441406 2.5193965435028076172 2.2393717765808105469 2.3882639408111572266 3.2179851531982421875 1.7608367204666137695 2.5847017765045166016 2.7880785465240478516 2.2667489051818847656 2.3207325935363769531 2.2518405914306640625 1.8189069032669067383 2.4028024673461914063 2.4904565811157226563 2.0739858150482177734 1.9699815511703491211 1.9664425849914550781 1.4729841947555541992 1.9858956336975097656 2.3823237419128417969 1.9388256072998046875 1.8372954130172729492 1.7342890501022338867 1.4470248222351074219 1.1857011318206787109 2.6316678524017333984 1 1.4034458398818969727 1 1 1 1.4034458398818969727 1 2.0051195621490478516 1.4938256740570068359 1.8219497203826904297 1.9194163084030151367 1.9573105573654174805 1.8578115701675415039 1.3498506546020507813 1.4145734310150146484 1.9014517068862915039 1.7614591121673583984 1.7611447572708129883 2.0387468338012695313 2.0264444351196289063 2.1369371414184570313 2.8360173702239990234 1.9543526172637939453 2.1688296794891357422 1.2531049251556396484 2.1425619125366210938 2.3786883354187011719 2.4034755229949951172 2.7674801349639892578 2.4503543376922607422 2.8472836017608642578 2.9746954441070556641 3.0319991111755371094 3.3475098609924316406 3.0323944091796875 2.3935995101928710938 2.8860518932342529297 2.4834599494934082031 2.4966032505035400391 2.35723114013671875 2.5552251338958740234 2.2449567317962646484 2.631439208984375 2.5498573780059814453 1.5532366037368774414 2.2894282341003417969 2.4017546176910400391 1.6619135141372680664 1.9323407411575317383 1.4499278068542480469 1.2591799497604370117 1.7411047220230102539 1 1.161060333251953125 1.2296007871627807617 1.8462523221969604492 1 1.1747975349426269531 1 2.3948893547058105469 1.1983001232147216797 1.7333734035491943359 2.1179404258728027344 1.1653940677642822266 1.4034458398818969727 2.0051195621490478516 1.2314015626907348633 1.9259675741195678711 2.6104588508605957031 1.5613548755645751953 2.0281138420104980469 1 1.3909810781478881836 1.8881372213363647461 2.1403915882110595703 1.9747595787048339844 1.7573640346527099609 2.3440215587615966797 2.1284072399139404297 1.6048829555511474609 1.2376408576965332031 1.3751829862594604492 1.5286403894424438477 2.1080405712127685547 1.3456426858901977539 2.1622562408447265625 2.2004418373107910156 2.5818464756011962891 2.1376202106475830078 1.0902614593505859375 1.315482020378112793 2.0725774765014648438 1 1.6048829555511474609 1.5713709592819213867 2.2139737606048583984 1.7618981599807739258 2.1634585857391357422 2.3440215587615966797 1.8796268701553344727 1.5293800830841064453 1.9461407661437988281 1.4506934881210327148 1.3746753931045532227 2.5057170391082763672 2.3037242889404296875 2.1937022209167480469 2.3325088024139404297 1.7872344255447387695 2.8347032070159912109 2.3157000541687011719 3.0234105587005615234 2.8505971431732177734 3.0725636482238769531 3.9129033088684082031 3.4530086517333984375 3.6445124149322509766 3.5526506900787353516 3.8535752296447753906 3.3094241619110107422 3.1111617088317871094 3.3081161975860595703 3.5377070903778076172 3.7049875259399414063 3.2920715808868408203 3.30055999755859375 2.8335256576538085938 2.9413993358612060547 2.9210181236267089844 2.9801633358001708984 2.2429316043853759766 3.0115766525268554688 1.9509254693984985352 2.0442202091217041016 1.6568138599395751953 
2.7249445915222167969 3.3308110237121582031 2.4582049846649169922 2.6838917732238769531 2.7525417804718017578 2.7855062484741210938 2.5118577480316162109 2.5796909332275390625 2.8718347549438476563 2.8470432758331298828 2.9829907417297363281 2.3353877067565917969 3.0962870121002197266 2.7205548286437988281 2.4773790836334228516 1.7199721336364746094 1.9579560756683349609 2.6772220134735107422 2.7819256782531738281 2.6076643466949462891 2.2177093029022216797 2.8889596462249755859 2.4611980915069580078 2.8074474334716796875 2.0969753265380859375 2.9518711566925048828 2.6634817123413085938 2.4379363059997558594 1.9933677911758422852 1.8733286857604980469 2.6151790618896484375 2.7524225711822509766 2.6833155155181884766 2.4635689258575439453 2.3807375431060791016 2.8660182952880859375 2.4677479267120361328 2.2095384597778320313 2.6330614089965820313 3.1956472396850585938 2.4519705772399902344 1.9995223283767700195 2.2560293674468994141 2.3069436550140380859 2.3121852874755859375 2.8875820636749267578 2.1387448310852050781 2.4662778377532958984 2.7608103752136230469 2.9834423065185546875 3.0589914321899414063 2.9116568565368652344 2.8938443660736083984 2.9521534442901611328 1.3170247077941894531 1.6230962276458740234 2.3122875690460205078 1.9109588861465454102 1.6205960512161254883 1 1.9097980260848999023 1 1.4633136987686157227 1.9401468038558959961 1.7827785015106201172 1.1806674003601074219 1.1806674003601074219 1 1.7245807647705078125 1 1 1 1 1 1.4198118448257446289 1.3522214889526367188 1.9194163084030151367 1.2126379013061523438 1.1998038291931152344 1.8048930168151855469 1.7862417697906494141 1.7913167476654052734 1.1584376096725463867 2.2298719882965087891 1.627203822135925293 1.3036818504333496094 1.6734639406204223633 2.0776948928833007813 1.2496166229248046875 2.0471403598785400391 2.1368525028228759766 2.6048839092254638672 2.1463801860809326172 2.6706311702728271484 2.2778553962707519531 2.0672767162322998047 3.7078416347503662109 3.3839366436004638672 3.4410185813903808594 3.2550656795501708984 2.6210620403289794922 2.7185561656951904297 2.5539150238037109375 2.2083141803741455078 2.5571725368499755859 2.2562401294708251953 2.6775255203247070313 2.20546722412109375 2.415874481201171875 2.2467851638793945313 2.2876391410827636719 2.5792949199676513672 2.2240176200866699219 2.2908670902252197266 1.3820184469223022461 1 1.4034458398818969727 1.4034458398818969727 1.0892996788024902344 1.9712347984313964844 1 2.0783851146697998047 1.6850461959838867188 1 1 1 1 1.1653940677642822266 1 1 1 1 2.3200678825378417969 1.0863150358200073242 1.4702154397964477539 1 2.1672396659851074219 1.1209939718246459961 1.3320616483688354492 1.0934908390045166016 1.0030668973922729492 2.5398836135864257813 1.9390245676040649414 2.0029892921447753906 1 2.0042867660522460938 1.9632852077484130859 2.0718338489532470703 1.2950332164764404297 1 1 2.3851757049560546875 1 1 1 1 1.9194163084030151367 1.2394722700119018555 1.479602813720703125 1.3221335411071777344 1.9029641151428222656 1.8215566873550415039 1.6308434009552001953 2.2895026206970214844 2.3646218776702880859 1.9869675636291503906 2.2399876117706298828 2.2769725322723388672 2.5306050777435302734 2.0012090206146240234 2.0663919448852539063 2.0258121490478515625 1.5508241653442382813 2.8422791957855224609 1.7972426414489746094 2.0528943538665771484 2.5740046501159667969 2.558216094970703125 2.9788289070129394531 3.3250384330749511719 3.5983598232269287109 3.4393165111541748047 3.8225963115692138672 3.5306055545806884766 3.3753299713134765625 3.7444062232971191406 3.6398522853851318359 4.0849742889404296875 3.9753050804138183594 3.4367535114288330078 3.545764923095703125 3.2636170387268066406 3.1222674846649169922 3.0041909217834472656 2.6412851810455322266 2.9089920520782470703 3.0770905017852783203 1.3816630840301513672 2.2356762886047363281 2.7470719814300537109 
2.4296343326568603516 2.6909596920013427734 3.2740039825439453125 2.61917877197265625 2.7846977710723876953 2.1714835166931152344 2.5937957763671875 2.4174940586090087891 2.7042691707611083984 2.5257773399353027344 2.4929859638214111328 2.7840611934661865234 1.9729850292205810547 1.9342174530029296875 2.6495022773742675781 2.8164472579956054688 2.8805708885192871094 2.0377860069274902344 2.8444330692291259766 2.8891241550445556641 2.5515263080596923828 2.2800779342651367188 2.4958286285400390625 2.2293174266815185547 2.6586132049560546875 2.3317615985870361328 2.5112981796264648438 1.4478031396865844727 2.3945765495300292969 2.1663372516632080078 2.7769696712493896484 2.4395525455474853516 2.3082842826843261719 2.8471343517303466797 2.9806256294250488281 2.8238995075225830078 3.1702709197998046875 2.8041918277740478516 2.5812697410583496094 2.9069750308990478516 2.6465477943420410156 2.7478320598602294922 2.0506551265716552734 2.6886103153228759766 2.3047926425933837891 2.7788596153259277344 3.0498247146606445313 3.0128073692321777344 2.2280600070953369141 2.7721230983734130859 2.8629376888275146484 2.901340484619140625 2.6135053634643554688 2.4556648731231689453 2.4467573165893554688 1.8179190158843994141 2.2605993747711181641 1.8587810993194580078 2.0674970149993896484 2.3119184970855712891 1.5196694135665893555 1.0307372808456420898 1.3936873674392700195 1.3096773624420166016 1.5712802410125732422 1.3434804677963256836 1.6634446382522583008 1.6527736186981201172 1 1.06850433349609375 1 1.2126379013061523438 2.0997419357299804688 1.771950840950012207 1.2110618352890014648 1.0091935396194458008 1 1.3862323760986328125 1.1489439010620117188 1 1.5386499166488647461 1.3081631660461425781 1.4586597681045532227 1.6535865068435668945 2.3440215587615966797 1.4145734310150146484 1.4705623388290405273 2.1779074668884277344 1.8689943552017211914 1.3027576208114624023 2.2045536041259765625 1.5015176534652709961 1.5116723775863647461 2.6766726970672607422 2.4565057754516601563 2.8645393848419189453 2.906871795654296875 2.6803743839263916016 3.1758105754852294922 3.0479605197906494141 2.7040777206420898438 2.7055757045745849609 2.2704727649688720703 2.3798167705535888672 2.1303246021270751953 1.6564780473709106445 1.4971859455108642578 2.8073048591613769531 2.309696197509765625 1.9565532207489013672 2.4186947345733642578 1 1.4813791513442993164 1 2.0812642574310302734 1.2118371725082397461 2.1179404258728027344 1 1 1.2126379013061523438 1 1.2338231801986694336 1 1.1983001232147216797 1.1806674003601074219 1.15058135986328125 1.5219110250473022461 1 1.2671102285385131836 1 1.0122760534286499023 1 1 1.2386783361434936523 1.315482020378112793 1.0681436061859130859 2.0783851146697998047 1.0066267251968383789 2.2013597488403320313 1.5082644224166870117 1.8327169418334960938 1.8871619701385498047 1.7459903955459594727 1.7014728784561157227 1.9418740272521972656 2.1051621437072753906 1.3074027299880981445 1.0834877490997314453 2.2707016468048095703 2.1110303401947021484 1 1.7810119390487670898 1.0201439857482910156 1 1.0320204496383666992 1.5717241764068603516 1 1.2333718538284301758 1.2259159088134765625 1.1291054487228393555 2.2522261142730712891 1.8514734506607055664 3.0951764583587646484 1.9135975837707519531 2.1567516326904296875 1.9126983880996704102 2.6748507022857666016 2.2003543376922607422 1.9186260700225830078 2.2223522663116455078 2.2377710342407226563 1.7953920364379882813 1.9192930459976196289 3.0379531383514404297 3.0731859207153320313 2.6639156341552734375 2.9025034904479980469 2.8272931575775146484 3.1417253017425537109 3.1324677467346191406 3.6374647617340087891 3.5621111392974853516 3.4281978607177734375 3.9826548099517822266 3.4119951725006103516 3.6660146713256835938 3.6560230255126953125 3.9936280250549316406 3.8947515487670898438 3.6595566272735595703 2.9563066959381103516 4.0046925544738769531 3.6453189849853515625 3.32379913330078125 2.7807748317718505859 3.5616703033447265625 2.2758238315582275391 2.7292428016662597656 2.4938209056854248047 2.1148128509521484375 
2.7158572673797607422 2.1461119651794433594 2.4823596477508544922 1.9957432746887207031 2.7992355823516845703 2.3857653141021728516 2.3533697128295898438 2.5227315425872802734 2.3378055095672607422 2.6938312053680419922 2.4348630905151367188 2.5075674057006835938 2.3880956172943115234 2.5517606735229492188 3.0792627334594726563 2.2808594703674316406 2.6043531894683837891 2.8683977127075195313 2.26018524169921875 2.2843036651611328125 2.4444231986999511719 2.6589627265930175781 2.5182788372039794922 2.5298085212707519531 2.5746123790740966797 2.4627721309661865234 2.2726652622222900391 2.5323920249938964844 2.6290736198425292969 2.4040398597717285156 2.7281448841094970703 2.7970707416534423828 2.9418618679046630859 2.8638279438018798828 2.9196002483367919922 3.4690022468566894531 2.8024320602416992188 3.1240034103393554688 2.563812255859375 2.5093643665313720703 2.5889065265655517578 2.2427411079406738281 1.5231374502182006836 2.2065289020538330078 2.5394001007080078125 3.651439666748046875 3.0805487632751464844 2.9133913516998291016 2.8004748821258544922 3.1010203361511230469 2.0207011699676513672 3.0318255424499511719 2.2364716529846191406 2.2278773784637451172 2.3507683277130126953 2.4390978813171386719 2.1044421195983886719 1.3956549167633056641 1.264485478401184082 1.1642774343490600586 2.0695030689239501953 1.8763796091079711914 1.7913167476654052734 1.7880367040634155273 1.9259675741195678711 1.161509394645690918 1.9955966472625732422 1 1.441046595573425293 1.3718758821487426758 1 1.7333734035491943359 1 1.0097109079360961914 2.0192873477935791016 2.0997419357299804688 1.525248408317565918 1.7316684722900390625 2.0725774765014648438 1 2.2442405223846435547 2.0812642574310302734 1.4145734310150146484 1.4361401796340942383 2.8198323249816894531 2.0950672626495361328 1.5506693124771118164 2.5171525478363037109 1.570490717887878418 1.2563434839248657227 1.0461792945861816406 1.9573105573654174805 1 1.5777339935302734375 2.5202405452728271484 2.8640758991241455078 3.2993483543395996094 3.5825002193450927734 3.061603546142578125 2.6759340763092041016 2.8102672100067138672 2.9351222515106201172 3.0505461692810058594 2.2142283916473388672 2.5363829135894775391 2.2533533573150634766 1.8103470802307128906 2.2806680202484130859 2.4005424976348876953 1.5871558189392089844 1.6734483242034912109 1.9068907499313354492 1.3729759454727172852 2.0725774765014648438 1.6578770875930786133 1.8076318502426147461 2.0918228626251220703 1.6230028867721557617 2.0838303565979003906 1 1.3138022422790527344 1.5227354764938354492 1.653941035270690918 1.2349509000778198242 1 1.7561491727828979492 1 1.4381324052810668945 1.2450430393218994141 1 1 1 1 1 1.1735665798187255859 2.0171904563903808594 2.2743937969207763672 1.5598100423812866211 1.4235528707504272461 1.7135565280914306641 2.0425150394439697266 2.2784204483032226563 1.7951028347015380859 2.2141432762145996094 1.4850940704345703125 1.1541031599044799805 2.3281223773956298828 1.9191005229949951172 1.1584376096725463867 2.2336819171905517578 1.7333734035491943359 1 1 1.8935514688491821289 1.2799242734909057617 1 1.0097109079360961914 2.2562680244445800781 1.2637460231781005859 1.5163251161575317383 1.1998038291931152344 1.6828376054763793945 1.0348469018936157227 1.6784268617630004883 1.8633540868759155273 2.3678567409515380859 2.1931531429290771484 2.0381629467010498047 1.5317510366439819336 2.0246908664703369141 1.573247075080871582 1.9283295869827270508 2.7081351280212402344 2.5018007755279541016 1.8619298934936523438 3.2055678367614746094 3.3018982410430908203 2.9548592567443847656 3.8192098140716552734 3.773578643798828125 3.5259637832641601563 3.7394380569458007813 3.7038636207580566406 3.6401882171630859375 3.8973398208618164063 3.2466101646423339844 3.4872500896453857422 3.4658727645874023438 3.7205669879913330078 3.9192912578582763672 4.165447235107421875 3.6886899471282958984 3.3894350528717041016 3.4156539440155029297 3.5618121623992919922 2.4431912899017333984 3.1429486274719238281 2.1040604114532470703 1.9285767078399658203 1.7623296976089477539 
2.19849395751953125 2.5133240222930908203 2.8117091655731201172 2.6274397373199462891 2.2175774574279785156 2.2333080768585205078 2.7727174758911132813 2.2864513397216796875 2.5393793582916259766 2.53870391845703125 2.4609925746917724609 2.0637500286102294922 2.6688401699066162109 2.6980729103088378906 1.9650378227233886719 2.9665112495422363281 2.8178105354309082031 2.7248711585998535156 2.9148209095001220703 2.2401347160339355469 2.6157796382904052734 2.53224945068359375 2.3410217761993408203 2.5680036544799804688 2.3135304450988769531 2.6827495098114013672 2.7539989948272705078 2.683574676513671875 2.2532641887664794922 2.8560974597930908203 2.7395856380462646484 3.0723233222961425781 3.1208510398864746094 2.4005854129791259766 2.4429898262023925781 3.0675666332244873047 2.3449027538299560547 2.7459936141967773438 2.7221865653991699219 2.6356592178344726563 2.5996141433715820313 2.6322662830352783203 2.5651819705963134766 2.1856911182403564453 3.1768183708190917969 2.85848236083984375 2.8759245872497558594 3.2564275264739990234 3.3811662197113037109 2.46468353271484375 3.0827374458312988281 1.9314745664596557617 2.3146176338195800781 2.7622821331024169922 2.0410056114196777344 2.1095349788665771484 2.5271875858306884766 1.9171410799026489258 1.4298726320266723633 1.1111582517623901367 2.5117788314819335938 2.1721022129058837891 2.4999887943267822266 2.8664841651916503906 2.2911133766174316406 1 1.4002982378005981445 1.7754449844360351563 1.3320616483688354492 2.2336819171905517578 1.7145577669143676758 1.2030708789825439453 1 1.1653940677642822266 1.0122760534286499023 1.0258510112762451172 1 1 1.5601974725723266602 1.0182690620422363281 2.2628631591796875 1.3522214889526367188 1 1.9312769174575805664 1.7573640346527099609 1.2067019939422607422 2.7804360389709472656 2.1519527435302734375 2.5946764945983886719 2.5188004970550537109 2.8442349433898925781 1.6150794029235839844 2.7350964546203613281 1.8115531206130981445 2.3779096603393554688 2.1055665016174316406 3.1579153537750244141 3.8962037563323974609 2.6156322956085205078 3.1315662860870361328 2.5006787776947021484 1.7170656919479370117 2.8012940883636474609 2.2917544841766357422 3.0628745555877685547 2.761810302734375 1.1949372291564941406 1.6927455663681030273 1.8076318502426147461 2.3064088821411132813 2.1063442230224609375 1.694829106330871582 1.1659885644912719727 2.0725774765014648438 1 2.3499128818511962891 1.7953447103500366211 2.0525197982788085938 1 2.3492329120635986328 2.3541605472564697266 1.308520197868347168 1.810273289680480957 1.5070432424545288086 1 1 1.1029417514801025391 1.1812468767166137695 1 1 1 1 1 1 1.1537799835205078125 1.0201439857482910156 1.8477345705032348633 2.2490389347076416016 1.5384528636932373047 2.1437532901763916016 1.2990628480911254883 2.3053560256958007813 1.462321162223815918 1.8060563802719116211 2.2617461681365966797 1.6128678321838378906 1.9815579652786254883 2.4038364887237548828 1.4838255643844604492 1.1998038291931152344 1.1350539922714233398 1.2563434839248657227 1.8014738559722900391 1.613345026969909668 1.8389708995819091797 1.7561491727828979492 1 1 1.2723041772842407227 1.0064613819122314453 1.7752043008804321289 1.8299716711044311523 1.7573640346527099609 1.8019840717315673828 2.6298799514770507813 2.1917459964752197266 2.2286455631256103516 1.8924739360809326172 1.9752215147018432617 2.4321730136871337891 2.289386749267578125 3.1467390060424804688 2.4798099994659423828 2.6217513084411621094 2.3086771965026855469 3.245269775390625 2.8862736225128173828 2.9172065258026123047 3.2657155990600585938 3.0689098834991455078 3.4561612606048583984 3.5889186859130859375 3.3133246898651123047 3.4876711368560791016 3.844879150390625 3.8460242748260498047 4.1770954132080078125 4.1659674644470214844 3.6132133007049560547 3.3163194656372070313 3.3899986743927001953 3.9199275970458984375 3.4718058109283447266 3.7623295783996582031 3.7754509449005126953 3.4025428295135498047 3.1617889404296875 2.5255224704742431641 2.6391782760620117188 2.4903383255004882813 
2.6933896541595458984 2.1253364086151123047 2.5920176506042480469 2.6201734542846679688 2.6711306571960449219 2.1073422431945800781 2.2355904579162597656 2.7455487251281738281 3.2436048984527587891 1.9593229293823242188 1.5076638460159301758 2.8223874568939208984 2.9001801013946533203 2.5199031829833984375 2.4473133087158203125 3.139682769775390625 2.1611425876617431641 2.8380656242370605469 2.4968461990356445313 1.9199317693710327148 3.0469338893890380859 2.2704966068267822266 2.4453146457672119141 2.3498587608337402344 2.8418419361114501953 1.6333372592926025391 2.3375444412231445313 1.9258663654327392578 2.4550230503082275391 2.5750906467437744141 2.0864396095275878906 2.9426987171173095703 2.9768931865692138672 2.7546138763427734375 2.5025942325592041016 2.8739063739776611328 2.1979935169219970703 2.5619802474975585938 3.1050722599029541016 3.2586443424224853516 3.317432403564453125 2.1797175407409667969 2.6848974227905273438 2.6827518939971923828 2.7888951301574707031 2.7612802982330322266 2.8662540912628173828 3.2776012420654296875 2.9959599971771240234 2.8022348880767822266 2.4943971633911132813 2.2891612052917480469 1.8589075803756713867 2.0576915740966796875 1.8956090211868286133 2.8211069107055664063 1.9058911800384521484 2.8033864498138427734 1.9669651985168457031 2.354095458984375 2.4897968769073486328 2.0695974826812744141 2.2156271934509277344 2.5614807605743408203 2.133472442626953125 1.2568438053131103516 1 1 1.8330452442169189453 1.2657171487808227539 1.7754449844360351563 1 1.1502031087875366211 1.4034458398818969727 1.8504009246826171875 1.5201420783996582031 1 1 2.1179404258728027344 1 1 1.2118371725082397461 2.0633018016815185547 1.1659885644912719727 2.3440215587615966797 1.4491100311279296875 1.7066681385040283203 2.2353160381317138672 2.2895026206970214844 2.1359813213348388672 1.1619997024536132813 2.1629955768585205078 2.1747386455535888672 1.9150052070617675781 1.852456212043762207 2.8876814842224121094 1.9364516735076904297 3.39846038818359375 2.8422174453735351563 3.2159471511840820313 3.3953430652618408203 3.3355238437652587891 2.811069488525390625 3.2662560939788818359 2.3569252490997314453 1.4515410661697387695 2.0547130107879638672 2.1972563266754150391 1.4915040731430053711 1.6266949176788330078 1.803802490234375 1.4133695363998413086 1.6917841434478759766 1.9573105573654174805 1.4273315668106079102 1.4142925739288330078 2.1560583114624023438 2.25229644775390625 2.0429468154907226563 2.5462551116943359375 1 1.7165768146514892578 1.9955966472625732422 1 1.3045036792755126953 1.5607722997665405273 2.5925157070159912109 1.1029417514801025391 1 1.0115836858749389648 1.1302753686904907227 1 1 1 1.2333718538284301758 1.5985388755798339844 1.4618668556213378906 2.4323315620422363281 2.6045320034027099609 1.6195347309112548828 1.9399118423461914063 1.8090848922729492188 1.3313735723495483398 1.6795388460159301758 2.5102429389953613281 2.4802272319793701172 1.8648947477340698242 1.0104545354843139648 2.0411639213562011719 1.0279130935668945313 2.2205352783203125 2.3737587928771972656 1 1.6333147287368774414 1.5241041183471679688 1.2314015626907348633 1 2.1597898006439208984 2.1293132305145263672 1.3415700197219848633 1.0331765413284301758 1.254100799560546875 2.4198100566864013672 2.4422130584716796875 2.4701578617095947266 1.9610407352447509766 3.0692594051361083984 2.1383242607116699219 2.7909450531005859375 2.5638163089752197266 1.7600585222244262695 2.3341658115386962891 1.6792201995849609375 2.5974526405334472656 3.0547263622283935547 3.0556130409240722656 2.7048730850219726563 3.4375436305999755859 3.4279160499572753906 3.5287563800811767578 3.7988464832305908203 4.1623072624206542969 3.6937768459320068359 3.7481565475463867188 4.04402923583984375 3.9160974025726318359 4.4619188308715820313 3.9494450092315673828 4.2382273674011230469 4.23238372802734375 3.9572739601135253906 3.5003786087036132813 3.6934843063354492188 3.0313498973846435547 3.4869508743286132813 2.7901918888092041016 3.1194374561309814453 3.4771370887756347656 3.4930984973907470703 2.1025550365447998047 
2.0921664237976074219 1.9787195920944213867 2.3572194576263427734 1.5152660608291625977 1.9881103038787841797 1.9595839977264404297 2.5397269725799560547 2.9771053791046142578 2.0493364334106445313 2.0054600238800048828 2.1525590419769287109 1.7690939903259277344 2.5473031997680664063 1.9441674947738647461 2.33171844482421875 2.1681377887725830078 2.4246418476104736328 2.7492723464965820313 3.18415069580078125 2.3990530967712402344 2.5622272491455078125 2.1483519077301025391 2.8113014698028564453 1.1018629074096679688 2.3393521308898925781 1.7024524211883544922 1.0162311792373657227 2.1706178188323974609 2.2718446254730224609 2.3914322853088378906 2.4778203964233398438 2.8830749988555908203 2.8174383640289306641 2.7895405292510986328 2.4513552188873291016 2.5267586708068847656 2.3002741336822509766 3.0308585166931152344 3.1519603729248046875 2.8081552982330322266 2.8744616508483886719 3.005123138427734375 2.9971387386322021484 2.1493630409240722656 2.7870481014251708984 2.7690236568450927734 2.8120274543762207031 3.4271459579467773438 2.8668212890625 3.5069956779479980469 3.2628951072692871094 2.4168069362640380859 3.0135197639465332031 2.7892961502075195313 3.2900226116180419922 2.6711647510528564453 2.1820113658905029297 2.5917491912841796875 3.0744891166687011719 3.4486317634582519531 3.2881107330322265625 3.1337628364562988281 2.9983618259429931641 3.0149347782135009766 1.7966611385345458984 1.6150177717208862305 1.994984745979309082 1.6514835357666015625 1.9123580455780029297 1 1.7945731878280639648 1.2434564828872680664 1.7847639322280883789 2.6519815921783447266 1.4034458398818969727 1.0115836858749389648 1.7519911527633666992 1.2716739177703857422 1.6324098110198974609 1.224240422248840332 1.1489439010620117188 1 1.315482020378112793 1.2770155668258666992 1.6479079723358154297 1 1.2888896465301513672 1.3628612756729125977 2.44654083251953125 2.5430572032928466797 2.6018717288970947266 2.3352789878845214844 2.0840313434600830078 2.5266087055206298828 2.0284094810485839844 1.8789021968841552734 1.8710058927536010742 3.5026836395263671875 3.4634914398193359375 3.03165435791015625 3.1908767223358154297 1.8613164424896240234 3.0102267265319824219 2.8724868297576904297 2.6480767726898193359 3.2793102264404296875 1.4548183679580688477 2.1642203330993652344 1.9451656341552734375 1.5712516307830810547 2.4064037799835205078 1.6324125528335571289 1.6009765863418579102 1.8076318502426147461 2.1940958499908447266 1.8198851346969604492 1.6789853572845458984 1.5597182512283325195 1 1.6716524362564086914 1 1.2118371725082397461 1.7195149660110473633 1 1 1 1 1 1 1 1 1 1 1.0644807815551757813 1 2.2553150653839111328 1.1584376096725463867 1.9683730602264404297 2.0329809188842773438 1.3292397260665893555 2.7054870128631591797 1.9615536928176879883 2.2329668998718261719 2.0003833770751953125 2.4005346298217773438 1.8047462701797485352 1.7375615835189819336 1 1.7930257320404052734 1.0411214828491210938 1.4275059700012207031 1 2.2453355789184570313 2.4437856674194335938 1.3566983938217163086 2.3847095966339111328 1.9632767438888549805 2.1671125888824462891 1.7913167476654052734 1.9421523809432983398 2.2139508724212646484 1.3331584930419921875 2.4505383968353271484 1.2695782184600830078 1.972292780876159668 3.2105631828308105469 2.3217535018920898438 2.1665313243865966797 1.5120596885681152344 1.9906367063522338867 2.2497289180755615234 1.9804587364196777344 2.1760857105255126953 3.1258969306945800781 3.3048465251922607422 3.0614922046661376953 2.7633013725280761719 2.7681894302368164063 3.3176236152648925781 3.6958160400390625 3.3844597339630126953 3.5582830905914306641 2.9124588966369628906 3.7716395854949951172 3.8026986122131347656 4.335559844970703125 4.2307043075561523438 4.4014077186584472656 4.3725385665893554688 4.2615203857421875 4.5397944450378417969 3.8648190498352050781 3.772796630859375 4.0279097557067871094 4.0042119026184082031 4.2685089111328125 3.5675182342529296875 3.6921150684356689453 2.89239501953125 2.2615468502044677734 
1.2098957300186157227 2.0601184368133544922 2.2355792522430419922 2.4774346351623535156 2.0189454555511474609 2.5622310638427734375 2.094844818115234375 2.1060597896575927734 1.8816199302673339844 2.0405304431915283203 2.5253276824951171875 1.7829755544662475586 1.5196694135665893555 2.4838631153106689453 2.5259222984313964844 1.754582524299621582 2.6408674716949462891 2.9162664413452148438 2.6068646907806396484 2.5377571582794189453 2.8557369709014892578 2.0799229145050048828 1.9441019296646118164 2.5950052738189697266 1.7423181533813476563 1.5188307762145996094 2.404571533203125 2.7083103656768798828 2.4789829254150390625 1.6599770784378051758 3.2097313404083251953 3.0836679935455322266 2.307586669921875 3.1008939743041992188 2.6204712390899658203 2.9721012115478515625 2.0499238967895507813 2.6802170276641845703 3.0671696662902832031 2.8151273727416992188 2.4238886833190917969 3.0519316196441650391 2.5400176048278808594 2.6510729789733886719 2.2885692119598388672 2.4713931083679199219 2.5304582118988037109 3.0068972110748291016 2.9713959693908691406 3.2709126472473144531 3.6826236248016357422 2.8419041633605957031 2.9754476547241210938 3.1789758205413818359 3.3836338520050048828 3.3287248611450195313 2.8321211338043212891 3.225200653076171875 3.1346602439880371094 3.5018522739410400391 3.205535888671875 3.4393732547760009766 3.2358944416046142578 2.5260832309722900391 2.5612592697143554688 2.9884579181671142578 2.7657420635223388672 1.8545887470245361328 1.3530558347702026367 1.2303698062896728516 2.2781255245208740234 2.1318395137786865234 1.597767949104309082 1.0643268823623657227 1.8286286592483520508 1 1 1.4667357206344604492 1.077790379524230957 2.1179404258728027344 1.0892996788024902344 1 1 1 1.5737682580947875977 1.9244025945663452148 1.5386499166488647461 1 2.2385969161987304688 1.736164093017578125 2.4739696979522705078 2.4542875289916992188 2.2121832370758056641 2.0664606094360351563 2.3683145046234130859 2.4905545711517333984 2.5032823085784912109 3.116931915283203125 2.3079249858856201172 2.9967896938323974609 3.0858395099639892578 2.9020214080810546875 3.1916055679321289063 2.6611304283142089844 3.2031233310699462891 2.0016939640045166016 1.3916734457015991211 1 1.4729532003402709961 1.7945443391799926758 2.070339202880859375 2.1473443508148193359 2.6982240676879882813 2.3200678825378417969 1.6866780519485473633 1.290332794189453125 2.3458189964294433594 2.0188796520233154297 2.2753512859344482422 1.0065205097198486328 1.6230274438858032227 1.1806674003601074219 1 1 1 1 1 1 1 1 1 1.0115836858749389648 1 1 1 1.06850433349609375 1.1584376096725463867 1.7155958414077758789 1.5307946205139160156 1.9691923856735229492 2.5189580917358398438 1.8451783657073974609 1.848733067512512207 1.3770496845245361328 1.8703081607818603516 1.6079219579696655273 2.6145496368408203125 2.416461944580078125 1.2622667551040649414 2.1609413623809814453 1.9002401828765869141 2.4826025962829589844 2.3813920021057128906 2.0862269401550292969 2.1936240196228027344 2.6999742984771728516 2.0441911220550537109 1.9918017387390136719 2.2882692813873291016 1.3578385114669799805 2.2336819171905517578 2.2911133766174316406 1.3447672128677368164 2.2317221164703369141 2.6599087715148925781 2.3453264236450195313 2.6274068355560302734 2.0339686870574951172 1.661084294319152832 2.4364991188049316406 2.6453664302825927734 2.6070423126220703125 3.0330579280853271484 3.4020879268646240234 3.5633676052093505859 3.2798023223876953125 2.8511462211608886719 2.8157141208648681641 3.0865781307220458984 3.8461511135101318359 3.8686840534210205078 3.8767163753509521484 3.8366541862487792969 3.7245273590087890625 4.1324028968811035156 4.2238574028015136719 4.6399083137512207031 4.2329769134521484375 4.1440434455871582031 4.2090787887573242188 4.0745897293090820313 4.205623626708984375 4.0694980621337890625 3.3389697074890136719 3.1137900352478027344 3.4195013046264648438 3.2466804981231689453 3.6068837642669677734 3.3011205196380615234 3.0160138607025146484 
2.5202326774597167969 2.5684790611267089844 2.1384718418121337891 2.081859588623046875 2.7170050144195556641 1.9673012495040893555 2.6312193870544433594 2.1837291717529296875 1.3367264270782470703 1.9804670810699462891 1.9962379932403564453 1 1.9653078317642211914 2.4455673694610595703 2.0681574344635009766 2.924633026123046875 2.0129134654998779297 2.5054476261138916016 2.4823155403137207031 2.2719128131866455078 2.5286171436309814453 2.3556864261627197266 1.9749424457550048828 1.668452143669128418 1.8191391229629516602 2.4867568016052246094 2.1985626220703125 1.8123812675476074219 2.2936456203460693359 2.5725901126861572266 1.9763923883438110352 2.5711779594421386719 2.8012182712554931641 2.6834299564361572266 2.7223377227783203125 2.7988100051879882813 2.7948825359344482422 2.6197583675384521484 2.5734698772430419922 2.5318379402160644531 2.8011467456817626953 2.8440639972686767578 2.8724184036254882813 2.8763949871063232422 2.2989213466644287109 2.6593532562255859375 2.8252315521240234375 2.5879533290863037109 3.0033426284790039063 3.1094326972961425781 2.8963501453399658203 3.2520372867584228516 3.2225484848022460938 2.7766907215118408203 2.9885065555572509766 3.2472085952758789063 2.7228021621704101563 3.2711575031280517578 3.2000601291656494141 3.2800581455230712891 3.3108618259429931641 2.8395166397094726563 2.7055060863494873047 3.3927838802337646484 3.2763226032257080078 2.6027421951293945313 2.6258368492126464844 2.4826037883758544922 2.2336819171905517578 2.5040767192840576172 1.4788732528686523438 2.4748320579528808594 2.3067057132720947266 2.8753628730773925781 2.3796970844268798828 1.7826664447784423828 1.3707187175750732422 1.6617501974105834961 2.8536090850830078125 1 1 1.7333734035491943359 1 1.2336261272430419922 2.1693131923675537109 1.7524372339248657227 1.1975873708724975586 2.1618111133575439453 2.7258303165435791016 2.3255772590637207031 3.0713045597076416016 2.874980926513671875 2.3859491348266601563 2.5279600620269775391 1 2.5610752105712890625 1.9500529766082763672 2.7022240161895751953 2.1416962146759033203 2.6096274852752685547 2.9851634502410888672 2.3253636360168457031 2.5770998001098632813 3.0483438968658447266 2.1985523700714111328 2.0614354610443115234 2.4947314262390136719 1 1 1.1370238065719604492 2.6463191509246826172 1.7950764894485473633 1 1.1806674003601074219 1.1302753686904907227 1 1.236870884895324707 1.7754449844360351563 1.4248889684677124023 1 1 1.5907621383666992188 1 1 1.1812468767166137695 1.1029417514801025391 1 1 1.133687138557434082 1 2.3851757049560546875 1 1 1.1302753686904907227 1 1 1.7342056035995483398 2.3035907745361328125 1.2122435569763183594 1.3103977441787719727 1 1.3890067338943481445 2.2631230354309082031 2.3360228538513183594 2.3930385112762451172 1 1.9070442914962768555 2.3529784679412841797 1.0300478935241699219 1.742982029914855957 2.4014301300048828125 1.4381505250930786133 1.6152237653732299805 2.5595452785491943359 2.0791084766387939453 1.911497950553894043 2.0334806442260742188 1.242760777473449707 2.2882692813873291016 1.3221335411071777344 1.8708600997924804688 2.1344723701477050781 1.2013093233108520508 1.9777154922485351563 1.5429519414901733398 2.3610961437225341797 2.5897486209869384766 2.0489063262939453125 2.3892312049865722656 2.9825501441955566406 2.4872882366180419922 3.2054288387298583984 2.5769467353820800781 3.2719755172729492188 3.2477543354034423828 2.9040284156799316406 3.9866755008697509766 2.8269240856170654297 3.5255053043365478516 4.2444758415222167969 4.257404327392578125 4.060459136962890625 4.3593802452087402344 3.6807200908660888672 4.3830127716064453125 4.4818325042724609375 4.5232729911804199219 4.397937774658203125 4.3542222976684570313 4.2359261512756347656 4.3857913017272949219 4.458400726318359375 4.1817150115966796875 3.8373684883117675781 3.1188895702362060547 3.4232203960418701172 3.7173497676849365234 3.6841192245483398438 3.1659758090972900391 3.4289343357086181641 
1.822552800178527832 1.1314754486083984375 2.2038714885711669922 2.2647311687469482422 2.8595907688140869141 2.8130726814270019531 2.1111435890197753906 2.1617610454559326172 2.1345613002777099609 1 2.1652669906616210938 1.5738985538482666016 2.0428786277770996094 1.6818016767501831055 2.174022674560546875 2.7348761558532714844 1.8681191205978393555 2.5297701358795166016 2.3513998985290527344 2.912502288818359375 2.0048165321350097656 2.6096100807189941406 2.3691456317901611328 2.0201575756072998047 2.2170882225036621094 2.8272497653961181641 2.4800903797149658203 2.5447008609771728516 2.6870381832122802734 2.3463187217712402344 2.78401947021484375 2.7170245647430419922 2.6904518604278564453 2.7976846694946289063 2.4874787330627441406 2.6825280189514160156 2.5654878616333007813 3.3063864707946777344 2.798816680908203125 2.7237682342529296875 2.7744355201721191406 3.2207744121551513672 2.595367431640625 2.6898591518402099609 2.7994394302368164063 2.7723252773284912109 2.5509583950042724609 2.5936427116394042969 2.6713933944702148438 2.6167585849761962891 3.4490396976470947266 2.6868112087249755859 2.8112823963165283203 2.8312196731567382813 2.8951792716979980469 3.0708322525024414063 2.8658823966979980469 3.2406823635101318359 3.7222745418548583984 2.9242298603057861328 3.2038297653198242188 3.0522787570953369141 3.6663634777069091797 3.3284740447998046875 3.3860223293304443359 3.9046354293823242188 3.2099883556365966797 1.6584284305572509766 2.1721034049987792969 1.3607031106948852539 2.7385315895080566406 2.8933911323547363281 3.0613787174224853516 2.537639617919921875 3.2667505741119384766 1.7129694223403930664 2.5179994106292724609 1.6824032068252563477 2.2265381813049316406 1.3284648656845092773 1.0281059741973876953 1.2716739177703857422 1.7987500429153442383 1.6699427366256713867 1 1.8053145408630371094 1 1.6137957572937011719 1.9034496545791625977 1.8259350061416625977 1.561772465705871582 1.608721613883972168 1.1506394147872924805 2.2402045726776123047 2.8087296485900878906 2.4486143589019775391 2.7142050266265869141 2.7432892322540283203 3.0455961227416992188 2.1309657096862792969 2.3666439056396484375 3.0946106910705566406 2.8584749698638916016 1.9752140045166015625 2.0260367393493652344 2.1122963428497314453 1 1.0958237648010253906 1.3687241077423095703 1.4157518148422241211 1.4049122333526611328 1.2878259420394897461 1 1 1 1 1.420632481575012207 1 1 1 1 1 1 1 1 1 1 1 1 1 1.3508144617080688477 1 1.4034458398818969727 2.0051195621490478516 1.3830394744873046875 1.15936279296875 2.4527838230133056641 2.1242299079895019531 1.1968020200729370117 2.0711126327514648438 1.9312839508056640625 2.1331670284271240234 1.3272250890731811523 1.6796946525573730469 1.5706075429916381836 2.4739699363708496094 1.8942557573318481445 2.0739710330963134766 1.6510682106018066406 2.3258380889892578125 3.11782073974609375 2.7291250228881835938 1.8868535757064819336 2.0122745037078857422 2.4079151153564453125 1.2480283975601196289 1.7735384702682495117 1.7573640346527099609 1.3367605209350585938 2.9709439277648925781 1 1.0487116575241088867 1.4215894937515258789 1.32755279541015625 2.4689006805419921875 1.8823339939117431641 2.9273095130920410156 3.2959685325622558594 2.7346816062927246094 2.7600347995758056641 3.3197536468505859375 2.8023664951324462891 2.8833765983581542969 3.2721312046051025391 3.7519068717956542969 3.1837606430053710938 3.8773760795593261719 3.5635530948638916016 3.5661237239837646484 3.8771789073944091797 4.092350006103515625 4.0255637168884277344 3.6966125965118408203 3.8289747238159179688 4.2496075630187988281 4.2616696357727050781 4.176471710205078125 4.3435306549072265625 4.0025033950805664063 4.4849452972412109375 3.6858050823211669922 4.0683054924011230469 3.6269366741180419922 3.9451498985290527344 3.7099192142486572266 3.6188197135925292969 3.7581961154937744141 3.9655497074127197266 3.4484739303588867188 3.3959562778472900391 
1.3367605209350585938 2.3948893547058105469 1.7561638355255126953 1.7573640346527099609 2.2955410480499267578 1.9095561504364013672 1.8757303953170776367 2.0854380130767822266 1.1595361232757568359 1.7043857574462890625 1.2510697841644287109 2.2895026206970214844 1.3320616483688354492 1.3397669792175292969 2.1560921669006347656 1.635650634765625 2.3882329463958740234 2.6977021694183349609 2.1222136020660400391 2.4630887508392333984 2.7269818782806396484 2.1993422508239746094 2.4748249053955078125 1.3336805105209350586 2.8674702644348144531 2.8084852695465087891 1.9062042236328125 1.9600435495376586914 2.0892086029052734375 2.7097644805908203125 3.0368311405181884766 2.87386322021484375 2.8320813179016113281 2.8147599697113037109 2.7378265857696533203 2.6472327709197998047 2.7322065830230712891 2.7076470851898193359 2.8880493640899658203 2.7245743274688720703 2.9662990570068359375 2.7514870166778564453 2.7671332359313964844 3.0171277523040771484 2.9075372219085693359 2.8338549137115478516 2.7248704433441162109 3.1212096214294433594 2.8786525726318359375 2.7485926151275634766 3.0674810409545898438 2.8081858158111572266 2.9391908645629882813 3.1617267131805419922 3.1860816478729248047 3.2232978343963623047 2.9873666763305664063 2.5515971183776855469 3.5140399932861328125 3.4110648632049560547 4.2215237617492675781 4.0297112464904785156 3.6150534152984619141 2.8897049427032470703 2.9928951263427734375 3.5181472301483154297 2.9784123897552490234 3.2088818550109863281 2.7246980667114257813 2.6761319637298583984 1.7266701459884643555 2.2957713603973388672 2.9266490936279296875 3.2990376949310302734 3.1791734695434570313 2.9610884189605712891 2.5715336799621582031 3.8358371257781982422 1.4128482341766357422 1.7494579553604125977 1 2.4226169586181640625 1 1.3514730930328369141 1.8517062664031982422 2.2522377967834472656 1.4970897436141967773 2.0543589591979980469 2.80094146728515625 2.7003426551818847656 3.0867307186126708984 1.9406526088714599609 2.5283124446868896484 1.8599996566772460938 2.646167755126953125 2.1395204067230224609 2.4963705539703369141 2.3821458816528320313 2.9153599739074707031 2.3358852863311767578 2.6875870227813720703 2.8648231029510498047 3.0040242671966552734 1.9922368526458740234 1.4486718177795410156 2.6050016880035400391 1 1 1.0981010198593139648 1.4828495979309082031 2.3780541419982910156 1 1.2439392805099487305 2.0051195621490478516 1 1 1 1.420632481575012207 1 1 1 1 1 1 1 1 1 1 1 1.1806674003601074219 1.7333734035491943359 2.0051195621490478516 1 1 1 1.1679967641830444336 1.1595361232757568359 1.7488455772399902344 2.3192434310913085938 2.5490765571594238281 1.6836048364639282227 2.1634585857391357422 2.6606531143188476563 1.7490062713623046875 1.4906064271926879883 1.5278998613357543945 1 1.9051153659820556641 2.5566298961639404297 1.6854854822158813477 1.3543471097946166992 1.5932736396789550781 1.7218737602233886719 1.1584376096725463867 2.2505297660827636719 1.386397242546081543 1.1087236404418945313 1.9244604110717773438 1.3522214889526367188 1.224343419075012207 1.4774328470230102539 1 1.5374518632888793945 1 1.976546168327331543 1.464089512825012207 2.2273843288421630859 3.5157816410064697266 3.3417084217071533203 3.3000302314758300781 3.0808894634246826172 3.0391430854797363281 3.2151620388031005859 3.6980435848236083984 2.8804376125335693359 3.4893612861633300781 3.8238656520843505859 4.1674990653991699219 3.8038380146026611328 4.0733141899108886719 4.6118674278259277344 4.3184046745300292969 4.460540771484375 4.5723209381103515625 4.5851807594299316406 4.9761343002319335938 4.5407261848449707031 4.5207400321960449219 4.235759735107421875 3.9493496417999267578 4.1698718070983886719 4.0663518905639648438 3.7239429950714111328 4.0932178497314453125 2.9308426380157470703 3.1908786296844482422 4.2713756561279296875 3.7363317012786865234 3.7902812957763671875 3.6425580978393554688 
2.0301828384399414063 1.6473084688186645508 1.2954964637756347656 2.0812642574310302734 1.1005342006683349609 2.1034936904907226563 2.1511733531951904297 1.443055272102355957 1 2.1676580905914306641 1.5386499166488647461 1.6994912624359130859 1.7118549346923828125 1.9747595787048339844 1.799072265625 1.5492339134216308594 2.4973080158233642578 1.9916956424713134766 2.3686072826385498047 2.2967677116394042969 2.548900604248046875 2.5159268379211425781 2.3172457218170166016 1.3393591642379760742 1.5185503959655761719 2.5642540454864501953 1.2502825260162353516 1.9972989559173583984 2.0340127944946289063 2.4672839641571044922 3.0258784294128417969 2.6095788478851318359 2.0888311862945556641 3.0643923282623291016 2.9561650753021240234 3.1285879611968994141 3.6275448799133300781 2.8142786026000976563 3.0614902973175048828 2.7875568866729736328 2.6406452655792236328 3.3117039203643798828 2.791004180908203125 3.1132099628448486328 2.8726439476013183594 2.9489183425903320313 3.0272076129913330078 2.6282086372375488281 2.6661908626556396484 3.160686492919921875 2.9508292675018310547 2.6033496856689453125 3.2659554481506347656 2.8501381874084472656 2.2741248607635498047 2.2474076747894287109 2.662746429443359375 2.6917958259582519531 3.5421090126037597656 3.8767771720886230469 3.3265032768249511719 4.1060628890991210938 3.3947026729583740234 3.7523670196533203125 3.5985639095306396484 3.4514617919921875 3.1572191715240478516 2.8527345657348632813 2.3837492465972900391 3.2084343433380126953 2.5517535209655761719 2.8315865993499755859 3.0313913822174072266 3.1685640811920166016 3.2883293628692626953 2.8905100822448730469 2.2266190052032470703 3.0626821517944335938 2.1896052360534667969 1.6968710422515869141 2.3311288356781005859 1 2.1351330280303955078 1.935530543327331543 2.8432612419128417969 1.0663620233535766602 2.8979053497314453125 1.8839968442916870117 2.809535980224609375 1.8731224536895751953 1 2.3444564342498779297 1.544132232666015625 2.1185514926910400391 2.5838260650634765625 2.8688709735870361328 2.8165130615234375 3.1096193790435791016 2.9634077548980712891 2.7464892864227294922 2.9675028324127197266 3.6755554676055908203 3.0724751949310302734 2.0065691471099853516 3.2665638923645019531 2.305694580078125 1.9425011873245239258 1 1.445758819580078125 1 1.1301223039627075195 1 1.3910853862762451172 1.4663612842559814453 1 1 1 1 1 1.2493746280670166016 1 1.0115836858749389648 1 1 1 1 1.4942427873611450195 1.7544069290161132813 1 1.7561491727828979492 1.6795011758804321289 1.420632481575012207 2.048839569091796875 2.0997419357299804688 1.1983001232147216797 2.2882692813873291016 2.0473589897155761719 1.2531847953796386719 1.7608361244201660156 2.2801110744476318359 1.0909765958786010742 1.0794255733489990234 2.0485355854034423828 1.8406622409820556641 1 1.1791740655899047852 1.8991905450820922852 1.7751295566558837891 1.0741128921508789063 2.0004744529724121094 1.7333734035491943359 1.1139971017837524414 1.969591975212097168 1.1584376096725463867 1.4152312278747558594 1.6801044940948486328 2.7101504802703857422 2.2360208034515380859 1 1.1299381256103515625 2.0412268638610839844 2.2336819171905517578 1 1.2312715053558349609 1.6157116889953613281 2.3377301692962646484 2.5454533100128173828 2.5363867282867431641 3.1087331771850585938 2.5608303546905517578 3.2193877696990966797 2.9931240081787109375 2.7558848857879638672 3.3377003669738769531 3.7025530338287353516 3.9560019969940185547 3.3681669235229492188 3.9247157573699951172 3.8549005985260009766 4.0051245689392089844 4.2968773841857910156 4.6146154403686523438 4.6572756767272949219 5.0141515731811523438 4.8523287773132324219 4.2749481201171875 4.654438018798828125 4.7297377586364746094 4.7812371253967285156 4.5947866439819335938 3.7055182456970214844 4.183948516845703125 4.1047282218933105469 3.5047247409820556641 4.4233493804931640625 3.3880121707916259766 3.7196366786956787109 4.2924304008483886719 3.2145850658416748047 3.7275919914245605469 
1.2965631484985351563 1.3366914987564086914 1.1983001232147216797 2.5229337215423583984 1.2563434839248657227 1.0218960046768188477 1.3994541168212890625 1 2.0637023448944091797 1.2529816627502441406 2.1714317798614501953 1.7913167476654052734 1.7531690597534179688 1.9573105573654174805 2.0812642574310302734 2.1226775646209716797 1.6157926321029663086 1.489208221435546875 2.3962826728820800781 2.6447551250457763672 2.0638251304626464844 2.4706864356994628906 1.2598478794097900391 1 1.4264848232269287109 1.2349509000778198242 1.6958537101745605469 1.9801006317138671875 2.4027614593505859375 2.15737152099609375 1.5981333255767822266 2.3846564292907714844 2.7176868915557861328 3.0613467693328857422 2.7222702503204345703 2.7155964374542236328 2.6976039409637451172 2.5847713947296142578 2.3655033111572265625 2.2841501235961914063 2.9583520889282226563 2.5485348701477050781 2.81229400634765625 2.4892258644104003906 2.9516322612762451172 3.2383661270141601563 2.7591753005981445313 3.1861619949340820313 2.9888715744018554688 3.2323405742645263672 3.7149698734283447266 3.5577681064605712891 3.0732481479644775391 2.9641985893249511719 2.3036313056945800781 3.0257210731506347656 2.5346410274505615234 3.4475903511047363281 3.3486175537109375 4.0196623802185058594 3.5980503559112548828 3.2925355434417724609 3.2679114341735839844 4.0371761322021484375 4.0684638023376464844 3.5441646575927734375 3.3586492538452148438 2.8650302886962890625 2.9711797237396240234 3.2569704055786132813 3.5012106895446777344 2.9141852855682373047 2.9199402332305908203 2.4808661937713623047 2.8759043216705322266 3.1826956272125244141 3.252750396728515625 2.2954702377319335938 1.980218052864074707 1.5425741672515869141 1 2.4629702568054199219 1 1.4780631065368652344 1.7705467939376831055 1.5906227827072143555 2.0452554225921630859 2.8343358039855957031 2.1822032928466796875 1.181010127067565918 1.6337500810623168945 1.5735509395599365234 1.6765207052230834961 1.2133588790893554688 1.6347773075103759766 2.7160801887512207031 2.8204975128173828125 1.9948960542678833008 3.2832546234130859375 3.3842751979827880859 3.4331655502319335938 3.3558835983276367188 3.349811553955078125 3.7638173103332519531 2.8817937374114990234 1.9481526613235473633 2.0318987369537353516 2.2350835800170898438 1.6939543485641479492 1.0051130056381225586 1.4184184074401855469 1 2.382503509521484375 1 1.1302753686904907227 1 1 1.2707244157791137695 1.791573643684387207 1.4159494638442993164 1.2582398653030395508 1.3466359376907348633 1 1 1 1 1.4034458398818969727 1 1.3524879217147827148 2.3814334869384765625 1.1760342121124267578 1.1806674003601074219 1 1.2707160711288452148 2.1179404258728027344 1.1806674003601074219 2.4676482677459716797 1.3060094118118286133 1.5502331256866455078 2.0498540401458740234 2.4881446361541748047 1.4898056983947753906 1.0245724916458129883 1.2753814458847045898 1.4729608297348022461 1.324756622314453125 1.9534330368041992188 1.7913167476654052734 1.5213490724563598633 1.6865355968475341797 1.6581586599349975586 1.7539746761322021484 1.1117765903472900391 1.7906336784362792969 1.942297816276550293 1.3387626409530639648 1.3221335411071777344 1.9198229312896728516 1.5279241800308227539 2.1458878517150878906 1 1.4719753265380859375 1 1 2.1640961170196533203 2.2889087200164794922 2.5648257732391357422 2.2804758548736572266 2.9799587726593017578 2.8159742355346679688 3.0389411449432373047 2.4855523109436035156 3.2001149654388427734 3.7137324810028076172 3.6825261116027832031 4.0735263824462890625 3.6707637310028076172 3.6559543609619140625 4.0428690910339355469 4.2600846290588378906 3.9178619384765625 4.3392844200134277344 4.774627685546875 4.1479973793029785156 4.7897524833679199219 4.8551502227783203125 4.9862613677978515625 4.3115892410278320313 4.2901902198791503906 4.94646453857421875 4.3298869132995605469 4.3625640869140625 4.3762259483337402344 3.9828250408172607422 4.4278903007507324219 4.43912506103515625 4.1832561492919921875 4.4390745162963867188 4.2666754722595214844 4.4210724830627441406 
1.1806674003601074219 1 1.1806674003601074219 2.1916828155517578125 1 1.2505655288696289063 1.1712651252746582031 2.2336819171905517578 1.5985388755798339844 1 1.0091935396194458008 1.4864579439163208008 1.6039005517959594727 1.8175804615020751953 2.1242299079895019531 2.1693522930145263672 1.9831696748733520508 1.5083588361740112305 2.1987483501434326172 2.6102545261383056641 2.357112884521484375 2.2053675651550292969 2.2120220661163330078 1.3522214889526367188 1.3253958225250244141 1.7333734035491943359 1 2.2970597743988037109 2.1274828910827636719 1.2067019939422607422 1.8613922595977783203 2.7971262931823730469 2.7668700218200683594 2.6206948757171630859 2.6463117599487304688 2.9794452190399169922 2.4293162822723388672 2.9948740005493164063 2.7959017753601074219 2.8078203201293945313 2.7076685428619384766 2.7395191192626953125 3.0187258720397949219 3.1834008693695068359 3.3307468891143798828 2.3474853038787841797 2.9242045879364013672 2.9086518287658691406 2.7843825817108154297 3.2222673892974853516 2.9863183498382568359 3.1425693035125732422 2.8208801746368408203 3.0611221790313720703 2.6521918773651123047 3.7927434444427490234 2.3187716007232666016 2.9682881832122802734 3.2441442012786865234 3.37267303466796875 3.9886212348937988281 3.3805992603302001953 3.2956779003143310547 3.9903161525726318359 3.3549544811248779297 3.7892615795135498047 3.6225867271423339844 3.6334638595581054688 3.8158953189849853516 3.8628206253051757813 3.4289004802703857422 3.1399915218353271484 3.3640987873077392578 3.9438271522521972656 3.4690527915954589844 3.5456967353820800781 2.5084795951843261719 2.8976328372955322266 3.6174597740173339844 2.1679043769836425781 1.2681723833084106445 1 1 1 2.8946161270141601563 1.830708622932434082 2.4340806007385253906 1.7698408365249633789 2.9338626861572265625 1.8344094753265380859 2.1151773929595947266 2.1579720973968505859 1.8946337699890136719 2.8013186454772949219 2.5954332351684570313 1.7564363479614257813 3.3595340251922607422 3.1201281547546386719 2.9100658893585205078 2.1225314140319824219 3.6228053569793701172 3.4436240196228027344 2.9405512809753417969 3.3862109184265136719 1.2546919584274291992 2.8663394451141357422 2.0995264053344726563 1.9411028623580932617 2.4236133098602294922 1 1.5438164472579956055 1.4803104400634765625 1.1245027780532836914 1.4423580169677734375 1 1.1126942634582519531 1 2.1179404258728027344 1.4343067407608032227 1.3260374069213867188 1 1.8405358791351318359 1 1 1 1 1.4034458398818969727 2.0051195621490478516 1.8221888542175292969 1.4801555871963500977 1 2.1179404258728027344 2.3851757049560546875 1.5621440410614013672 1.0125175714492797852 1 1.7982314825057983398 1.569880366325378418 3.2194569110870361328 1.8076318502426147461 2.5567610263824462891 1.5039052963256835938 1.2055426836013793945 2.0023570060729980469 2.3429350852966308594 1.5457078218460083008 2.0048995018005371094 2.0098664760589599609 2.0783851146697998047 1.7858927249908447266 2.3634884357452392578 2.6849870681762695313 2.4259903430938720703 2.6272835731506347656 2.4115777015686035156 1.6128129959106445313 1.4250240325927734375 1.9432796239852905273 1.6603456735610961914 2.3966274261474609375 1 1.0786687135696411133 1 2.3019907474517822266 1.678555607795715332 1.4018347263336181641 1.2146571874618530273 2.1472470760345458984 2.9376568794250488281 2.8933360576629638672 3.0287439823150634766 2.9725499153137207031 3.2310442924499511719 3.2130270004272460938 3.9998223781585693359 4.2900433540344238281 3.8507564067840576172 4.0203843116760253906 3.8637297153472900391 4.1964640617370605469 3.9812526702880859375 4.2612490653991699219 4.4945545196533203125 4.60216522216796875 4.7124552726745605469 4.4643969535827636719 4.8215804100036621094 4.9636621475219726563 4.2307720184326171875 3.9724867343902587891 4.214893341064453125 3.4522426128387451172 4.010467529296875 3.8043439388275146484 4.6700267791748046875 4.3695850372314453125 4.5078358650207519531 4.428974151611328125 4.3691134452819824219 4.9089694023132324219 
2.1295299530029296875 2.3851757049560546875 1.1743782758712768555 1 1.1291054487228393555 1.9955966472625732422 1.8711882829666137695 2.5464997291564941406 1 1 1.7561491727828979492 1.9955966472625732422 2.3115398883819580078 1.7218737602233886719 1.7753171920776367188 2.9544727802276611328 1.2333718538284301758 2.7983257770538330078 1.6884673833847045898 2.1137664318084716797 2.1884043216705322266 1.7526658773422241211 2.3948893547058105469 1.5635855197906494141 1.4157779216766357422 1 1 1.0487116575241088867 2.580230712890625 1.3850700855255126953 2.3356828689575195313 1.9813315868377685547 2.7838418483734130859 2.7691242694854736328 2.30118560791015625 2.3998384475708007813 3.0716459751129150391 1.8477958440780639648 2.4830636978149414063 2.1379969120025634766 2.8286931514739990234 2.7355425357818603516 3.0140295028686523438 3.1681158542633056641 3.0769340991973876953 3.3584353923797607422 3.2913608551025390625 2.77518463134765625 3.3082304000854492188 3.0118808746337890625 2.6822926998138427734 3.4046959877014160156 3.5573117733001708984 3.1071565151214599609 3.0615580081939697266 3.2745659351348876953 2.9293475151062011719 3.1042809486389160156 2.7231588363647460938 2.9386410713195800781 3.4594941139221191406 3.4930565357208251953 3.6434750556945800781 3.1090080738067626953 4.3169560432434082031 3.6231324672698974609 4.3829898834228515625 4.1048417091369628906 3.2432124614715576172 3.1264185905456542969 3.8196630477905273438 2.9611847400665283203 3.5439808368682861328 3.5999941825866699219 3.2103595733642578125 3.2729659080505371094 3.0766355991363525391 2.7118732929229736328 3.4773509502410888672 2.2287106513977050781 1.8983520269393920898 1.3786923885345458984 2.0287432670593261719 1.4707217216491699219 2.3608601093292236328 3.3326506614685058594 2.4499237537384033203 2.1258673667907714844 2.4893698692321777344 2.1851179599761962891 1.2957944869995117188 3.0116457939147949219 2.9253847599029541016 3.4200215339660644531 2.8875904083251953125 2.964221954345703125 3.5822355747222900391 3.1873517036437988281 2.8251461982727050781 2.4341135025024414063 3.8521645069122314453 3.4896726608276367188 2.5811614990234375 2.0488343238830566406 4.054332733154296875 3.0409705638885498047 2.452442169189453125 1.7602503299713134766 2.3599910736083984375 2.3625035285949707031 1 1 2.6808540821075439453 2.5698671340942382813 1.8337535858154296875 1 2.1271440982818603516 2.2659649848937988281 1.3868718147277832031 1.5270425081253051758 2.2496175765991210938 2.4763247966766357422 1.9955966472625732422 1.0122760534286499023 1 1.4034458398818969727 1 1 2.3429057598114013672 2.0051195621490478516 1.0452642440795898438 1.6445485353469848633 2.3901529312133789063 1 1 1.4034458398818969727 1.1489439010620117188 2.6519815921783447266 1 1.2555307149887084961 1.8557349443435668945 1.2188988924026489258 2.0729801654815673828 1.5229429006576538086 1 1 2.2442405223846435547 1.9740701913833618164 1 1.1297714710235595703 2.6934206485748291016 2.0264914035797119141 1.7721365690231323242 1 2.1725244522094726563 2.1332526206970214844 1.1019376516342163086 1.0576026439666748047 1.5078619718551635742 2.3434734344482421875 1.3221335411071777344 2.4704120159149169922 1.5392421483993530273 2.2385346889495849609 1.9672827720642089844 1.5507252216339111328 1.7913167476654052734 2.905719757080078125 2.2307479381561279297 2.1413791179656982422 2.8477630615234375 2.5766727924346923828 2.7780256271362304688 3.2859165668487548828 3.5338358879089355469 3.9597039222717285156 3.9096302986145019531 4.1481580734252929688 4.1195855140686035156 4.1436634063720703125 4.1891412734985351563 4.5236158370971679688 4.2337689399719238281 4.4343919754028320313 3.83237457275390625 4.2210559844970703125 4.453311920166015625 4.326435089111328125 3.5796992778778076172 3.8018600940704345703 3.7448525428771972656 3.6139042377471923828 4.2688298225402832031 3.4362375736236572266 3.2005050182342529297 4.0639882087707519531 4.7156267166137695313 4.2728953361511230469 4.5870866775512695313 4.942676544189453125 
1 1 1.420632481575012207 1 2.0434861183166503906 2.3599734306335449219 1.3118168115615844727 1 1.1806674003601074219 2.0997419357299804688 1.0201439857482910156 1.4739431142807006836 1.4990942478179931641 2.5026693344116210938 2.2558951377868652344 1 2.3789515495300292969 1 1.4545246362686157227 2.09204864501953125 2.3698034286499023438 1 2.6519815921783447266 1.2531310319900512695 1.2118371725082397461 2.0051195621490478516 1.0201439857482910156 1.9186749458312988281 2.5498743057250976563 1.978186488151550293 1.9762765169143676758 2.9681348800659179688 2.6219432353973388672 2.4797577857971191406 2.206623077392578125 2.062686920166015625 2.4882957935333251953 2.4368138313293457031 2.6890356540679931641 1.8812241554260253906 3.1827387809753417969 3.1957554817199707031 3.1960201263427734375 3.21085357666015625 3.8009958267211914063 3.1502041816711425781 3.2848963737487792969 3.4579946994781494141 3.2816829681396484375 3.2273275852203369141 3.3664832115173339844 2.9860737323760986328 3.1780233383178710938 2.9272146224975585938 3.9881908893585205078 3.1796121597290039063 3.2082402706146240234 2.9321985244750976563 3.3703873157501220703 3.1692967414855957031 2.9564154148101806641 3.7668681144714355469 4.1219925880432128906 4.1340579986572265625 4.3547425270080566406 3.8894052505493164063 4.6515250205993652344 4.1363763809204101563 3.6013391017913818359 2.5963711738586425781 3.3204109668731689453 3.5907101631164550781 2.8042149543762207031 3.4106304645538330078 2.8462910652160644531 3.1096055507659912109 3.5305209159851074219 2.065219879150390625 1.6536720991134643555 2.638671875 2.7076387405395507813 2.6735193729400634766 1.3117805719375610352 2.8396153450012207031 3.8574032783508300781 2.8370523452758789063 2.2132198810577392578 2.2243449687957763672 2.1803252696990966797 2.7147853374481201172 1 1 2.0209593772888183594 3.0395410060882568359 3.6779608726501464844 2.5648913383483886719 2.3962259292602539063 2.2524657249450683594 3.1342794895172119141 2.2505669593811035156 2.3624927997589111328 3.1621072292327880859 3.0686511993408203125 2.4447662830352783203 3.3104996681213378906 2.6969182491302490234 1.9379266500473022461 2.6535637378692626953 1.2738339900970458984 1.7620526552200317383 1 1.7825036048889160156 2.7534039020538330078 1 2.4902596473693847656 1.934580683708190918 2.5898237228393554688 1.3311734199523925781 1.1625818014144897461 1.8354653120040893555 1.7970428466796875 1.3503816127777099609 2.0658938884735107422 1.4034458398818969727 1.7561491727828979492 1 1.6382349729537963867 1 1.3080642223358154297 1 1.1806674003601074219 2.6310508251190185547 1.3621447086334228516 2.3948893547058105469 1.149753570556640625 1 1.5037115812301635742 1.5666822195053100586 1.3725987672805786133 1.7746660709381103516 1 1 2.0946550369262695313 2.2572863101959228516 1 1.9569202661514282227 1 1.669574737548828125 1.3522214889526367188 2.2047030925750732422 2.2411084175109863281 1.9579530954360961914 2.3076293468475341797 2.5377020835876464844 1 1 1 1.4899537563323974609 1.8622707128524780273 2.0844564437866210938 2.4051935672760009766 1.1962014436721801758 1.2241762876510620117 2.0221788883209228516 1.7713509798049926758 2.3411488533020019531 1.3780082464218139648 1.5143979787826538086 1.8018593788146972656 2.4215092658996582031 2.3064725399017333984 2.4119555950164794922 3.1018743515014648438 3.5316405296325683594 3.2272708415985107422 2.7251210212707519531 3.381740570068359375 3.6512391567230224609 3.3164889812469482422 2.8578574657440185547 3.1352596282958984375 3.5221905708312988281 3.8263225555419921875 3.8882689476013183594 3.7245893478393554688 3.5276329517364501953 3.9810383319854736328 4.1103725433349609375 4.2907466888427734375 3.6004464626312255859 3.9340386390686035156 3.3602645397186279297 3.2542188167572021484 3.9268450736999511719 3.1900265216827392578 3.6153836250305175781 4.4793634414672851563 4.3881993293762207031 4.5833292007446289063 5.085086822509765625 
1.0115836858749389648 1 1 1.315482020378112793 1.6559642553329467773 2.0997419357299804688 1.1754015684127807617 1.1983001232147216797 1 2.3851757049560546875 1 1.2260516881942749023 1.0091935396194458008 2.0319607257843017578 1.3522214889526367188 1.4575465917587280273 1.4308687448501586914 1.3221335411071777344 2.3948893547058105469 2.1052377223968505859 1.7460929155349731445 1.8076318502426147461 1 2.2265822887420654297 1.2439392805099487305 1.1302753686904907227 2.1179404258728027344 1.5985388755798339844 3.1752717494964599609 2.5970170497894287109 2.1674687862396240234 2.3051507472991943359 2.6200900077819824219 2.9330515861511230469 2.8197090625762939453 2.441318511962890625 2.4348785877227783203 3.0440351963043212891 2.5005955696105957031 2.8211300373077392578 3.1494174003601074219 2.5391840934753417969 3.1508505344390869141 3.5344402790069580078 3.4167335033416748047 3.1181826591491699219 3.5661795139312744141 3.7275090217590332031 3.8149931430816650391 2.9887115955352783203 3.2000102996826171875 3.0575184822082519531 2.7528903484344482422 3.0003788471221923828 3.0285792350769042969 2.9329886436462402344 3.2388288974761962891 3.0392141342163085938 3.1730175018310546875 3.7454786300659179688 3.1721923351287841797 3.5262694358825683594 3.8056833744049072266 3.5991618633270263672 3.8505766391754150391 3.6362447738647460938 4.1779932975769042969 3.7795591354370117188 2.9896829128265380859 3.8277311325073242188 3.3338110446929931641 3.3059015274047851563 4.0099110603332519531 3.9705173969268798828 3.3280210494995117188 2.7572715282440185547 3.5696785449981689453 2.9382610321044921875 2.4136941432952880859 1.0847301483154296875 2.3861498832702636719 2.0802857875823974609 1.9577246904373168945 1.2456220388412475586 2.025638580322265625 3.3434803485870361328 3.7154254913330078125 2.652313232421875 2.132709503173828125 2.5027241706848144531 1.2643074989318847656 3.0092267990112304688 2.1640019416809082031 1.7442747354507446289 1.9682095050811767578 2.3317129611968994141 1.9314359426498413086 3.3762247562408447266 2.9356684684753417969 2.9131817817687988281 2.319843292236328125 2.265682220458984375 2.7565884590148925781 3.2275180816650390625 1 1.1775383949279785156 2.2779409885406494141 2.6513307094573974609 1.8680917024612426758 1.2385721206665039063 1 1.5400736331939697266 1.0342086553573608398 1.193110346794128418 1 2.8037083148956298828 2.5806498527526855469 2.0019724369049072266 2.1545913219451904297 2.7547824382781982422 1.3169673681259155273 1 1.8435131311416625977 1 1 1 1.1399155855178833008 1 1 1 1 1 1 1.266844630241394043 1.5939514636993408203 1.4498422145843505859 1.3582831621170043945 1 1.9074431657791137695 2.0812642574310302734 1.879655003547668457 2.5309429168701171875 1.4198118448257446289 1 2.1147329807281494141 1.9711720943450927734 1.224240422248840332 1.0573493242263793945 2.0778527259826660156 2.1532270908355712891 1.9765678644180297852 2.2347903251647949219 2.4280054569244384766 2.0814077854156494141 2.1794025897979736328 1.809649348258972168 1.5769047737121582031 2.2165114879608154297 1.8029839992523193359 1.1154590845108032227 1.6021916866302490234 1 1.1302753686904907227 1.7791466712951660156 2.1287090778350830078 1 1.4846200942993164063 2.1976830959320068359 2.2289321422576904297 2.8616468906402587891 2.5924859046936035156 2.5841591358184814453 2.567584991455078125 3.1743938922882080078 3.2394146919250488281 2.8633337020874023438 3.0981624126434326172 3.1228449344635009766 3.5049023628234863281 3.2888545989990234375 3.2292077541351318359 3.8217337131500244141 3.1355280876159667969 3.3759739398956298828 3.0680339336395263672 3.4254999160766601563 3.1601057052612304688 4.2112708091735839844 3.8609197139739990234 3.7992975711822509766 4.1386151313781738281 3.762248992919921875 4.3310484886169433594 4.5996141433715820313 3.3410739898681640625 4.0197658538818359375 4.8297367095947265625 3.1982624530792236328 4.0603313446044921875 3.8616533279418945313 
1 1.7521708011627197266 2.0608897209167480469 1 3.0088624954223632813 1 2.3851757049560546875 1 1 1 1 1.3372328281402587891 1.1806674003601074219 1.5601974725723266602 1.2276582717895507813 1.1747975349426269531 1.0201439857482910156 1 1.2349509000778198242 1.2907320261001586914 1.0097109079360961914 1 1 1.5864919424057006836 1.7333734035491943359 1.4525737762451171875 1.0454745292663574219 2.0339670181274414063 1.9421523809432983398 2.1836009025573730469 2.4424722194671630859 2.0165207386016845703 2.3102045059204101563 1.8551886081695556641 2.4165701866149902344 2.8856420516967773438 2.7610068321228027344 2.7416224479675292969 2.25812530517578125 2.6127142906188964844 2.5027523040771484375 3.0066676139831542969 3.5131659507751464844 3.3973338603973388672 3.6779456138610839844 3.7515282630920410156 3.4456186294555664063 4.034900665283203125 3.8305151462554931641 3.1905994415283203125 2.7592210769653320313 2.6572382450103759766 3.1482656002044677734 2.7528445720672607422 3.0895009040832519531 2.7418012619018554688 3.0500571727752685547 3.1896812915802001953 3.6523721218109130859 3.8272738456726074219 3.8272011280059814453 3.8594350814819335938 4.1332554817199707031 3.2906801700592041016 4.0470652580261230469 3.9924745559692382813 4.5320587158203125 4.0527677536010742188 3.8482515811920166016 2.7232675552368164063 3.9193415641784667969 3.8704154491424560547 3.3334128856658935547 4.0721001625061035156 3.3213520050048828125 2.7449083328247070313 3.5914099216461181641 3.2993533611297607422 1.8937336206436157227 2.2971622943878173828 1.9507569074630737305 1.8279839754104614258 3.2351336479187011719 2.7757902145385742188 2.1092975139617919922 2.6912088394165039063 2.9413626194000244141 2.8119711875915527344 3.6154270172119140625 2.9761147499084472656 3.0960972309112548828 2.6523332595825195313 2.2269344329833984375 1.1960159540176391602 2.2343266010284423828 1.7180548906326293945 2.417575836181640625 2.2262213230133056641 3.2960507869720458984 2.3446431159973144531 2.6796107292175292969 3.0519018173217773438 2.6708865165710449219 2.4922487735748291016 2.3830170631408691406 2.7872679233551025391 3.6167280673980712891 1.305985569953918457 2.3089387416839599609 1.1886563301086425781 1.8823597431182861328 2.6474635601043701172 2.4825632572174072266 1.7939406633377075195 1.4871724843978881836 2.7206368446350097656 2.0760898590087890625 1.3599478006362915039 1.4338678121566772461 1.9304357767105102539 1.5911309719085693359 2.3703391551971435547 1.1302753686904907227 1 1 1 2.3200678825378417969 1 1.8470424413681030273 2.1573541164398193359 1 1.1806674003601074219 1.7754449844360351563 1 1 1 1 1.6566127538681030273 1 1.3236827850341796875 1.5985388755798339844 2.0060968399047851563 1.493621826171875 1.6624293327331542969 1.5213490724563598633 1.2118371725082397461 1.6230274438858032227 1.6160627603530883789 1.1998038291931152344 2.1666028499603271484 1.5985388755798339844 2.5722904205322265625 2.3954148292541503906 2.3480012416839599609 2.1851243972778320313 1.7754449844360351563 1.3746420145034790039 2.0442042350769042969 1 1.3456426858901977539 1 2.4704015254974365234 1.4381324052810668945 2.3942506313323974609 2.3287947177886962891 1.8454624414443969727 2.1189558506011962891 2.4706437587738037109 2.7847898006439208984 1.8160470724105834961 3.2775011062622070313 3.1482281684875488281 2.7353322505950927734 2.740833282470703125 2.2404093742370605469 2.5619246959686279297 3.1857502460479736328 2.9669694900512695313 3.250186920166015625 3.4481747150421142578 2.9657175540924072266 3.5850338935852050781 3.7912847995758056641 3.017047882080078125 3.3760578632354736328 3.18132781982421875 4.0328717231750488281 3.3975667953491210938 3.5947825908660888672 3.6887331008911132813 3.5772674083709716797 4.1322245597839355469 4.0291314125061035156 4.4500455856323242188 4.1205468177795410156 4.5270824432373046875 4.3492054939270019531 3.7335906028747558594 3.6389317512512207031 3.6440818309783935547 
1.1302753686904907227 1.4562430381774902344 1 2.1464540958404541016 1 1.0709382295608520508 1.3916569948196411133 1 1 1.5037115812301635742 1.682474970817565918 1 1.4034458398818969727 1 1.7561491727828979492 1 1.3108810186386108398 1 1.5969452857971191406 1.1806674003601074219 1 1.7411047220230102539 1.7570835351943969727 1.0892996788024902344 1.0485808849334716797 1.3520928621292114258 1 1.4428012371063232422 1.3477698564529418945 2.5057988166809082031 1.479602813720703125 2.1276683807373046875 2.7994968891143798828 2.1525151729583740234 2.2154014110565185547 2.2560093402862548828 2.4296085834503173828 2.4195680618286132813 2.8322825431823730469 2.3496212959289550781 3.2428987026214599609 2.9043033123016357422 3.5223796367645263672 3.5516524314880371094 3.7144143581390380859 3.9965453147888183594 4.0482416152954101563 3.5179293155670166016 3.6042678356170654297 3.1167001724243164063 2.9871811866760253906 2.8506464958190917969 2.8174581527709960938 2.5473039150238037109 2.8179841041564941406 3.5389432907104492188 3.2834379673004150391 3.3639388084411621094 3.3338556289672851563 3.726932525634765625 3.4313097000122070313 3.389514923095703125 3.3851950168609619141 3.5683109760284423828 3.3588979244232177734 3.5126032829284667969 3.8620431423187255859 3.5971961021423339844 3.8483035564422607422 3.1796650886535644531 3.0998933315277099609 3.7049107551574707031 3.5756127834320068359 3.6979444026947021484 3.3282723426818847656 3.5215795040130615234 2.6994454860687255859 3.0260901451110839844 2.74959564208984375 1.7893826961517333984 1.1987540721893310547 1.7766985893249511719 2.7952811717987060547 2.694232940673828125 3.6367011070251464844 3.7758078575134277344 3.0190269947052001953 3.1827292442321777344 2.2615685462951660156 2.6152746677398681641 2.1306626796722412109 2.4138245582580566406 2.3420517444610595703 1 1.8484208583831787109 1.9913454055786132813 2.7260558605194091797 3.3925392627716064453 1.9276534318923950195 2.9822137355804443359 3.5764451026916503906 2.6587576866149902344 2.9591934680938720703 2.785480499267578125 1.1085183620452880859 1.6888711452484130859 3.1849753856658935547 3.2436227798461914063 2.3754649162292480469 2.0429356098175048828 1.6730201244354248047 2.30712127685546875 2.54055023193359375 1.6210875511169433594 1.5309242010116577148 1.8313305377960205078 1.9246085882186889648 1 1.7302958965301513672 2.1318414211273193359 1.6181110143661499023 1.0105538368225097656 2.4232904911041259766 1 1 1.7561491727828979492 1.1806674003601074219 1 2.2336819171905517578 1.6371243000030517578 2.2424716949462890625 1.6827204227447509766 1 1.7313432693481445313 1.0218210220336914063 1.7754449844360351563 1 1.1806674003601074219 1 1.2333718538284301758 1.2349509000778198242 1.8048930168151855469 1.3801313638687133789 1.2716739177703857422 1 2.1955413818359375 1.7646229267120361328 1.5489604473114013672 1.9955966472625732422 1.2760937213897705078 1.9101984500885009766 2.2277643680572509766 2.065654754638671875 2.6902685165405273438 1.9890652894973754883 1.3522214889526367188 1.4310631752014160156 2.3796439170837402344 1.3617502450942993164 1 1 1 1 1.37286376953125 1.8979164361953735352 1.8854715824127197266 2.9790256023406982422 1.8232609033584594727 1.9769340753555297852 2.6973166465759277344 2.7487688064575195313 2.5078747272491455078 2.7015895843505859375 2.8639392852783203125 2.7280092239379882813 3.0235781669616699219 3.1265823841094970703 3.3527610301971435547 3.4249577522277832031 2.8105516433715820313 3.3880910873413085938 3.6189570426940917969 3.6613092422485351563 3.0834200382232666016 3.6376681327819824219 4.4658870697021484375 3.6156849861145019531 3.0462810993194580078 3.9156734943389892578 3.7122271060943603516 3.907802581787109375 4.2188482284545898438 4.4714999198913574219 3.9206900596618652344 4.0080103874206542969 3.1964359283447265625 3.5214574337005615234 4.00555419921875 3.4933638572692871094 3.553791046142578125 
1.7561491727828979492 1.4143661260604858398 1.4381324052810668945 1.8975858688354492188 1.3224350214004516602 2.7407538890838623047 1 1.7333734035491943359 1 1 1 1.2568030357360839844 2.3134033679962158203 1 1.0122760534286499023 1.4240601062774658203 1 1.0115836858749389648 1 1.6483117341995239258 1 1.1501313447952270508 1.2523611783981323242 2.3851757049560546875 1 2.3200678825378417969 1.653941035270690918 1.1603982448577880859 1.1761900186538696289 2.6237170696258544922 2.6172327995300292969 1.5299996137619018555 2.3438696861267089844 2.1937458515167236328 1 2.1780047416687011719 2.3259119987487792969 2.8066854476928710938 2.6080081462860107422 2.8804700374603271484 3.0258648395538330078 2.8679931163787841797 3.4084138870239257813 3.6537218093872070313 3.8307940959930419922 3.7266490459442138672 3.6619288921356201172 3.8971779346466064453 3.4026396274566650391 3.3714284896850585938 3.5009799003601074219 2.7602405548095703125 3.0715382099151611328 2.5509178638458251953 2.6839215755462646484 3.2033262252807617188 3.8736395835876464844 3.3711016178131103516 3.1015696525573730469 3.2446837425231933594 3.7224097251892089844 3.2662663459777832031 3.2202837467193603516 3.5617265701293945313 4.3175559043884277344 3.7386460304260253906 3.8958160877227783203 3.2938022613525390625 3.6427428722381591797 3.4206950664520263672 3.1727888584136962891 3.4546504020690917969 3.7485494613647460938 3.6926674842834472656 4.3592104911804199219 3.5617399215698242188 2.92574310302734375 3.3205683231353759766 2.4372677803039550781 2.9691994190216064453 2.6207435131072998047 2.9362533092498779297 3.1002349853515625 3.1599626541137695313 2.9781048297882080078 2.9623432159423828125 2.1772668361663818359 2.6799988746643066406 3.1454846858978271484 3.4248225688934326172 1.9604218006134033203 2.1238830089569091797 1.6640887260437011719 1 2.3111011981964111328 2.2921364307403564453 2.0240266323089599609 3.5456373691558837891 2.5530247688293457031 2.0054779052734375 2.6570074558258056641 1 1.777093052864074707 2.4154534339904785156 2.3044025897979736328 3.1099970340728759766 2.5813264846801757813 2.6237103939056396484 2.8540544509887695313 3.3632457256317138672 2.4790289402008056641 2.9471952915191650391 2.1100785732269287109 2.2724010944366455078 1.8193436861038208008 1.5716786384582519531 1.7545429468154907227 2.6519815921783447266 1.5724573135375976563 1.5778027772903442383 1 1.1261129379272460938 1 1 1 1.5318958759307861328 1 1.3414485454559326172 1.8621425628662109375 2.5372822284698486328 1.0819090604782104492 2.1950030326843261719 1.0969917774200439453 1.3221335411071777344 1.2118371725082397461 1.7187216281890869141 1.9065605401992797852 1 1.5355908870697021484 1.2416636943817138672 1.3914743661880493164 1.0201439857482910156 1.8353761434555053711 1.301279902458190918 1.6897064447402954102 1.7477874755859375 1.6480499505996704102 2.2514481544494628906 1.0201439857482910156 1.1094468832015991211 1.8689943552017211914 1.3578982353210449219 2.4544270038604736328 2.7028262615203857422 1 1 2.4764106273651123047 1.6230274438858032227 1 1.959730982780456543 1.7459199428558349609 2.5273752212524414063 1 1 1.2183617353439331055 1 1.3236827850341796875 2.7947990894317626953 2.6491684913635253906 3.1169245243072509766 2.8899412155151367188 3.0324034690856933594 2.8402855396270751953 2.4029536247253417969 2.8214080333709716797 3.1339395046234130859 2.8566231727600097656 2.8738527297973632813 3.2646338939666748047 2.5382666587829589844 3.2060403823852539063 2.5040433406829833984 3.5721964836120605469 3.2700893878936767578 2.71192169189453125 3.0783874988555908203 3.0786285400390625 3.4803152084350585938 3.6523954868316650391 3.2498369216918945313 4.5409822463989257813 3.6492726802825927734 4.5928196907043457031 4.2192716598510742188 3.6338398456573486328 3.0014388561248779297 3.2318108081817626953 4.2284140586853027344 4.1511425971984863281 3.8512575626373291016 
1 2.3851757049560546875 1.1062564849853515625 1 1 1 1.7653672695159912109 1 1 1.1812468767166137695 1 1 1 1 1.1806674003601074219 1 1 1.420632481575012207 1 1 1 1 1.0097109079360961914 2.5911772251129150391 1 1.5037115812301635742 2.0024030208587646484 1 1.8435323238372802734 1.9432798624038696289 2.5347809791564941406 2.6028907299041748047 2.3278825283050537109 1.2938585281372070313 2.6201629638671875 2.8389070034027099609 1.9496680498123168945 2.0194292068481445313 3.4471900463104248047 2.5158884525299072266 2.8624441623687744141 3.564899444580078125 3.3141415119171142578 3.6064662933349609375 3.9930026531219482422 3.8452658653259277344 3.6738791465759277344 3.0785191059112548828 3.2821946144104003906 3.1283981800079345703 2.751575469970703125 3.0154063701629638672 2.850101470947265625 2.9684627056121826172 2.8904709815979003906 3.5008823871612548828 3.4684610366821289063 3.6603467464447021484 3.3806705474853515625 3.4610624313354492188 3.715526580810546875 3.6092851161956787109 4.1636357307434082031 4.1415414810180664063 4.0880846977233886719 4.5154414176940917969 4.0983753204345703125 3.9494462013244628906 3.8069813251495361328 3.6357896327972412109 3.923511505126953125 3.7401168346405029297 3.9786953926086425781 3.4047315120697021484 3.6187856197357177734 3.6559655666351318359 3.8123219013214111328 3.4107804298400878906 3.0454089641571044922 1.7903174161911010742 1.9014548063278198242 2.7575280666351318359 3.1911091804504394531 2.5718076229095458984 2.4154946804046630859 3.4685597419738769531 3.7254498004913330078 2.728359222412109375 2.7409131526947021484 1.0797319412231445313 1.8953619003295898438 1.4304475784301757813 1.4501136541366577148 1.3939303159713745117 1.1118757724761962891 1.6748650074005126953 3.0164048671722412109 1.6916706562042236328 2.7487263679504394531 2.5288424491882324219 2.4930362701416015625 1 1.6581662893295288086 1.5503829717636108398 2.5723884105682373047 3.4289431571960449219 3.1465048789978027344 3.377155303955078125 2.7530298233032226563 2.7056202888488769531 2.6582360267639160156 2.3718316555023193359 2.4949579238891601563 3.0509269237518310547 1.6068286895751953125 1.8295621871948242188 1.4842231273651123047 2.9068210124969482422 1.2286117076873779297 1.2501232624053955078 1 1 1 1 1.7561491727828979492 1 1 1 1.9779993295669555664 1.2983121871948242188 1.3522214889526367188 2.1537463665008544922 1 1.9573105573654174805 1.2462470531463623047 1.7754449844360351563 1.6836750507354736328 1 1 1.3422510623931884766 1 1.3070504665374755859 1.9860650300979614258 2.3195753097534179688 2.62989044189453125 1.6137228012084960938 1 1.2320588827133178711 1.4148180484771728516 1 1.0201439857482910156 1 2.7872993946075439453 1.9011235237121582031 1.8901611566543579102 2.2373623847961425781 2.0069043636322021484 1.5808482170104980469 2.0436234474182128906 1.3649927377700805664 1.720343470573425293 1.2882975339889526367 1 1 2.1916434764862060547 2.2721471786499023438 2.4004220962524414063 2.0782976150512695313 1.8155924081802368164 2.2195339202880859375 2.9149489402770996094 2.8554489612579345703 2.6695349216461181641 2.3270287513732910156 2.5735845565795898438 2.7453215122222900391 3.3425586223602294922 3.2294781208038330078 2.996265411376953125 2.9752187728881835938 2.7435200214385986328 3.0132312774658203125 3.5579075813293457031 3.4138212203979492188 2.7719981670379638672 3.0540888309478759766 3.2908089160919189453 3.5467197895050048828 3.5119266510009765625 4.1150956153869628906 4.1227736473083496094 3.9170229434967041016 3.6544666290283203125 3.9340503215789794922 3.6676747798919677734 3.7151520252227783203 3.2381062507629394531 3.8287169933319091797 3.4931993484497070313 3.7714331150054931641 
1 1 1.1302753686904907227 1.5424998998641967773 1.224240422248840332 1.3912373781204223633 1 1.5760941505432128906 1 1 1 2.0606834888458251953 1 1 1.4389559030532836914 1.1302753686904907227 2.7124943733215332031 1 1 2.0606834888458251953 1 1 1 1.4366524219512939453 1 1 1.4750586748123168945 1.8866232633590698242 1.8805333375930786133 1 1.5702022314071655273 2.1643891334533691406 1.8051352500915527344 1.7828117609024047852 1.9742884635925292969 1.7618364095687866211 2.1469783782958984375 2.2307033538818359375 2.7466640472412109375 3.4357838630676269531 3.1137995719909667969 3.1266725063323974609 3.1588461399078369141 4.022106170654296875 3.8233921527862548828 3.6000216007232666016 3.4785900115966796875 3.3926281929016113281 2.9443094730377197266 3.1537981033325195313 2.7358686923980712891 2.9593806266784667969 3.0182156562805175781 3.3890440464019775391 2.9504706859588623047 3.3362157344818115234 3.6606647968292236328 3.2950499057769775391 3.832855224609375 3.8516743183135986328 4.016963958740234375 3.8752138614654541016 4.4064035415649414063 3.812286376953125 4.4358878135681152344 4.6855459213256835938 4.0287380218505859375 4.5078577995300292969 3.8242566585540771484 3.3410186767578125 4.1062593460083007813 3.8548924922943115234 3.2686111927032470703 3.7603044509887695313 3.9244503974914550781 3.8387937545776367188 3.6092793941497802734 2.7308757305145263672 3.8215823173522949219 2.5326030254364013672 2.3470823764801025391 2.7948789596557617188 2.6990499496459960938 3.5803563594818115234 2.9332754611968994141 2.8981676101684570313 2.5540215969085693359 2.7675211429595947266 1.2460224628448486328 2.2043056488037109375 2.8342175483703613281 2.6059615612030029297 1 1.2967199087142944336 2.3994188308715820313 1.6789575815200805664 1.3689368963241577148 2.8602488040924072266 1.2840955257415771484 2.9132721424102783203 1.2294840812683105469 1.6020364761352539063 2.4652760028839111328 2.9742834568023681641 2.4211843013763427734 2.781978607177734375 3.4587068557739257813 3.3576769828796386719 2.1084954738616943359 2.7072713375091552734 2.9110231399536132813 2.7641072273254394531 3.1659915447235107422 2.6878449916839599609 1.6714624166488647461 2.3096034526824951172 1.6297644376754760742 1.3630844354629516602 2.2336819171905517578 1.0300811529159545898 1 1.1806674003601074219 1 1 1 1.1806674003601074219 1.1806674003601074219 1.8443855047225952148 1 1.2766065597534179688 2.2244346141815185547 1.0201439857482910156 1.1297168731689453125 2.3471097946166992188 1.8591495752334594727 2.0620472431182861328 1 1.3247512578964233398 1 1 1 1.8585001230239868164 1.8747256994247436523 1.6783729791641235352 1.2118371725082397461 1.041942596435546875 2.5981576442718505859 2.2904787063598632813 2.0453541278839111328 1.0965307950973510742 1 1.3166786432266235352 2.3013770580291748047 2.0646374225616455078 2.3870055675506591797 2.4204661846160888672 2.0959048271179199219 2.5570147037506103516 1.089631199836730957 1.4278610944747924805 2.4844725131988525391 2.6143777370452880859 1.7687181234359741211 1.5214011669158935547 1 1.7646229267120361328 1.4873033761978149414 1.8026863336563110352 1.9952967166900634766 2.247066497802734375 2.6071355342864990234 2.6947607994079589844 2.2337062358856201172 2.1609327793121337891 2.0919992923736572266 2.6698577404022216797 2.7758390903472900391 2.9989812374114990234 3.1574656963348388672 2.8897120952606201172 2.8038270473480224609 3.0757098197937011719 3.2227690219879150391 3.3906948566436767578 3.7039537429809570313 3.4679236412048339844 3.3690035343170166016 3.8886592388153076172 3.8198018074035644531 3.3917582035064697266 4.1307592391967773438 3.6796422004699707031 3.4040379524230957031 3.7644109725952148438 4.0218510627746582031 4.618427276611328125 4.2166118621826171875 4.2224836349487304688 4.0431733131408691406 4.1442546844482421875 
1 1.0115836858749389648 1 1 2.3851757049560546875 1.4381324052810668945 1 1 1.1029417514801025391 1.6938040256500244141 1 1 2.0606834888458251953 1 1 1 1.1812468767166137695 1 1 1.2185790538787841797 1 1 1 1 2.0997419357299804688 1.0177237987518310547 1.8512506484985351563 1.1237825155258178711 2.3447811603546142578 1.6524590253829956055 2.2385699748992919922 1.8229445219039916992 2.7199769020080566406 1.9444255828857421875 2.4612019062042236328 1.9431024789810180664 2.8054718971252441406 2.5409908294677734375 2.526668548583984375 3.1717369556427001953 2.6117279529571533203 2.7440505027770996094 3.2622740268707275391 3.7012064456939697266 4.4206762313842773438 3.3543767929077148438 3.070682525634765625 2.5505464076995849609 2.2982966899871826172 2.5812311172485351563 3.1415493488311767578 2.7963399887084960938 3.0660862922668457031 3.5482547283172607422 3.3046109676361083984 3.0326802730560302734 3.3743760585784912109 3.8397450447082519531 3.8697690963745117188 4.0564799308776855469 4.1219906806945800781 3.7713408470153808594 4.1107420921325683594 3.7210519313812255859 4.6333522796630859375 4.4174604415893554688 4.5989446640014648438 4.1772084236145019531 3.8673000335693359375 4.230480194091796875 4.35642242431640625 3.5247189998626708984 4.0454764366149902344 3.48089599609375 3.6403474807739257813 4.4602231979370117188 3.662837982177734375 3.1750512123107910156 3.1207387447357177734 3.1433174610137939453 3.3088300228118896484 2.9678926467895507813 2.4390490055084228516 2.9404108524322509766 2.3008997440338134766 3.1712999343872070313 2.9340276718139648438 2.4474775791168212891 1.4057118892669677734 2.7392780780792236328 1.8871810436248779297 1.1356600522994995117 1.4307922124862670898 2.3588812351226806641 1 1.8241736888885498047 1 1 2.0973663330078125 2.4884476661682128906 1.4524289369583129883 2.1990561485290527344 2.327724456787109375 2.6619198322296142578 3.2277097702026367188 3.2339909076690673828 3.6682043075561523438 2.7007448673248291016 2.4995486736297607422 2.62834930419921875 2.8481271266937255859 2.5438475608825683594 2.6588225364685058594 2.456867218017578125 2.1297886371612548828 2.1831254959106445313 1.6625149250030517578 2.5947246551513671875 1.5416247844696044922 1.8076318502426147461 1.2118371725082397461 1 2.3851757049560546875 1 2.0051195621490478516 1.3339700698852539063 1.4034458398818969727 2.3200678825378417969 1 1.2543127536773681641 1.6769011020660400391 2.3134033679962158203 2.3851757049560546875 1.9842832088470458984 2.3124206066131591797 1.4898985624313354492 1 1.4508409500122070313 2.0051195621490478516 1 1.8216533660888671875 1 1 1 1.673203587532043457 2.4564223289489746094 2.0501630306243896484 2.1252470016479492188 1.8675060272216796875 1.5875461101531982422 1.5019782781600952148 1.9972209930419921875 1.6960431337356567383 2.5465867519378662109 2.8643310070037841797 2.5455505847930908203 1.6306937932968139648 2.2003867626190185547 1.8940207958221435547 1.6569818258285522461 1.5152232646942138672 2.0018191337585449219 2.6306622028350830078 2.6519815921783447266 1.6620842218399047852 2.7443494796752929688 2.1036069393157958984 1.8010151386260986328 2.1198220252990722656 2.3994123935699462891 2.1097702980041503906 2.2664470672607421875 2.5070717334747314453 3.0900988578796386719 1.9651006460189819336 2.7163882255554199219 2.6027698516845703125 2.3471407890319824219 2.5610191822052001953 3.3406136035919189453 3.4454662799835205078 3.0209167003631591797 3.5609569549560546875 2.9937546253204345703 3.1399624347686767578 2.6729142665863037109 3.3835222721099853516 3.2024867534637451172 3.475734710693359375 4.3037023544311523438 3.5402774810791015625 3.9807686805725097656 4.3194742202758789063 3.9962294101715087891 4.4467411041259765625 4.5412044525146484375 4.6045484542846679688 4.0503416061401367188 4.8377542495727539063 3.8101062774658203125 
1 1 1 1 1 1 1 1 1 1 1 1 1 1 1 1 1 1.5607722997665405273 2.5925157070159912109 1 1 1 1 1.4663612842559814453 1 1.5612590312957763672 2.4955780506134033203 1.3202136754989624023 1.4918768405914306641 2.7116408348083496094 2.3305354118347167969 1.9994729757308959961 2.6832993030548095703 1.8738585710525512695 2.1665470600128173828 3.2320539951324462891 2.7641618251800537109 1.8764623403549194336 1.9463196992874145508 2.9263579845428466797 3.089771270751953125 3.1198761463165283203 3.5770313739776611328 3.6438341140747070313 3.9408457279205322266 3.7121441364288330078 3.2055747509002685547 2.2825114727020263672 2.9456987380981445313 3.1310541629791259766 3.0097720623016357422 3.475788116455078125 3.4193565845489501953 3.1993498802185058594 3.2504761219024658203 3.3172914981842041016 3.4926106929779052734 3.7585170269012451172 4.085590362548828125 3.9262473583221435547 3.5812625885009765625 3.5938696861267089844 3.6745245456695556641 4.7851190567016601563 4.6372971534729003906 5.0409684181213378906 4.2223305702209472656 4.4921169281005859375 4.4401340484619140625 4.3862929344177246094 4.9392366409301757813 3.8290600776672363281 4.1925649642944335938 3.3621494770050048828 4.0337843894958496094 4.3425140380859375 3.0850827693939208984 3.2219669818878173828 3.2615272998809814453 2.6925897598266601563 1.5713474750518798828 2.3087203502655029297 3.4117004871368408203 3.3632624149322509766 2.6634619235992431641 1.0191178321838378906 3.5953135490417480469 2.7750995159149169922 3.1471624374389648438 2.3245167732238769531 1.1006746292114257813 2.2236273288726806641 2.5641350746154785156 1.9747519493103027344 2.2925043106079101563 1.4082942008972167969 1.2901952266693115234 2.0416009426116943359 1.4293048381805419922 1.5835338830947875977 2.5206644535064697266 2.2019639015197753906 3.9195287227630615234 3.0036318302154541016 3.2701191902160644531 2.4980118274688720703 2.7363860607147216797 2.8544449806213378906 2.9652507305145263672 2.3620915412902832031 2.4763207435607910156 3.0259077548980712891 2.6506369113922119141 3.5382525920867919922 1.9292063713073730469 2.0365891456604003906 2.0480988025665283203 2.3769752979278564453 2.8100247383117675781 2.3858835697174072266 2.5334079265594482422 1.026658177375793457 2.1740024089813232422 1.8422528505325317383 1.3779027462005615234 1.2118371725082397461 2.1078820228576660156 1 2.2319738864898681641 1.1644139289855957031 1.6826772689819335938 1.5501381158828735352 1 2.3924112319946289063 1.461832880973815918 1.2651540040969848633 1.6272939443588256836 1 1.4034458398818969727 1.0122760534286499023 1.7333734035491943359 1.177239537239074707 1 1.6001290082931518555 1.7055180072784423828 2.0868930816650390625 2.0860297679901123047 2.051677703857421875 2.4084289073944091797 2.2218337059020996094 1.3622151613235473633 1.598026275634765625 2.0798344612121582031 1.9791837930679321289 2.5713040828704833984 2.0551521778106689453 1.5840708017349243164 2.6558833122253417969 2.0177900791168212891 2.2190642356872558594 1.8908826112747192383 2.1385793685913085938 2.1834635734558105469 1.7441556453704833984 2.0652804374694824219 2.0951189994812011719 1.9691193103790283203 2.4627611637115478516 1.7802109718322753906 2.1354920864105224609 1.951432347297668457 2.956844329833984375 1.9932233095169067383 2.4710748195648193359 2.9748384952545166016 3.4155368804931640625 3.0003464221954345703 2.5663428306579589844 2.8279931545257568359 2.7854216098785400391 3.6692340373992919922 3.1587817668914794922 2.9882695674896240234 2.2814297676086425781 3.0817732810974121094 2.9582581520080566406 3.1236243247985839844 3.8009853363037109375 3.3488667011260986328 3.6404728889465332031 4.0740599632263183594 4.3868169784545898438 4.3086414337158203125 4.16323089599609375 4.3102827072143554688 4.2853398323059082031 5.1172165870666503906 4.1266994476318359375 3.5556142330169677734 3.99718475341796875 
1 1 1 1 1.1812468767166137695 1 1.5607722997665405273 1 1 1 1 1 1 1 1 2.0606834888458251953 1 1.6938040256500244141 1 1.2450430393218994141 2.5925157070159912109 1 1 1.7561491727828979492 2.2229700088500976563 1.1659885644912719727 2.3633410930633544922 1.8361304998397827148 1.4844177961349487305 1.9346011877059936523 2.5024533271789550781 2.6555449962615966797 2.8007862567901611328 1.8365416526794433594 2.0248618125915527344 2.9267070293426513672 2.5401031970977783203 2.3920369148254394531 3.3298413753509521484 2.9328987598419189453 2.727252960205078125 3.7408945560455322266 3.8772945404052734375 3.8838305473327636719 3.6349916458129882813 3.2533669471740722656 3.5320253372192382813 3.0748119354248046875 2.9720828533172607422 3.1750838756561279297 3.1778213977813720703 3.2317051887512207031 3.5881111621856689453 3.29940032958984375 3.2548711299896240234 3.4763255119323730469 3.4346594810485839844 3.7144048213958740234 3.7961494922637939453 3.9677827358245849609 3.6699056625366210938 3.5859332084655761719 4.2871632575988769531 4.8008532524108886719 4.51619720458984375 5.1607899665832519531 5.47690582275390625 4.9519548416137695313 4.3407125473022460938 4.8949589729309082031 4.2120680809020996094 4.2177538871765136719 3.9295148849487304688 3.81751251220703125 4.1559906005859375 3.8698561191558837891 3.3600766658782958984 3.0191717147827148438 3.4994237422943115234 3.0714509487152099609 2.7537801265716552734 3.0580966472625732422 2.440395355224609375 2.8816502094268798828 1.0423803329467773438 1.9416686296463012695 2.5124080181121826172 2.7952418327331542969 1.4007009267807006836 2.8631436824798583984 1.6291674375534057617 1 1.9699977636337280273 1.8466229438781738281 2.0049700736999511719 1.5410429239273071289 1.9508559703826904297 1.8882271051406860352 2.2065539360046386719 2.6181976795196533203 3.4532864093780517578 2.7745835781097412109 3.2699570655822753906 3.4657497406005859375 2.5405838489532470703 2.9627344608306884766 3.0111339092254638672 2.3460741043090820313 2.0574100017547607422 2.2512657642364501953 2.7151901721954345703 2.128696441650390625 2.3711502552032470703 2.9235973358154296875 2.7717108726501464844 2.4334261417388916016 2.3978490829467773438 1.7442727088928222656 2.48252105712890625 2.4811336994171142578 1.7827785015106201172 1.4198118448257446289 1.9253997802734375 2.0997419357299804688 1 1.5927835702896118164 1.8960292339324951172 1.5770183801651000977 1.3080642223358154297 1.5287349224090576172 2.1691701412200927734 1 1 1 1 1.2191462516784667969 1 1 1 1.7561491727828979492 1 1.1220288276672363281 1.967482447624206543 1.6773914098739624023 2.3973517417907714844 1.4494383335113525391 2.0902068614959716797 2.0528154373168945313 2.2114243507385253906 1.4235634803771972656 2.3379929065704345703 1.9205992221832275391 2.1668004989624023438 1.4085963964462280273 2.1621105670928955078 3.2112886905670166016 2.7053363323211669922 1.6229121685028076172 2.8549065589904785156 1 2.8492290973663330078 2.85332489013671875 2.3261599540710449219 2.686809539794921875 1.868319392204284668 1.9421523809432983398 2.7235875129699707031 1.9968506097793579102 2.1077015399932861328 1.7546519041061401367 1.4687094688415527344 1 2.1354196071624755859 2.2396957874298095703 2.6403715610504150391 2.9070565700531005859 2.3627793788909912109 2.7351505756378173828 2.6802842617034912109 3.1178264617919921875 2.3556721210479736328 3.1692054271697998047 3.0723121166229248047 3.2082712650299072266 3.2328619956970214844 2.9912128448486328125 3.1015796661376953125 3.9631519317626953125 3.7927374839782714844 4.0691013336181640625 3.8629097938537597656 3.7996132373809814453 4.6723737716674804688 3.8200292587280273438 4.2308969497680664063 4.2450323104858398438 4.4683136940002441406 3.9488203525543212891 3.8947172164916992188 3.2558848857879638672 
1.1812468767166137695 1 1 1 1.2185790538787841797 1 1 1 1 1 1 1 1 1 1 1 2.5961210727691650391 1 1 1 1 1.4381324052810668945 1.7561491727828979492 1.9359450340270996094 1.4517116546630859375 1.9520156383514404297 1.5807666778564453125 1.5761460065841674805 1.3063724040985107422 1.6150286197662353516 1.1450234651565551758 1.590206146240234375 1.6919879913330078125 2.4032311439514160156 1.5256023406982421875 2.7291409969329833984 2.5588979721069335938 2.6600248813629150391 3.0281727313995361328 2.9939343929290771484 2.9954922199249267578 3.5813961029052734375 4.1311244964599609375 3.8329977989196777344 3.0751204490661621094 3.3331487178802490234 2.6002547740936279297 2.4355456829071044922 2.8431215286254882813 2.8035411834716796875 3.2968850135803222656 3.0537950992584228516 3.461742401123046875 3.8792562484741210938 2.8721327781677246094 3.6823329925537109375 3.493427276611328125 3.31368255615234375 3.4461786746978759766 3.8697211742401123047 3.5920450687408447266 4.2805924415588378906 4.4583983421325683594 4.6150403022766113281 4.8060865402221679688 5.0917673110961914063 4.9067697525024414063 4.6274886131286621094 5.0267872810363769531 4.873767852783203125 4.1655402183532714844 4.6790671348571777344 4.292877197265625 3.6434316635131835938 3.6041529178619384766 3.5967569351196289063 3.6581525802612304688 3.5964739322662353516 3.4937155246734619141 2.4222080707550048828 3.0116810798645019531 2.0446403026580810547 2.0217194557189941406 2.8913486003875732422 2.6577649116516113281 2.7030122280120849609 3.5930588245391845703 2.9806799888610839844 2.9216203689575195313 2.0232219696044921875 1.9404374361038208008 1.6355497837066650391 1 2.0263242721557617188 1.8057086467742919922 2.1992859840393066406 1.773375391960144043 1 1.8535381555557250977 2.7163717746734619141 3.4418091773986816406 3.7162423133850097656 3.2398908138275146484 3.2640476226806640625 3.4870874881744384766 3.1450474262237548828 3.7762696743011474609 3.8372893333435058594 3.8022394180297851563 2.5365915298461914063 2.9208016395568847656 2.6507856845855712891 2.8629963397979736328 2.3814711570739746094 2.7577145099639892578 2.3583292961120605469 2.0505712032318115234 2.6403346061706542969 2.7468388080596923828 1 1.5890777111053466797 2.2322871685028076172 1 1.2759341001510620117 1 1 1 1.9375394582748413086 1.4034458398818969727 1.6943067312240600586 1 1.1489439010620117188 1 1.4438213109970092773 2.1404383182525634766 1 1.2817478179931640625 1.2233495712280273438 1.5570371150970458984 1.0283523797988891602 1.8238986730575561523 1 1.7764505147933959961 1.8441755771636962891 2.2922253608703613281 2.6097233295440673828 2.6461567878723144531 2.5176842212677001953 3.5027956962585449219 2.3605027198791503906 2.4102702140808105469 2.1292967796325683594 2.5437400341033935547 2.4449894428253173828 2.3715751171112060547 2.2908132076263427734 2.0645391941070556641 1.7591745853424072266 2.2784397602081298828 1.8367781639099121094 2.4645287990570068359 2.055339813232421875 1.6730636358261108398 2.2129902839660644531 1.2563395500183105469 1.779773712158203125 2.4678714275360107422 2.2860870361328125 2.4802651405334472656 1.9564292430877685547 1.8506981134414672852 2.3238539695739746094 1.4392073154449462891 2.1883924007415771484 2.3646557331085205078 2.5121517181396484375 2.9547710418701171875 2.8684382438659667969 3.2249937057495117188 3.1897716522216796875 2.7419657707214355469 3.3978848457336425781 2.9799513816833496094 3.0682141780853271484 3.2989287376403808594 2.8156101703643798828 3.5868623256683349609 3.7944409847259521484 4.4154047966003417969 3.9553923606872558594 4.6804642677307128906 3.7673125267028808594 4.0444011688232421875 4.7432608604431152344 3.9140110015869140625 4.3003683090209960938 4.5383005142211914063 3.9084515571594238281 3.9491987228393554688 2.8022959232330322266 
1 1 1 1.1812468767166137695 2.5925157070159912109 1 2.2419621944427490234 1.2885288000106811523 1 1 1 1 2.5925157070159912109 1.5138857364654541016 1 1.1582262516021728516 1 1 1 1 1 1.2702735662460327148 1 1.5704438686370849609 1.2895470857620239258 1.2551587820053100586 2.0245997905731201172 1.0137466192245483398 2.4949574470520019531 1 2.9988157749176025391 1.9023538827896118164 2.3629703521728515625 1.2569049596786499023 1.4671767950057983398 2.9919748306274414063 2.4465868473052978516 2.2324821949005126953 2.3677103519439697266 2.4112427234649658203 2.7751584053039550781 3.0310406684875488281 3.7044873237609863281 3.3673138618469238281 3.3926403522491455078 3.1183741092681884766 3.3454258441925048828 3.5670483112335205078 2.9227533340454101563 3.2568171024322509766 3.3448996543884277344 3.6778106689453125 3.1055238246917724609 2.7883439064025878906 2.8346350193023681641 2.9079973697662353516 3.8775763511657714844 3.0236630439758300781 3.150867462158203125 2.8301520347595214844 3.6087357997894287109 3.9476194381713867188 4.0919356346130371094 4.5757946968078613281 4.843257904052734375 4.5690035820007324219 4.7208342552185058594 4.7044696807861328125 4.4819331169128417969 4.9603633880615234375 4.2668671607971191406 4.5551981925964355469 4.4320783615112304688 3.9130237102508544922 3.4275434017181396484 3.5842723846435546875 3.6946625709533691406 3.3909130096435546875 4.0623860359191894531 4.3605961799621582031 2.0069837570190429688 2.3876793384552001953 2.2787280082702636719 2.9303171634674072266 1 1.5459378957748413086 3.2660572528839111328 2.5943169593811035156 1.1093642711639404297 1.0493320226669311523 1.9826123714447021484 2.254730224609375 1 2.6571300029754638672 1.6433936357498168945 1.9446921348571777344 2.6473526954650878906 2.6859078407287597656 1.7459603548049926758 2.0066277980804443359 3.7682712078094482422 2.9413981437683105469 2.3978526592254638672 3.4092969894409179688 2.6632895469665527344 3.3533434867858886719 3.0790886878967285156 2.7003748416900634766 3.060733795166015625 2.2830595970153808594 2.8363389968872070313 3.2391676902770996094 2.5427849292755126953 2.7607662677764892578 2.7336752414703369141 2.2818596363067626953 2.6193475723266601563 2.4848744869232177734 2.3972649574279785156 2.6606876850128173828 2.1916701793670654297 1.8046594858169555664 1.4559197425842285156 1 2.1211276054382324219 2.3763849735260009766 1 1 1 1.7644414901733398438 1.5363100767135620117 1.8076318502426147461 2.3162469863891601563 1.4169719219207763672 2.3822524547576904297 1.4030901193618774414 1.4083398580551147461 2.2436156272888183594 1 2.2336819171905517578 2.1110303401947021484 1.6452243328094482422 1.6649919748306274414 2.3347420692443847656 1.9883326292037963867 2.3345808982849121094 2.2273766994476318359 2.2174971103668212891 2.1912662982940673828 2.4836740493774414063 2.0431766510009765625 2.3660042285919189453 3.0276987552642822266 2.5066621303558349609 2.7712285518646240234 2.9465265274047851563 2.9624245166778564453 2.6755928993225097656 2.4343857765197753906 2.4720883369445800781 2.4754877090454101563 1.7460055351257324219 2.3536376953125 2.6760778427124023438 3.1133525371551513672 2.3771924972534179688 2.4564025402069091797 2.6772997379302978516 2.5406792163848876953 2.6519525051116943359 1.3443316221237182617 2.475826263427734375 2.7882049083709716797 2.5164978504180908203 3.4346711635589599609 2.4125597476959228516 2.7225391864776611328 2.8018898963928222656 2.6134502887725830078 3.1517457962036132813 2.8581128120422363281 3.3730823993682861328 2.770618438720703125 3.2209265232086181641 3.0777652263641357422 2.8484790325164794922 3.4844486713409423828 3.4715442657470703125 4.0801835060119628906 4.5571079254150390625 4.0933933258056640625 4.6667566299438476563 4.1118211746215820313 3.4705164432525634766 4.3743448257446289063 4.4304761886596679688 3.7812948226928710938 4.0682272911071777344 3.6029503345489501953 3.0155913829803466797 
1.1582262516021728516 1 1 1 1 1 1 2.5925157070159912109 1 1 1 1 1.1029417514801025391 1 1 1 1 1.1029417514801025391 1.1812468767166137695 1 1 1 1 1 2.3494334220886230469 1.6835764646530151367 1.2726769447326660156 1.3867008686065673828 1 1.4704608917236328125 2.2588074207305908203 1.0906118154525756836 2.5745885372161865234 1.7416434288024902344 1.7787336111068725586 1.7714581489562988281 1.7077755928039550781 2.7477874755859375 1.7219760417938232422 2.2734253406524658203 3.1559679508209228516 2.6543385982513427734 3.0708456039428710938 2.7460985183715820313 3.4472575187683105469 2.8829414844512939453 2.7389628887176513672 3.0737180709838867188 2.8200585842132568359 3.4188292026519775391 2.8272836208343505859 2.9541907310485839844 3.4622471332550048828 3.0027687549591064453 2.9259922504425048828 3.6838371753692626953 3.2474997043609619141 2.6876292228698730469 2.3448023796081542969 3.522960662841796875 3.4218401908874511719 4.0474390983581542969 3.9161636829376220703 4.3474478721618652344 4.3570070266723632813 4.6107363700866699219 4.6722979545593261719 4.038700103759765625 4.4000439643859863281 4.4833312034606933594 4.3980727195739746094 3.8577401638031005859 3.8084928989410400391 3.6576857566833496094 3.386531829833984375 3.7122337818145751953 3.8438827991485595703 3.6343586444854736328 3.5146534442901611328 3.8815522193908691406 3.6811120510101318359 3.6375324726104736328 3.1497240066528320313 3.1207404136657714844 3.1282229423522949219 3.6237263679504394531 1.1939092874526977539 1.0231529474258422852 1.8025853633880615234 1.6130183935165405273 2.1557264328002929688 2.5460779666900634766 2.4469678401947021484 2.5740640163421630859 1.6479773521423339844 2.1365008354187011719 2.0220739841461181641 1 2.7601709365844726563 1.9212427139282226563 2.3994936943054199219 2.2707548141479492188 2.0724344253540039063 2.8357303142547607422 2.7057666778564453125 2.1823332309722900391 2.7918732166290283203 3.0345017910003662109 2.7487332820892333984 3.0677678585052490234 2.7783398628234863281 3.1212503910064697266 3.3149428367614746094 2.6135001182556152344 2.9164690971374511719 2.9379703998565673828 2.6030848026275634766 2.7597298622131347656 2.4473166465759277344 2.6220142841339111328 1 1.8593134880065917969 2.216339111328125 3.1124663352966308594 1.8382182121276855469 2.0183217525482177734 1.5326608419418334961 1.0705183744430541992 1.880926966667175293 1.0655963420867919922 1.3149970769882202148 2.1153478622436523438 2.4439973831176757813 1.6634064912796020508 1 2.2544891834259033203 1.0298744440078735352 1.1567413806915283203 1 2.6540677547454833984 1.538155674934387207 2.0312480926513671875 2.1275587081909179688 1.8425593376159667969 2.1642436981201171875 2.2025914192199707031 2.7228577136993408203 3.1695356369018554688 2.4928808212280273438 2.8311169147491455078 2.2766056060791015625 2.8685984611511230469 1.9975594282150268555 2.7960226535797119141 2.5855982303619384766 2.7060284614562988281 3.0300016403198242188 2.7530419826507568359 3.0176336765289306641 3.1762418746948242188 2.39599609375 1.1818686723709106445 2.3361077308654785156 2.5945150852203369141 2.7744100093841552734 2.8530831336975097656 2.4714095592498779297 2.9632105827331542969 2.5160837173461914063 2.7764306068420410156 3.0693325996398925781 2.2390093803405761719 3.0006792545318603516 2.4074230194091796875 3.2415091991424560547 2.840320587158203125 2.4859426021575927734 2.5750939846038818359 2.3710036277770996094 2.6579952239990234375 2.1531369686126708984 3.3210878372192382813 2.8563187122344970703 2.3067884445190429688 3.2034456729888916016 3.3855535984039306641 3.2179803848266601563 3.2996468544006347656 3.5807037353515625 3.6818897724151611328 3.5600397586822509766 4.3696532249450683594 4.6583776473999023438 4.3360838890075683594 4.4926595687866210938 3.6300389766693115234 3.2805933952331542969 3.5793485641479492188 3.1296694278717041016 2.7070944309234619141 
1 1 2.0606834888458251953 1 1 1 1 1 1 1 1 1 1 1 1 1.1184136867523193359 1 1 1 1.0343725681304931641 1.3948215246200561523 2.2994599342346191406 1 2.2746639251708984375 1.0979955196380615234 1.9709038734436035156 2.3810520172119140625 2.3880374431610107422 1 1.1262508630752563477 1 2.3532078266143798828 1.8648176193237304688 1 1.8029683828353881836 1.7326333522796630859 2.0109722614288330078 2.2807288169860839844 1.5021921396255493164 1.8093014955520629883 1.0601140260696411133 2.3875906467437744141 2.5707080364227294922 2.9597876071929931641 3.0048878192901611328 3.2051870822906494141 3.0237603187561035156 3.3154323101043701172 3.3595063686370849609 2.6868865489959716797 3.4217970371246337891 3.4657011032104492188 3.1006534099578857422 2.8835237026214599609 3.0611751079559326172 3.1642663478851318359 3.3416724205017089844 3.2820229530334472656 2.8532094955444335938 3.3201379776000976563 3.4393434524536132813 3.8861610889434814453 3.7499577999114990234 4.5062260627746582031 4.3521866798400878906 4.3011927604675292969 4.3782477378845214844 3.9430615901947021484 3.9921681880950927734 4.3244299888610839844 4.5350918769836425781 3.8707427978515625 4.9112172126770019531 3.8855519294738769531 3.3747727870941162109 3.5684664249420166016 3.6303658485412597656 3.8006491661071777344 4.3603100776672363281 4.1136445999145507813 3.7877161502838134766 3.4855508804321289063 2.7624857425689697266 2.0483486652374267578 1.8240178823471069336 2.1376376152038574219 2.3205797672271728516 2.6365969181060791016 2.0998475551605224609 2.0757539272308349609 2.6098451614379882813 2.4715917110443115234 3.0945417881011962891 1.6053726673126220703 1.65073394775390625 2.965484619140625 2.6456239223480224609 1 2.2980811595916748047 1.8072501420974731445 2.3585913181304931641 3.0312557220458984375 1.8208587169647216797 1.9238982200622558594 2.0541856288909912109 2.1661596298217773438 2.3006255626678466797 2.1586897373199462891 2.4082849025726318359 2.7795357704162597656 3.0819082260131835938 2.5810778141021728516 2.5644068717956542969 3.0704236030578613281 2.6317155361175537109 3.0254573822021484375 2.7161917686462402344 3.3822734355926513672 1.9382679462432861328 2.0246818065643310547 3.3138599395751953125 2.6866593360900878906 1.7573640346527099609 3.0529410839080810547 1.6226291656494140625 2.3649609088897705078 1.0003046989440917969 1.8689723014831542969 1 2.2220125198364257813 1.9497697353363037109 1 2.2343738079071044922 1.7647737264633178711 1 1.6507877111434936523 1.0201439857482910156 2.3800845146179199219 1 2.3775990009307861328 2.1814916133880615234 1.346715092658996582 1.929976344108581543 2.3920013904571533203 1.0953556299209594727 2.0082542896270751953 2.53354644775390625 2.4660260677337646484 2.8509385585784912109 2.4607224464416503906 2.8479304313659667969 2.1165144443511962891 2.4854466915130615234 2.718402862548828125 2.5847339630126953125 2.3346438407897949219 2.1554174423217773438 2.1075735092163085938 2.3887853622436523438 1.9396457672119140625 2.4762711524963378906 2.9974980354309082031 2.2285010814666748047 2.0608777999877929688 1.4011416435241699219 2.9485042095184326172 3.264568328857421875 2.1403474807739257813 2.8664286136627197266 2.0502994060516357422 2.8989717960357666016 2.2423279285430908203 2.8217883110046386719 2.1219704151153564453 2.8492188453674316406 1.8333523273468017578 2.5621821880340576172 2.6277489662170410156 2.8350636959075927734 2.8017358779907226563 3.0408122539520263672 2.9983448982238769531 2.2940170764923095703 2.7786068916320800781 3.0135114192962646484 3.4299976825714111328 3.1576926708221435547 3.6543865203857421875 3.7790188789367675781 3.8673491477966308594 4.0011792182922363281 4.1989145278930664063 4.7804179191589355469 4.6526703834533691406 4.123188018798828125 3.6901640892028808594 3.5275046825408935547 3.798358917236328125 3.02414703369140625 3.5774919986724853516 
1 2.5925157070159912109 1 1 1 1 1 2.5925157070159912109 2.0606834888458251953 1 2.5925157070159912109 1 2.0606834888458251953 1.5607722997665405273 1 1 1 1 1 2.3851757049560546875 2.0653066635131835938 1.2306966781616210938 1.4210331439971923828 1.131127476692199707 1.9954407215118408203 1.1731557846069335938 1 2.3179585933685302734 1.3017292022705078125 1.3172316551208496094 1 1 1.2591799497604370117 2.2314524650573730469 1 2.1345522403717041016 1 1.1231225728988647461 1 1 1.5840741395950317383 2.0411403179168701172 2.9126660823822021484 2.3195159435272216797 2.0403306484222412109 2.4931664466857910156 3.1978871822357177734 2.8383572101593017578 2.8536326885223388672 2.7202167510986328125 3.1571867465972900391 3.5739567279815673828 3.1677713394165039063 3.3817341327667236328 3.0209653377532958984 3.4769759178161621094 3.4004764556884765625 2.8550024032592773438 2.4725081920623779297 3.1740479469299316406 3.9661700725555419922 3.6366431713104248047 2.8859281539916992188 3.6352803707122802734 3.6079316139221191406 4.3718161582946777344 3.4091851711273193359 4.3569731712341308594 4.3129110336303710938 4.3841710090637207031 3.8041326999664306641 3.9324057102203369141 4.2199749946594238281 3.9344379901885986328 3.2337272167205810547 4.2096638679504394531 4.0071973800659179688 3.6515443325042724609 3.473392486572265625 4.4174289703369140625 4.1151814460754394531 3.4718992710113525391 3.2700171470642089844 2.1693027019500732422 2.6808552742004394531 2.6349442005157470703 1.0512883663177490234 2.8423109054565429688 3.1381068229675292969 2.2339649200439453125 1.9686632156372070313 1.3404760360717773438 2.6682598590850830078 1.792331695556640625 2.4481992721557617188 1.9471704959869384766 1.9167730808258056641 2.3709700107574462891 1.8988816738128662109 2.7922677993774414063 2.9812450408935546875 1.9995131492614746094 2.20687103271484375 1.5979181528091430664 2.1725459098815917969 2.3606233596801757813 2.9100556373596191406 2.6939184665679931641 2.8971114158630371094 2.1382017135620117188 2.6069552898406982422 2.7739636898040771484 2.8921763896942138672 2.4837820529937744141 3.2271256446838378906 3.4172375202178955078 3.0087745189666748047 2.9127085208892822266 2.3380584716796875 2.735504150390625 2.0257465839385986328 2.3120496273040771484 2.0423426628112792969 1.4876708984375 2.5893709659576416016 1.8644375801086425781 2.5149424076080322266 1.3307510614395141602 1 2.4304850101470947266 1.8761565685272216797 2.2118048667907714844 1.7246888875961303711 1.7314476966857910156 2.2039706707000732422 1 1.3298685550689697266 1.4776178598403930664 1.1674960851669311523 1 2.4981904029846191406 2.1647562980651855469 2.2904286384582519531 1.465920567512512207 1.4256213903427124023 2.39008331298828125 2.2220084667205810547 2.8245563507080078125 3.0566239356994628906 3.1773698329925537109 2.8350064754486083984 2.476650238037109375 2.5749650001525878906 2.2581264972686767578 2.5298473834991455078 2.2881586551666259766 2.3821885585784912109 2.7269277572631835938 2.268741607666015625 1.8270834684371948242 2.1464257240295410156 2.0577094554901123047 2.1852424144744873047 1.307450413703918457 1.9518420696258544922 2.4625227451324462891 1.3983761072158813477 2.0546257495880126953 2.4737544059753417969 1.5895090103149414063 2.8930442333221435547 2.8704986572265625 2.8308124542236328125 1.6728454828262329102 2.2783365249633789063 3.1559822559356689453 2.5701518058776855469 2.5666639804840087891 3.2138812541961669922 2.2350728511810302734 2.8503901958465576172 2.4634702205657958984 3.0696206092834472656 3.0139451026916503906 2.9475884437561035156 3.2651650905609130859 3.5409171581268310547 3.2571775913238525391 3.3410806655883789063 3.7153837680816650391 3.774005889892578125 4.2241711616516113281 4.5182499885559082031 4.0670347213745117188 4.1900439262390136719 4.1157793998718261719 3.6467573642730712891 3.6240329742431640625 3.8218607902526855469 3.5543379783630371094 
1.0806078910827636719 1 2.5925157070159912109 1.2278274297714233398 1 1 1.3013029098510742188 1 1.1812468767166137695 1.1582262516021728516 1 1 1 1 2.0536203384399414063 1 2.4757933616638183594 1.6794130802154541016 1 1 2.0997419357299804688 1 1.0516186952590942383 1.5873968601226806641 1.0418838262557983398 1 1.7545508146286010742 1.0149984359741210938 2.4578571319580078125 1.3445773124694824219 2.4792923927307128906 1 1 1.4034458398818969727 1.2713428735733032227 1 1.2912622690200805664 1.2844368219375610352 1.4878510236740112305 1 1.3169282674789428711 1 2.6937663555145263672 2.0280337333679199219 2.3506999015808105469 2.7379181385040283203 1.9742076396942138672 2.6186814308166503906 2.8778407573699951172 3.4091715812683105469 2.7627234458923339844 2.4990465641021728516 2.9678270816802978516 2.755153656005859375 3.2644810676574707031 2.8990457057952880859 2.8595795631408691406 3.3835465908050537109 3.2981963157653808594 3.6339249610900878906 3.3432149887084960938 3.4052886962890625 3.0192484855651855469 3.3733096122741699219 3.5238981246948242188 3.9113595485687255859 4.0150852203369140625 3.8797631263732910156 3.8945021629333496094 4.6574473381042480469 4.4021863937377929688 4.1811037063598632813 3.8726062774658203125 3.5150401592254638672 4.3452801704406738281 4.2074422836303710938 4.5428404808044433594 3.9867956638336181641 3.6060173511505126953 3.7116510868072509766 3.8300333023071289063 3.3628904819488525391 3.9495675563812255859 2.6860461235046386719 2.9256443977355957031 3.6632959842681884766 2.8427307605743408203 1.9218984842300415039 2.0976583957672119141 2.2755610942840576172 2.4170513153076171875 2.0171647071838378906 1.8496931791305541992 1.3886098861694335938 1.2126926183700561523 1 1 1.4338403940200805664 1.3208876848220825195 2.4666054248809814453 2.3707478046417236328 1.0147256851196289063 1.6610008478164672852 2.4325387477874755859 1.8870940208435058594 2.8301401138305664063 2.6218597888946533203 2.3823246955871582031 2.8345408439636230469 2.8993299007415771484 2.6176786422729492188 2.3567104339599609375 2.4243581295013427734 2.7189345359802246094 3.3365533351898193359 3.2401294708251953125 2.5732319355010986328 2.7399544715881347656 2.0468370914459228516 3.1679468154907226563 2.9046845436096191406 2.4780483245849609375 1.9179579019546508789 1.7616848945617675781 2.9942154884338378906 2.2963302135467529297 1.302969813346862793 1.5605052709579467773 2.2090287208557128906 1.5208880901336669922 1 2.0650780200958251953 1.2692792415618896484 1 1 1 2.2500760555267333984 1.058661341667175293 1.3595669269561767578 1.3054484128952026367 1.6157975196838378906 2.1351211071014404297 2.6981618404388427734 1.9094042778015136719 1.9642529487609863281 2.3904654979705810547 2.7649102210998535156 2.7615358829498291016 2.4713976383209228516 3.3194754123687744141 2.5277535915374755859 2.9685678482055664063 3.0812191963195800781 3.25374603271484375 2.6924047470092773438 3.1200795173645019531 2.8232991695404052734 2.6242284774780273438 2.8200139999389648438 2.1455142498016357422 1.5994142293930053711 1.8427480459213256836 2.8535635471343994141 2.41162109375 1.2888216972351074219 1 1.6913307905197143555 2.4508953094482421875 2.6285555362701416016 2.6635334491729736328 2.3790116310119628906 2.5003418922424316406 2.7315335273742675781 3.24151611328125 2.9989895820617675781 2.6509735584259033203 2.9588196277618408203 3.2911939620971679688 2.6408295631408691406 2.7205231189727783203 2.7411184310913085938 3.2086281776428222656 3.3742494583129882813 2.9391486644744873047 3.4746873378753662109 3.8697118759155273438 3.7842998504638671875 3.22076416015625 3.2888264656066894531 3.9417312145233154297 4.0900526046752929688 4.6082391738891601563 4.3188557624816894531 4.4841909408569335938 4.5400109291076660156 4.1227788925170898438 3.7094211578369140625 3.683750152587890625 4.029682159423828125 3.6840190887451171875 
1 1 1 1 1.1029417514801025391 1.0692206621170043945 1 1 1 1.5607722997665405273 1 2.0606834888458251953 1 1.3283793926239013672 2.1565966606140136719 1.2003040313720703125 1.5569685697555541992 1 1.420632481575012207 1.299914240837097168 1.1857296228408813477 2.0364019870758056641 1.3881022930145263672 1.4728904962539672852 1 1 1 1 1.5585091114044189453 2.1179404258728027344 1 1 1 1 2.0459361076354980469 2.2054376602172851563 1.3690525293350219727 1 2.4418859481811523438 1 1.055739283561706543 1 1.8494085073471069336 2.8959834575653076172 1.6854835748672485352 1.8813018798828125 2.6772627830505371094 2.8220965862274169922 2.4651601314544677734 2.8804595470428466797 2.8836526870727539063 3.3227887153625488281 2.7136654853820800781 3.5447652339935302734 3.0171999931335449219 3.4204955101013183594 3.2817845344543457031 3.5555231571197509766 2.8811922073364257813 2.9948968887329101563 3.1930284500122070313 3.5097000598907470703 3.2523729801177978516 3.5738520622253417969 3.2787265777587890625 4.5419983863830566406 4.5375161170959472656 4.1844239234924316406 4.2454743385314941406 4.4854593276977539063 4.3422436714172363281 4.0408282279968261719 4.1622872352600097656 4.449108123779296875 3.7141680717468261719 4.12505340576171875 3.2756915092468261719 3.3797826766967773438 3.092121124267578125 3.6652362346649169922 3.252986907958984375 2.6827542781829833984 2.7387888431549072266 3.1217136383056640625 2.0493032932281494141 2.1501924991607666016 2.4757258892059326172 2.3682010173797607422 1.4536440372467041016 2.8694570064544677734 2.9270842075347900391 2.4476306438446044922 2.5737433433532714844 1.5255806446075439453 1.1632894277572631836 1 1.0694739818572998047 1 1.3275226354598999023 3.2109954357147216797 1.4202187061309814453 2.4138340950012207031 2.8575890064239501953 1.662015080451965332 1.6846145391464233398 3.1435048580169677734 2.8135905265808105469 2.2437467575073242188 3.5977199077606201172 2.5565571784973144531 3.1405341625213623047 3.4631738662719726563 3.0813517570495605469 3.2412161827087402344 3.2784090042114257813 2.7114992141723632813 2.9961309432983398438 3.1646983623504638672 2.0384016036987304688 1.857378840446472168 2.0358316898345947266 2.1533396244049072266 2.0246281623840332031 2.7910892963409423828 1.5552901029586791992 2.5300340652465820313 3.0435299873352050781 1.9668051004409790039 2.5324811935424804688 1.8921842575073242188 2.0491597652435302734 1.6757731437683105469 1 1.7677522897720336914 2.638469696044921875 1 1 1 2.5682830810546875 1.7671425342559814453 1.4137634038925170898 1.703999638557434082 2.8530628681182861328 2.5593659877777099609 2.7328467369079589844 2.6865165233612060547 2.5176978111267089844 2.8851563930511474609 2.9044134616851806641 3.0741255283355712891 2.6214716434478759766 2.4712429046630859375 3.1345436573028564453 2.5682578086853027344 2.1520984172821044922 2.0904307365417480469 2.5789055824279785156 2.3873231410980224609 2.2025976181030273438 1.3843768835067749023 1.6401827335357666016 2.8856680393218994141 2.3552389144897460938 1 1.5522867441177368164 2.659275054931640625 1.8538268804550170898 1.6583322286605834961 2.1115560531616210938 2.4861171245574951172 2.0770800113677978516 2.3918995857238769531 2.7109887599945068359 2.8050324916839599609 3.0418896675109863281 2.8705592155456542969 3.1968786716461181641 2.8621087074279785156 2.9676809310913085938 3.3596775531768798828 2.6273939609527587891 3.4446301460266113281 3.2557365894317626953 3.2996222972869873047 2.2677347660064697266 2.7791392803192138672 3.5467703342437744141 3.7612435817718505859 3.5571010112762451172 3.5384199619293212891 3.8461432456970214844 4.7309441566467285156 3.6425750255584716797 3.4121882915496826172 3.7448313236236572266 3.4361596107482910156 4.3445329666137695313 4.3830733299255371094 4.360553741455078125 4.5080714225769042969 
1.1859236955642700195 1 1 1 1.1812468767166137695 1.1675899028778076172 1 2.5925157070159912109 1 1 1 1.3246989250183105469 1.0115836858749389648 1.420632481575012207 1 1 1.6808840036392211914 1 1 2.2055211067199707031 1.1302753686904907227 1 1.1302753686904907227 1 1.7876366376876831055 1 1.0352275371551513672 1 1 1 1 1 1 1.8100851774215698242 1.2339223623275756836 1 1.653941035270690918 2.3851757049560546875 1.2716739177703857422 1.3727967739105224609 2.0051195621490478516 1 2.0719447135925292969 2.3179390430450439453 2.9355304241180419922 2.0768716335296630859 2.9145073890686035156 2.2904887199401855469 2.8630197048187255859 3.3152575492858886719 2.6553919315338134766 3.1998162269592285156 3.0742363929748535156 2.5602016448974609375 3.0333590507507324219 3.2933940887451171875 3.3156831264495849609 3.4150035381317138672 3.0907831192016601563 2.8364913463592529297 2.9733614921569824219 3.3666660785675048828 3.6008205413818359375 3.8593585491180419922 3.4872217178344726563 4.2477350234985351563 4.1303625106811523438 4.1139903068542480469 4.4837393760681152344 4.2197022438049316406 4.3379259109497070313 4.4955663681030273438 4.3647532463073730469 4.2330288887023925781 3.5095295906066894531 4.0886974334716796875 4.3701839447021484375 4.1686062812805175781 3.5422952175140380859 3.6715068817138671875 3.9896280765533447266 2.8006231784820556641 3.3748171329498291016 2.9173147678375244141 2.0002074241638183594 2.3633432388305664063 2.7258806228637695313 2.4826273918151855469 2.59320068359375 2.0964436531066894531 2.2988197803497314453 1.9790328741073608398 2.3876597881317138672 1.9256018400192260742 1.1175451278686523438 1 1 1.1975015401840209961 1.8649138212203979492 1.5034538507461547852 1.8900133371353149414 2.3356335163116455078 1.9509792327880859375 2.2405674457550048828 2.9796013832092285156 2.2286133766174316406 2.6293041706085205078 2.1978800296783447266 2.8219876289367675781 2.7142796516418457031 2.9528224468231201172 2.9174261093139648438 3.3643476963043212891 2.8506839275360107422 3.1523835659027099609 2.9196417331695556641 3.2920730113983154297 2.6501238346099853516 2.6077511310577392578 2.0643270015716552734 2.9820530414581298828 2.4904208183288574219 2.3077497482299804688 1.8304570913314819336 3.0325896739959716797 2.8594999313354492188 2.1226732730865478516 2.3039531707763671875 2.4785592555999755859 2.4879868030548095703 1.496268153190612793 1.9237257242202758789 1.5564091205596923828 1.6635961532592773438 1 1.6042791604995727539 1.4391541481018066406 1.7099014520645141602 1.3080642223358154297 1.4543133974075317383 1.745726466178894043 1.4860035181045532227 1.6418249607086181641 2.3980262279510498047 2.2531120777130126953 2.866275787353515625 2.6708881855010986328 2.4602217674255371094 2.9016988277435302734 2.4917006492614746094 2.0570027828216552734 1.7712488174438476563 2.3507494926452636719 2.1636655330657958984 2.6842608451843261719 2.6369888782501220703 2.4997539520263671875 1.7599017620086669922 2.2125225067138671875 2.55730438232421875 2.9381864070892333984 1 2.3450016975402832031 1 1.6908593177795410156 2.6464815139770507813 2.3753273487091064453 2.3677196502685546875 1.7992664575576782227 3.1718275547027587891 1.6365759372711181641 2.6295757293701171875 2.8245141506195068359 2.7863423824310302734 2.1832327842712402344 2.3656949996948242188 2.6424126625061035156 3.0499396324157714844 3.1176671981811523438 2.8111829757690429688 2.4533407688140869141 2.6967935562133789063 3.5915162563323974609 3.0215353965759277344 3.2496521472930908203 2.7608728408813476563 3.4632825851440429688 3.7407839298248291016 3.5837638378143310547 3.6789367198944091797 3.2221465110778808594 3.9286913871765136719 3.9804575443267822266 4.1718993186950683594 4.0625748634338378906 3.4851927757263183594 3.7533080577850341797 4.0050506591796875 4.068878173828125 4.0012593269348144531 
1 1.6938040256500244141 1 1 1 1 2.5925157070159912109 1 1.1641137599945068359 1.1940861940383911133 1 1 1 1 1.6137006282806396484 1 1 1 1.1975129842758178711 1 1.2392204999923706055 1 1.3031857013702392578 1.1981806755065917969 1 1.4034458398818969727 1 1 1 1 1 1 1.1393854618072509766 2.7128720283508300781 1.3539234399795532227 1.8630529642105102539 1 1.5220332145690917969 1.4858429431915283203 1 1 2.6427743434906005859 2.2913844585418701172 1.4245767593383789063 1.5471487045288085938 2.8155333995819091797 3.2386691570281982422 2.5289635658264160156 3.3335361480712890625 2.7600555419921875 3.1786677837371826172 3.3260598182678222656 3.0148081779479980469 2.734958648681640625 3.2651305198669433594 3.0811371803283691406 2.9407436847686767578 3.8094403743743896484 3.2818510532379150391 3.417034149169921875 3.1497101783752441406 3.0478794574737548828 3.0531740188598632813 3.6480345726013183594 3.9791216850280761719 4.1991019248962402344 4.336605072021484375 4.1553964614868164063 4.2651519775390625 4.5400552749633789063 4.1458649635314941406 4.4750123023986816406 4.0921902656555175781 4.2419896125793457031 4.1568040847778320313 4.7349672317504882813 4.5437254905700683594 3.821746826171875 4.1664524078369140625 4.0339455604553222656 4.0023431777954101563 3.5220127105712890625 3.3554630279541015625 3.16522979736328125 2.9391584396362304688 2.6483645439147949219 2.8029503822326660156 2.8981180191040039063 2.0981678962707519531 2.8390352725982666016 2.2158553600311279297 1.8314005136489868164 2.7774529457092285156 1.935767054557800293 1.5297687053680419922 1.3009470701217651367 1.4476796388626098633 1 1 1.8464733362197875977 1.6291720867156982422 1.7797894477844238281 1.3853158950805664063 2.5569386482238769531 2.4111406803131103516 2.8703434467315673828 1.544440150260925293 2.3671972751617431641 2.3311560153961181641 2.7908511161804199219 2.7661783695220947266 3.2674045562744140625 3.019245147705078125 2.9818358421325683594 3.0717830657958984375 3.00634765625 3.0702548027038574219 2.5139529705047607422 3.0086035728454589844 2.7078194618225097656 2.2394704818725585938 2.5758540630340576172 3.4238467216491699219 2.7057547569274902344 2.8993306159973144531 2.6540133953094482422 2.2051131725311279297 2.5344240665435791016 3.3361225128173828125 2.7380621433258056641 2.6585135459899902344 2.1135869026184082031 1.9719423055648803711 1.4716330766677856445 1 2.5495312213897705078 2.4432783126831054688 1.1566522121429443359 1.3576692342758178711 1 2.4941256046295166016 2.0223879814147949219 2.0520431995391845703 2.4891507625579833984 2.7133262157440185547 1.6323226690292358398 2.125946044921875 2.6934053897857666016 2.5446600914001464844 2.1596326828002929688 2.5848062038421630859 2.9761176109313964844 2.9384706020355224609 2.4452574253082275391 2.1750185489654541016 2.7104341983795166016 2.5134186744689941406 3.1084010601043701172 2.4546382427215576172 1.5031886100769042969 1.6152552366256713867 2.3864066600799560547 1.5671597719192504883 2.4791054725646972656 2.7156176567077636719 2.0794589519500732422 2.2025542259216308594 2.7515485286712646484 2.2143521308898925781 1.4614858627319335938 2.2019951343536376953 2.6932826042175292969 2.4904613494873046875 2.7955336570739746094 3.0476639270782470703 3.1509878635406494141 2.9368958473205566406 2.1620874404907226563 2.9106707572937011719 2.3108658790588378906 3.1898887157440185547 3.0775187015533447266 2.4955735206604003906 2.7015950679779052734 3.1955804824829101563 2.2591621875762939453 3.0367810726165771484 2.7507607936859130859 3.6545588970184326172 3.8046040534973144531 3.2127735614776611328 3.8313126564025878906 3.517482757568359375 3.1454825401306152344 4.0309109687805175781 4.4238648414611816406 3.3767635822296142578 4.3926157951354980469 4.4851732254028320313 3.8880665302276611328 
1 1 1 1.0284317731857299805 1 1 1 1 1.1029417514801025391 1.1029417514801025391 1 1 1 1 1 1 1 1.653941035270690918 1 1.1201568841934204102 1 2.4806685447692871094 2.8952281475067138672 1 1 1 1 1 2.0695986747741699219 1 1 1.9843972921371459961 1.2381116151809692383 1 1.3697805404663085938 1.125087738037109375 1.6181137561798095703 1 1 1 1.2421973943710327148 1.8960373401641845703 1.5401017665863037109 2.3882846832275390625 2.3392865657806396484 1.9348809719085693359 2.7742962837219238281 2.6518383026123046875 2.0974271297454833984 2.8145618438720703125 2.5853934288024902344 3.0644428730010986328 3.1517250537872314453 3.31856536865234375 3.4565463066101074219 3.0621185302734375 3.4062876701354980469 3.0505723953247070313 3.2719552516937255859 2.9060339927673339844 2.8208169937133789063 2.9407591819763183594 2.9072091579437255859 3.36474609375 3.9955277442932128906 4.0567884445190429688 3.6418888568878173828 4.5001702308654785156 4.357074737548828125 4.9297547340393066406 4.0064663887023925781 4.9736418724060058594 4.4940390586853027344 4.4553356170654296875 4.4562597274780273438 4.0872902870178222656 4.7702860832214355469 4.2670297622680664063 3.9964954853057861328 3.6782791614532470703 3.752910614013671875 3.2061207294464111328 2.7628934383392333984 2.9471721649169921875 2.3392183780670166016 1.7653771638870239258 2.375965118408203125 2.5545194149017333984 1.608531951904296875 2.6541926860809326172 2.5083193778991699219 2.5141880512237548828 2.0411882400512695313 1.8145546913146972656 1.2888195514678955078 1.5609872341156005859 1 1 1 1.1302753686904907227 1.0060368776321411133 2.0506963729858398438 1 2.3205392360687255859 1.577492833137512207 1.6609500646591186523 2.6493728160858154297 2.5241830348968505859 2.9083371162414550781 2.2258672714233398438 3.1691608428955078125 3.3358807563781738281 3.1227273941040039063 3.164276123046875 3.1158721446990966797 3.6896889209747314453 2.2391197681427001953 3.1414651870727539063 3.3865814208984375 2.3649148941040039063 3.6533682346343994141 3.4919857978820800781 2.4688084125518798828 2.5474808216094970703 3.0806851387023925781 2.9331302642822265625 2.7242662906646728516 2.9425826072692871094 2.3911650180816650391 2.9965906143188476563 2.4384148120880126953 1.5823918581008911133 2.4576785564422607422 1 1.7373574972152709961 2.0099585056304931641 1.5872031450271606445 2.5331864356994628906 2.2130522727966308594 2.5470499992370605469 2.3256642818450927734 2.5640289783477783203 1.1716858148574829102 2.6248328685760498047 1.0956227779388427734 2.6605281829833984375 2.1929042339324951172 3.1974961757659912109 2.5684099197387695313 2.2705285549163818359 2.5733077526092529297 2.4271492958068847656 2.5571515560150146484 2.1035161018371582031 2.3633801937103271484 3.1396586894989013672 2.3804521560668945313 1.6010727882385253906 2.3723447322845458984 1.6052194833755493164 2.6750168800354003906 3.1948645114898681641 2.3985898494720458984 2.3923604488372802734 2.3566138744354248047 3.2509205341339111328 2.4160742759704589844 1.7251809835433959961 2.5901360511779785156 2.7290651798248291016 2.4573867321014404297 2.3356838226318359375 1.6172109842300415039 1.9090934991836547852 2.2180929183959960938 3.1737053394317626953 2.3058137893676757813 2.6520416736602783203 2.9540808200836181641 2.7206709384918212891 2.7367768287658691406 2.9084930419921875 2.5321192741394042969 2.8524291515350341797 2.9982066154479980469 3.0575327873229980469 3.0981109142303466797 2.4408371448516845703 3.3015630245208740234 3.3107454776763916016 3.9570183753967285156 3.2705478668212890625 3.2490077018737792969 2.9182200431823730469 3.2793414592742919922 3.6762826442718505859 3.7602283954620361328 4.0806288719177246094 3.8716409206390380859 4.1420030593872070313 
1 2.1341063976287841797 1 1 1 1 1 1 1 1 1.6938040256500244141 2.6137261390686035156 1 1 1 1 1 1.862238764762878418 1.2569190263748168945 2.2308397293090820313 1 2.8747427463531494141 1.6180655956268310547 1.4281197786331176758 1 1 1 1 1 1 1.0917453765869140625 1 1.8336560726165771484 1 1 1.4660785198211669922 2.3934619426727294922 1 1.7627954483032226563 2.0546813011169433594 2.49560546875 2.8473966121673583984 1.8824280500411987305 1.8354233503341674805 2.6144206523895263672 2.3454637527465820313 2.3811321258544921875 2.1668646335601806641 1.0792276859283447266 1.8174444437026977539 2.5516576766967773438 2.5215859413146972656 3.0742087364196777344 3.2498691082000732422 2.8578722476959228516 3.3437738418579101563 3.6816153526306152344 3.0481059551239013672 3.1701352596282958984 3.0531022548675537109 2.6385347843170166016 3.0008261203765869141 2.9930398464202880859 3.5424821376800537109 3.6375374794006347656 3.9197947978973388672 3.7857630252838134766 4.2863473892211914063 4.4455056190490722656 4.38922882080078125 4.7453961372375488281 3.6764583587646484375 4.273468017578125 4.7010531425476074219 4.4797840118408203125 4.3729777336120605469 4.1687550544738769531 4.1374273300170898438 3.6263959407806396484 2.6348793506622314453 3.3975710868835449219 3.2128839492797851563 3.5627112388610839844 2.8591725826263427734 2.9694294929504394531 2.3952658176422119141 2.4358758926391601563 1.4524407386779785156 2.4269318580627441406 2.3607397079467773438 2.3688614368438720703 1.6163371801376342773 2.1125440597534179688 1.9862735271453857422 2.5198321342468261719 1.3264746665954589844 1.1806674003601074219 1 1.478827357292175293 1.7264230251312255859 1.8015421628952026367 2.5121414661407470703 2.1436812877655029297 1.9778778553009033203 1.6200469732284545898 1.4278773069381713867 3.1080179214477539063 1.9643108844757080078 3.1698105335235595703 2.7240741252899169922 2.8609406948089599609 3.0835175514221191406 2.8589143753051757813 2.9971020221710205078 3.0911099910736083984 2.8654246330261230469 2.2578980922698974609 3.3662657737731933594 2.6237154006958007813 2.5611319541931152344 2.5518634319305419922 2.8871352672576904297 2.7928729057312011719 3.7995488643646240234 3.1798474788665771484 2.8161275386810302734 2.7183098793029785156 2.1491246223449707031 3.3903822898864746094 2.9341456890106201172 2.7842686176300048828 2.1146647930145263672 1.7084763050079345703 1.9039357900619506836 1.8535816669464111328 1.4560941457748413086 1 2.7781810760498046875 1.6648849248886108398 2.1432485580444335938 1.5238428115844726563 2.7480020523071289063 2.266201019287109375 2.2801957130432128906 1.4127259254455566406 2.2158725261688232422 2.4504995346069335938 2.325313568115234375 2.4409270286560058594 1.6131442785263061523 1.6917403936386108398 2.4944715499877929688 2.5966472625732421875 2.5175385475158691406 3.2853674888610839844 2.1738171577453613281 2.6130506992340087891 2.8360645771026611328 2.5177884101867675781 1.9164465665817260742 2.2049624919891357422 3.1764223575592041016 3.3028752803802490234 3.2429311275482177734 3.1083056926727294922 3.4669435024261474609 2.5500736236572265625 2.0092589855194091797 2.649517059326171875 1.502844691276550293 2.6395208835601806641 2.0343964099884033203 2.4073777198791503906 2.5398058891296386719 3.1884899139404296875 1.9100754261016845703 2.4863781929016113281 2.8557572364807128906 2.7850878238677978516 2.2705488204956054688 2.6484231948852539063 2.7905178070068359375 2.2568087577819824219 2.9572894573211669922 2.7461619377136230469 2.706272125244140625 2.8967113494873046875 2.5633413791656494141 3.3757998943328857422 3.7940223217010498047 3.5321445465087890625 3.3467822074890136719 2.8853647708892822266 3.9864487648010253906 3.64430999755859375 3.7710955142974853516 4.153583526611328125 4.2129502296447753906 4.385837554931640625 3.99422454833984375 
1 2.6908342838287353516 1 1 1 1 1 1 1 1 1 1 1 1.0446901321411132813 1.1495256423950195313 1 1 1.3740565776824951172 1 1.2020449638366699219 2.4477193355560302734 1.8157979249954223633 1.9159417152404785156 2.3851757049560546875 1 1 1 1 1 1 1 1 1.460971832275390625 1 1 1 1 1.1175491809844970703 2.6426877975463867188 1.4517018795013427734 1.7104876041412353516 2.7763261795043945313 1.4756712913513183594 2.5400888919830322266 2.5552575588226318359 2.3194241523742675781 3.1651487350463867188 2.7455551624298095703 2.8248219490051269531 2.1493699550628662109 3.2250897884368896484 2.9755294322967529297 2.7347166538238525391 3.0804316997528076172 3.5570623874664306641 2.7570600509643554688 3.2994105815887451172 3.5435233116149902344 3.2558836936950683594 2.8090159893035888672 2.4207577705383300781 3.0160632133483886719 3.0909011363983154297 3.0127515792846679688 3.1010570526123046875 3.1031208038330078125 3.2145574092864990234 3.66129302978515625 3.8822953701019287109 4.3741903305053710938 4.8415670394897460938 4.90332794189453125 5.1345767974853515625 4.3165712356567382813 4.8798556327819824219 4.4391131401062011719 4.1808042526245117188 3.4310116767883300781 4.0280809402465820313 3.2456483840942382813 3.4638059139251708984 3.4402909278869628906 3.1805884838104248047 3.5460042953491210938 2.4717087745666503906 2.4520273208618164063 1.9152035713195800781 3.1684041023254394531 2.2786211967468261719 1.9854786396026611328 2.0915379524230957031 2.4099724292755126953 2.6425492763519287109 3.1822605133056640625 2.2148203849792480469 1.4322068691253662109 2.0692913532257080078 1.6069188117980957031 1.1101880073547363281 1.0339614152908325195 1.3016111850738525391 2.6942396163940429688 1.6034771203994750977 2.6459527015686035156 2.5070328712463378906 2.4348890781402587891 2.680370330810546875 1.4073005914688110352 2.1559543609619140625 2.3237493038177490234 2.812099456787109375 2.8835041522979736328 3.2553117275238037109 2.6932289600372314453 2.9350740909576416016 3.3075954914093017578 3.2517073154449462891 3.1323592662811279297 2.4486448764801025391 2.6039743423461914063 3.0085809230804443359 2.1882886886596679688 2.9429440498352050781 3.1589980125427246094 2.8004028797149658203 3.2238016128540039063 2.7750577926635742188 2.7610051631927490234 2.7420659065246582031 3.0446398258209228516 2.94213104248046875 1.8553284406661987305 1.7884489297866821289 2.7477967739105224609 1 2.3892335891723632813 1.0860011577606201172 2.20514678955078125 1.4471726417541503906 1.4970993995666503906 1.7730978727340698242 1.9183191061019897461 1.8916368484497070313 1.8544523715972900391 2.8967947959899902344 2.3588862419128417969 2.8247790336608886719 2.5933837890625 2.6150963306427001953 2.7443499565124511719 2.7590999603271484375 2.0480732917785644531 2.5867509841918945313 2.2497274875640869141 1.8246148824691772461 2.7085561752319335938 1.6441930532455444336 3.0269329547882080078 1.5587478876113891602 1.0910916328430175781 2.2979762554168701172 2.1834099292755126953 2.4684169292449951172 2.4886686801910400391 2.9529676437377929688 2.9604763984680175781 2.8739559650421142578 2.2561869621276855469 2.2704946994781494141 2.7770988941192626953 2.3959982395172119141 3.0464880466461181641 2.8680264949798583984 2.3867788314819335938 1.575178980827331543 2.7422833442687988281 2.0782659053802490234 2.0543773174285888672 1.730037689208984375 2.8523614406585693359 2.2675323486328125 2.9950730800628662109 3.1084399223327636719 2.6646106243133544922 2.4920871257781982422 2.9325861930847167969 2.7262516021728515625 3.1153130531311035156 3.1460351943969726563 2.7406456470489501953 2.8419599533081054688 3.7249250411987304688 3.6552755832672119141 3.6973133087158203125 4.238559722900390625 3.94123077392578125 3.9662263393402099609 4.415576934814453125 4.1983890533447265625 4.7744402885437011719 
1 1 2.5925157070159912109 1 1.2571241855621337891 1.3558019399642944336 1 1.1812468767166137695 1.1029417514801025391 1 1.024883270263671875 1.1812468767166137695 1.1806674003601074219 1 1.0416849851608276367 1.1366982460021972656 1 1.466803431510925293 2.10507965087890625 1.7418156862258911133 1.3413025140762329102 1.4701055288314819336 1.3061509132385253906 2.6057245731353759766 1.2121618986129760742 1 1 1 1 1 1.0243256092071533203 1 1.4664958715438842773 1.4433122873306274414 1 1 1 1.295718073844909668 1 1 1.4579820632934570313 1.6282631158828735352 2.7510409355163574219 1.9501951932907104492 2.9646558761596679688 2.2898252010345458984 2.9699306488037109375 2.7726244926452636719 3.1091825962066650391 2.78295135498046875 3.2518146038055419922 3.5450749397277832031 3.1484632492065429688 3.2522304058074951172 3.2478957176208496094 2.9966976642608642578 3.0133929252624511719 3.26424407958984375 2.6521148681640625 2.8961966037750244141 2.8567669391632080078 2.1734700202941894531 2.9933981895446777344 3.593486785888671875 3.0680706501007080078 3.2302567958831787109 3.6744244098663330078 3.9048407077789306641 4.7699379920959472656 4.8661112785339355469 4.9587154388427734375 4.1888427734375 4.1625523567199707031 4.4863328933715820313 3.9167072772979736328 4.1676607131958007813 3.4845387935638427734 3.6962490081787109375 3.6338264942169189453 3.5663914680480957031 3.6710779666900634766 3.4072673320770263672 3.3432648181915283203 3.3500435352325439453 2.7307236194610595703 2.5156233310699462891 2.7332112789154052734 2.8359684944152832031 1.8305099010467529297 1.4257974624633789063 2.1501717567443847656 2.8184437751770019531 2.2210721969604492188 1.7360181808471679688 2.1910102367401123047 1.3082811832427978516 1.7331931591033935547 1.0029466152191162109 1.9476664066314697266 1.5470330715179443359 1.0938562154769897461 2.0743138790130615234 2.6804354190826416016 1.7189267873764038086 2.0128841400146484375 2.3596060276031494141 3.0628223419189453125 2.7092225551605224609 2.3060426712036132813 1.6783074140548706055 2.9220316410064697266 3.2570140361785888672 2.7787678241729736328 3.2036414146423339844 2.8888556957244873047 3.0922818183898925781 3.6644945144653320313 2.8775689601898193359 2.705699920654296875 2.4987657070159912109 3.3777306079864501953 2.9751265048980712891 2.9424829483032226563 2.5683004856109619141 2.5732676982879638672 3.2053856849670410156 2.9343559741973876953 2.4279544353485107422 3.5237479209899902344 2.5220677852630615234 2.7326033115386962891 2.6625106334686279297 2.6771075725555419922 1.9631093740463256836 2.7126777172088623047 2.3672995567321777344 1.7847157716751098633 2.1378035545349121094 2.5996499061584472656 2.4571709632873535156 2.9616682529449462891 2.6490676403045654297 2.9585356712341308594 2.4756455421447753906 2.7001800537109375 2.4504668712615966797 2.7538304328918457031 3.1864721775054931641 2.6391386985778808594 2.9393656253814697266 2.9518392086029052734 3.1366498470306396484 3.0056195259094238281 2.8421995639801025391 2.7736606597900390625 2.5863499641418457031 2.3651626110076904297 2.6687352657318115234 2.0612773895263671875 2.2185633182525634766 1.6218436956405639648 1.8551431894302368164 1.9004782438278198242 2.4163086414337158203 2.5445599555969238281 3.2962434291839599609 2.7220625877380371094 2.2644820213317871094 1.8614841699600219727 2.6758897304534912109 1 2.5792927742004394531 2.3589932918548583984 2.86226654052734375 2.5962948799133300781 1.8729772567749023438 2.0726025104522705078 1.6050391197204589844 2.5324976444244384766 2.8011164665222167969 2.5793092250823974609 2.4596779346466064453 3.0441544055938720703 2.6470949649810791016 3.5612571239471435547 2.4469614028930664063 3.2968416213989257813 3.0045797824859619141 3.4752218723297119141 2.78893280029296875 2.9491627216339111328 3.3938009738922119141 3.6320271492004394531 3.6415860652923583984 4.3468427658081054688 4.3507838249206542969 4.5097765922546386719 4.0761709213256835938 3.9539577960968017578 4.8529596328735351563 
1.7422927618026733398 1.0115836858749389648 1 1.1582262516021728516 1 1 1 2.1688840389251708984 1 1 1.1929950714111328125 1 1 1 1.1221659183502197266 1.0421056747436523438 1 2.565273284912109375 1.3195772171020507813 2.9867038726806640625 2.7194364070892333984 1.9904475212097167969 1.9975687265396118164 1.5820204019546508789 2.2354388236999511719 1.5952923297882080078 1 1 1 1 1 1 1 1.0294058322906494141 1 1 1 1 1 1 1.8538415431976318359 1.198604583740234375 1.208304286003112793 2.4037969112396240234 3.0455286502838134766 1.7880052328109741211 3.4742450714111328125 3.2420911788940429688 3.3037624359130859375 3.0510816574096679688 3.0497400760650634766 3.0457515716552734375 2.9438073635101318359 3.5265216827392578125 3.1328284740447998047 2.8316719532012939453 3.4837973117828369141 2.8481168746948242188 2.7132062911987304688 2.6904804706573486328 3.2577779293060302734 2.6036560535430908203 3.1956002712249755859 3.5567083358764648438 3.4052662849426269531 3.3321506977081298828 3.4099276065826416016 3.5176768302917480469 4.4409556388854980469 4.8253173828125 4.5423836708068847656 4.5757327079772949219 3.8662474155426025391 3.9197471141815185547 4.7142457962036132813 4.1047091484069824219 3.8292875289916992188 3.5859687328338623047 3.1784901618957519531 3.3684937953948974609 3.2308101654052734375 3.3156869411468505859 2.9078748226165771484 3.3429698944091796875 2.7842619419097900391 1.7527195215225219727 1.9738607406616210938 2.7142350673675537109 1.7378458976745605469 2.1900384426116943359 2.8023779392242431641 2.0618789196014404297 3.0031328201293945313 3.5324749946594238281 2.4336752891540527344 2.8632080554962158203 2.0739202499389648438 1.6153846979141235352 1 1.8411166667938232422 2.1284165382385253906 2.7913668155670166016 1.6405423879623413086 1 1.1411278247833251953 1.4396344423294067383 2.8532280921936035156 2.4340577125549316406 2.3084332942962646484 1.979620814323425293 2.7157649993896484375 3.2663781642913818359 2.5681030750274658203 3.6892957687377929688 3.2983610630035400391 2.9808714389801025391 3.1243035793304443359 2.6998746395111083984 3.1098601818084716797 3.0447287559509277344 2.5753483772277832031 3.1769967079162597656 2.9363040924072265625 3.1887614727020263672 2.7542421817779541016 2.5771479606628417969 2.8389306068420410156 3.2580852508544921875 2.9555165767669677734 2.5644152164459228516 1.7897131443023681641 2.0652232170104980469 2.0707190036773681641 2.6250588893890380859 2.7052314281463623047 2.6409049034118652344 1.9487855434417724609 1.6545095443725585938 1.7364748716354370117 3.0754749774932861328 3.2835283279418945313 3.0256290435791015625 1.8204607963562011719 3.3634264469146728516 2.2142522335052490234 3.2193307876586914063 3.1141605377197265625 2.8305799961090087891 2.7969391345977783203 2.99971771240234375 3.1527307033538818359 3.3306434154510498047 2.9283959865570068359 2.8906044960021972656 2.7212359905242919922 2.0948579311370849609 3.0924978256225585938 1.730376124382019043 1.1622825860977172852 1.6479326486587524414 2.0380456447601318359 2.2770915031433105469 2.4383256435394287109 2.4173738956451416016 1.2746793031692504883 2.7887480258941650391 2.0726938247680664063 2.8238093852996826172 1.1988617181777954102 1.9697525501251220703 2.3415818214416503906 2.4877831935882568359 2.3782866001129150391 2.6400547027587890625 2.7409043312072753906 2.2463853359222412109 2.3310842514038085938 1.0728543996810913086 2.6579747200012207031 2.6802830696105957031 2.8521392345428466797 2.9843890666961669922 2.5256745815277099609 3.4876122474670410156 3.2304995059967041016 2.7868783473968505859 2.7642438411712646484 2.9479389190673828125 3.2118036746978759766 2.9629223346710205078 2.8978242874145507813 3.5360963344573974609 3.1498234272003173828 3.6991200447082519531 3.6952490806579589844 2.9646205902099609375 3.4893126487731933594 3.4035844802856445313 4.031909942626953125 3.6661546230316162109 
1.8225380182266235352 1 1 1.1812468767166137695 1 1.1812468767166137695 1 1 1 1.0374972820281982422 1.7776751518249511719 1 1 1 1 1 1.1874786615371704102 1.6779286861419677734 2.7811124324798583984 1.4590903520584106445 2.2679848670959472656 1.917733311653137207 2.3948893547058105469 1.7485871315002441406 2.1148705482482910156 1 1 1.2450430393218994141 1.5607722997665405273 1 2.4742238521575927734 1.1582049131393432617 1 1.55538177490234375 1 1 1 1 2.7513952255249023438 1.5796355009078979492 2.2907743453979492188 2.6224215030670166016 2.271999359130859375 1.6510992050170898438 2.5916845798492431641 2.5930564403533935547 3.07437896728515625 3.5559396743774414063 3.6911492347717285156 3.2298891544342041016 2.7568829059600830078 3.3553099632263183594 3.2512235641479492188 3.4828248023986816406 3.1994040012359619141 2.9981474876403808594 3.6128325462341308594 3.4162445068359375 3.3938052654266357422 3.4834189414978027344 3.4113149642944335938 3.9354970455169677734 3.6282448768615722656 3.7845890522003173828 3.4939329624176025391 3.2668030261993408203 3.4985651969909667969 3.5813281536102294922 3.6395366191864013672 4.2715368270874023438 4.3681082725524902344 4.2566733360290527344 3.9143812656402587891 3.3415279388427734375 3.3126075267791748047 2.9445850849151611328 3.2889738082885742188 3.8098733425140380859 3.8276894092559814453 3.7306296825408935547 3.5049145221710205078 3.1503865718841552734 2.9737706184387207031 3.6641366481781005859 2.8249154090881347656 3.2815372943878173828 1.9281904697418212891 1.7458280324935913086 1.4250410795211791992 2.1284604072570800781 1.7334342002868652344 2.1237566471099853516 3.7744045257568359375 2.8224427700042724609 4.1212124824523925781 2.4257843494415283203 2.0704748630523681641 1.4570288658142089844 2.6910381317138671875 1.9933484792709350586 2.0592234134674072266 1.6542479991912841797 2.2544589042663574219 2.5727000236511230469 1.4078706502914428711 1.0955715179443359375 2.7890043258666992188 2.6479942798614501953 1.8793026208877563477 2.1307377815246582031 1.9930416345596313477 2.6936542987823486328 3.1738913059234619141 2.4928708076477050781 3.0100560188293457031 2.7068681716918945313 3.0962119102478027344 3.1986067295074462891 3.2042968273162841797 2.897853851318359375 3.3971605300903320313 2.9587781429290771484 2.7639782428741455078 3.1513648033142089844 3.0318181514739990234 3.10271453857421875 2.8311214447021484375 3.2163724899291992188 1.916680455207824707 2.3512914180755615234 2.0936024188995361328 2.5696249008178710938 2.6619210243225097656 2.7618548870086669922 2.472255706787109375 2.5659503936767578125 2.2501170635223388672 2.3679623603820800781 1.8386081457138061523 1.4747128486633300781 3.0078277587890625 2.9280459880828857422 2.3609716892242431641 2.8177120685577392578 2.6535131931304931641 2.3325409889221191406 2.1756734848022460938 2.5533232688903808594 3.0968775749206542969 2.9705984592437744141 2.8467159271240234375 3.1054422855377197266 2.7924509048461914063 2.2990593910217285156 3.1838893890380859375 2.5100715160369873047 2.8039782047271728516 2.2029531002044677734 1.2040860652923583984 2.0849015712738037109 1.7397742271423339844 1.9732471704483032227 2.4318642616271972656 2.5521543025970458984 2.1906268596649169922 2.1234655380249023438 2.2232749462127685547 1.8607274293899536133 1.4093080759048461914 2.9954204559326171875 1.7952164411544799805 2.5108931064605712891 2.4866020679473876953 1.8904005289077758789 1.7313669919967651367 2.0113167762756347656 2.6212110519409179688 1 2.553226470947265625 2.3116600513458251953 3.2456161975860595703 2.8358640670776367188 2.3198244571685791016 2.4792382717132568359 3.1650018692016601563 3.4603943824768066406 3.7028450965881347656 3.4499456882476806641 2.8890280723571777344 2.6849613189697265625 2.4855012893676757813 2.5077700614929199219 2.8765096664428710938 2.8574836254119873047 3.1122806072235107422 3.3097603321075439453 3.6226799488067626953 2.8492517471313476563 3.3949112892150878906 3.8690571784973144531 
1 1.1812468767166137695 1 1.2509316205978393555 1 1 1 1.4546730518341064453 1 1.3021402359008789063 1 1 1 1.0115836858749389648 1 1 1 1 2.3200678825378417969 1.8373247385025024414 2.0578160285949707031 1.9558529853820800781 1 1 1 1.2283761501312255859 1 1 1 1 1 1 1 1.3737562894821166992 1.5979546308517456055 1 1.1282513141632080078 1 1.749256134033203125 1.5841984748840332031 2.6160464286804199219 2.6891889572143554688 2.3239462375640869141 2.7298357486724853516 2.0592978000640869141 2.4451706409454345703 2.9342160224914550781 3.3304007053375244141 2.9826805591583251953 2.9993128776550292969 3.3997702598571777344 3.1069729328155517578 3.2676715850830078125 2.9871184825897216797 3.2485446929931640625 3.5646317005157470703 3.6259562969207763672 3.3874738216400146484 2.9520685672760009766 3.8746259212493896484 3.1311006546020507813 3.6600167751312255859 2.9211378097534179688 3.2820281982421875 3.8503139019012451172 3.027935028076171875 3.8599195480346679688 4.2555909156799316406 4.0024151802062988281 4.1605558395385742188 4.0459814071655273438 4.2467823028564453125 4.0518622398376464844 3.9890952110290527344 3.6769154071807861328 3.2188417911529541016 3.4820983409881591797 3.3043813705444335938 3.4330401420593261719 3.6552438735961914063 2.9741241931915283203 3.7300343513488769531 3.6177408695220947266 2.2876088619232177734 3.1544289588928222656 2.6035926342010498047 2.0514700412750244141 2.7183120250701904297 1.4586760997772216797 2.9179010391235351563 2.0048410892486572266 2.8790667057037353516 2.8247122764587402344 2.8308665752410888672 3.1651411056518554688 2.5457751750946044922 2.2948591709136962891 3.0736670494079589844 1.7832367420196533203 2.4758358001708984375 2.5922474861145019531 2.1631188392639160156 2.4733338356018066406 1.7130703926086425781 1.6014739274978637695 1.646754145622253418 1.6438599824905395508 2.0170929431915283203 2.857257843017578125 2.7479050159454345703 3.0669934749603271484 2.7100262641906738281 3.2149584293365478516 2.9491736888885498047 3.105316162109375 2.6849944591522216797 3.0106136798858642578 3.315521240234375 3.2333085536956787109 2.9514079093933105469 3.359546661376953125 2.9715123176574707031 2.2643976211547851563 2.4638073444366455078 2.7716646194458007813 2.1748638153076171875 2.8411366939544677734 2.4220869541168212891 2.8002719879150390625 2.4866750240325927734 3.0139565467834472656 2.9402983188629150391 2.9131562709808349609 2.6313309669494628906 2.8491699695587158203 2.8347551822662353516 1.8733133077621459961 2.269775390625 2.0781946182250976563 3.0277354717254638672 2.3168466091156005859 2.453014373779296875 2.8940005302429199219 1.8055942058563232422 2.2669148445129394531 2.3671512603759765625 2.6329107284545898438 3.0800230503082275391 2.1875720024108886719 2.7888588905334472656 2.6321604251861572266 3.0320806503295898438 2.4893841743469238281 2.5950868129730224609 2.809192657470703125 2.1187548637390136719 3.3140597343444824219 3.1706030368804931641 2.792804718017578125 2.4381723403930664063 1.634863734245300293 2.138690948486328125 2.9723300933837890625 2.0947723388671875 1.4150964021682739258 2.2986950874328613281 2.9185841083526611328 1.5099173784255981445 1.77295684814453125 1 1.5967285633087158203 2.1179404258728027344 1.6370414495468139648 2.7348053455352783203 2.2911512851715087891 1 1 1.3178744316101074219 2.0280766487121582031 3.0201039314270019531 3.0422461032867431641 2.5446479320526123047 2.3411943912506103516 3.1406970024108886719 3.095859527587890625 2.9444820880889892578 2.79187774658203125 2.9833805561065673828 2.3530123233795166016 2.9027109146118164063 2.4650690555572509766 2.5777258872985839844 3.3573670387268066406 2.6183779239654541016 2.3384790420532226563 3.4323878288269042969 3.4653148651123046875 3.539112091064453125 3.0129930973052978516 4.4576439857482910156 
1 1 1.9918801784515380859 1.0813300609588623047 1 1 2.1535968780517578125 1.5451492071151733398 1 1 1.4476326704025268555 1.3421876430511474609 1.2387641668319702148 1.3928269147872924805 1.0512092113494873047 2.4224545955657958984 1.3864804506301879883 1 2.3477990627288818359 1.2920867204666137695 1.7621101140975952148 1.4731094837188720703 1.6346360445022583008 2.1716749668121337891 1.4774459600448608398 1.4245781898498535156 1 1.3815218210220336914 1 1 1 1 2.5777928829193115234 1 1 1 1.6812461614608764648 1 1.923848271369934082 1 1.6375211477279663086 1.9714782238006591797 2.5408337116241455078 2.265186309814453125 2.7343473434448242188 3.176387786865234375 3.7116148471832275391 3.0745241641998291016 2.9648919105529785156 3.3787083625793457031 2.8843042850494384766 3.0655245780944824219 3.3367547988891601563 3.6225905418395996094 3.5616958141326904297 3.6895329952239990234 3.3458766937255859375 3.6734676361083984375 3.9675097465515136719 3.0004866123199462891 4.2637095451354980469 3.6607890129089355469 3.8921444416046142578 3.604465484619140625 3.8436822891235351563 4.6218118667602539063 4.2371039390563964844 3.8978025913238525391 3.8710138797760009766 4.4172153472900390625 4.5064339637756347656 4.1209845542907714844 4.0492715835571289063 3.8991177082061767578 3.5740728378295898438 3.3506550788879394531 3.2494952678680419922 3.7107343673706054688 3.0260567665100097656 3.4330351352691650391 3.4527533054351806641 3.5506596565246582031 3.6714725494384765625 2.8528850078582763672 2.7285084724426269531 1.8967021703720092773 2.3001537322998046875 2.4698095321655273438 2.2428877353668212891 1.4206317663192749023 1.7536611557006835938 2.8416287899017333984 3.6589107513427734375 3.5056316852569580078 4.1154294013977050781 3.0809423923492431641 3.9413042068481445313 2.0995683670043945313 2.2241685390472412109 1.8852380514144897461 1.21579742431640625 2.5412588119506835938 3.2678065299987792969 1.6307060718536376953 2.4730722904205322266 3.1948490142822265625 2.11197662353515625 2.7106482982635498047 3.1251502037048339844 2.6954071521759033203 2.9227004051208496094 3.1825723648071289063 3.0423288345336914063 3.2930433750152587891 2.9754838943481445313 3.4880340099334716797 3.5498754978179931641 3.01406097412109375 3.4724857807159423828 2.930023193359375 2.8576109409332275391 2.8382534980773925781 2.1561484336853027344 3.2057907581329345703 2.5062100887298583984 3.0580701828002929688 2.3303620815277099609 2.5353410243988037109 3.3696238994598388672 2.7897944450378417969 2.8151004314422607422 1.4295570850372314453 2.4289078712463378906 2.0350580215454101563 2.971698760986328125 2.7770547866821289063 2.3425645828247070313 1.7868834733963012695 2.0664155483245849609 2.2561976909637451172 2.0889165401458740234 2.9897480010986328125 2.5517666339874267578 1 2.1423652172088623047 2.4423661231994628906 3.3215577602386474609 2.0694267749786376953 2.7975368499755859375 2.1157748699188232422 3.1268863677978515625 3.256999969482421875 2.9419019222259521484 2.8113064765930175781 3.2277090549468994141 2.2280271053314208984 2.3070597648620605469 2.9604525566101074219 2.6094028949737548828 2.6165297031402587891 2.3874714374542236328 1.7110080718994140625 1.4301390647888183594 2.1950333118438720703 1.6563553810119628906 2.4017026424407958984 3.6201150417327880859 3.2805054187774658203 2.9656810760498046875 3.0717103481292724609 1.4254610538482666016 2.3165872097015380859 1.3455657958984375 1.6406760215759277344 1.6309107542037963867 1.531949162483215332 1.5617698431015014648 1.6101740598678588867 2.7929251194000244141 2.4103817939758300781 2.3517079353332519531 3.0561537742614746094 3.5123696327209472656 2.5923457145690917969 2.9820709228515625 3.2769663333892822266 3.0349733829498291016 3.0571274757385253906 3.1880357265472412109 3.3179581165313720703 2.2960488796234130859 2.5943889617919921875 2.1567571163177490234 3.0939505100250244141 2.6666116714477539063 2.9246785640716552734 3.4523222446441650391 3.8957719802856445313 3.5249319076538085938 3.7169487476348876953 
1.2320655584335327148 1.222735285758972168 1 1.5792376995086669922 1 1.1757283210754394531 1.6929759979248046875 2.0179333686828613281 1.305825352668762207 1 1 1 1.3324284553527832031 1 1.1569558382034301758 1 1 1 1.2809772491455078125 1.5904660224914550781 1.9451373815536499023 2.2776610851287841797 1.6982506513595581055 2.6893177032470703125 2.2779085636138916016 1.6329233646392822266 2.0363380908966064453 1.2073068618774414063 1 2.5925157070159912109 1 1.3765039443969726563 1.3416620492935180664 1.5648419857025146484 2.2410321235656738281 1 1 1 1 1.9360908269882202148 1 1.9488598108291625977 2.8267471790313720703 2.1128201484680175781 2.5395030975341796875 2.5148441791534423828 1.8846361637115478516 2.6676917076110839844 2.291286468505859375 2.7734527587890625 3.1452066898345947266 3.7157115936279296875 3.3767714500427246094 3.9120850563049316406 3.6328003406524658203 3.4055426120758056641 4.2366361618041992188 3.7818269729614257813 4.1933884620666503906 3.9515428543090820313 3.9371130466461181641 3.7411601543426513672 4.5916199684143066406 4.5635504722595214844 4.0470724105834960938 4.3473944664001464844 4.7027521133422851563 4.5428490638732910156 4.2403974533081054688 4.5226569175720214844 4.5774064064025878906 4.2197723388671875 4.1835360527038574219 4.3828701972961425781 3.4590027332305908203 3.4369585514068603516 3.5644917488098144531 3.38910675048828125 2.8245158195495605469 2.9472658634185791016 3.4895968437194824219 3.9119255542755126953 2.8347148895263671875 2.7129187583923339844 3.1195278167724609375 1.9852540493011474609 3.0462436676025390625 3.1108098030090332031 2.4953191280364990234 2.0296037197113037109 2.5116219520568847656 3.4926652908325195313 3.9388766288757324219 3.3060064315795898438 3.7756855487823486328 3.2629156112670898438 2.8506970405578613281 2.6206915378570556641 2.4946589469909667969 1.8867167234420776367 2.3185584545135498047 1.2825348377227783203 2.8299410343170166016 2.4797194004058837891 3.0375490188598632813 3.1261746883392333984 2.6482057571411132813 3.2104368209838867188 3.2449164390563964844 3.2345693111419677734 3.0660300254821777344 2.5094008445739746094 2.9198997020721435547 2.7764916419982910156 3.6842505931854248047 3.4063723087310791016 3.2781116962432861328 3.5240259170532226563 3.2488319873809814453 3.4357578754425048828 3.0326018333435058594 2.2673745155334472656 3.1871168613433837891 2.6235053539276123047 2.8765928745269775391 2.3094377517700195313 2.9934797286987304688 2.1638004779815673828 2.6222884654998779297 2.4540603160858154297 2.1209566593170166016 3.0696070194244384766 2.5325224399566650391 2.8969576358795166016 2.9435679912567138672 2.1905801296234130859 2.3759481906890869141 2.4925434589385986328 2.7959074974060058594 2.7318882942199707031 2.37393951416015625 2.4216525554656982422 2.5855693817138671875 1.221913456916809082 2.5251131057739257813 2.5061233043670654297 2.3830544948577880859 2.5487866401672363281 2.8989377021789550781 3.01418304443359375 3.0896105766296386719 2.9901211261749267578 2.5309076309204101563 3.0787830352783203125 2.9700989723205566406 3.1967911720275878906 2.1984767913818359375 3.0850450992584228516 2.7273344993591308594 3.4961278438568115234 2.3758459091186523438 2.959690093994140625 1.7137445211410522461 1.6824539899826049805 2.4503800868988037109 1 2.1591846942901611328 1.6762689352035522461 2.0573599338531494141 1.4498306512832641602 2.3948032855987548828 1.4034458398818969727 1.2561246156692504883 1.6305116415023803711 1.7251315116882324219 1.4176360368728637695 1.7108149528503417969 1.3145949840545654297 1.9001765251159667969 3.1725852489471435547 3.0013077259063720703 2.7878549098968505859 2.8311352729797363281 2.8192877769470214844 3.2541739940643310547 3.0882430076599121094 3.0775287151336669922 3.1008522510528564453 2.4160580635070800781 3.0243411064147949219 2.3245787620544433594 1.4552721977233886719 1.759296417236328125 2.9304845333099365234 3.01325225830078125 2.9093623161315917969 2.1537060737609863281 3.4340250492095947266 3.6452474594116210938 2.4404313564300537109 
1 1 1 1.3148497343063354492 2.1078350543975830078 1.2557170391082763672 1.4381324052810668945 1.9845700263977050781 2.5110688209533691406 1.3231980800628662109 1.7045601606369018555 1 1 1.7136193513870239258 1 1 1 1 1.1361109018325805664 1.7840839624404907227 1 2.3714807033538818359 2.3514497280120849609 1 2.2695901393890380859 2.0897676944732666016 1.9517345428466796875 1.8625597953796386719 1 1 1 1.8018851280212402344 1.5051168203353881836 2.3335492610931396484 1.7158203125 1.912937164306640625 1.6840543746948242188 1 1 1.0569407939910888672 1 3.0499336719512939453 2.7614252567291259766 3.140590667724609375 2.1832175254821777344 1.3972408771514892578 2.0908679962158203125 2.4136922359466552734 3.1577584743499755859 3.0626611709594726563 3.6947219371795654297 4.0551295280456542969 4.2037405967712402344 3.9730803966522216797 4.8623399734497070313 4.7476263046264648438 4.2541909217834472656 3.9489667415618896484 3.7528476715087890625 3.8510329723358154297 4.0727586746215820313 3.7019166946411132813 4.2340025901794433594 4.5110850334167480469 4.7971334457397460938 4.4074563980102539063 4.522518157958984375 4.096160888671875 4.5787825584411621094 4.2037229537963867188 3.9039483070373535156 3.7672214508056640625 3.7742075920104980469 4.2520399093627929688 4.2135872840881347656 3.8801877498626708984 3.5785388946533203125 3.5386977195739746094 3.2284984588623046875 3.5539758205413818359 3.5217278003692626953 3.2300219535827636719 3.1510126590728759766 3.1116590499877929688 2.9770114421844482422 2.2835505008697509766 2.7792725563049316406 2.4029819965362548828 2.8471291065216064453 2.8430778980255126953 2.8627746105194091797 4.1365833282470703125 3.5567424297332763672 2.6176447868347167969 3.5375611782073974609 3.4605157375335693359 3.0942792892456054688 3.1786363124847412109 3.7753939628601074219 2.0935719013214111328 2.3930616378784179688 2.1551644802093505859 1.9800703525543212891 2.9352965354919433594 2.0292069911956787109 2.6210474967956542969 2.8766171932220458984 2.5932590961456298828 3.1208002567291259766 2.2268779277801513672 3.4666237831115722656 3.1813378334045410156 3.1734256744384765625 3.0973970890045166016 3.6833739280700683594 3.5404877662658691406 2.9624896049499511719 3.4112114906311035156 3.2537236213684082031 2.8740370273590087891 3.3123643398284912109 3.1570923328399658203 2.6087183952331542969 2.638469696044921875 2.6262784004211425781 3.141937255859375 2.2912888526916503906 3.1968994140625 2.2512762546539306641 2.8693664073944091797 3.2271227836608886719 2.8305366039276123047 2.2804262638092041016 2.4986042976379394531 3.0854349136352539063 3.169483184814453125 3.2617695331573486328 2.1887280941009521484 2.5008993148803710938 2.2931792736053466797 2.7264437675476074219 2.1588537693023681641 2.7357203960418701172 2.0539739131927490234 1.9048026800155639648 1 2.9002325534820556641 2.1655797958374023438 2.9728922843933105469 2.9153561592102050781 3.2511029243469238281 3.394786834716796875 3.2948763370513916016 2.1004304885864257813 2.8508439064025878906 2.4845190048217773438 2.5427398681640625 2.3440792560577392578 1.4888014793395996094 2.9102866649627685547 2.0988495349884033203 2.0999805927276611328 1.5472936630249023438 1.854159235954284668 1.1405651569366455078 1.3816075325012207031 1.6773107051849365234 1 1.1864373683929443359 1.4360700845718383789 1.4798499345779418945 1.3053224086761474609 1.300267338752746582 1 1 1.4711143970489501953 1.6279916763305664063 2.3609051704406738281 2.8684382438659667969 2.4248130321502685547 2.8037631511688232422 3.2966756820678710938 2.8579719066619873047 3.0985507965087890625 3.0442159175872802734 3.1359479427337646484 3.3111660480499267578 2.2127516269683837891 3.1075403690338134766 2.5063135623931884766 2.8075525760650634766 2.2467603683471679688 2.6854712963104248047 1.9784760475158691406 3.1608960628509521484 2.3474321365356445313 3.472438812255859375 2.1483445167541503906 3.3461554050445556641 3.5746376514434814453 
1.7253100872039794922 2.8190176486968994141 1.1812468767166137695 1 1.0796233415603637695 1.7971187829971313477 2.1539940834045410156 1 1.2748029232025146484 2.5260066986083984375 1 1 1 1.0847810506820678711 1.997164607048034668 1 1 1 1 1 2.2008500099182128906 2.1221494674682617188 1.4915101528167724609 1.06850433349609375 2.0170390605926513672 1.9735399484634399414 2.6100702285766601563 2.015293121337890625 1.9254374504089355469 1.6254552602767944336 1 1 1 1.8306916952133178711 1.0751190185546875 1 1 1 1 2.6026055812835693359 1 1.6886757612228393555 3.1171154975891113281 2.6037607192993164063 1.7955642938613891602 2.628787994384765625 3.3145604133605957031 2.7550461292266845703 3.5249578952789306641 3.1125786304473876953 3.5970432758331298828 3.2707114219665527344 3.9200837612152099609 4.0956211090087890625 4.5813441276550292969 4.5793223381042480469 4.0099368095397949219 4.0369157791137695313 3.7214350700378417969 3.8321714401245117188 4.3986482620239257813 3.6711139678955078125 4.2107167243957519531 4.3902578353881835938 4.4411163330078125 4.3406729698181152344 4.3764095306396484375 4.7435932159423828125 4.7341046333312988281 4.1000838279724121094 4.2243571281433105469 3.9577205181121826172 4.1237173080444335938 4.3575787544250488281 4.4113726615905761719 3.9666035175323486328 3.9684956073760986328 3.8170268535614013672 3.5352101325988769531 3.01030731201171875 3.1074314117431640625 3.0727419853210449219 2.7639896869659423828 3.47916412353515625 3.4093124866485595703 2.3978796005249023438 2.55153656005859375 3.0276319980621337891 2.5768780708312988281 3.2967362403869628906 2.7425465583801269531 3.0151927471160888672 3.7188947200775146484 3.7935795783996582031 2.9190993309020996094 3.2974526882171630859 2.8517737388610839844 3.0891029834747314453 2.9805617332458496094 2.2935025691986083984 2.6464116573333740234 2.4371488094329833984 2.5321130752563476563 1.2880436182022094727 2.9572243690490722656 3.2280519008636474609 3.3454637527465820313 2.8517267704010009766 2.8112344741821289063 2.8995587825775146484 3.4431452751159667969 3.3617091178894042969 3.4166007041931152344 3.5859560966491699219 3.386150360107421875 2.7594692707061767578 3.2815084457397460938 2.9226481914520263672 2.8900339603424072266 3.6227753162384033203 2.7184932231903076172 3.4006814956665039063 3.0955235958099365234 2.3475999832153320313 2.1385266780853271484 3.0253088474273681641 3.0142188072204589844 2.6181931495666503906 2.9017431735992431641 3.0644116401672363281 3.0519380569458007813 2.2135770320892333984 2.1752529144287109375 3.3446829319000244141 2.8846991062164306641 3.5180180072784423828 3.0633180141448974609 2.8861901760101318359 2.4599432945251464844 3.177394866943359375 2.8000855445861816406 2.4876866340637207031 1.503936767578125 3.0769176483154296875 2.0627593994140625 2.2244875431060791016 2.1310732364654541016 2.8302433490753173828 3.2072646617889404297 2.6341445446014404297 2.4419274330139160156 2.4194464683532714844 2.9292085170745849609 2.4294364452362060547 3.1408977508544921875 3.06165313720703125 2.4790356159210205078 2.9858310222625732422 2.0127527713775634766 1.6658360958099365234 1.725260615348815918 2.4198553562164306641 1.8159575462341308594 2.6708741188049316406 1 1 1.4331725835800170898 1 1 2.757373809814453125 1.5865024328231811523 1.9931331872940063477 1.3663601875305175781 1.3840701580047607422 2.4452183246612548828 1 1.2538698911666870117 2.6339495182037353516 2.5852253437042236328 2.4988489151000976563 2.6601266860961914063 3.0230295658111572266 3.1378533840179443359 2.8433508872985839844 2.8857705593109130859 3.4489750862121582031 2.3914775848388671875 3.0632274150848388672 3.1752653121948242188 1.9230467081069946289 1.8431546688079833984 3.3022868633270263672 2.7745029926300048828 2.5174829959869384766 2.5392520427703857422 3.09352874755859375 2.0132117271423339844 2.8522586822509765625 2.3651511669158935547 2.6929295063018798828 
1.5270932912826538086 1 1.9986628293991088867 1 1 1.8347970247268676758 1 1.7582010030746459961 1.6029913425445556641 1 2.1250348091125488281 1 1 2.5466086864471435547 1.3342114686965942383 1 1.1387312412261962891 1.5271191596984863281 1 1.1398802995681762695 1.6256418228149414063 2.25872802734375 1 1.4356445074081420898 1 1.6890003681182861328 1.1960937976837158203 1.7592346668243408203 2.7638611793518066406 1.5584110021591186523 2.444675445556640625 1.3145040273666381836 1 1 1 1 1 1 1 1 1.9468944072723388672 1 3.1803429126739501953 2.4473862648010253906 2.3134534358978271484 1.6930587291717529297 2.4134023189544677734 2.5248622894287109375 2.9965231418609619141 2.5326545238494873047 3.6068403720855712891 3.5410573482513427734 3.7867887020111083984 4.1253232955932617188 3.7526183128356933594 3.8480007648468017578 4.1629805564880371094 4.02789306640625 3.7218756675720214844 3.7066347599029541016 4.0736823081970214844 3.1832602024078369141 4.1247768402099609375 3.7846629619598388672 4.0893535614013671875 4.1475086212158203125 4.5841193199157714844 4.6451373100280761719 4.5371522903442382813 4.6100378036499023438 4.2603373527526855469 4.2908692359924316406 4.1526203155517578125 4.0435500144958496094 3.8790218830108642578 4.2325992584228515625 3.720409393310546875 3.4100103378295898438 3.4871144294738769531 2.9969267845153808594 3.6511194705963134766 3.2308428287506103516 3.8764359951019287109 3.4518954753875732422 3.3170900344848632813 3.5952560901641845703 3.0422606468200683594 2.7940766811370849609 2.8608865737915039063 2.4107985496520996094 3.4828441143035888672 2.9140522480010986328 3.1520504951477050781 3.5868859291076660156 3.1951007843017578125 2.5994672775268554688 3.2366554737091064453 3.3913519382476806641 3.6241805553436279297 2.3510797023773193359 2.6265621185302734375 2.0003602504730224609 2.0773494243621826172 2.5484285354614257813 2.6801340579986572266 2.3898098468780517578 2.2480654716491699219 2.7783501148223876953 2.4008040428161621094 2.9964461326599121094 3.0746631622314453125 3.3587949275970458984 3.2090859413146972656 2.9805059432983398438 3.1559352874755859375 3.5144629478454589844 3.3405604362487792969 3.4780385494232177734 3.1303358078002929688 3.5411684513092041016 3.0653939247131347656 2.9612786769866943359 3.4336218833923339844 2.6513893604278564453 3.0008814334869384766 3.1859629154205322266 2.65685272216796875 3.2313897609710693359 3.4972002506256103516 2.8072164058685302734 3.1551723480224609375 3.7500894069671630859 2.9877748489379882813 3.3236021995544433594 3.4957141876220703125 3.3498866558074951172 3.1937184333801269531 3.3633239269256591797 3.2786850929260253906 2.2854108810424804688 3.3143460750579833984 2.1869883537292480469 2.2839252948760986328 3.0618863105773925781 2.4869191646575927734 2.6411101818084716797 1.6760536432266235352 3.2858650684356689453 1.9401010274887084961 3.5043694972991943359 3.1141538619995117188 3.2125298976898193359 3.0068073272705078125 3.3538188934326171875 3.1813120841979980469 2.2559177875518798828 3.6839129924774169922 1.7928215265274047852 1 2.3875255584716796875 3.0868277549743652344 1.000316619873046875 1 1.4672524929046630859 1.2190240621566772461 1 1.2696099281311035156 1.7442815303802490234 1.3410129547119140625 1 1.9261819124221801758 1.4075204133987426758 1.1829034090042114258 1.476345062255859375 1.4033836126327514648 1.7324950695037841797 1.4490286111831665039 1.4496815204620361328 2.2470266819000244141 2.1176350116729736328 1.8903580904006958008 2.4249949455261230469 3.0898218154907226563 2.8006622791290283203 2.6152491569519042969 2.8388123512268066406 2.6061339378356933594 2.2794883251190185547 1.9426349401473999023 3.1458585262298583984 2.9093687534332275391 3.3434855937957763672 3.1549336910247802734 3.252346038818359375 2.1549010276794433594 2.6921563148498535156 3.0549366474151611328 1.0416237115859985352 1.1966984272003173828 1.7599081993103027344 
1.424779057502746582 1 1 2.0570938587188720703 1 1 1 1 2.4209568500518798828 1 1 1 2.0263893604278564453 1.2763102054595947266 1.8905159235000610352 1.7025220394134521484 1 1.7610105276107788086 1.8448913097381591797 1 2.0750253200531005859 1.9923368692398071289 1 1 1 3.1778063774108886719 2.4252192974090576172 1 1 1.5341842174530029297 1.4414097070693969727 1 1.0940034389495849609 2.6354928016662597656 2.8063285350799560547 1 1 1 1 1 1 1 2.2968964576721191406 2.0924403667449951172 2.78533172607421875 2.798732757568359375 3.0431652069091796875 2.9684007167816162109 2.8728706836700439453 2.7349059581756591797 3.6399974822998046875 3.6477615833282470703 4.0733447074890136719 3.7258653640747070313 4.4736371040344238281 3.1266140937805175781 3.6496372222900390625 4.387939453125 3.8174135684967041016 4.1807880401611328125 4.1511149406433105469 4.4886555671691894531 4.3384976387023925781 4.0396251678466796875 4.409580230712890625 4.1160216331481933594 4.4489750862121582031 4.4537310600280761719 4.4751038551330566406 4.4556002616882324219 4.09394073486328125 4.1871485710144042969 4.1462841033935546875 3.9398243427276611328 3.4060640335083007813 4.0843987464904785156 4.0051293373107910156 3.6055600643157958984 4.0868654251098632813 3.8058426380157470703 3.3912568092346191406 3.5827245712280273438 3.8162872791290283203 3.8546373844146728516 3.7468848228454589844 3.63642120361328125 2.9977600574493408203 3.0465064048767089844 3.2241322994232177734 3.0506916046142578125 2.3432929515838623047 3.4399669170379638672 3.1424970626831054688 2.7916102409362792969 3.7209119796752929688 3.3743882179260253906 3.02337646484375 2.6003899574279785156 2.891078948974609375 2.9335892200469970703 2.7328288555145263672 2.9213347434997558594 2.2559781074523925781 2.4337260723114013672 1.4634571075439453125 2.7217700481414794922 2.5560457706451416016 1.9499021768569946289 3.0862228870391845703 2.7087242603302001953 2.5649254322052001953 2.9528448581695556641 3.3594720363616943359 3.3819024562835693359 3.1946179866790771484 2.6978952884674072266 3.0294134616851806641 3.5078632831573486328 2.5556156635284423828 3.0121791362762451172 2.8096737861633300781 3.2149326801300048828 3.0718932151794433594 3.0692799091339111328 3.420894622802734375 2.6520092487335205078 2.8577806949615478516 2.7432568073272705078 3.4689698219299316406 2.9568693637847900391 2.9414265155792236328 2.9679110050201416016 3.6315627098083496094 3.4264159202575683594 3.1330356597900390625 3.2096145153045654297 2.8109903335571289063 2.9675736427307128906 3.1846053600311279297 2.1731445789337158203 2.5484764575958251953 2.6567990779876708984 2.3563389778137207031 3.0184657573699951172 3.1775491237640380859 2.2681026458740234375 3.1520340442657470703 3.1819221973419189453 2.3250055313110351563 2.4403586387634277344 3.0337157249450683594 3.0854094028472900391 2.6856753826141357422 3.1736562252044677734 3.1770105361938476563 2.7765321731567382813 1.5740016698837280273 2.1537804603576660156 2.7052836418151855469 1.1561971902847290039 1 1 1 1 2.7973291873931884766 1.371783137321472168 1 1.5744415521621704102 1.2302269935607910156 1.5923528671264648438 2.0632288455963134766 1.9333666563034057617 2.2428171634674072266 2.1190125942230224609 1 1.7957034111022949219 1.7964627742767333984 1.4529880285263061523 2.4128210544586181641 1.8459086418151855469 2.0506923198699951172 1.2636295557022094727 2.5700547695159912109 2.9765188694000244141 2.7413003444671630859 2.6897313594818115234 2.7379994392395019531 3.1654627323150634766 2.9647631645202636719 2.0784723758697509766 2.0257966518402099609 2.2999351024627685547 2.7168591022491455078 2.0856707096099853516 2.1507070064544677734 3.4272356033325195313 2.4751119613647460938 2.6420845985412597656 3.0472114086151123047 1.976689457893371582 
1 1 1.3658977746963500977 1 1 1.0509558916091918945 1.6100050210952758789 1.7601087093353271484 1.4503023624420166016 1.1385794878005981445 1.8828758001327514648 1 2.4286801815032958984 2.8673479557037353516 1 2.9807581901550292969 2.4677307605743408203 1.5868402719497680664 1.3125061988830566406 1.3726340532302856445 2.8046431541442871094 1.3873039484024047852 1.5345302820205688477 1.0606057643890380859 1.0718894004821777344 1.870753169059753418 1.8667092323303222656 1.7704856395721435547 1.9759311676025390625 1.0796090364456176758 1.3081691265106201172 1 1 1.3520246744155883789 1.357799530029296875 1 1 1 2.6047289371490478516 1.6921713352203369141 1.9488663673400878906 1.1543545722961425781 2.1123163700103759766 1.2826993465423583984 2.9495785236358642578 3.1943612098693847656 2.1882529258728027344 2.5475046634674072266 3.0007033348083496094 2.5118682384490966797 2.55670928955078125 3.8727490901947021484 3.9351065158843994141 3.5026385784149169922 3.8804554939270019531 3.7742736339569091797 3.9980356693267822266 3.9884541034698486328 4.4070215225219726563 4.4468483924865722656 4.5096683502197265625 3.7337021827697753906 4.1615266799926757813 4.0557522773742675781 4.3054099082946777344 4.2652869224548339844 4.8779492378234863281 4.7282691001892089844 4.2014260292053222656 4.3482460975646972656 4.5609292984008789063 4.3231186866760253906 3.9507524967193603516 3.7056217193603515625 3.8031549453735351563 3.9395921230316162109 3.8678679466247558594 3.7474994659423828125 3.4018962383270263672 3.5564937591552734375 4.0494279861450195313 4.0677781105041503906 3.7449507713317871094 3.8627257347106933594 3.3128643035888671875 3.6883413791656494141 2.6315541267395019531 3.7087721824645996094 2.4958400726318359375 3.3741087913513183594 2.6136631965637207031 2.9327421188354492188 2.6159353256225585938 2.4678404331207275391 3.0263533592224121094 3.3617010116577148438 4.2623333930969238281 3.7530949115753173828 3.4118769168853759766 3.5953342914581298828 2.8454754352569580078 2.1404430866241455078 2.65351104736328125 2.3971402645111083984 2.4742143154144287109 2.3751776218414306641 2.2849056720733642578 2.3368165493011474609 2.9490463733673095703 3.3376810550689697266 3.3815662860870361328 3.1214303970336914063 3.5004687309265136719 2.8540380001068115234 2.6758029460906982422 3.1903769969940185547 2.9772565364837646484 3.2251250743865966797 3.3358492851257324219 3.0993301868438720703 3.43959808349609375 3.8132228851318359375 3.2825648784637451172 3.269287109375 3.0022017955780029297 3.6263322830200195313 3.4090213775634765625 3.3280222415924072266 3.2025191783905029297 3.5056667327880859375 3.1785154342651367188 2.7256581783294677734 3.4860012531280517578 3.2642457485198974609 3.1975328922271728516 3.2295644283294677734 3.4563777446746826172 3.3031163215637207031 2.4685552120208740234 2.8597552776336669922 2.4922418594360351563 2.9545655250549316406 2.7559678554534912109 3.4884092807769775391 3.4813485145568847656 2.7103133201599121094 2.5676538944244384766 2.8022360801696777344 2.6009039878845214844 2.7972469329833984375 2.9992721080780029297 2.6413781642913818359 3.4855482578277587891 2.5076594352722167969 3.2689373493194580078 2.5963094234466552734 2.8237488269805908203 1.8269557952880859375 1.9568995237350463867 1.7512398958206176758 1.0719594955444335938 1.8692317008972167969 1.3843667507171630859 1.313917994499206543 2.2075254917144775391 1.2454229593276977539 1.3682991266250610352 1.3383526802062988281 1 1.9841541051864624023 2.1952369213104248047 1.5316138267517089844 1.5559295415878295898 2.3250260353088378906 2.3914892673492431641 1 2.0554709434509277344 1.5868222713470458984 2.7917346954345703125 2.8730466365814208984 1.6327724456787109375 2.9257986545562744141 2.0577528476715087891 2.6210477352142333984 2.8367397785186767578 2.5114121437072753906 2.5980114936828613281 2.5662264823913574219 2.524173736572265625 2.1064527034759521484 2.2522265911102294922 1.1536104679107666016 2.8903813362121582031 2.4151113033294677734 1.4840600490570068359 2.4456548690795898438 3.4571220874786376953 3.6516368389129638672 2.7559778690338134766 1.7808424234390258789 
1.1496587991714477539 1.3664021492004394531 1.9107934236526489258 1 1 1 1.8297810554504394531 2.6208007335662841797 1.0310319662094116211 2.0163190364837646484 2.0102746486663818359 1.4835169315338134766 1.9098743200302124023 1 1 1.660241246223449707 2.5629093647003173828 1.891910552978515625 1.7785665988922119141 1.9790123701095581055 1.9135392904281616211 2.1180529594421386719 1.6655367612838745117 1 1.7333734035491943359 1.633349299430847168 1.3913515806198120117 1 2.4153647422790527344 1.0982521772384643555 1.8267935514450073242 1 1 1.3822712898254394531 2.7786314487457275391 1 1 1 1 1 1.686489105224609375 2.4204289913177490234 1.282162785530090332 2.4863677024841308594 3.038745880126953125 2.9949772357940673828 1.5881373882293701172 1.5858941078186035156 2.3875370025634765625 1.7780569791793823242 3.4403119087219238281 3.0167589187622070313 3.3596208095550537109 3.9694995880126953125 3.4934895038604736328 4.3387169837951660156 4.0508241653442382813 4.1056971549987792969 3.8742218017578125 4.0524311065673828125 4.0889973640441894531 3.7368102073669433594 4.1777510643005371094 4.1025171279907226563 3.9592025279998779297 4.187267303466796875 4.8413267135620117188 4.5614938735961914063 4.9816417694091796875 4.4337782859802246094 4.0503697395324707031 3.783901214599609375 4.2629742622375488281 3.8189787864685058594 3.9671564102172851563 3.8775556087493896484 3.9509055614471435547 3.6925377845764160156 3.674762725830078125 3.8144075870513916016 3.9953486919403076172 4.0788478851318359375 3.5900962352752685547 3.9824860095977783203 3.3604955673217773438 3.7133021354675292969 3.6177747249603271484 2.7919988632202148438 3.0837180614471435547 3.0555512905120849609 3.647426605224609375 2.7979207038879394531 2.7325077056884765625 3.4861199855804443359 3.9598321914672851563 3.8809914588928222656 3.5360958576202392578 3.0392014980316162109 3.4889018535614013672 3.3265116214752197266 2.29787445068359375 2.9798169136047363281 3.1558685302734375 1.9557085037231445313 1.874834895133972168 2.6864559650421142578 3.4819521903991699219 2.5296187400817871094 3.1314022541046142578 2.7443616390228271484 3.3669915199279785156 2.8459706306457519531 3.3382761478424072266 2.82959747314453125 3.1677153110504150391 3.0665836334228515625 2.6842653751373291016 3.0059971809387207031 3.2897179126739501953 2.6909670829772949219 3.6316106319427490234 3.7444489002227783203 3.2060139179229736328 2.9503171443939208984 3.361560821533203125 3.7844140529632568359 4.0397105216979980469 3.5728561878204345703 3.315746307373046875 3.1613545417785644531 2.9418478012084960938 3.1220698356628417969 3.2178304195404052734 2.6807396411895751953 3.5049755573272705078 3.0071995258331298828 2.9524199962615966797 3.4359557628631591797 3.3669323921203613281 3.51840972900390625 3.0346004962921142578 2.5304117202758789063 2.7708902359008789063 2.8415858745574951172 2.8132636547088623047 3.0112988948822021484 3.1267583370208740234 3.1243588924407958984 2.5331022739410400391 2.5144405364990234375 3.0797917842864990234 2.8723845481872558594 2.4426398277282714844 2.3885488510131835938 3.0271787643432617188 1.9221571683883666992 1.0106033086776733398 2.5542910099029541016 1.9425146579742431641 2.0862138271331787109 1 2.0598292350769042969 1 1 1 2.6074206829071044922 1.4167343378067016602 1.7216525077819824219 1 1.7890882492065429688 1.4935359954833984375 1.7386709451675415039 2.621326446533203125 1.1018286943435668945 1.7941859960556030273 2.19676971435546875 3.0118732452392578125 2.5402112007141113281 2.7561845779418945313 2.3556156158447265625 2.4046270847320556641 2.4434576034545898438 1.8195670843124389648 1.9153896570205688477 1.6129713058471679688 2.7948861122131347656 2.1599562168121337891 2.0315098762512207031 2.7514386177062988281 2.7249827384948730469 1.8230942487716674805 2.6314427852630615234 2.4244568347930908203 1.2932630777359008789 1.9220663309097290039 2.3358204364776611328 1.43444061279296875 1.8592690229415893555 1 2.2928266525268554688 
1.6653410196304321289 1.7793787717819213867 1.7224605083465576172 1 1 1.648165583610534668 1 1.5964195728302001953 2.0332446098327636719 2.060222625732421875 2.6580703258514404297 1.7218450307846069336 1 1.7864408493041992188 1.6248037815093994141 1.6561223268508911133 1.0429940223693847656 1.3091742992401123047 1.5800848007202148438 2.4459950923919677734 1 2.0817975997924804688 3.0780003070831298828 1.5779628753662109375 1.5361677408218383789 1.2086626291275024414 1.2856040000915527344 1.0727035999298095703 1 2.2281959056854248047 1.8241900205612182617 1.3586833477020263672 2.2722437381744384766 1.2516418695449829102 1 1.1615171432495117188 1.6333614587783813477 1.063115239143371582 1.6383733749389648438 1 2.8481476306915283203 2.5646903514862060547 2.6683609485626220703 2.5420215129852294922 1.9018857479095458984 1.9696346521377563477 2.9739933013916015625 2.7720797061920166016 3.1643402576446533203 2.7965571880340576172 3.0074160099029541016 3.6252989768981933594 2.8233640193939208984 3.63838958740234375 3.1591169834136962891 3.5623860359191894531 3.4753453731536865234 3.2339580059051513672 4.3956503868103027344 3.4977195262908935547 3.2736761569976806641 3.4791955947875976563 3.7007951736450195313 3.9596734046936035156 3.5767078399658203125 4.2775530815124511719 4.1848797798156738281 4.5405650138854980469 4.2662358283996582031 3.7815346717834472656 4.4422731399536132813 3.4871327877044677734 3.8324186801910400391 3.7190082073211669922 3.8450977802276611328 4.2538990974426269531 4.0767221450805664063 3.6191189289093017578 3.5851929187774658203 3.9336876869201660156 3.9365782737731933594 4.0479435920715332031 3.5559213161468505859 3.6332457065582275391 4.1159353256225585938 3.7754590511322021484 3.1575570106506347656 3.331920623779296875 3.4765260219573974609 2.5346400737762451172 2.9635729789733886719 2.3510103225708007813 2.6397397518157958984 3.8671820163726806641 3.7219257354736328125 3.8260071277618408203 3.4677121639251708984 3.5144753456115722656 3.1932632923126220703 3.1882498264312744141 3.0282127857208251953 2.2513833045959472656 2.883831024169921875 1.9621156454086303711 2.9632685184478759766 2.5696280002593994141 2.6958711147308349609 2.57805633544921875 3.2821974754333496094 3.1279685497283935547 3.3808195590972900391 3.7068905830383300781 2.512516021728515625 3.0844550132751464844 2.7369132041931152344 2.9218091964721679688 3.0203108787536621094 2.7423827648162841797 2.9135375022888183594 3.4035589694976806641 3.0652711391448974609 3.1276478767395019531 3.4239430427551269531 3.3738088607788085938 3.2343733310699462891 3.8442330360412597656 3.4972965717315673828 3.7773923873901367188 3.66504669189453125 2.7943406105041503906 3.5625884532928466797 3.8640673160552978516 3.6984415054321289063 3.7633748054504394531 3.7376706600189208984 3.3786280155181884766 3.252193450927734375 3.5082802772521972656 2.9348840713500976563 3.3261272907257080078 3.06533050537109375 2.9138507843017578125 3.1490943431854248047 2.0775341987609863281 2.8987112045288085938 2.3957548141479492188 2.6016328334808349609 2.6634120941162109375 2.9584712982177734375 2.5731711387634277344 2.7276194095611572266 2.5002741813659667969 3.0286846160888671875 2.7663486003875732422 3.2802565097808837891 2.4681098461151123047 2.7794430255889892578 2.8039629459381103516 1.4629480838775634766 2.5810141563415527344 1.3749545812606811523 2.33434295654296875 1.81081390380859375 1.6961282491683959961 1 1.5762411355972290039 1.4294693470001220703 1 1.9612019062042236328 2.4619474411010742188 1.6879909038543701172 2.1915273666381835938 1.3708324432373046875 1 2.7609992027282714844 1.6375864744186401367 2.3839755058288574219 2.4333217144012451172 1.0972021818161010742 2.5832271575927734375 2.0363280773162841797 2.8862695693969726563 2.7908284664154052734 2.0251710414886474609 1.851891636848449707 3.0811564922332763672 2.3751058578491210938 2.9596438407897949219 3.1021327972412109375 3.1383125782012939453 2.5210521221160888672 2.7039327621459960938 2.238323211669921875 1.8878313302993774414 1 2.8210649490356445313 1.453205108642578125 1.4479944705963134766 3.2660241127014160156 2.0972170829772949219 
1.7784314155578613281 2.2538881301879882813 2.7157893180847167969 1.6941236257553100586 2.0264813899993896484 1.0599447488784790039 2.2875554561614990234 1.6184645891189575195 2.3660802841186523438 2.0254254341125488281 1.7385865449905395508 1.6181257963180541992 2.1858005523681640625 2.3754763603210449219 1 2.5277881622314453125 1 1.8579212427139282227 1.8810116052627563477 1.3714278936386108398 1.6659549474716186523 1.3891699314117431641 1 3.2949225902557373047 1.7409520149230957031 1.1513129472732543945 1.951617121696472168 1.1913316249847412109 2.5884900093078613281 1.6823859214782714844 2.09423065185546875 1.9439681768417358398 2.1767201423645019531 1.4451421499252319336 2.1528842449188232422 1.7429354190826416016 2.1878268718719482422 2.6832530498504638672 1.6740645170211791992 1.6046533584594726563 2.4985535144805908203 2.7392508983612060547 2.6709008216857910156 2.5887060165405273438 2.9211401939392089844 2.5526831150054931641 2.2632641792297363281 2.4649624824523925781 2.6273891925811767578 2.5528819561004638672 2.9195032119750976563 2.6878037452697753906 3.7578260898590087891 3.5154192447662353516 3.5509803295135498047 3.2726116180419921875 2.7203776836395263672 3.2210676670074462891 3.0669715404510498047 3.2621641159057617188 3.0648703575134277344 2.8340408802032470703 3.9503772258758544922 3.4565784931182861328 3.4690709114074707031 3.4200928211212158203 3.7954726219177246094 3.6857495307922363281 4.0098476409912109375 4.1960291862487792969 4.01299285888671875 4.2251749038696289063 3.4876008033752441406 3.3965697288513183594 3.9671628475189208984 3.8982667922973632813 3.8106579780578613281 4.0728535652160644531 3.9403257369995117188 3.4624912738800048828 4.0860466957092285156 3.3334202766418457031 3.3931386470794677734 3.3440568447113037109 3.1288671493530273438 4.1490306854248046875 3.1228849887847900391 3.4406454563140869141 3.120227813720703125 3.0806872844696044922 3.6252448558807373047 2.0504250526428222656 2.3381223678588867188 2.8846690654754638672 3.5095963478088378906 3.4067933559417724609 3.3752694129943847656 2.6788983345031738281 2.5608088970184326172 2.0333113670349121094 2.8222131729125976563 2.5560204982757568359 3.1096847057342529297 3.2285566329956054688 2.7778248786926269531 3.8042695522308349609 3.0248327255249023438 3.3294339179992675781 3.2147324085235595703 2.8317594528198242188 3.4666612148284912109 3.1358900070190429688 2.7100224494934082031 1.9162869453430175781 2.4092972278594970703 3.0828304290771484375 2.6588535308837890625 3.0311701297760009766 3.451427459716796875 3.399188995361328125 3.7012386322021484375 2.8448297977447509766 3.1296508312225341797 3.0784215927124023438 3.6969695091247558594 3.058116912841796875 3.5015039443969726563 3.6631274223327636719 3.1071896553039550781 3.2141597270965576172 3.6774232387542724609 3.494327545166015625 3.8843429088592529297 3.8057496547698974609 3.4971127510070800781 3.4567220211029052734 3.4110445976257324219 3.3717925548553466797 3.0994787216186523438 3.4684708118438720703 3.2180049419403076172 2.9767620563507080078 2.8392913341522216797 2.8023741245269775391 2.9537317752838134766 3.0246167182922363281 2.7451229095458984375 2.3316729068756103516 2.8644170761108398438 3.1049838066101074219 2.8342385292053222656 3.1403071880340576172 2.4625933170318603516 2.9607646465301513672 3.2557551860809326172 3.3228275775909423828 1.3362879753112792969 1.7206747531890869141 2.5922067165374755859 1.7781606912612915039 1.9435251951217651367 1 1 1.8126652240753173828 3.1082918643951416016 2.7932250499725341797 1 1.3467245101928710938 1.6610945463180541992 1.5053359270095825195 2.7274460792541503906 1.7218489646911621094 1.0490933656692504883 1.4010001420974731445 1.2533336877822875977 1 2.6230452060699462891 1.9718945026397705078 2.1771528720855712891 1.6352140903472900391 2.1888303756713867188 2.0786740779876708984 2.2792289257049560547 1.4543068408966064453 1.004665374755859375 2.3325903415679931641 2.500156402587890625 2.4852886199951171875 3.2160019874572753906 2.3964810371398925781 1.6836643218994140625 2.5922062397003173828 1.754250645637512207 2.0341010093688964844 1.1922644376754760742 2.1949999332427978516 1.8960973024368286133 1.5828663110733032227 2.7498180866241455078 2.6048610210418701172 
1.4740657806396484375 1 1 1.5234397649765014648 2.7277324199676513672 3.1899590492248535156 2.9734425544738769531 3.5522844791412353516 2.5420696735382080078 2.8864960670471191406 2.0438501834869384766 2.3514151573181152344 1.6133753061294555664 1.9981381893157958984 1.9874677658081054688 1 2.4024877548217773438 2.9513962268829345703 2.5324842929840087891 1.4085905551910400391 1.3625670671463012695 2.1709847450256347656 1.8910478353500366211 1.4670103788375854492 1.2814066410064697266 2.6685354709625244141 1.3897931575775146484 2.1065673828125 1.9938143491744995117 1.791927337646484375 2.2630856037139892578 1.9743092060089111328 1 1.9759924411773681641 1 1.1207898855209350586 1 1 1.8630468845367431641 1.9084279537200927734 2.3760683536529541016 2.652141571044921875 3.0876574516296386719 2.6956522464752197266 2.5146694183349609375 2.8001158237457275391 1.7856872081756591797 1.9683911800384521484 2.2698426246643066406 1.8109263181686401367 2.2506499290466308594 2.9203586578369140625 3.3558866977691650391 3.1499359607696533203 3.1048946380615234375 2.8840870857238769531 3.1614010334014892578 3.3817868232727050781 3.5041859149932861328 3.2402334213256835938 3.3483676910400390625 3.388454437255859375 3.8743195533752441406 3.3059391975402832031 3.9643404483795166016 3.6522810459136962891 3.3697235584259033203 3.6599338054656982422 4.2661485671997070313 4.16541290283203125 3.8535554409027099609 3.2489256858825683594 3.8344805240631103516 4.3000159263610839844 3.9311614036560058594 4.1290574073791503906 4.0749840736389160156 4.072559356689453125 3.9709117412567138672 4.1460547447204589844 4.397068023681640625 4.0962743759155273438 4.378276824951171875 3.9153530597686767578 3.4336059093475341797 3.7159891128540039063 3.7065310478210449219 3.2298619747161865234 3.7653005123138427734 3.2644898891448974609 2.3528456687927246094 2.7067215442657470703 2.1050646305084228516 3.1691944599151611328 1.7430737018585205078 3.2523438930511474609 3.0840480327606201172 3.1829111576080322266 3.3785817623138427734 2.9237232208251953125 2.7328853607177734375 2.8717501163482666016 2.0060861110687255859 2.0480685234069824219 2.3283574581146240234 2.8481700420379638672 3.0511136054992675781 3.6483504772186279297 3.5030026435852050781 3.3274464607238769531 2.6545867919921875 2.5292840003967285156 2.4369518756866455078 2.7196216583251953125 2.7791807651519775391 2.9791896343231201172 3.2321372032165527344 2.5157973766326904297 3.4665827751159667969 3.3259592056274414063 3.0060327053070068359 3.5753142833709716797 3.4014334678649902344 3.3872065544128417969 3.4264585971832275391 3.1174321174621582031 3.306427001953125 3.4961221218109130859 3.5847544670104980469 3.1492476463317871094 3.8856694698333740234 3.7287402153015136719 3.4792187213897705078 3.3300755023956298828 3.3661642074584960938 3.5752761363983154297 3.6786780357360839844 3.4415559768676757813 3.4811766147613525391 3.274261474609375 3.1310198307037353516 3.1651692390441894531 3.2513024806976318359 3.633502960205078125 2.0980713367462158203 2.4023909568786621094 3.6979856491088867188 2.8249380588531494141 2.3548531532287597656 3.0852499008178710938 3.3798248767852783203 3.1562504768371582031 2.5226337909698486328 2.6000361442565917969 2.3013286590576171875 3.2879483699798583984 1.1825573444366455078 2.7300655841827392578 2.6847515106201171875 2.9379889965057373047 1.4051511287689208984 1 2.8377437591552734375 1 1.4906219244003295898 1.8500525951385498047 1.5142307281494140625 1.9522091150283813477 2.0776255130767822266 1.3819986581802368164 1 1.6378831863403320313 1.5837626457214355469 2.3277897834777832031 1 1.1243870258331298828 1.6326442956924438477 1.3899168968200683594 1.2806508541107177734 1.4532703161239624023 1.6820288896560668945 1.3365514278411865234 1.1626765727996826172 2.2630798816680908203 2.3412401676177978516 2.1441755294799804688 1.8419277667999267578 2.8110439777374267578 1.9017088413238525391 1.9764688014984130859 2.0077147483825683594 1.560302734375 2.3163218498229980469 2.1464695930480957031 2.3126900196075439453 2.1479635238647460938 2.3015031814575195313 3.3319532871246337891 1.7495653629302978516 2.8094909191131591797 
1 1.0365091562271118164 1.7573081254959106445 2.5827226638793945313 2.7930128574371337891 2.6337065696716308594 1.7975618839263916016 2.1882584095001220703 2.0354268550872802734 2.3886082172393798828 1.958777308464050293 1.6821565628051757813 2.7636907100677490234 2.3956198692321777344 1.6572835445404052734 2.6158382892608642578 1.6942237615585327148 2.4036078453063964844 2.3228247165679931641 2.1188302040100097656 2.5843398571014404297 1.8960541486740112305 1.8911241292953491211 1.595858454704284668 2.2591195106506347656 2.1786749362945556641 2.0675187110900878906 2.7316892147064208984 2.7017698287963867188 2.756687164306640625 2.3449356555938720703 2.2864930629730224609 1.7816728353500366211 1.0777850151062011719 1.8192156553268432617 3.0925011634826660156 2.2218532562255859375 2.0352873802185058594 1.8266569375991821289 2.9829890727996826172 1 2.08266448974609375 1.8420665264129638672 2.3201773166656494141 2.8576104640960693359 2.7665722370147705078 2.0608217716217041016 2.274890899658203125 3.1335921287536621094 2.8805468082427978516 3.4935343265533447266 3.014934539794921875 3.6747667789459228516 3.5427358150482177734 3.4753305912017822266 3.5500223636627197266 3.1959972381591796875 3.3337717056274414063 3.4851961135864257813 3.6108238697052001953 3.1761090755462646484 3.0558741092681884766 3.3078455924987792969 3.5292489528656005859 3.753692626953125 2.993251800537109375 3.4280936717987060547 3.6278996467590332031 3.4396762847900390625 3.6400098800659179688 4.0156087875366210938 3.9871592521667480469 3.9123630523681640625 3.6983437538146972656 3.5799994468688964844 4.0673832893371582031 3.8776919841766357422 4.3561153411865234375 4.6148228645324707031 3.8007400035858154297 4.3436655998229980469 4.105403900146484375 3.5129468441009521484 4.1158194541931152344 3.5613341331481933594 3.2099394798278808594 3.8818879127502441406 3.8376309871673583984 3.3009424209594726563 3.5393326282501220703 3.9135892391204833984 3.6069357395172119141 2.2855467796325683594 3.0106329917907714844 3.4247782230377197266 2.2973902225494384766 3.2592520713806152344 2.5440814495086669922 2.9018943309783935547 2.6169087886810302734 2.9225964546203613281 3.1008598804473876953 2.6816151142120361328 2.6851377487182617188 1.9851030111312866211 3.0832192897796630859 3.0458626747131347656 3.0370848178863525391 2.6117236614227294922 3.4641215801239013672 3.3843114376068115234 2.9625995159149169922 3.3125252723693847656 2.5433187484741210938 1.5048477649688720703 2.9771578311920166016 3.2743020057678222656 2.8597598075866699219 2.8271625041961669922 3.2474107742309570313 3.5827205181121826172 3.2267460823059082031 3.5624256134033203125 3.1466288566589355469 3.3199970722198486328 3.6193482875823974609 3.9090795516967773438 3.9696784019470214844 3.5156023502349853516 3.8373479843139648438 3.2617173194885253906 3.601657867431640625 3.6384463310241699219 3.7780370712280273438 3.5420479774475097656 4.0758638381958007813 3.6450872421264648438 3.4828341007232666016 3.5746877193450927734 3.8311917781829833984 3.6208081245422363281 3.584651947021484375 3.4220194816589355469 3.2909610271453857422 2.7970197200775146484 3.2714550495147705078 2.9217333793640136719 3.285144805908203125 3.291149139404296875 3.4629364013671875 3.807193756103515625 3.0016100406646728516 2.8743298053741455078 2.5218160152435302734 2.42901611328125 2.4166240692138671875 2.1719732284545898438 2.3163251876831054688 1.9693349599838256836 2.4858262538909912109 1.7297508716583251953 1.4124969244003295898 2.1647553443908691406 1 1 1.7119164466857910156 2.2553896903991699219 2.3459236621856689453 1.4714696407318115234 1.6744178533554077148 1 1 1 1 1 1 1.0677638053894042969 1.5721687078475952148 1.5678030252456665039 1.2209221124649047852 2.1054053306579589844 2.8295981884002685547 1.923556208610534668 1.826007843017578125 2.8951621055603027344 2.4810159206390380859 2.0868651866912841797 1.3561774492263793945 3.0654616355895996094 3.4744770526885986328 2.8233013153076171875 2.9174261093139648438 2.5403232574462890625 2.9733340740203857422 2.7075607776641845703 2.4329764842987060547 3.6930031776428222656 3.1481139659881591797 1.6559433937072753906 2.2056565284729003906 
1.1539554595947265625 1 1.2769186496734619141 2.8790838718414306641 1.2290904521942138672 2.4556696414947509766 2.1822555065155029297 1.3986626863479614258 1.6452757120132446289 1.7742547988891601563 1.7871862649917602539 2.2259955406188964844 1.9968409538269042969 2.6147253513336181641 2.7760062217712402344 2.8442342281341552734 2.3645517826080322266 2.5964026451110839844 2.5462472438812255859 1.1599943637847900391 2.1964433193206787109 1.5398609638214111328 1.9427042007446289063 1.7724908590316772461 1.8655526638031005859 2.1524479389190673828 1.4906475543975830078 1.5860207080841064453 1.8601026535034179688 2.4969751834869384766 1.4793133735656738281 2.5655004978179931641 2.4449863433837890625 1.2012736797332763672 1.2756048440933227539 1.0504068136215209961 1.6163419485092163086 1 1.7336379289627075195 1.4341945648193359375 1.9852879047393798828 1.7707406282424926758 3.1812036037445068359 1.8116513490676879883 2.1621921062469482422 2.8173735141754150391 2.7433459758758544922 3.2221195697784423828 3.3151214122772216797 2.708003997802734375 3.2910618782043457031 3.3985140323638916016 2.9875733852386474609 2.9253225326538085938 2.9880776405334472656 3.6749141216278076172 2.7191946506500244141 2.9306759834289550781 2.9362697601318359375 3.1921229362487792969 3.5522058010101318359 3.4293057918548583984 3.6794240474700927734 3.3182861804962158203 3.8976626396179199219 3.4143745899200439453 3.6830880641937255859 3.6097135543823242188 3.129199981689453125 3.3040490150451660156 3.8770251274108886719 3.9848604202270507813 3.9520466327667236328 4.0593533515930175781 3.7707731723785400391 3.9753129482269287109 4.0328049659729003906 3.7106919288635253906 3.4748084545135498047 3.7683515548706054688 4.3641161918640136719 3.5378267765045166016 4.2094373703002929688 4.2400989532470703125 3.2904772758483886719 3.3908927440643310547 3.6117722988128662109 3.4359984397888183594 3.2701985836029052734 3.7689146995544433594 3.2756593227386474609 2.5542836189270019531 2.9946415424346923828 2.4321179389953613281 2.8178551197052001953 2.1342151165008544922 3.1455919742584228516 1.8832739591598510742 2.3445286750793457031 3.2720761299133300781 2.6794266700744628906 2.7270920276641845703 2.5130114555358886719 3.0461246967315673828 2.2848093509674072266 2.8258924484252929688 2.6974661350250244141 3.1587154865264892578 2.8372089862823486328 3.2819061279296875 2.8020825386047363281 2.7192215919494628906 3.4103448390960693359 2.6591897010803222656 3.4422090053558349609 2.1342418193817138672 2.5673124790191650391 2.5623862743377685547 2.3351686000823974609 2.7187600135803222656 3.5145962238311767578 2.8744723796844482422 3.6384212970733642578 3.1362707614898681641 3.7844090461730957031 3.6778967380523681641 3.5879240036010742188 3.6693365573883056641 3.5528728961944580078 3.6228706836700439453 3.3339111804962158203 3.5922226905822753906 3.8569500446319580078 4.0267596244812011719 3.1278638839721679688 3.7148683071136474609 3.1870782375335693359 3.8039879798889160156 3.6483557224273681641 3.5794174671173095703 3.0593793392181396484 3.4393737316131591797 3.3172669410705566406 2.8859570026397705078 2.7418634891510009766 2.5958552360534667969 3.2270109653472900391 2.9959328174591064453 2.6147820949554443359 3.3572366237640380859 3.5524160861968994141 2.8048145771026611328 3.6589081287384033203 3.2973935604095458984 2.9843461513519287109 3.1175704002380371094 2.7134342193603515625 2.4925415515899658203 2.4122714996337890625 2.4536998271942138672 2.4135396480560302734 1.4513933658599853516 1.4649567604064941406 1 1 2.2366704940795898438 1.6780389547348022461 1 1.9460573196411132813 2.7132487297058105469 1 1.8319550752639770508 1 1 1.5787506103515625 1 1.9487299919128417969 2.0369462966918945313 2.2924811840057373047 2.1744201183319091797 2.538913726806640625 3.0997364521026611328 1.0703570842742919922 2.1880967617034912109 1.1413714885711669922 1.7920029163360595703 1.4724618196487426758 2.2851660251617431641 2.0693211555480957031 3.5035963058471679688 3.3531680107116699219 3.0158054828643798828 3.9885032176971435547 2.247356414794921875 3.1919662952423095703 3.2139787673950195313 1.9797677993774414063 2.7641699314117431641 3.1751413345336914063 3.5914921760559082031 
1 1.5974638462066650391 1 1.0133889913558959961 1.5454828739166259766 2.1980509757995605469 3.5620465278625488281 3.4297170639038085938 3.0431647300720214844 2.2781548500061035156 2.1497833728790283203 1.9164998531341552734 1.4359445571899414063 2.0105483531951904297 2.3302733898162841797 2.6030492782592773438 2.7125270366668701172 1.7874091863632202148 1.3087744712829589844 1.4861947298049926758 2.4836099147796630859 3.0405898094177246094 2.716693878173828125 2.5632548332214355469 2.7429640293121337891 2.5814712047576904297 2.5439343452453613281 3.1158466339111328125 2.3417894840240478516 2.9671614170074462891 2.6706311702728271484 2.7239580154418945313 1.8411222696304321289 1.8253465890884399414 1.7646815776824951172 2.1692113876342773438 1.2554378509521484375 2.2616400718688964844 1.3667473793029785156 1 1.8243044614791870117 1 2.8553030490875244141 1.9506531953811645508 2.7955777645111083984 1.9010441303253173828 2.7295789718627929688 2.4052166938781738281 2.4851288795471191406 3.1170003414154052734 3.2875533103942871094 2.7725024223327636719 3.2587511539459228516 3.4436602592468261719 3.5755355358123779297 2.9918739795684814453 3.284282684326171875 3.2470645904541015625 3.7374613285064697266 3.5408196449279785156 3.1814577579498291016 3.3328547477722167969 3.0671122074127197266 3.0578305721282958984 2.823169708251953125 3.6347212791442871094 3.7658915519714355469 3.5159735679626464844 3.7658970355987548828 3.5700228214263916016 3.723796844482421875 3.5075135231018066406 3.6483342647552490234 3.5796368122100830078 3.4909574985504150391 3.5103032588958740234 3.9802925586700439453 4.04256439208984375 3.4487903118133544922 3.8708155155181884766 4.0239415168762207031 3.4675457477569580078 3.6958913803100585938 3.748165130615234375 3.5277185440063476563 3.5680150985717773438 3.8032617568969726563 3.1478481292724609375 3.1550817489624023438 3.1495559215545654297 3.6662743091583251953 3.3851757049560546875 2.4958388805389404297 2.5937101840972900391 2.8647243976593017578 3.1410448551177978516 3.2234294414520263672 2.6018548011779785156 1.5424779653549194336 3.5191380977630615234 2.4549376964569091797 2.8817570209503173828 3.1101865768432617188 2.3076834678649902344 1.5488591194152832031 2.128276824951171875 2.1223008632659912109 2.01971435546875 2.7485194206237792969 2.6779620647430419922 3.4246585369110107422 3.1724188327789306641 3.4788756370544433594 2.4858455657958984375 2.4272549152374267578 2.3602969646453857422 2.9678065776824951172 2.7515943050384521484 2.2477478981018066406 2.9572310447692871094 3.4492509365081787109 3.3973772525787353516 2.8924427032470703125 3.2940843105316162109 3.9586532115936279297 4.0194158554077148438 3.5809948444366455078 3.9248061180114746094 3.9904243946075439453 3.9014632701873779297 3.5585458278656005859 3.48381805419921875 3.6242439746856689453 3.6878821849822998047 3.6440670490264892578 3.4892413616180419922 3.4525949954986572266 3.8784697055816650391 3.7038390636444091797 3.7440273761749267578 3.2156362533569335938 3.9444193840026855469 3.1656887531280517578 3.0150821208953857422 3.1321787834167480469 2.4026627540588378906 3.3147921562194824219 3.7643349170684814453 3.1033320426940917969 2.9152789115905761719 3.5596003532409667969 3.6708803176879882813 3.6031658649444580078 3.0137412548065185547 3.13349151611328125 2.9310562610626220703 1.9233762025833129883 3.2669949531555175781 1.6121786832809448242 1.5909470319747924805 1 1.7606066465377807617 1.6730633974075317383 1 1.9577623605728149414 3.1251897811889648438 2.9752907752990722656 2.8179862499237060547 1.8868316411972045898 1.2791074514389038086 1 2.3849332332611083984 1 1.685635685920715332 2.4111921787261962891 1 1 1 1.8177336454391479492 2.1263339519500732422 2.1005373001098632813 2.4311201572418212891 2.0739755630493164063 1.8329281806945800781 2.5199983119964599609 2.0082035064697265625 1.4257782697677612305 2.8275163173675537109 2.4070136547088623047 3.0957219600677490234 2.2764730453491210938 2.4655203819274902344 3.7983920574188232422 2.8086452484130859375 3.3333942890167236328 2.7448391914367675781 2.2262432575225830078 3.2747545242309570313 2.4034106731414794922 2.3598382472991943359 
1.8744099140167236328 1 2.2371044158935546875 1.9786863327026367188 1.2466056346893310547 2.4396889209747314453 2.0112464427947998047 2.5954463481903076172 2.3724260330200195313 2.4631152153015136719 2.7682077884674072266 3.0471854209899902344 2.2305350303649902344 2.0253157615661621094 2.2252473831176757813 2.6792995929718017578 2.1079783439636230469 2.7629005908966064453 1.7884775400161743164 2.9402606487274169922 1.9102278947830200195 1.7854458093643188477 3.1536874771118164063 2.6447165012359619141 2.882511138916015625 2.3557024002075195313 1.7148929834365844727 2.5288350582122802734 1.9674081802368164063 2.2586798667907714844 1.8941992521286010742 2.8421719074249267578 2.2447130680084228516 1.5674558877944946289 1.0859032869338989258 1.5221101045608520508 1 1.9774494171142578125 1.1215707063674926758 1 1.9705135822296142578 2.2298955917358398438 2.0665149688720703125 2.1298720836639404297 3.1277830600738525391 3.1930208206176757813 3.1150348186492919922 2.4923167228698730469 3.0427830219268798828 3.5291290283203125 3.4744005203247070313 2.63591766357421875 2.6055994033813476563 3.6478655338287353516 3.5990343093872070313 3.5777795314788818359 2.9538381099700927734 3.202724456787109375 3.3963363170623779297 3.0830898284912109375 4.1444120407104492188 3.5010175704956054688 3.4448494911193847656 3.2073798179626464844 3.5226762294769287109 3.7091550827026367188 3.3876938819885253906 3.5293557643890380859 3.4756488800048828125 3.4761641025543212891 4.1806163787841796875 3.2645542621612548828 3.3761379718780517578 3.3934741020202636719 3.5807607173919677734 4.01288604736328125 3.8346428871154785156 3.954181671142578125 3.6739830970764160156 3.6728732585906982422 3.5724725723266601563 3.6368796825408935547 3.7822513580322265625 3.3326599597930908203 3.7360310554504394531 3.4263632297515869141 3.6916954517364501953 3.4414000511169433594 3.1536860466003417969 3.5396893024444580078 3.4149405956268310547 2.5908706188201904297 3.2508952617645263672 2.8431019783020019531 3.170196533203125 3.1344339847564697266 2.8796265125274658203 2.9107460975646972656 2.9660303592681884766 3.0336968898773193359 2.7557120323181152344 2.8356339931488037109 2.6350705623626708984 2.6993613243103027344 3.5349514484405517578 2.5172166824340820313 2.4064853191375732422 2.6197342872619628906 3.8460679054260253906 3.3246207237243652344 2.7943553924560546875 2.1636333465576171875 2.9473905563354492188 3.1964097023010253906 2.5309309959411621094 3.05481719970703125 2.1467237472534179688 2.237094879150390625 2.6596410274505615234 2.7910447120666503906 3.2625129222869873047 3.6076312065124511719 3.601116180419921875 3.7397296428680419922 3.8263964653015136719 3.7020065784454345703 3.91201019287109375 3.5297710895538330078 4.2447009086608886719 3.7898514270782470703 3.5458822250366210938 3.3498311042785644531 3.8705384731292724609 3.7530047893524169922 3.2847735881805419922 3.4017646312713623047 3.9035589694976806641 3.4790966510772705078 3.4641664028167724609 3.4397313594818115234 4.1525626182556152344 3.5286934375762939453 2.8813314437866210938 2.7034475803375244141 2.7067470550537109375 2.8013193607330322266 3.1757874488830566406 3.2607438564300537109 3.5404603481292724609 3.0207269191741943359 3.2616729736328125 3.0906751155853271484 3.3009409904479980469 3.2079112529754638672 3.4144098758697509766 2.8976886272430419922 2.6983182430267333984 2.5693557262420654297 2.8136277198791503906 1.5774314403533935547 2.7036113739013671875 2.2466266155242919922 2.8267560005187988281 2.3476247787475585938 1.605976104736328125 1.2603279352188110352 2.3379426002502441406 1.6562484502792358398 1.7737313508987426758 1.442660212516784668 1.2939361333847045898 1.2519280910491943359 1.9038703441619873047 2.6504266262054443359 1.8094321489334106445 2.1625339984893798828 2.5869567394256591797 1.4582550525665283203 1.5554131269454956055 3.6524105072021484375 2.6700701713562011719 1.9141021966934204102 1.9823092222213745117 3.1249725818634033203 1.8135249614715576172 2.5348250865936279297 1.8419630527496337891 1.0919333696365356445 2.2279181480407714844 2.1577961444854736328 2.2623276710510253906 3.4075453281402587891 3.4163596630096435547 1.6295754909515380859 2.6040182113647460938 3.2751290798187255859 3.0524313449859619141 2.3490896224975585938 1 1.1188446283340454102 
1.6347994804382324219 1 1 2.1294958591461181641 1.5118066072463989258 1 1.5648497343063354492 2.5911960601806640625 2.4845399856567382813 2.3211541175842285156 2.1539523601531982422 3.2528507709503173828 3.1449506282806396484 2.7185397148132324219 2.984222412109375 2.6741156578063964844 2.6088864803314208984 1.5664618015289306641 1.85666656494140625 2.3655807971954345703 2.5931937694549560547 3.3572614192962646484 1.4920566082000732422 2.7863707542419433594 2.9152004718780517578 2.6711370944976806641 1.7742570638656616211 1.8102507591247558594 2.0388970375061035156 3.0385503768920898438 2.4144203662872314453 2.0328247547149658203 2.3572409152984619141 1.9274727106094360352 2.3513848781585693359 1.4232831001281738281 1.5381810665130615234 2.1656575202941894531 2.3597321510314941406 1.1562465429306030273 1.8451757431030273438 1 2.5501773357391357422 2.2504198551177978516 2.5126111507415771484 3.4775688648223876953 2.8389456272125244141 3.1888666152954101563 3.7154943943023681641 3.0050220489501953125 3.1981234550476074219 2.4431116580963134766 2.9956338405609130859 3.3129041194915771484 2.9499423503875732422 2.8980052471160888672 3.5157387256622314453 3.2002136707305908203 3.8297190666198730469 3.7520265579223632813 3.4793381690979003906 3.3932061195373535156 3.2852787971496582031 2.8457894325256347656 2.7797558307647705078 2.7877397537231445313 3.6565477848052978516 3.3368608951568603516 3.8303182125091552734 4.1833162307739257813 3.398136138916015625 3.2330660820007324219 3.3847255706787109375 3.5131101608276367188 3.1873109340667724609 3.7876639366149902344 3.7448797225952148438 3.3125236034393310547 3.4009351730346679688 3.4562871456146240234 3.5117747783660888672 3.6235699653625488281 3.5086615085601806641 3.5988011360168457031 3.4519724845886230469 3.4006812572479248047 3.4921689033508300781 3.2611746788024902344 3.0464749336242675781 3.5065989494323730469 3.4121320247650146484 3.0667331218719482422 3.4537465572357177734 2.4614398479461669922 2.4997715950012207031 2.9842362403869628906 2.986186981201171875 2.7327396869659423828 2.1966516971588134766 2.6252729892730712891 2.375522613525390625 2.3165543079376220703 2.5476753711700439453 2.4445135593414306641 1.9383890628814697266 2.3772375583648681641 3.7369954586029052734 3.2192366123199462891 2.7627248764038085938 3.6245057582855224609 3.0679762363433837891 2.62189483642578125 2.7991189956665039063 2.4824941158294677734 2.5939791202545166016 2.6902301311492919922 3.3681900501251220703 2.7510154247283935547 2.5715193748474121094 2.1202626228332519531 2.8248233795166015625 3.3948378562927246094 3.3684630393981933594 3.8270161151885986328 3.7795298099517822266 3.7049124240875244141 3.7567687034606933594 3.9535119533538818359 4.2023863792419433594 3.83831787109375 4.0972800254821777344 3.6986405849456787109 3.2316124439239501953 3.6314935684204101563 3.7208337783813476563 3.5823202133178710938 3.8604006767272949219 3.7364001274108886719 3.8018159866333007813 3.7368004322052001953 3.6527423858642578125 3.1704206466674804688 3.3085787296295166016 2.8733990192413330078 3.0661830902099609375 2.6057288646697998047 3.6339881420135498047 3.462108612060546875 3.7057886123657226563 3.4725966453552246094 3.3510520458221435547 3.2162425518035888672 3.4917926788330078125 3.5436356067657470703 3.5042703151702880859 3.0622823238372802734 3.2526073455810546875 3.4180138111114501953 2.3022558689117431641 2.6017878055572509766 2.0632264614105224609 3.3704044818878173828 2.4338893890380859375 2.5827333927154541016 1.8027248382568359375 2.071994781494140625 2.6701610088348388672 2.2807269096374511719 1 2.6775612831115722656 1.7015230655670166016 2.3274598121643066406 2.2451512813568115234 2.9854676723480224609 2.3832776546478271484 2.7350192070007324219 2.0177779197692871094 1.7127341032028198242 2.0204894542694091797 2.0666818618774414063 2.3473708629608154297 2.6197474002838134766 1.6835254430770874023 2.2722315788269042969 1.1151136159896850586 2.8799316883087158203 1.4837770462036132813 2.4068670272827148438 2.0027339458465576172 2.0363600254058837891 2.7672703266143798828 3.0961084365844726563 2.8695917129516601563 3.3677141666412353516 2.6307880878448486328 2.3295133113861083984 2.2653603553771972656 1.8337587118148803711 2.0300972461700439453 3.0851826667785644531 
1 1.3580837249755859375 2.0795421600341796875 2.0440647602081298828 1.7638180255889892578 1 2.8438971042633056641 1.4698053598403930664 2.9526047706604003906 2.3655939102172851563 3.1318261623382568359 2.4368145465850830078 2.6378066539764404297 2.4222803115844726563 3.4308736324310302734 2.4199931621551513672 1.7883920669555664063 1.9340941905975341797 2.5457794666290283203 2.6863033771514892578 2.7517831325531005859 2.2852551937103271484 2.8302416801452636719 2.2606625556945800781 2.1956615447998046875 2.6677651405334472656 1.7294607162475585938 2.5698208808898925781 3.1143159866333007813 1.954218745231628418 2.0486316680908203125 1.412537693977355957 1.7949924468994140625 1 2.5819675922393798828 1.0087511539459228516 1 2.2575428485870361328 1 1.8695712089538574219 1.7392435073852539063 2.4290609359741210938 2.6762413978576660156 1.965885162353515625 2.5020492076873779297 2.9470593929290771484 3.2151250839233398438 3.1154286861419677734 3.2099258899688720703 3.611186981201171875 2.7594845294952392578 3.1261434555053710938 2.9608972072601318359 3.2829060554504394531 3.1166973114013671875 3.5359637737274169922 3.5934090614318847656 3.0699515342712402344 3.5464780330657958984 3.3814024925231933594 3.3666470050811767578 3.7704775333404541016 3.6795570850372314453 3.3393802642822265625 3.3034451007843017578 3.4069943428039550781 3.4247980117797851563 3.5405068397521972656 3.2008330821990966797 3.5577123165130615234 3.6541790962219238281 3.6570229530334472656 3.2983679771423339844 3.7991425991058349609 3.9464929103851318359 3.76129150390625 3.1889388561248779297 3.8786699771881103516 3.6488881111145019531 3.572856903076171875 3.1329789161682128906 3.3088157176971435547 3.1913278102874755859 3.4416396617889404297 3.659942626953125 3.7641294002532958984 3.4501748085021972656 3.9374639987945556641 3.1744945049285888672 3.2419102191925048828 3.6741604804992675781 3.1100544929504394531 3.155986785888671875 2.9469823837280273438 2.6982405185699462891 3.3058302402496337891 3.1744854450225830078 3.6227500438690185547 2.7528715133666992188 2.3248918056488037109 2.9410905838012695313 2.8779549598693847656 3.0547986030578613281 1.8132652044296264648 3.4685034751892089844 2.2337400913238525391 2.5635659694671630859 3.5572078227996826172 2.1325974464416503906 2.9909193515777587891 2.2425899505615234375 3.4523961544036865234 2.6099338531494140625 2.7869243621826171875 2.9651725292205810547 2.0815589427947998047 2.3311607837677001953 2.0632641315460205078 2.1510205268859863281 2.9767179489135742188 2.1217427253723144531 2.7309796810150146484 3.5489397048950195313 3.7058389186859130859 3.586368560791015625 3.7294852733612060547 4.1559100151062011719 3.5382072925567626953 4.0841488838195800781 3.9035956859588623047 3.5569872856140136719 4.0848989486694335938 3.759307861328125 4.0346364974975585938 3.6635396480560302734 3.8192987442016601563 3.6058826446533203125 4.0509819984436035156 3.5339715480804443359 3.7708775997161865234 3.2930290699005126953 3.0162241458892822266 3.7998521327972412109 3.10768890380859375 2.8792698383331298828 2.9037401676177978516 2.7931587696075439453 3.6009552478790283203 3.5112898349761962891 3.4905791282653808594 3.3832929134368896484 3.439586639404296875 3.4417397975921630859 3.7956213951110839844 3.2932260036468505859 3.0862090587615966797 3.3838727474212646484 3.5743448734283447266 2.7508206367492675781 2.8188991546630859375 2.7333555221557617188 3.0972819328308105469 2.2726559638977050781 2.1396117210388183594 2.7358648777008056641 1.9841493368148803711 1.9206925630569458008 2.7651641368865966797 1.6623853445053100586 3.0343978404998779297 2.4321155548095703125 1.7310751676559448242 1.005101323127746582 2.7133977413177490234 2.1686880588531494141 1.573062896728515625 3.273464202880859375 1.582791447639465332 2.6271734237670898438 2.2518241405487060547 2.2069303989410400391 2.4959595203399658203 2.3783173561096191406 2.6008753776550292969 2.7368359565734863281 1 2.5038747787475585938 2.3274314403533935547 2.5035436153411865234 3.1448981761932373047 3.1999361515045166016 3.2774660587310791016 2.4353017807006835938 2.79186248779296875 2.3943574428558349609 3.0942046642303466797 2.5873377323150634766 3.2540166378021240234 1.7421057224273681641 3.2270138263702392578 
1 1 1.5633523464202880859 2.1375164985656738281 1.0454907417297363281 2.2497313022613525391 2.1111009120941162109 2.6017775535583496094 2.8188157081604003906 2.3475995063781738281 3.3140435218811035156 2.9879424571990966797 2.8615295886993408203 2.8515572547912597656 2.981109619140625 2.4416489601135253906 2.7956266403198242188 2.6391561031341552734 2.0245282649993896484 2.4678707122802734375 3.1493690013885498047 1.6354264020919799805 3.0925011634826660156 1 1 1.989185333251953125 2.16996002197265625 3.2340550422668457031 2.5372474193572998047 2.6771349906921386719 1.8133673667907714844 3.2383456230163574219 1.1657869815826416016 1.6976538896560668945 2.1130301952362060547 1 2.5650188922882080078 1.2474151849746704102 1.9550005197525024414 1.7424069643020629883 1.0707985162734985352 1.8034514188766479492 1.4522225856781005859 2.3094410896301269531 2.3587474822998046875 3.2868847846984863281 3.5522274971008300781 3.224945068359375 3.3382833003997802734 2.6566500663757324219 2.6741003990173339844 3.5849955081939697266 2.8184955120086669922 3.0510058403015136719 2.8726150989532470703 3.2553050518035888672 3.1037700176239013672 3.5756871700286865234 2.9256322383880615234 3.4145150184631347656 3.5768220424652099609 3.2445013523101806641 3.2448413372039794922 3.4988827705383300781 3.5629067420959472656 3.1145970821380615234 3.6033136844635009766 3.6460390090942382813 3.6242349147796630859 3.9716763496398925781 3.6759045124053955078 3.8361034393310546875 3.6904201507568359375 3.4793992042541503906 3.6492600440979003906 3.9857120513916015625 3.5719952583312988281 3.5686664581298828125 3.9787766933441162109 3.4302914142608642578 3.4714720249176025391 3.6991183757781982422 3.4746201038360595703 3.4748401641845703125 3.5938997268676757813 3.9773924350738525391 3.5249423980712890625 4.0272498130798339844 3.2484822273254394531 3.6334016323089599609 3.8437151908874511719 3.4299342632293701172 3.0805220603942871094 3.3545560836791992188 3.1595399379730224609 3.6261973381042480469 3.3662099838256835938 3.1295802593231201172 3.6990532875061035156 3.1693387031555175781 2.6796083450317382813 2.3090884685516357422 2.8124098777770996094 2.3364539146423339844 3.2287271022796630859 2.5647275447845458984 2.0760889053344726563 2.7363488674163818359 2.5430593490600585938 2.7823028564453125 3.1231467723846435547 3.5469536781311035156 2.5124382972717285156 3.0142273902893066406 3.3182547092437744141 2.7426416873931884766 2.9511134624481201172 2.4709064960479736328 3.3225510120391845703 3.5980031490325927734 2.2076213359832763672 3.3923707008361816406 3.2409443855285644531 3.8673882484436035156 3.9059908390045166016 3.5004510879516601563 3.8014049530029296875 3.5063555240631103516 3.9615330696105957031 3.7845599651336669922 3.5968527793884277344 3.9671201705932617188 4.1041159629821777344 3.4650609493255615234 3.5344054698944091797 3.7979671955108642578 3.6017181873321533203 3.7961022853851318359 3.4294590950012207031 3.6238408088684082031 3.5526535511016845703 2.9082226753234863281 3.0934147834777832031 2.8204069137573242188 3.0412786006927490234 3.3844358921051025391 2.7225213050842285156 3.6703019142150878906 3.0102746486663818359 3.5618815422058105469 3.7189168930053710938 3.5149133205413818359 3.6768882274627685547 3.5943074226379394531 3.6180469989776611328 3.4024097919464111328 2.9036655426025390625 2.66110992431640625 3.1148173809051513672 2.1037073135375976563 3.0935890674591064453 2.6876122951507568359 1.1347271203994750977 1.7715109586715698242 2.0177681446075439453 2.0627243518829345703 2.777858734130859375 2.4662010669708251953 2.8542852401733398438 2.4336354732513427734 1.7111986875534057617 2.6843934059143066406 2.2449967861175537109 2.1827535629272460938 2.1935818195343017578 2.8358325958251953125 2.7001655101776123047 2.986621856689453125 2.6671128273010253906 2.5753602981567382813 2.5772404670715332031 3.0528638362884521484 3.085193634033203125 2.9246881008148193359 3.2827458381652832031 2.7875778675079345703 2.6516962051391601563 1.6809475421905517578 2.6133582592010498047 2.0337672233581542969 2.9055268764495849609 3.3655600547790527344 2.2964394092559814453 2.9814782142639160156 3.5883429050445556641 2.4115114212036132813 2.3006460666656494141 3.0724172592163085938 1.7846214771270751953 3.0411722660064697266 
1 2.3157246112823486328 2.4595022201538085938 1.8107792139053344727 1.9630292654037475586 2.6400117874145507813 2.5136463642120361328 3.4478089809417724609 2.6260573863983154297 3.3763933181762695313 1.8070168495178222656 2.4860570430755615234 2.8043668270111083984 2.9311771392822265625 3.1927323341369628906 3.0845479965209960938 2.6854305267333984375 3.1179132461547851563 2.4917497634887695313 3.2552902698516845703 3.0058004856109619141 3.2757680416107177734 3.0401952266693115234 2.3209371566772460938 1.9858460426330566406 2.8120367527008056641 2.7645297050476074219 2.3274407386779785156 2.8750491142272949219 2.0748429298400878906 2.9698128700256347656 2.5260493755340576172 1.8738497495651245117 2.2455270290374755859 1.6102621555328369141 2.0337455272674560547 2.0091583728790283203 1.4401961565017700195 1 2.0594658851623535156 1.6109678745269775391 2.0306689739227294922 2.8051674365997314453 1.865847468376159668 3.5957612991333007813 2.6697471141815185547 2.3987441062927246094 2.1738505363464355469 3.0226583480834960938 3.0120563507080078125 3.0409739017486572266 3.1670081615447998047 3.39306640625 3.1297955513000488281 3.4233808517456054688 2.9384441375732421875 3.6027331352233886719 3.3176028728485107422 3.1079471111297607422 2.9526324272155761719 2.8497714996337890625 3.3873248100280761719 3.5060639381408691406 3.5974061489105224609 3.4794137477874755859 3.3714172840118408203 3.8164155483245849609 3.5534577369689941406 3.6607079505920410156 3.4698853492736816406 3.7845585346221923828 3.4806334972381591797 3.7516002655029296875 3.2368326187133789063 3.9658572673797607422 3.8875451087951660156 4.17235565185546875 3.9649708271026611328 3.8954265117645263672 3.8416590690612792969 3.7443239688873291016 3.4388532638549804688 3.7331471443176269531 3.7966864109039306641 3.5755567550659179688 3.8195588588714599609 3.5109174251556396484 3.3591539859771728516 4.1365885734558105469 3.5277116298675537109 3.3161287307739257813 3.4117438793182373047 3.2231211662292480469 3.5165698528289794922 3.2532715797424316406 3.8903193473815917969 3.1692788600921630859 2.8363275527954101563 3.5850300788879394531 2.3713006973266601563 3.2587392330169677734 3.4034144878387451172 2.05313873291015625 2.1546399593353271484 2.5599846839904785156 2.1320486068725585938 2.59674835205078125 2.6207733154296875 2.7178590297698974609 3.0205671787261962891 2.4869394302368164063 3.2392089366912841797 3.3902833461761474609 2.9327521324157714844 3.5224080085754394531 2.9526393413543701172 2.6561269760131835938 3.2882328033447265625 3.5556828975677490234 3.0672087669372558594 2.4360699653625488281 2.6198568344116210938 2.9538116455078125 3.6644787788391113281 3.0846955776214599609 4.2086653709411621094 3.8106257915496826172 3.4095673561096191406 3.5935258865356445313 4.0174236297607421875 3.9278759956359863281 4.0012226104736328125 3.9760992527008056641 3.9744150638580322266 3.719127655029296875 3.8587081432342529297 3.5247480869293212891 3.4056935310363769531 4.2389988899230957031 3.6271500587463378906 3.2200427055358886719 3.3264250755310058594 3.3978586196899414063 3.095355987548828125 3.5334074497222900391 3.2964088916778564453 3.0152766704559326172 3.5443964004516601563 2.7658333778381347656 3.3882706165313720703 3.6237206459045410156 3.385570526123046875 3.773357391357421875 3.1265301704406738281 3.3845551013946533203 3.9716765880584716797 3.8382921218872070313 2.8974235057830810547 3.1259179115295410156 2.9310257434844970703 2.0172019004821777344 2.2434358596801757813 1.654240727424621582 1.7781125307083129883 1 1.8028674125671386719 1 2.0716128349304199219 3.1330821514129638672 2.1004118919372558594 2.0496969223022460938 1.7306857109069824219 2.6547324657440185547 2.332210540771484375 2.01047515869140625 2.6111552715301513672 2.2834944725036621094 2.8433759212493896484 2.8301205635070800781 3.2056090831756591797 2.9867506027221679688 3.1697626113891601563 3.3319466114044189453 2.9220585823059082031 3.6423585414886474609 3.3212010860443115234 1.3306039571762084961 2.2844128608703613281 2.2427082061767578125 1.6810458898544311523 2.4783194065093994141 3.0320856571197509766 3.2739663124084472656 1.6631464958190917969 2.8200213909149169922 3.1157727241516113281 2.8464620113372802734 2.9777672290802001953 3.0508737564086914063 1.8634012937545776367 
1.8702566623687744141 2.0681092739105224609 1 2.8385343551635742188 1.3939623832702636719 2.4728486537933349609 2.8236515522003173828 3.4452526569366455078 3.2445943355560302734 3.0674729347229003906 3.4477357864379882813 2.4514434337615966797 2.9182095527648925781 3.4463725090026855469 2.5480515956878662109 3.2468159198760986328 2.9498152732849121094 3.0573470592498779297 2.3775041103363037109 2.6346890926361083984 3.1127779483795166016 3.0296514034271240234 3.0566585063934326172 2.7936875820159912109 1.5450296401977539063 1 1.5327827930450439453 2.227230072021484375 1.6419669389724731445 2.2591953277587890625 1.7551608085632324219 2.2070260047912597656 2.5392708778381347656 1 3.1394183635711669922 2.1071846485137939453 2.3665494918823242188 1.3276989459991455078 1 1 1.4677718877792358398 1.2383042573928833008 2.8440093994140625 2.7085444927215576172 3.1883866786956787109 2.5644230842590332031 3.3433327674865722656 2.8071157932281494141 2.5443377494812011719 3.3894412517547607422 2.5694358348846435547 3.2166256904602050781 3.1074287891387939453 2.6633749008178710938 3.2876856327056884766 3.2588441371917724609 3.323162078857421875 3.3480114936828613281 3.1582727432250976563 3.3810639381408691406 2.6397829055786132813 3.0489594936370849609 3.1705429553985595703 3.2760002613067626953 3.5580849647521972656 3.48265838623046875 3.4766836166381835938 4.0054259300231933594 4.0012612342834472656 4.0501303672790527344 3.1200842857360839844 3.7579798698425292969 3.6724383831024169922 4.0267081260681152344 3.6569447517395019531 3.9461734294891357422 3.7571821212768554688 3.4736003875732421875 3.7021219730377197266 3.6674628257751464844 3.7348816394805908203 3.8126540184020996094 3.6321122646331787109 4.2514591217041015625 3.6962695121765136719 3.8145842552185058594 3.3236033916473388672 3.6386435031890869141 3.4444065093994140625 3.4338657855987548828 3.2801494598388671875 3.3237874507904052734 3.5082032680511474609 3.5454754829406738281 2.8876011371612548828 3.5318238735198974609 2.5041339397430419922 2.8264787197113037109 3.3563377857208251953 3.1931550502777099609 3.4413151741027832031 3.4570188522338867188 3.068859100341796875 2.3763310909271240234 2.0627596378326416016 2.3676092624664306641 2.6930952072143554688 2.36551666259765625 2.9797327518463134766 3.4019846916198730469 3.0452325344085693359 3.4139139652252197266 3.2659735679626464844 3.41735076904296875 3.3137736320495605469 3.1657850742340087891 3.1549997329711914063 2.9456593990325927734 2.8780727386474609375 3.0979518890380859375 3.1231412887573242188 3.2182097434997558594 3.2658460140228271484 3.7919106483459472656 4.1080126762390136719 3.993572235107421875 4.1958470344543457031 4.1393017768859863281 4.3983798027038574219 3.8697133064270019531 3.5949215888977050781 3.6945619583129882813 3.3896574974060058594 3.3764331340789794922 3.9725747108459472656 3.5162227153778076172 3.5357980728149414063 3.6293752193450927734 3.6786828041076660156 3.6393694877624511719 4.0031528472900390625 3.5903954505920410156 3.4993958473205566406 3.5974104404449462891 3.9084477424621582031 3.0322384834289550781 3.245853424072265625 3.8229224681854248047 3.5105495452880859375 4.2004847526550292969 3.3406713008880615234 3.5618021488189697266 3.1367316246032714844 3.7307512760162353516 3.7292957305908203125 3.3078243732452392578 3.5409998893737792969 2.7848362922668457031 2.7478251457214355469 2.9339725971221923828 2.7795224189758300781 2.4229085445404052734 2.0487940311431884766 1.9137214422225952148 1.0006927251815795898 3.0443923473358154297 1 2.3444638252258300781 2.4155642986297607422 2.2552280426025390625 2.9147391319274902344 2.7625114917755126953 2.7288472652435302734 3.0675411224365234375 2.2262756824493408203 2.3921420574188232422 2.6038839817047119141 2.6099107265472412109 2.5374281406402587891 2.651866912841796875 2.5606451034545898438 2.9502339363098144531 3.2974855899810791016 3.6259927749633789063 3.1133084297180175781 2.9704606533050537109 1.9017739295959472656 2.5139834880828857422 1.8890206813812255859 1.9247974157333374023 1.9064459800720214844 1.7939903736114501953 1.5511481761932373047 3.0860590934753417969 1.6303691864013671875 3.2737407684326171875 3.1963958740234375 2.5549962520599365234 2.7529494762420654297 2.1445486545562744141 
