ncols        200
nrows        200
xllcorner    -0.000000000000
yllcorner    0.000000000000
cellsize     1.000000000000
NODATA_value nan
3.0860524177551269531 2.87499237060546875 2.6890139579772949219 3.5397586822509765625 3.4614217281341552734 3.1130785942077636719 2.5948119163513183594 2.5420515537261962891 2.0317332744598388672 2.2048075199127197266 2.2062971591949462891 2.5339610576629638672 2.5401372909545898438 2.6858773231506347656 2.8098912239074707031 2.5538363456726074219 3.2116196155548095703 3.5425333976745605469 2.8273901939392089844 2.3318510055541992188 2.5280399322509765625 2.1957347393035888672 2.8927066326141357422 2.6767365932464599609 2.6660051345825195313 2.4082252979278564453 2.8298826217651367188 3.8107461929321289063 3.3384754657745361328 2.9722528457641601563 3.0360877513885498047 2.3884930610656738281 2.7357263565063476563 1.6879451274871826172 1.502573847770690918 1.576708674430847168 1.6361603736877441406 1.1488279104232788086 1.2585227489471435547 1.3536111116409301758 1.3102476596832275391 1.440338134765625 1.6985385417938232422 1.9123235940933227539 2.0825836658477783203 2.5533101558685302734 1.9428751468658447266 2.3304533958435058594 1.8803244829177856445 2.0259976387023925781 2.0978047847747802734 2.0071301460266113281 1.901385188102722168 1.4800242185592651367 1.0863605737686157227 1.04718017578125 1.2184146642684936523 1.2379121780395507813 1.7221170663833618164 1.6227943897247314453 1.436388850212097168 1.5667512416839599609 1.3969746828079223633 1.3102476596832275391 1.2700076103210449219 1.0837826728820800781 1.1711549758911132813 1.6691575050354003906 1.0404191017150878906 1.2578819990158081055 1.0285193920135498047 1.2362002134323120117 1.2667603492736816406 1.2578819990158081055 1.0844278335571289063 1.0293710231781005859 1.2117735147476196289 1.2495521306991577148 1.416510462760925293 1.972043156623840332 1.5373166799545288086 2.0919067859649658203 2.0560002326965332031 1.8005993366241455078 2.3566155433654785156 2.0586142539978027344 1.6989269256591796875 1.3959596157073974609 2.0152146816253662109 2.8296155929565429688 3.0489473342895507813 3.3297896385192871094 2.6011536121368408203 3.00099945068359375 2.1477253437042236328 2.1896805763244628906 2.64528656005859375 2.4269874095916748047 1.8649414777755737305 1.5360673666000366211 1.5671668052673339844 1.7513072490692138672 1.8224902153015136719 2.0806050300598144531 2.2977416515350341797 2.0484342575073242188 2.3010065555572509766 2.0759084224700927734 2.1999597549438476563 2.6289303302764892578 2.4297571182250976563 2.1748247146606445313 2.0623500347137451172 2.5149545669555664063 2.1682136058807373047 1.8803117275238037109 1.1494731903076171875 1.2267613410949707031 1.9551284313201904297 1.5526207685470581055 1.5537588596343994141 2.173004150390625 1.9574592113494873047 2.1187577247619628906 2.1794362068176269531 1.8020558357238769531 2.6552076339721679688 2.1899266242980957031 2.3753299713134765625 2.5055758953094482422 2.4235672950744628906 2.7322392463684082031 2.2738473415374755859 2.6496999263763427734 2.7455453872680664063 2.2715404033660888672 2.4641287326812744141 1.8960754871368408203 1.3409315347671508789 1.2396227121353149414 1.1843054294586181641 1.4731247425079345703 1.3842949867248535156 1.3102476596832275391 1.0615400075912475586 1.0193825960159301758 1.6600682735443115234 1.0812047719955444336 1.2955501079559326172 3.9627170562744140625 3.9627170562744140625 2.2552065849304199219 1.9108177423477172852 1.0203218460083007813 1.5671200752258300781 1.0229876041412353516 2.1344089508056640625 1.5630494356155395508 1.1277914047241210938 1.1277914047241210938 1.1076474189758300781 1.1028864383697509766 2.4689557552337646484 1.2311228513717651367 1.0087381601333618164 2.2016704082489013672 1.2955501079559326172 1.0115746259689331055 1.301726222038269043 1.3518837690353393555 1.0812047719955444336 1.1028864383697509766 1.0378412008285522461 1.0844278335571289063 1.3590848445892333984 1.9041965007781982422 1.0336509943008422852 1.2362002134323120117 1.0621008872985839844 1.0404191017150878906 1.0426037311553955078 1.2815175056457519531 1.3906348943710327148 1.3842949867248535156 2.0657145977020263672 2.2060971260070800781 2.0435855388641357422 1.9625642299652099609 2.8422262668609619141 2.3606920242309570313 2.8805124759674072266 2.9080705642700195313 3.6307473182678222656 5.2769794464111328125 5.0423917770385742188 5.522441864013671875 4.890228271484375 4.0505495071411132813 3.9572312831878662109 3.6152322292327880859 
2.6530106067657470703 2.8916890621185302734 2.9955425262451171875 3.443096160888671875 3.3666350841522216797 3.1542496681213378906 2.7880177497863769531 3.3295788764953613281 2.5530652999877929688 2.0024740695953369141 2.2773900032043457031 2.6867988109588623047 2.5091402530670166016 2.4165558815002441406 2.5957288742065429688 2.9015192985534667969 2.7970328330993652344 2.6544864177703857422 2.2694559097290039063 2.8799712657928466797 2.7270388603210449219 2.6737091541290283203 2.1994364261627197266 2.2415661811828613281 2.8161692619323730469 3.0064425468444824219 2.8153314590454101563 3.3432512283325195313 3.3213510513305664063 3.1242213249206542969 3.0504715442657470703 3.1186909675598144531 2.0634856224060058594 2.2135915756225585938 1.8194458484649658203 2.1070954799652099609 1.7784370183944702148 1.2973061800003051758 1.6266632080078125 1.4123165607452392578 1.5360673666000366211 1.2535347938537597656 1.3741736412048339844 1.6101148128509521484 1.9518020153045654297 2.2366464138031005859 2.4410035610198974609 2.2079591751098632813 2.1459221839904785156 1.8304957151412963867 2.0632812976837158203 1.9312139749526977539 1.792570948600769043 1.5794308185577392578 1.6691455841064453125 1.2000373601913452148 1.5884330272674560547 1.5514092445373535156 1.2885658740997314453 1.1080422401428222656 1.0435590744018554688 1.3969746828079223633 1.0418485403060913086 1 1.1277914047241210938 1 1.9041965007781982422 1.0605514049530029297 1.0809464454650878906 1.1494731903076171875 1.1494731903076171875 1.1928366422653198242 1.1494731903076171875 1.0285193920135498047 1.1801570653915405273 1 1.214518427848815918 1.3012454509735107422 1.2916438579559326172 1.5899882316589355469 1.8292535543441772461 1.8328262567520141602 1.7752976417541503906 1.8966050148010253906 1.6776355504989624023 1.9829212427139282227 1.3758808374404907227 1.1750253438949584961 1.9564207792282104492 2.0197746753692626953 2.3852553367614746094 3.2557232379913330078 2.9943571090698242188 3.0660157203674316406 2.6886312961578369141 2.0758886337280273438 2.3091106414794921875 1.4842256307601928711 1.4179893732070922852 1.4927037954330444336 1.4543981552124023438 1.2165400981903076172 1.3418669700622558594 1.9823442697525024414 1.8662700653076171875 1.8269567489624023438 2.2565979957580566406 2.3653213977813720703 2.3796689510345458984 2.3616576194763183594 2.0686740875244140625 2.6343431472778320313 3.3201861381530761719 2.3182694911956787109 1.7917215824127197266 1.8418977260589599609 1.2906060218811035156 1.7977554798126220703 2.1519117355346679688 1.6731170415878295898 1.9111492633819580078 1.6558049917221069336 1.6275572776794433594 1.3746279478073120117 2.3598852157592773438 2.5219211578369140625 2.3151543140411376953 3.2492334842681884766 2.5226676464080810547 2.4253482818603515625 2.0477168560028076172 2.4692943096160888672 2.3309552669525146484 2.7814047336578369141 2.8077249526977539063 2.6991896629333496094 2.3964798450469970703 2.1937222480773925781 2.5430655479431152344 1.3936357498168945313 1.3969746828079223633 1.3114573955535888672 1.4123165607452392578 1.1928366422653198242 1.0690859556198120117 1.0378412008285522461 1.0378412008285522461 1.1245682239532470703 1.0203218460083007813 1.4565182924270629883 1.2621108293533325195 2.6321852207183837891 2.4689557552337646484 3.9627170562744140625 1.301726222038269043 2.2552065849304199219 1.3612657785415649414 1.9041965007781982422 1.0049611330032348633 1.0135469436645507813 1.1245682239532470703 1.0595229864120483398 1.2955501079559326172 1.0203218460083007813 2.8004152774810791016 3.0418324470520019531 1.0378412008285522461 1.0711750984191894531 1.6600682735443115234 1.0627461671829223633 1 1.0595229864120483398 1.1245682239532470703 1.0844278335571289063 1.2454694509506225586 1.0844278335571289063 1.0812047719955444336 1.2040957212448120117 1.9041965007781982422 1.3612657785415649414 1.16054534912109375 1.5929547548294067383 1.9614381790161132813 1.8714941740036010742 1.7270376682281494141 2.022796630859375 1.6968418359756469727 2.4260747432708740234 2.6141626834869384766 3.0598261356353759766 2.8473236560821533203 3.6636343002319335938 3.9145998954772949219 4.3213682174682617188 5.7956147193908691406 5.4942126274108886719 4.59514617919921875 4.4863910675048828125 3.8336350917816162109 3.9993300437927246094 
2.4118368625640869141 2.5465497970581054688 3.1989448070526123047 3.156894683837890625 2.9733617305755615234 3.5375156402587890625 3.6541981697082519531 3.4004085063934326172 2.7385721206665039063 2.3796620368957519531 2.1240861415863037109 2.3905913829803466797 2.4796304702758789063 2.2414698600769042969 2.4836244583129882813 2.3137493133544921875 2.5219533443450927734 2.0434966087341308594 1.6609504222869873047 2.2213606834411621094 2.2536683082580566406 2.3931918144226074219 2.4188492298126220703 2.2194035053253173828 2.4617488384246826172 2.4754779338836669922 2.5596482753753662109 2.9983243942260742188 3.2071504592895507813 2.9974429607391357422 2.8629579544067382813 2.0072829723358154297 1.8977806568145751953 2.1496651172637939453 2.1010379791259765625 2.0906393527984619141 1.8305354118347167969 1.5804234743118286133 1.4258228540420532227 1.3906348943710327148 1.5667512416839599609 1.7293916940689086914 1.4663459062576293945 1.7006392478942871094 1.9009797573089599609 2.4229485988616943359 2.5858490467071533203 2.2911679744720458984 1.8142527341842651367 1.9173353910446166992 1.6703103780746459961 1.2326970100402832031 2.3434834480285644531 1.5887311697006225586 2.3642930984497070313 1.3210752010345458984 1.6968418359756469727 1.5450694561004638672 1.0889384746551513672 1.1801570653915405273 1.2518036365509033203 1.0530669689178466797 1.031940460205078125 1.9041965007781982422 1.0336509943008422852 1.0285193920135498047 1.0812047719955444336 1.1028864383697509766 1.301726222038269043 1.0627461671829223633 1.0837826728820800781 1 1.0406931638717651367 1.2957750558853149414 1.3540925979614257813 1.1028864383697509766 1.0595229864120483398 1.1028864383697509766 1.214518427848815918 1.2603366374969482422 1.9041965007781982422 1.2795636653900146484 1.6734881401062011719 1.3662321567535400391 1.4003301858901977539 1.7224981784820556641 1.5246795415878295898 1.3261616230010986328 1.9350873231887817383 1.893612980842590332 2.0304729938507080078 2.1689736843109130859 2.6283283233642578125 2.7083191871643066406 2.5993382930755615234 2.1106977462768554688 2.1035695075988769531 1.6513936519622802734 1.6047880649566650391 1.6315197944641113281 1.4351400136947631836 1.5771727561950683594 1.5525308847427368164 1.701704859733581543 2.2489597797393798828 2.2800228595733642578 2.5729019641876220703 2.3633077144622802734 2.394420623779296875 2.4919176101684570313 2.3993666172027587891 2.3935158252716064453 2.7707102298736572266 2.8062741756439208984 2.3400378227233886719 1.7618829011917114258 2.0226256847381591797 2.5017354488372802734 2.2251577377319335938 2.1390163898468017578 2.2887866497039794922 2.0752823352813720703 1.8676801919937133789 1.8236664533615112305 1.8183902502059936523 2.0215353965759277344 2.6496484279632568359 2.4586164951324462891 2.1130971908569335938 2.4385726451873779297 2.6385607719421386719 2.7580339908599853516 2.1561951637268066406 2.8603205680847167969 2.4254825115203857422 2.6926450729370117188 2.486175537109375 2.157684326171875 2.5368404388427734375 2.2547426223754882813 2.031314849853515625 1.4644576311111450195 1.2700076103210449219 1.0837826728820800781 1.0535526275634765625 1.0812047719955444336 1.6868594884872436523 1.0595229864120483398 2.4689557552337646484 3.9627170562744140625 1.100308537483215332 1.5903766155242919922 1.1219903230667114258 2.2552065849304199219 2.2552065849304199219 1.0212770700454711914 1.0812047719955444336 1.1245682239532470703 1.1245682239532470703 1.1028864383697509766 1.0812047719955444336 1 1.0303750038146972656 3.6012563705444335938 1.0087381601333618164 1.2955501079559326172 1.9122374057769775391 1.0378412008285522461 1.0812047719955444336 1.301726222038269043 1.0049611330032348633 1.0378412008285522461 1.0212770700454711914 1.0595229864120483398 1.1425814628601074219 1.9041965007781982422 1.3540925979614257813 1.0378412008285522461 1.0049611330032348633 1.1711549758911132813 1.0187373161315917969 1.3460612297058105469 2.1394374370574951172 2.63655853271484375 2.4209411144256591797 1.4993944168090820313 1.9174340963363647461 2.5653557777404785156 2.5621674060821533203 3.0552842617034912109 4.0393190383911132813 3.9085097312927246094 4.0396509170532226563 4.5950994491577148438 4.8653407096862792969 5.4020724296569824219 5.8373513221740722656 4.9222412109375 3.7816174030303955078 4.1125736236572265625 
2.4267733097076416016 2.5828490257263183594 2.9181754589080810547 2.9513914585113525391 2.5558092594146728516 3.1529450416564941406 3.3632364273071289063 3.3442857265472412109 2.9840211868286132813 2.8112480640411376953 2.3373856544494628906 2.6655623912811279297 2.1540117263793945313 2.0576221942901611328 2.2965416908264160156 2.3974916934967041016 2.7916822433471679688 2.0591158866882324219 2.1734571456909179688 1.8424274921417236328 1.965880274772644043 2.1352100372314453125 2.1359295845031738281 2.2903263568878173828 2.2215421199798583984 1.9449380636215209961 2.7221083641052246094 2.7769603729248046875 2.736354827880859375 2.7579586505889892578 2.0786762237548828125 1.9002832174301147461 2.4240465164184570313 2.4983088970184326172 1.9968663454055786133 1.6856902837753295898 2.2671933174133300781 1.5401357412338256836 1.6070559024810791016 1.521376490592956543 1.3682537078857421875 1.5514092445373535156 1.2379121780395507813 1.6715474128723144531 1.996708989143371582 2.3870453834533691406 2.2552151679992675781 1.9948697090148925781 1.7618870735168457031 1.7058439254760742188 1.2379121780395507813 1.7185235023498535156 1.9482306241989135742 2.3439850807189941406 1.4451632499694824219 1.7121837139129638672 1.6534782648086547852 1.2936983108520507813 1.0391826629638671875 1.214518427848815918 1.1494731903076171875 1.2452023029327392578 1.0016961097717285156 1 1.0346062183380126953 1.0285193920135498047 1.3612657785415649414 1.0595229864120483398 1.5671200752258300781 1.9041965007781982422 1.0812047719955444336 1.1494731903076171875 1.1928366422653198242 1.2957750558853149414 1.0212770700454711914 1.301726222038269043 1.0087381601333618164 1.029074549674987793 1.0050448179244995117 1.0258535146713256836 1.0049611330032348633 1.0844278335571289063 1.1801570653915405273 1.6603604555130004883 1.7324203252792358398 1.7211180925369262695 2.1573214530944824219 1.2810872793197631836 1.9134976863861083984 1.885472416877746582 2.5183429718017578125 2.6278393268585205078 2.2055308818817138672 3.0177564620971679688 3.4106211662292480469 2.5744304656982421875 2.4804773330688476563 2.09417724609375 1.6025882959365844727 1.6909859180450439453 1.532490849494934082 1.3614358901977539063 1.7168879508972167969 2.1783413887023925781 2.2867307662963867188 2.7633309364318847656 2.6110579967498779297 3.1809170246124267578 3.0462288856506347656 3.0223047733306884766 3.0029690265655517578 2.3780112266540527344 2.8034195899963378906 2.4906985759735107422 2.0284717082977294922 1.7638421058654785156 2.1785020828247070313 2.3082005977630615234 2.7692170143127441406 2.8100507259368896484 2.9081215858459472656 2.9277961254119873047 2.5559127330780029297 2.4253556728363037109 2.435260772705078125 2.4861769676208496094 2.4243247509002685547 2.4236197471618652344 2.747528076171875 2.8068068027496337891 2.9154908657073974609 2.4400858879089355469 2.4978806972503662109 2.4163901805877685547 2.6238319873809814453 2.4118289947509765625 3.0188076496124267578 2.0951039791107177734 2.1372518539428710938 2.0257525444030761719 1.440338134765625 1.1155600547790527344 1.3906348943710327148 1.6932330131530761719 1.0017797946929931641 1.6401140689849853516 1.0595229864120483398 1.0303750038146972656 1.1219903230667114258 1.1219903230667114258 1.1219903230667114258 2.2243709564208984375 1.5903766155242919922 1.0352632999420166016 1.1219903230667114258 2.4689557552337646484 1.0151902437210083008 1.1028864383697509766 1.0812047719955444336 1.0595229864120483398 1.9108177423477172852 1.6868594884872436523 1.0812047719955444336 1.1219903230667114258 2.4689557552337646484 1.0812047719955444336 1.9108177423477172852 1.2718182802200317383 1.9041965007781982422 1.0309851169586181641 1.029074549674987793 1.1028864383697509766 1.0043752193450927734 1.0595229864120483398 1.17472076416015625 1.0595229864120483398 2.1344089508056640625 1.0378412008285522461 1.0658519268035888672 1.1865711212158203125 1.4374892711639404297 2.0639858245849609375 2.5352466106414794922 2.4289128780364990234 2.9120550155639648438 2.3303582668304443359 1.8680862188339233398 2.8584933280944824219 3.580108642578125 3.5735082626342773438 4.484813690185546875 4.5895533561706542969 4.7943005561828613281 5.1256346702575683594 6.1765446662902832031 5.7964034080505371094 6.2103447914123535156 4.9936666488647460938 3.6749813556671142578 3.9026000499725341797 
2.5572278499603271484 2.6906316280364990234 2.6080012321472167969 2.7062747478485107422 3.1585452556610107422 3.2996160984039306641 3.5165727138519287109 3.497402191162109375 2.9885888099670410156 2.869213104248046875 2.4885475635528564453 2.7825164794921875 2.0453844070434570313 2.4956154823303222656 2.6841416358947753906 2.4814743995666503906 2.0484051704406738281 1.6499350070953369141 1.7400147914886474609 1.5013948678970336914 1.7676682472229003906 1.5213265419006347656 1.5219581127166748047 1.7535346746444702148 1.9295257329940795898 2.2354207038879394531 2.0558321475982666016 2.4840350151062011719 2.5979738235473632813 2.2678968906402587891 2.5625808238983154297 2.6346809864044189453 2.3159577846527099609 1.9972919225692749023 1.6796362400054931641 1.908087611198425293 2.5034549236297607422 2.3726603984832763672 2.3920025825500488281 1.7205051183700561523 1.7728021144866943359 1.6599732637405395508 1.3221035003662109375 1.6932291984558105469 1.9533454179763793945 2.1919095516204833984 2.3220002651214599609 1.6227943897247314453 1.7555472850799560547 1.4330480098724365234 1.2379121780395507813 1.368002772331237793 1.6968418359756469727 1.558600306510925293 1.7796295881271362305 1.222361445426940918 1.1248074769973754883 1.2959055900573730469 1.0452696084976196289 1.1277914047241210938 1.0621008872985839844 1 1.0837826728820800781 1.0017797946929931641 1.2957750558853149414 1.0035594701766967773 1.9041965007781982422 1.1245682239532470703 2.4689557552337646484 1.1245682239532470703 1.9041965007781982422 1.0812047719955444336 1.0017797946929931641 1.0595229864120483398 2.0106759071350097656 2.5863945484161376953 2.2016704082489013672 3.9627170562744140625 1.301726222038269043 1.1028864383697509766 1.0844278335571289063 1.0127462148666381836 1.1494731903076171875 1.1494731903076171875 1.1271461248397827148 1.289699554443359375 1.6190642118453979492 1.752352595329284668 1.588778376579284668 1.4494376182556152344 2.2025690078735351563 2.1999821662902832031 2.4209337234497070313 1.9349517822265625 2.2332389354705810547 2.1032440662384033203 1.4529968500137329102 1.9197174310684204102 1.7199873924255371094 1.3441593647003173828 1.3788546323776245117 1.6736867427825927734 2.0386784076690673828 1.4552676677703857422 1.9442701339721679688 2.8038783073425292969 3.2339568138122558594 3.6913213729858398438 4.1071214675903320313 3.2686829566955566406 2.8165736198425292969 2.4893844127655029297 2.3349671363830566406 1.8264515399932861328 1.8624113798141479492 1.7881211042404174805 2.2553019523620605469 2.3488686084747314453 2.689540863037109375 2.5714383125305175781 3.2271678447723388672 3.2422945499420166016 2.9308216571807861328 2.6603276729583740234 2.9816255569458007813 2.6235463619232177734 2.4935755729675292969 2.6481175422668457031 3.2292959690093994141 3.7261943817138671875 2.8479592800140380859 3.2222728729248046875 3.1455852985382080078 2.4729521274566650391 2.5279772281646728516 2.5866594314575195313 2.0080010890960693359 1.4942960739135742188 2.1115264892578125 1.4897576570510864258 1.3949141502380371094 1.3588297367095947266 1.3536111116409301758 1.2452023029327392578 1.106109619140625 1.1245682239532470703 2.0106759071350097656 2.5863945484161376953 1.5903766155242919922 2.4689557552337646484 1.7058150768280029297 1.0812047719955444336 1.0595229864120483398 2.2016704082489013672 1.100308537483215332 1.0786268711090087891 1.0029140710830688477 1.0812047719955444336 1.0397378206253051758 1.0378412008285522461 1.0690859556198120117 1.6955621242523193359 1.0812047719955444336 1.9108177423477172852 1.1028864383697509766 1 1.0844278335571289063 2.1344089508056640625 1.1076474189758300781 1.9041965007781982422 1.2856231927871704102 1.0844278335571289063 1.2998311519622802734 1.0309851169586181641 1.4710749387741088867 1.3351978063583374023 1.301726222038269043 1.0303750038146972656 1.0595229864120483398 1.0627461671829223633 1.5068563222885131836 1.6016839742660522461 2.2348718643188476563 2.2092890739440917969 2.335483551025390625 2.3923609256744384766 2.5379068851470947266 2.9801998138427734375 3.4715933799743652344 3.1818776130676269531 3.8575351238250732422 5.1211276054382324219 4.9324707984924316406 5.0503859519958496094 6.4123816490173339844 5.8664965629577636719 5.4478054046630859375 4.3901038169860839844 4.2173104286193847656 3.9176731109619140625 
2.5446262359619140625 2.9466302394866943359 2.5148856639862060547 3.2505202293395996094 3.0466163158416748047 2.8299834728240966797 3.3754889965057373047 2.9964818954467773438 2.9915616512298583984 2.5094580650329589844 2.1977264881134033203 2.3995714187622070313 2.6301217079162597656 2.3320813179016113281 2.52661895751953125 2.9975550174713134766 1.9298590421676635742 1.6394922733306884766 1.6277959346771240234 1.5846154689788818359 1.7358384132385253906 1.6337195634841918945 1.5557653903961181641 1.828061223030090332 2.0849292278289794922 2.1856458187103271484 2.0398304462432861328 2.2563581466674804688 2.34972381591796875 2.1272003650665283203 2.3758952617645263672 2.3880331516265869141 1.9606610536575317383 2.1137080192565917969 2.0660915374755859375 2.0003836154937744141 2.7194671630859375 2.2060346603393554688 2.0822875499725341797 2.0531761646270751953 1.8430008888244628906 2.3516891002655029297 1.6751600503921508789 1.8906934261322021484 2.0401372909545898438 2.1919095516204833984 1.7058439254760742188 1.6101148128509521484 1.1295033693313598633 1.1539837121963500977 1.4113662242889404297 1.5714637041091918945 1.1945487260818481445 1.2454489469528198242 1.5209566354751586914 1.1266762018203735352 1.3409315347671508789 1.0391826629638671875 1.214518427848815918 1.1928366422653198242 1.0336509943008422852 1.1488279104232788086 1.0287194252014160156 1.1494731903076171875 1.1838257312774658203 1.2795636653900146484 1.3540925979614257813 1.106109619140625 1.9041965007781982422 1.9041965007781982422 1.1245682239532470703 1.0595229864120483398 1.0595229864120483398 1.0595229864120483398 1.0087381601333618164 2.6321852207183837891 1.2621108293533325195 1.0087381601333618164 2.4689557552337646484 1.6868594884872436523 1.4710749387741088867 2.1344089508056640625 1.0016961097717285156 1.0346062183380126953 1.0621008872985839844 1.3102476596832275391 1.7287449836730957031 1.3256644010543823242 1.0424036979675292969 1.2813823223114013672 2.2433745861053466797 1.8476148843765258789 1.8646543025970458984 2.0677103996276855469 2.0845742225646972656 1.9078296422958374023 2.1208846569061279297 2.0817093849182128906 1.8223007917404174805 1.5784289836883544922 1.5883758068084716797 1.865581512451171875 1.8550131320953369141 2.0159912109375 2.1680178642272949219 3.0771925449371337891 3.5711827278137207031 3.5149178504943847656 3.1551427841186523438 3.0355541706085205078 2.677005767822265625 2.4727704524993896484 2.0561749935150146484 1.9676202535629272461 1.694529414176940918 2.3534841537475585938 2.7888026237487792969 2.5323996543884277344 2.3241598606109619141 2.4572379589080810547 2.9687089920043945313 2.7374849319458007813 2.9485373497009277344 2.8473699092864990234 3.0123567581176757813 2.6134722232818603516 2.5305368900299072266 2.8210685253143310547 3.2041366100311279297 3.4351696968078613281 3.2253038883209228516 3.4537622928619384766 3.2616858482360839844 2.7450125217437744141 2.4860062599182128906 2.0897769927978515625 2.1221823692321777344 1.782450556755065918 1.7998334169387817383 1.7282756567001342773 1.6808757781982421875 1.3183079957962036133 1.3630806207656860352 1.1072480678558349609 1.2362002134323120117 1.0690859556198120117 1.0203218460083007813 1.0595229864120483398 1.0007755756378173828 1.301726222038269043 1.0595229864120483398 1.2726421356201171875 1 1.0378412008285522461 1.301726222038269043 1.2955501079559326172 2.2016704082489013672 1.9542856216430664063 1.106109619140625 1.0605514049530029297 1.1054643392562866211 1.106109619140625 2.1344089508056640625 2.1344089508056640625 1.9041965007781982422 1.1928366422653198242 1.1711549758911132813 1.1054643392562866211 1.1928366422653198242 1.1338173151016235352 1.9041965007781982422 1.0309851169586181641 1.2300459146499633789 1.044114232063293457 1.0621008872985839844 1.0907677412033081055 1.1245682239532470703 1.0151902437210083008 1.0364993810653686523 1.1724939346313476563 1.6650639772415161133 1.7572666406631469727 1.9763659238815307617 2.7327241897583007813 1.950818181037902832 1.9412064552307128906 2.7266938686370849609 3.0622515678405761719 3.5437533855438232422 3.4101102352142333984 3.8496227264404296875 5.0305757522583007813 5.7696781158447265625 5.8113622665405273438 5.788600921630859375 4.6813573837280273438 4.62467193603515625 4.2482943534851074219 3.9297742843627929688 3.4941191673278808594 
2.6873209476470947266 2.6119098663330078125 2.7183432579040527344 2.8997037410736083984 3.3682525157928466797 3.4686739444732666016 3.0777382850646972656 2.5979549884796142578 2.5562741756439208984 2.1461083889007568359 2.5191941261291503906 3.01222991943359375 2.9772107601165771484 2.9150242805480957031 2.3895168304443359375 2.7861506938934326172 1.8329493999481201172 2.1218478679656982422 1.6936134099960327148 1.8997983932495117188 1.6005275249481201172 1.5328800678253173828 1.7692681550979614258 1.8857156038284301758 2.1837027072906494141 2.5598628520965576172 2.3643565177917480469 2.1490077972412109375 2.3942556381225585938 2.6114661693572998047 2.3412988185882568359 2.7904820442199707031 2.2731683254241943359 2.1095271110534667969 2.0316638946533203125 1.9447180032730102539 2.2909870147705078125 2.2186348438262939453 1.9019944667816162109 1.9176310300827026367 2.1112909317016601563 2.2823178768157958984 2.2917394638061523438 2.5515248775482177734 1.8576163053512573242 1.8883650302886962891 1.7555472850799560547 1.3246392011642456055 1.1728669404983520508 1.1078215837478637695 1.1758636236190795898 1.0576434135437011719 1.0863605737686157227 1.0508012771606445313 1.5051681995391845703 1.3725373744964599609 1.0213152170181274414 1.0452696084976196289 1.2298604249954223633 1.1928366422653198242 1.0690859556198120117 1.1028864383697509766 1.0187373161315917969 1.2603366374969482422 1.1054643392562866211 1.4710749387741088867 1 1.9041965007781982422 2.4801437854766845703 1.2957750558853149414 1.0627461671829223633 1.0303750038146972656 1.6868594884872436523 1.0812047719955444336 1.0151902437210083008 1.5903766155242919922 1.1219903230667114258 2.5863945484161376953 3.9627170562744140625 2.1164593696594238281 1.0303750038146972656 1.0151902437210083008 1.1028864383697509766 1.9041965007781982422 1.0954647064208984375 1.34691619873046875 1.2987235784530639648 1.3230477571487426758 1.7054418325424194336 1.6315389871597290039 1.7570666074752807617 1.3287833929061889648 1.3151974678039550781 1.7951667308807373047 2.2038886547088623047 1.9062337875366210938 2.1207523345947265625 1.1538488864898681641 1.6691575050354003906 1.7589038610458374023 1.9163795709609985352 1.7390831708908081055 1.8038908243179321289 1.9404931068420410156 2.2963173389434814453 2.4664673805236816406 3.1357395648956298828 3.4778754711151123047 2.9295365810394287109 3.1631500720977783203 2.9492139816284179688 2.8680019378662109375 2.3531575202941894531 1.8102484941482543945 2.2811925411224365234 2.4981293678283691406 2.5722074508666992188 2.2456157207489013672 2.3213803768157958984 2.3382411003112792969 2.6130836009979248047 3.0645196437835693359 2.9664177894592285156 2.4219317436218261719 2.7556598186492919922 2.6052536964416503906 2.6077177524566650391 2.9488024711608886719 3.4947409629821777344 3.4595589637756347656 2.6994531154632568359 2.5216882228851318359 2.5742897987365722656 2.5563497543334960938 2.3257086277008056641 1.6995941400527954102 1.7525287866592407227 1.5420348644256591797 1.8523304462432861328 2.0385503768920898438 1.4122921228408813477 1.3752928972244262695 1.1801570653915405273 1.2468433380126953125 1.1054643392562866211 1.1096309423446655273 1.1245682239532470703 1.0812047719955444336 1.0007755756378173828 1.0595229864120483398 1.0309851169586181641 2.1344089508056640625 1.9041965007781982422 1.0595229864120483398 1.3183530569076538086 2.1164593696594238281 2.4689557552337646484 1.0595229864120483398 1.0187373161315917969 1.0867646932601928711 1.0435590744018554688 1.0418485403060913086 1.1494731903076171875 1.0053795576095581055 1.0627461671829223633 1.0621008872985839844 1.2668840885162353516 1.3102476596832275391 1.2402813434600830078 1.0229498147964477539 1.9041965007781982422 1.1076474189758300781 1.0966179370880126953 1.5630494356155395508 1.9041965007781982422 1.2081168889999389648 1.1369707584381103516 1.9041965007781982422 1.0258370637893676758 1.384226679801940918 1.8498710393905639648 1.8338322639465332031 2.0398583412170410156 1.8257858753204345703 1.6418896913528442383 1.8444358110427856445 2.6306333541870117188 3.3717145919799804688 2.9811942577362060547 3.5181128978729248047 3.9645168781280517578 5.0269002914428710938 5.5106878280639648438 5.5749869346618652344 5.3403482437133789063 5.0742239952087402344 4.3016223907470703125 4.1133065223693847656 3.6112170219421386719 3.4337644577026367188 
2.9780375957489013672 3.2552950382232666016 2.9435815811157226563 3.0193994045257568359 3.4749813079833984375 3.1751029491424560547 3.1649785041809082031 2.9625794887542724609 2.6397569179534912109 2.2511508464813232422 2.4277424812316894531 2.6204996109008789063 2.5231456756591796875 2.3276653289794921875 2.3331928253173828125 1.9089434146881103516 1.8015980720520019531 1.5070009231567382813 1.9215092658996582031 1.5256454944610595703 1.8200250864028930664 1.7928469181060791016 1.5412209033966064453 1.7627271413803100586 2.0374169349670410156 1.7914645671844482422 2.6475007534027099609 2.4478232860565185547 2.5285589694976806641 2.4344923496246337891 2.3908443450927734375 3.0426862239837646484 2.6753361225128173828 2.1389341354370117188 2.3635990619659423828 2.3159723281860351563 2.3048684597015380859 2.2369730472564697266 2.2587513923645019531 2.2877943515777587891 2.4156370162963867188 1.9341101646423339844 1.9685369729995727539 2.1398758888244628906 1.8859134912490844727 2.1919095516204833984 1.8666832447052001953 1.8883650302886962891 1.5884330272674560547 1.5667512416839599609 1.1728669404983520508 1.4276585578918457031 1.3906348943710327148 1.440338134765625 1.084445953369140625 1.0646787881851196289 1.2300459146499633789 1.2298604249954223633 1.2578819990158081055 1.4710749387741088867 1.0812047719955444336 1.1028864383697509766 1.0187373161315917969 1.9041965007781982422 1.1245682239532470703 1.0050448179244995117 1.0397378206253051758 1.1028864383697509766 1.0404191017150878906 1.0844278335571289063 1.0050448179244995117 2.4689557552337646484 1.0844278335571289063 1.3612657785415649414 1.0193825960159301758 2.5863945484161376953 3.9627170562744140625 1.9793697595596313477 3.9627170562744140625 4.4223074913024902344 1.0087381601333618164 2.8004152774810791016 1.9185056686401367188 1.106109619140625 1.1441249847412109375 1.1711549758911132813 1.0846209526062011719 1.5950250625610351563 1.5167164802551269531 1.6831744909286499023 1.7478255033493041992 1.5214554071426391602 1.4718927145004272461 1.568186640739440918 1.6955621242523193359 2.7689762115478515625 1.9791154861450195313 1.7366731166839599609 1.1028864383697509766 1.4253984689712524414 1.0016961097717285156 1.5486313104629516602 1.8997637033462524414 2.0854752063751220703 2.4088051319122314453 3.2435901165008544922 2.5225811004638671875 2.6079769134521484375 2.9095668792724609375 3.5672643184661865234 3.2110617160797119141 2.8150999546051025391 3.4572389125823974609 2.7442607879638671875 2.747234344482421875 2.7158532142639160156 2.2158935070037841797 2.3394918441772460938 2.3696722984313964844 2.7672941684722900391 2.6761443614959716797 3.0098929405212402344 3.2638204097747802734 2.4644234180450439453 3.0116274356842041016 3.1261572837829589844 3.0006737709045410156 2.2412374019622802734 3.0928504467010498047 3.1524732112884521484 3.0114979743957519531 2.4946200847625732422 3.0542204380035400391 2.7015857696533203125 2.2271800041198730469 2.1491954326629638672 2.6241054534912109375 2.1372735500335693359 2.1809279918670654297 1.5897775888442993164 1.6526125669479370117 1.4975576400756835938 1.4089899063110351563 1.0027004480361938477 1.0187373161315917969 1.0535526275634765625 1.0053795576095581055 1.1028864383697509766 1.0303750038146972656 2.4689557552337646484 1.1028864383697509766 1.0595229864120483398 1.1462500095367431641 1.0303750038146972656 1.0595229864120483398 1.6003824472427368164 2.4515626430511474609 1.1245682239532470703 1.2795636653900146484 1.4676939249038696289 1.0426037311553955078 1.3626133203506469727 1.0041230916976928711 1.0435590744018554688 1.0141685009002685547 1.0863605737686157227 1.440338134765625 1.4276585578918457031 1.3925815820693969727 1.0285193920135498047 1.1076474189758300781 1.2018388509750366211 1.3752928972244262695 1.3770625591278076172 1.127640843391418457 1.0845353603363037109 1.3942191600799560547 1.4303461313247680664 1.2155640125274658203 1.4273027181625366211 1.2527017593383789063 1.9515027999877929688 2.0863244533538818359 1.4152938127517700195 2.0334033966064453125 2.366626739501953125 2.7997124195098876953 3.5221149921417236328 3.1026482582092285156 3.8127503395080566406 4.2588090896606445313 5.0092515945434570313 4.735820770263671875 5.3313379287719726563 5.1041960716247558594 4.3977599143981933594 3.9563937187194824219 4.1663522720336914063 3.3429586887359619141 3.9257614612579345703 
3.205463409423828125 3.0744917392730712891 3.4521012306213378906 2.8745229244232177734 3.4421837329864501953 3.4656629562377929688 3.0380532741546630859 2.7164723873138427734 3.1075243949890136719 2.5894773006439208984 2.2863678932189941406 2.3418836593627929688 2.5827744007110595703 2.3207333087921142578 2.3489999771118164063 1.6969552040100097656 1.7400696277618408203 1.2277712821960449219 1.7371827363967895508 1.7551920413970947266 1.563397526741027832 1.8027175664901733398 1.7943861484527587891 1.8641915321350097656 2.0065867900848388672 1.9334800243377685547 2.0752618312835693359 2.677265167236328125 2.5962677001953125 2.2828829288482666016 2.8269455432891845703 3.3029551506042480469 2.7676336765289306641 2.5286018848419189453 2.4148268699645996094 2.3957953453063964844 2.8758480548858642578 2.0178372859954833984 2.4435057640075683594 2.3646533489227294922 2.2345373630523681641 1.9155865907669067383 1.9817154407501220703 2.2554299831390380859 3.0149903297424316406 2.4775686264038085938 1.996773838996887207 2.1195456981658935547 1.3575551509857177734 1.5794308185577392578 1.4493403434753417969 1.3969746828079223633 1.1559113264083862305 1.0490907430648803711 1.440338134765625 1.0365169048309326172 1.2235205173492431641 1.0404191017150878906 1.1711549758911132813 1.9041965007781982422 1.0309851169586181641 1.0595229864120483398 1.1462500095367431641 1.0050448179244995117 1.0812047719955444336 1.0084770917892456055 1.9041965007781982422 1.0844278335571289063 1.0309851169586181641 1.3319919109344482422 1.0595229864120483398 1.0378412008285522461 1.0309851169586181641 1.0404191017150878906 1.0595229864120483398 2.4689557552337646484 1.2311228513717651367 1.1219903230667114258 1.029074549674987793 2.3271169662475585938 1.7343676090240478516 2.6321852207183837891 1.0151902437210083008 1.0378412008285522461 1.0187373161315917969 1.1928366422653198242 1.3183530569076538086 1.0391826629638671875 1.1726553440093994141 1.5895584821701049805 1.2565996646881103516 1.4076454639434814453 1.4169142246246337891 1.0984636545181274414 1.163659214973449707 1.9122374057769775391 1.6347177028656005859 1.1376270055770874023 1.3214460611343383789 1.4471685886383056641 2.2151329517364501953 1.5812560319900512695 1.9390491247177124023 2.1230053901672363281 2.1127734184265136719 2.6231894493103027344 3.0623507499694824219 2.9833626747131347656 3.3031687736511230469 3.3109028339385986328 3.2040715217590332031 2.8489396572113037109 2.8821148872375488281 3.1432857513427734375 2.9328927993774414063 3.3188431262969970703 2.9809067249298095703 2.4954895973205566406 2.9591958522796630859 2.5801031589508056641 2.9111092090606689453 3.3244948387145996094 3.0664854049682617188 2.8351447582244873047 2.6445760726928710938 2.5122218132019042969 2.6645436286926269531 3.1788973808288574219 3.2736945152282714844 3.2185738086700439453 3.0510301589965820313 2.7655537128448486328 2.4461154937744140625 2.3505780696868896484 2.2248058319091796875 2.2031939029693603516 2.7201557159423828125 2.4041116237640380859 2.4252631664276123047 2.3749635219573974609 1.5683828592300415039 1.6244678497314453125 1.2450127601623535156 1.3102476596832275391 1.106109619140625 1.0574277639389038086 1.0248982906341552734 1.6756902933120727539 1.9108177423477172852 1.0812047719955444336 1.0844278335571289063 1.9041965007781982422 1.3540925979614257813 1.0336509943008422852 1.4162453413009643555 1.0258535146713256836 1.1928366422653198242 1.2452023029327392578 1.2885658740997314453 1.2362002134323120117 1.4276585578918457031 1.5360673666000366211 1.1945487260818481445 1.0045496225357055664 1.2515420913696289063 1.3626133203506469727 1.0429970026016235352 1.7100369930267333984 1.5078794956207275391 1.0027841329574584961 1.3102476596832275391 1.4859114885330200195 1.6187894344329833984 1.5632547140121459961 2.0274531841278076172 1.4437289237976074219 1.3969746828079223633 1.4559030532836914063 1.4571971893310546875 1.7908990383148193359 2.1344089508056640625 1.411234736442565918 1.9329395294189453125 1.8796107769012451172 1.8539615869522094727 1.8833119869232177734 2.3666870594024658203 3.0397017002105712891 3.1247651576995849609 3.4397780895233154297 4.4240016937255859375 4.922962188720703125 4.6372914314270019531 4.8130474090576171875 5.3549818992614746094 4.6627383232116699219 3.9382202625274658203 3.5173881053924560547 4.007633209228515625 3.711750030517578125 
3.4580953121185302734 3.5285503864288330078 3.4389564990997314453 3.2993328571319580078 3.5929386615753173828 3.150630950927734375 2.9917016029357910156 2.9502105712890625 2.8554122447967529297 2.574123382568359375 1.872723698616027832 2.6129693984985351563 2.7168691158294677734 2.5969355106353759766 1.8908650875091552734 1.5779095888137817383 1.6697009801864624023 1.3779060840606689453 1.3630318641662597656 1.6098920106887817383 1.6162018775939941406 1.1711549758911132813 1.5051016807556152344 1.6452809572219848633 1.5843150615692138672 2.1218798160552978516 2.0955102443695068359 2.3700520992279052734 2.7250294685363769531 2.3967561721801757813 2.3125319480895996094 2.5822021961212158203 2.8312528133392333984 2.6724703311920166016 2.4860448837280273438 2.6742007732391357422 2.6146571636199951172 2.1026010513305664063 2.0877709388732910156 2.2892315387725830078 2.20406341552734375 1.6948599815368652344 2.4036819934844970703 2.89373779296875 3.0075724124908447266 2.4612269401550292969 2.0279474258422851563 1.3896845579147338867 1.3246392011642456055 1.3409315347671508789 1.4123165607452392578 1.4123165607452392578 1.1078215837478637695 1.0009224414825439453 1.2795636653900146484 1.2452023029327392578 1.1711549758911132813 1.214518427848815918 1.0287194252014160156 1.8689830303192138672 1.1028864383697509766 1.6691575050354003906 1.0535526275634765625 1.214518427848815918 1.1928366422653198242 1.106109619140625 1.9041965007781982422 1.0844278335571289063 1.0285193920135498047 1.5703603029251098633 1.5671200752258300781 2.2552065849304199219 1.9108177423477172852 2.3019168376922607422 3.6012563705444335938 1.0786268711090087891 1.0352632999420166016 2.8177235126495361328 1.0203218460083007813 1.0786268711090087891 1.2621108293533325195 1.1219903230667114258 2.6321852207183837891 1.0378412008285522461 1.2955501079559326172 2.1164593696594238281 1.0378412008285522461 1.1928366422653198242 1.0404191017150878906 1.2578819990158081055 1.2550088167190551758 1.408962249755859375 1.7892693281173706055 1.190262913703918457 1.4269084930419921875 1.1640428304672241211 2.3418080806732177734 3.0418324470520019531 1.3191199302673339844 1.9122374057769775391 1.6639297008514404297 1.85155487060546875 2.2011547088623046875 2.0224034786224365234 2.2711925506591796875 2.3811662197113037109 2.7624628543853759766 3.5049104690551757813 3.3163840770721435547 3.1676912307739257813 2.8552801609039306641 2.4365620613098144531 3.0934808254241943359 2.9709177017211914063 2.8909955024719238281 2.2997369766235351563 2.886386871337890625 2.8039410114288330078 2.5144717693328857422 2.3719213008880615234 3.3920812606811523438 2.8513512611389160156 3.3705892562866210938 2.5314099788665771484 3.1902403831481933594 2.3961107730865478516 2.8755433559417724609 2.1310329437255859375 2.7983176708221435547 2.9638760089874267578 3.0662660598754882813 2.1056487560272216797 2.0749638080596923828 1.9947415590286254883 1.6666443347930908203 2.223846435546875 2.0420367717742919922 1.9191660881042480469 2.3111102581024169922 1.5479036569595336914 1.4710220098495483398 1.3192497491836547852 1.0126281976699829102 1.2235205173492431641 1.1076474189758300781 1.1928366422653198242 1.2362002134323120117 1.9041965007781982422 1.1711549758911132813 1.106109619140625 1.1711549758911132813 1.2578819990158081055 1.1076474189758300781 1.5630494356155395508 1.1076474189758300781 1.0844278335571289063 1.2578819990158081055 1.0863605737686157227 1.2885658740997314453 1 1.4059767723083496094 1.0508012771606445313 1.6317964792251586914 1.5947728157043457031 1.4493403434753417969 1.1539837121963500977 1.3539834022521972656 1.3463209867477416992 1.4678411483764648438 1.4222302436828613281 1.4601114988327026367 1.3385615348815917969 1.5619187355041503906 1.9600138664245605469 1.7537093162536621094 1.6451767683029174805 1.6083501577377319336 2.0909323692321777344 1.8726211786270141602 1.8001466989517211914 1.8801903724670410156 1.8689830303192138672 2.1314122676849365234 1.7752735614776611328 2.1291043758392333984 2.4812445640563964844 2.6693296432495117188 3.2517795562744140625 3.4475915431976318359 3.1792447566986083984 3.7816121578216552734 4.5362935066223144531 4.7852954864501953125 4.5938735008239746094 4.2306623458862304688 4.54314422607421875 4.6631178855895996094 3.8696789741516113281 3.9658644199371337891 5.0587797164916992188 
3.8790132999420166016 4.1569232940673828125 3.8501224517822265625 3.8143038749694824219 4.1313605308532714844 3.6206700801849365234 3.0006148815155029297 3.2916269302368164063 3.0298583507537841797 2.5730979442596435547 1.8942334651947021484 2.0681586265563964844 2.0391447544097900391 2.1872961521148681641 1.7723816633224487305 1.6040585041046142578 1.9041965007781982422 1.697727203369140625 1.5892455577850341797 1.6955553293228149414 2.1234526634216308594 1.531894683837890625 1.7192592620849609375 1.5596801042556762695 1.6319521665573120117 1.9778714179992675781 2.3709585666656494141 2.3673911094665527344 2.4569132328033447266 2.0300846099853515625 2.1902811527252197266 2.3265812397003173828 2.2843387126922607422 2.7265515327453613281 2.0446426868438720703 2.2045371532440185547 2.5433607101440429688 2.1574997901916503906 1.9029574394226074219 2.0158419609069824219 1.8498865365982055664 1.8865257501602172852 2.2701466083526611328 2.5441374778747558594 2.8830435276031494141 2.4056200981140136719 1.8369803428649902344 1.59206390380859375 1.4927037954330444336 1.0413095951080322266 1.2261140346527099609 1.1080422401428222656 1.2028659582138061523 1.0532671213150024414 1.0035594701766967773 1.0460247993469238281 1.0285193920135498047 1.1494731903076171875 1.3612657785415649414 1.0535526275634765625 2.2151329517364501953 1.1028864383697509766 1.0025691986083984375 1.0346062183380126953 1.2578819990158081055 1.0711750984191894531 1.0049611330032348633 1.1462500095367431641 1.1711549758911132813 1.1076474189758300781 1.0203218460083007813 1.0087381601333618164 2.2552065849304199219 2.2016704082489013672 1.7058150768280029297 2.5969169139862060547 2.5969169139862060547 1.3161882162094116211 2.4689557552337646484 2.1164593696594238281 2.5863945484161376953 2.2552065849304199219 2.5863945484161376953 1.2955501079559326172 2.2016704082489013672 1.2955501079559326172 1.1028864383697509766 1 1.5630494356155395508 1.0404191017150878906 1.9041965007781982422 1.1028864383697509766 1.3156942129135131836 1.5671200752258300781 1.029074549674987793 1.4707593917846679688 1.9108177423477172852 3.2410285472869873047 2.8177235126495361328 1.5378327369689941406 1.6943330764770507813 1.8989964723587036133 2.2992665767669677734 2.2984411716461181641 2.2845654487609863281 2.5682163238525390625 3.3622729778289794922 3.4181432723999023438 3.2999777793884277344 3.1629669666290283203 3.1539919376373291016 3.0968840122222900391 2.8693673610687255859 3.0940189361572265625 2.7750802040100097656 2.9911942481994628906 3.2072281837463378906 2.9197189807891845703 2.4942429065704345703 2.8526020050048828125 3.3083012104034423828 3.0697941780090332031 3.1664884090423583984 3.0513453483581542969 2.6125578880310058594 2.7708365917205810547 2.9541316032409667969 2.8622164726257324219 3.0059907436370849609 2.2069120407104492188 1.6766854524612426758 2.2441542148590087891 2.0680615901947021484 2.4009869098663330078 2.6158895492553710938 2.1927433013916015625 2.1775863170623779297 2.1382167339324951172 2.0441927909851074219 1.4301675558090209961 1.3202066421508789063 1.8010170459747314453 1.2362002134323120117 1.1076474189758300781 1.0837826728820800781 1.2362002134323120117 1.0837826728820800781 1.0621008872985839844 1.6791050434112548828 1.0867646932601928711 1.0837826728820800781 1.2795636653900146484 1.5630494356155395508 1.0258535146713256836 1.9041965007781982422 1.0378412008285522461 1.0621008872985839844 1.0099834203720092773 1.0391826629638671875 1.4493403434753417969 1.3463209867477416992 1.259593963623046875 1.6065020561218261719 1.7365926504135131836 1.910046696662902832 1.8666832447052001953 1.8729581832885742188 1.7582744359970092773 1.7378132343292236328 1.6968418359756469727 1.9124656915664672852 1.7783050537109375 1.6157103776931762695 1.8939243555068969727 1.8320697546005249023 1.5256941318511962891 1.4617763757705688477 2.0149669647216796875 2.3234951496124267578 2.5998961925506591797 2.0676963329315185547 2.4334914684295654297 2.1939494609832763672 2.37386322021484375 2.5061538219451904297 2.6820588111877441406 2.8793289661407470703 3.0910477638244628906 2.7141129970550537109 3.6366405487060546875 3.2328517436981201172 3.6625809669494628906 3.5307011604309082031 3.9328670501708984375 3.7129948139190673828 3.8616526126861572266 4.1754817962646484375 4.4231500625610351563 4.0378746986389160156 4.3709044456481933594 
3.470256805419921875 4.2222766876220703125 4.5815820693969726563 4.5020198822021484375 3.5160074234008789063 4.3225002288818359375 3.2803463935852050781 3.2194437980651855469 2.9641971588134765625 2.6786744594573974609 2.1625783443450927734 2.0193848609924316406 2.3856334686279296875 2.2214283943176269531 2.3556332588195800781 2.2075824737548828125 1.9462733268737792969 2.2257344722747802734 2.0220005512237548828 1.6096582412719726563 1.4513689279556274414 1.8889033794403076172 1.8402990102767944336 1.9390295743942260742 2.3175461292266845703 2.0351879596710205078 2.7739284038543701172 2.483539581298828125 2.6608033180236816406 2.4992830753326416016 2.7361209392547607422 2.2856550216674804688 2.2921807765960693359 2.9256439208984375 2.3478655815124511719 2.4250895977020263672 2.5720143318176269531 2.1081464290618896484 1.9764432907104492188 1.6602993011474609375 1.5918478965759277344 1.41603851318359375 2.0043666362762451172 2.7497961521148681641 2.4592502117156982422 2.0219912528991699219 1.4761838912963867188 1.3176999092102050781 1.1080422401428222656 1.2985144853591918945 1.4710220098495483398 1.0429970026016235352 1.0213152170181274414 1.0629750490188598633 1.2885658740997314453 1.2235205173492431641 1.1711549758911132813 1.0837826728820800781 1.1262996196746826172 1.8849902153015136719 1.1076474189758300781 1.0595229864120483398 1.1245682239532470703 1.106109619140625 1.1028864383697509766 1.1928366422653198242 1.2957750558853149414 1.0016961097717285156 1.0346062183380126953 1.1494731903076171875 1.15718841552734375 1.0087381601333618164 1.0087381601333618164 2.2552065849304199219 2.5969169139862060547 2.4689557552337646484 2.4689557552337646484 2.2552065849304199219 1.8997918367385864258 1.100308537483215332 1.3023484945297241211 2.0106759071350097656 2.4689557552337646484 1.2955501079559326172 2.2016704082489013672 1.301726222038269043 1.0595229864120483398 1.9041965007781982422 1.0844278335571289063 1.0812047719955444336 1.0378412008285522461 1.301726222038269043 2.4689557552337646484 3.1896233558654785156 1.7058150768280029297 1.1219903230667114258 1.3171278238296508789 2.5969169139862060547 2.8177235126495361328 2.2552065849304199219 2.1260850429534912109 1.9389853477478027344 2.4520299434661865234 1.9840383529663085938 2.3878905773162841797 2.8094990253448486328 3.1979787349700927734 3.3571217060089111328 3.58190155029296875 3.8630173206329345703 3.2677299976348876953 3.32578277587890625 4.17037200927734375 3.7490923404693603516 3.1713936328887939453 3.2530894279479980469 2.6367926597595214844 3.5182349681854248047 3.4340822696685791016 3.3637795448303222656 3.0303637981414794922 3.2295629978179931641 3.0014071464538574219 2.7805206775665283203 3.4019784927368164063 3.0536074638366699219 3.0429439544677734375 2.5330028533935546875 2.5678966045379638672 2.404949188232421875 2.3438947200775146484 2.3763246536254882813 2.2549965381622314453 1.8742139339447021484 1.7259262800216674805 1.912381291389465332 1.6939241886138916016 2.2469398975372314453 1.5950876474380493164 1.5360673666000366211 1.4276585578918457031 1.306232452392578125 1.2018388509750366211 1.106109619140625 1.1028864383697509766 1.1271461248397827148 1.2154879570007324219 1.0867646932601928711 1.1054643392562866211 1.0399379730224609375 1.1801570653915405273 1.0035594701766967773 1.0837826728820800781 1.0404191017150878906 1.0049611330032348633 1.9108177423477172852 1.2199838161468505859 1.1928366422653198242 1.3536111116409301758 1.4493403434753417969 1.6281838417053222656 1.996708989143371582 2.2569549083709716797 1.7799562215805053711 2.0618190765380859375 2.0834360122680664063 1.4980933666229248047 1.8142527341842651367 1.7708891630172729492 1.8576163053512573242 2.2571511268615722656 1.7177428007125854492 1.343821406364440918 1.6408010721206665039 1.9027755260467529297 2.2594211101531982422 1.8920906782150268555 2.2789096832275390625 2.6276316642761230469 2.5009238719940185547 2.5062146186828613281 2.8046355247497558594 2.5703859329223632813 2.8818881511688232422 2.6702516078948974609 3.3965289592742919922 3.3938205242156982422 3.344921112060546875 3.0504872798919677734 3.4764020442962646484 3.8739554882049560547 3.4878873825073242188 3.6556217670440673828 3.9101872444152832031 3.6127636432647705078 4.6676549911499023438 4.92540740966796875 4.5209746360778808594 4.6394724845886230469 4.3880658149719238281 
3.682598114013671875 4.2454371452331542969 3.970123291015625 4.5242342948913574219 4.2468743324279785156 4.1393904685974121094 3.5676529407501220703 3.2455592155456542969 2.9546773433685302734 3.087764739990234375 2.2996244430541992188 2.3554162979125976563 2.3953783512115478516 1.7101898193359375 1.7646253108978271484 1.7342183589935302734 1.7306699752807617188 1.657393336296081543 1.5585243701934814453 1.8737543821334838867 1.5989278554916381836 2.05683135986328125 1.7377848625183105469 2.1519317626953125 2.2434611320495605469 2.3469126224517822266 2.7709012031555175781 2.7155239582061767578 2.6276257038116455078 2.7044680118560791016 3.0354955196380615234 2.8012359142303466797 2.7044353485107421875 2.7286560535430908203 2.5644533634185791016 2.822994232177734375 2.6663610935211181641 2.1079156398773193359 1.8209570646286010742 1.2238404750823974609 1.639883875846862793 1.3645576238632202148 1.6757339239120483398 1.614220738410949707 1.2479004859924316406 1.3530287742614746094 1.58538055419921875 1.440338134765625 1.1080422401428222656 1.1297240257263183594 1.1559113264083862305 1.2452023029327392578 1.0426037311553955078 1.2154879570007324219 1.3811141252517700195 1.2668840885162353516 1.1928366422653198242 1.2795636653900146484 1.1494731903076171875 1.0285193920135498047 1.0837826728820800781 1.106109619140625 1.2298604249954223633 1.1494731903076171875 1.2362002134323120117 1.1494731903076171875 1.0424036979675292969 1.0309851169586181641 1.1159840822219848633 1.031940460205078125 1.301726222038269043 2.4689557552337646484 1.2955501079559326172 1.2955501079559326172 1.0212770700454711914 2.2016704082489013672 1.2955501079559326172 1.0087381601333618164 1.9122374057769775391 1.3156942129135131836 1.0115746259689331055 1.2955501079559326172 2.5863945484161376953 3.6012563705444335938 1.0303750038146972656 1.1028864383697509766 1.0595229864120483398 1.9108177423477172852 2.1344089508056640625 1.391209721565246582 1.0595229864120483398 2.4689557552337646484 2.2016704082489013672 2.2552065849304199219 1.3518837690353393555 3.14661407470703125 3.0418324470520019531 2.6321852207183837891 1.2832947969436645508 1.5178676843643188477 2.4689557552337646484 1.930586695671081543 2.1802251338958740234 2.6816277503967285156 2.4946072101593017578 2.2421417236328125 2.6776945590972900391 3.0635006427764892578 2.8748319149017333984 3.4115765094757080078 2.9181649684906005859 3.4515092372894287109 3.2864153385162353516 4.2753238677978515625 3.4288935661315917969 3.7396478652954101563 2.8398525714874267578 3.4167008399963378906 3.9270169734954833984 4.0693140029907226563 3.4446377754211425781 2.7404198646545410156 2.3871119022369384766 2.5678796768188476563 2.8559992313385009766 3.0140163898468017578 3.1311962604522705078 3.1136183738708496094 2.6559114456176757813 2.4276094436645507813 2.6469302177429199219 2.4615378379821777344 2.1545774936676025391 1.9618257284164428711 2.0526490211486816406 2.6804928779602050781 2.3504209518432617188 1.6291475296020507813 1.2885658740997314453 1.440338134765625 1.598400115966796875 1.0867646932601928711 1.0656285285949707031 1.0627461671829223633 1.1928366422653198242 1.1494731903076171875 1.2668840885162353516 1.0646787881851196289 1.3536111116409301758 1.5630494356155395508 1.0837826728820800781 1.0621008872985839844 1.9041965007781982422 1.6691575050354003906 1.0605514049530029297 1.106109619140625 1.2578819990158081055 1.2578819990158081055 1.3626133203506469727 1.0490907430648803711 1.7058439254760742188 1.792570948600769043 1.996773838996887207 1.9750272035598754883 1.6065020561218261719 1.7799562215805053711 1.1106201410293579102 1.6751600503921508789 1.7149108648300170898 1.6715474128723144531 1.6751600503921508789 1.6182259321212768555 1.6703084707260131836 1.7754433155059814453 2.2224242687225341797 2.689300537109375 2.5978872776031494141 2.4284129142761230469 3.1767175197601318359 2.7967293262481689453 2.9680867195129394531 2.6098775863647460938 2.4616148471832275391 2.8403792381286621094 2.8077340126037597656 3.4706985950469970703 3.504673004150390625 3.7013962268829345703 3.1709966659545898438 3.8224813938140869141 4.2299647331237792969 3.762393951416015625 3.8093960285186767578 3.6421773433685302734 4.8348293304443359375 4.4539170265197753906 4.692249298095703125 5.0467886924743652344 5.5861406326293945313 5.2813906669616699219 
2.9621448516845703125 3.6370198726654052734 3.8509392738342285156 3.8943946361541748047 3.7181668281555175781 3.8491108417510986328 3.7912821769714355469 3.2065577507019042969 3.3579752445220947266 2.9638361930847167969 2.7250454425811767578 2.5233309268951416016 1.7758179903030395508 1.6093543767929077148 1.8634784221649169922 2.0750932693481445313 1.392647862434387207 1.4058048725128173828 1.6691575050354003906 1.4744393825531005859 2.0689954757690429688 2.2569942474365234375 2.0015859603881835938 2.1456878185272216797 2.29476165771484375 2.5929050445556640625 3.2084424495697021484 2.7216012477874755859 2.9992156028747558594 3.0184776782989501953 3.1097676753997802734 3.3703477382659912109 3.2280571460723876953 2.4515910148620605469 2.0206034183502197266 2.3318150043487548828 2.1831820011138916016 1.6770159006118774414 1.4588277339935302734 1.4800236225128173828 1.5122852325439453125 1.9054465293884277344 1.6766120195388793945 1.6591454744338989258 1.2298604249954223633 1.331929326057434082 1.3241701126098632813 1.0646787881851196289 1.1080422401428222656 1.3752928972244262695 1.3752928972244262695 1.3752928972244262695 1.1277914047241210938 1.1928366422653198242 1.3102476596832275391 1.1441249847412109375 1.3102476596832275391 1.0452696084976196289 1.0867646932601928711 1.0435590744018554688 1.3102476596832275391 1.2362002134323120117 1.0513564348220825195 1.2885658740997314453 1.2885658740997314453 1.2452023029327392578 1.2668840885162353516 1.2362002134323120117 1.2795636653900146484 1.2795636653900146484 1.029074549674987793 1.0203218460083007813 1.301726222038269043 1.0007755756378173828 1.0595229864120483398 1.0378412008285522461 1.0203218460083007813 2.6321852207183837891 1.2311228513717651367 1.7343676090240478516 2.4689557552337646484 1.301726222038269043 1.0029140710830688477 2.4689557552337646484 1.0595229864120483398 1.1245682239532470703 1.0203218460083007813 1.2955501079559326172 1.0812047719955444336 1.5671200752258300781 3.9627170562744140625 1.1219903230667114258 2.2016704082489013672 2.2552065849304199219 1.7172163724899291992 2.8139696121215820313 3.6311545372009277344 2.2552065849304199219 1.1219903230667114258 2.2552065849304199219 3.2006099224090576172 1.9298446178436279297 1.8079530000686645508 2.0590932369232177734 2.01285552978515625 2.3084168434143066406 2.3866868019104003906 2.4813106060028076172 2.8251569271087646484 2.9187028408050537109 3.0692081451416015625 3.3820884227752685547 3.3663830757141113281 3.0758519172668457031 3.2548520565032958984 3.0618484020233154297 3.3297317028045654297 4.1180572509765625 4.2604579925537109375 4.2069802284240722656 3.3791863918304443359 2.8729014396667480469 2.8074462413787841797 2.5922522544860839844 2.9921257495880126953 3.6514236927032470703 3.0069942474365234375 2.8515472412109375 2.8696832656860351563 2.4860961437225341797 2.7546164989471435547 2.339618682861328125 2.1684842109680175781 2.3171186447143554688 1.373045802116394043 2.1843650341033935547 2.2273476123809814453 2.1316301822662353516 1.8729436397552490234 1.2603366374969482422 1.2795636653900146484 1.2668840885162353516 1.2578819990158081055 1.0382274389266967773 1.0837826728820800781 1.2795636653900146484 1.0009224414825439453 1.3409315347671508789 1.418656468391418457 1.0525118112564086914 1.3969746828079223633 1.0481355190277099609 1.0037883520126342773 1.1338173151016235352 1.2018388509750366211 1.1711549758911132813 1.1928366422653198242 1.3536111116409301758 1.3409315347671508789 1.5577491521835327148 1.6227943897247314453 1.368002772331237793 1.8233196735382080078 2.0400724411010742188 1.7149108648300170898 1.7492074966430664063 1.1323019266128540039 1.0040394067764282227 1.6624803543090820313 1.8309227228164672852 1.9227331876754760742 1.6534782648086547852 1.9102860689163208008 2.1182262897491455078 2.0826025009155273438 2.9332947731018066406 2.7059006690979003906 3.0178134441375732422 3.8043451309204101563 2.6391663551330566406 3.0884945392608642578 3.1686904430389404297 2.630649566650390625 2.7044208049774169922 3.1727993488311767578 3.9262681007385253906 4.3350968360900878906 3.9456560611724853516 3.9250748157501220703 3.8744320869445800781 4.1469826698303222656 3.9497764110565185547 4.5981478691101074219 5.1239008903503417969 4.7685399055480957031 4.8128366470336914063 4.7955784797668457031 5.3665571212768554688 5.8486127853393554688 5.0932741165161132813 
2.3032357692718505859 2.879207611083984375 3.0230841636657714844 3.3317072391510009766 3.7388231754302978516 3.2793605327606201172 3.6476850509643554688 3.0404229164123535156 2.9462766647338867188 2.8351359367370605469 2.3977210521697998047 2.3677756786346435547 1.6472389698028564453 1.6549503803253173828 1.5032316446304321289 1.8849902153015136719 1.7703495025634765625 1.8992724418640136719 1.5060567855834960938 1.6728460788726806641 1.8497968912124633789 2.142543792724609375 2.2631125450134277344 2.0253481864929199219 2.2165780067443847656 2.1570127010345458984 2.8078029155731201172 3.0018315315246582031 2.9287443161010742188 3.0192172527313232422 3.2360758781433105469 3.7017714977264404297 3.0599772930145263672 2.3741412162780761719 2.4041693210601806641 2.7299463748931884766 1.6916307210922241211 2.0048077106475830078 1.4248507022857666016 1.5733100175857543945 1.9041965007781982422 1.7519570589065551758 1.9877501726150512695 1.0884346961975097656 1.4676939249038696289 1.1494731903076171875 1.1488279104232788086 1.2452023029327392578 1.3102476596832275391 1.0030351877212524414 1.4927037954330444336 1.418656468391418457 1.214518427848815918 1.0844278335571289063 1.0285193920135498047 1.2018388509750366211 1.440338134765625 1.1297240257263183594 1.3102476596832275391 1.0621008872985839844 1.2578819990158081055 1.1488279104232788086 1.0399379730224609375 1.3969746828079223633 1.440338134765625 1.0863605737686157227 1.331929326057434082 1.331929326057434082 1.0213152170181274414 1.0213152170181274414 1.0050448179244995117 1.2856231927871704102 1.1310622692108154297 1.5671200752258300781 1.1245682239532470703 2.4689557552337646484 1.1219903230667114258 1.1219903230667114258 3.6311545372009277344 1.9108177423477172852 1.1028864383697509766 1.2955501079559326172 1.301726222038269043 1.0203218460083007813 1.0029140710830688477 1.9108177423477172852 1.0151902437210083008 1.0203218460083007813 2.8139696121215820313 2.8139696121215820313 2.8177235126495361328 1.5544667243957519531 2.4689557552337646484 1.301726222038269043 1.0378412008285522461 1.029074549674987793 1.0303750038146972656 2.0106759071350097656 1.1312488317489624023 2.4689557552337646484 1.183429718017578125 1.781185150146484375 2.4801437854766845703 1.9041965007781982422 2.1407580375671386719 2.1793763637542724609 2.5373022556304931641 3.0221662521362304688 3.0611913204193115234 2.3893263339996337891 3.1569881439208984375 3.6551406383514404297 2.5065317153930664063 3.3207604885101318359 3.3701934814453125 3.7927813529968261719 3.3435876369476318359 3.8208103179931640625 3.6220667362213134766 3.6967172622680664063 3.6966176033020019531 3.3414797782897949219 2.6853766441345214844 2.4798521995544433594 3.4260582923889160156 3.1179757118225097656 3.1983249187469482422 2.8887245655059814453 2.4587235450744628906 2.3987662792205810547 2.5705578327178955078 2.3901336193084716797 2.0226011276245117188 2.0548889636993408203 1.9868019819259643555 2.5809447765350341797 2.6924207210540771484 1.6319699287414550781 1.6183452606201171875 1.331929326057434082 1.1792217493057250977 1.1159840822219848633 1.0429970026016235352 1.2795636653900146484 1.0646787881851196289 1.2018388509750366211 1.4493403434753417969 1.6317964792251586914 1.5360673666000366211 1.1106201410293579102 1.1297240257263183594 1.1295033693313598633 1.1106201410293579102 1.0022113323211669922 1.4710220098495483398 1.3842949867248535156 1.3626133203506469727 1.2452023029327392578 1.5143855810165405273 1.5360673666000366211 1.5360673666000366211 1.6317964792251586914 1.684162139892578125 1.8233196735382080078 1.8359345197677612305 1.6688202619552612305 1.1667207479476928711 1.1323019266128540039 1.2812757492065429688 1.9317284822463989258 1.909981846809387207 1.9936788082122802734 2.2423329353332519531 2.3002328872680664063 2.0991089344024658203 2.8106722831726074219 3.1953833103179931641 3.1225855350494384766 3.6806874275207519531 2.7437469959259033203 3.2873508930206298828 3.1956419944763183594 3.1238465309143066406 2.6937804222106933594 3.3631672859191894531 3.8636405467987060547 3.9980082511901855469 3.6390633583068847656 3.9037344455718994141 3.4690692424774169922 4.1279749870300292969 4.5666689872741699219 4.7739992141723632813 5.2557172775268554688 4.9131379127502441406 5.4746193885803222656 5.6694312095642089844 4.8161110877990722656 4.20809173583984375 4.5963864326477050781 
2.6875100135803222656 2.7805488109588623047 2.8405852317810058594 2.7374770641326904297 3.3832261562347412109 3.2071974277496337891 3.1144418716430664063 3.0774922370910644531 2.8223147392272949219 3.0663239955902099609 1.8720597028732299805 2.2043893337249755859 1.7446873188018798828 1.9427074193954467773 1.7504340410232543945 1.8817102909088134766 1.9996422529220581055 1.6983813047409057617 1.8914870023727416992 1.8357415199279785156 1.7927467823028564453 2.6225130558013916016 2.4997630119323730469 2.4471917152404785156 2.2801632881164550781 2.5269899368286132813 2.6615889072418212891 2.7190022468566894531 3.3091092109680175781 3.4272830486297607422 3.5624577999114990234 3.3587582111358642578 2.7054066658020019531 2.8821103572845458984 2.2216892242431640625 2.1384036540985107422 1.9506057500839233398 1.2732089757919311523 1.6991467475891113281 1.6060262918472290039 1.6450849771499633789 1.5268310308456420898 1.5448113679885864258 1.5668982267379760742 1.1054643392562866211 1.2298604249954223633 1.106109619140625 1.2362002134323120117 1.1711549758911132813 1.0406931638717651367 1.3102476596832275391 1.2452023029327392578 1.2362002134323120117 1.1271461248397827148 1.1711549758911132813 1.0429970026016235352 1.3752928972244262695 1.3201001882553100586 1.3536111116409301758 1.044314265251159668 1.2668840885162353516 1.0429970026016235352 1.0479353666305541992 1 1.3969746828079223633 1.0435590744018554688 1.4927037954330444336 1.6751600503921508789 1.1078215837478637695 1 1.044114232063293457 2.4689557552337646484 1.0079749822616577148 2.2016704082489013672 1.2955501079559326172 1.0378412008285522461 2.2552065849304199219 2.4689557552337646484 1.0378412008285522461 1.0303750038146972656 1.301726222038269043 1.1028864383697509766 1.0378412008285522461 1.9108177423477172852 1.0212770700454711914 1.0029140710830688477 1.0303750038146972656 1.100308537483215332 1.3161882162094116211 3.0418324470520019531 2.2016704082489013672 2.8177235126495361328 3.2410285472869873047 2.4689557552337646484 3.14661407470703125 1.9122374057769775391 1.9122374057769775391 2.3189318180084228516 1.5148212909698486328 2.4689557552337646484 1.4445874691009521484 1.6051321029663085938 1.7121089696884155273 1.7892044782638549805 1.7249251604080200195 2.3805997371673583984 2.7362198829650878906 2.6009128093719482422 2.4572529792785644531 2.0355772972106933594 2.0772912502288818359 2.5489361286163330078 3.5009884834289550781 2.852703094482421875 3.0499205589294433594 3.6421234607696533203 3.5853264331817626953 3.1588394641876220703 3.5282473564147949219 3.365222930908203125 3.6970708370208740234 3.3584778308868408203 2.9877314567565917969 3.5865907669067382813 3.6552088260650634766 3.5658242702484130859 3.6398966312408447266 3.0250394344329833984 2.1358387470245361328 2.0978894233703613281 2.6307260990142822266 2.6334695816040039063 2.4919683933258056641 2.3832526206970214844 1.9770464897155761719 2.5146062374114990234 2.3833858966827392578 2.2242879867553710938 1.3893980979919433594 1.0429970026016235352 1.1860827207565307617 1.1054643392562866211 1.3747614622116088867 1.0863605737686157227 1.1080422401428222656 1 1.151185154914855957 1.3896845579147338867 1.4493403434753417969 1.5360673666000366211 1.0508012771606445313 1.5450694561004638672 1.4330480098724365234 1.7402052879333496094 1.4059767723083496094 1.418656468391418457 1.2700076103210449219 1.0530669689178466797 1.418656468391418457 1.7275257110595703125 1.1106201410293579102 1.151185154914855957 1.6751600503921508789 1.4547297954559326172 1.7708891630172729492 1.0672566890716552734 1.151185154914855957 1.5233876705169677734 1.3896845579147338867 1.6715474128723144531 2.0838549137115478516 2.2511875629425048828 2.2684354782104492188 2.0213558673858642578 2.8908720016479492188 3.3330166339874267578 3.8191463947296142578 4.3159966468811035156 3.4693350791931152344 3.427490234375 3.2635161876678466797 2.6336817741394042969 3.0127780437469482422 3.0828661918640136719 3.7726836204528808594 3.9913618564605712891 3.9988026618957519531 4.1985430717468261719 3.9386496543884277344 3.4833452701568603516 3.9017326831817626953 4.0754442214965820313 5.0865354537963867188 5.4441823959350585938 4.7943096160888671875 6.0892190933227539063 5.2920789718627929688 5.0806450843811035156 4.559177398681640625 4.1810259819030761719 
2.0057814121246337891 2.6023452281951904297 2.6924805641174316406 2.6695210933685302734 3.3123953342437744141 2.7826902866363525391 2.9043068885803222656 3.0699398517608642578 3.3645853996276855469 3.3604478836059570313 2.7775731086730957031 2.405872344970703125 2.1723427772521972656 1.8678306341171264648 1.6334691047668457031 1.9470437765121459961 2.0770130157470703125 1.9041965007781982422 1.7453176975250244141 2.0916721820831298828 2.0096986293792724609 2.3964321613311767578 2.5595269203186035156 3.0014631748199462891 3.0792970657348632813 2.8773040771484375 2.7076926231384277344 3.0903983116149902344 3.0854496955871582031 3.4677684307098388672 3.8311479091644287109 3.0042498111724853516 2.6189091205596923828 2.5974547863006591797 1.9133926630020141602 2.0040049552917480469 1.6260464191436767578 2.0039772987365722656 1.8201491832733154297 1.6934796571731567383 2.0517978668212890625 1.1583499908447265625 1.3585717678070068359 1.6317372322082519531 1.2018388509750366211 1.1801570653915405273 1.2298604249954223633 1.1076474189758300781 1.0404191017150878906 1.2300459146499633789 1.3012454509735107422 1.0621008872985839844 1.0365169048309326172 1.1711549758911132813 1.0621008872985839844 1.3536111116409301758 1.0557328462600708008 1.418656468391418457 1.3536111116409301758 1.3969746828079223633 1.0455749034881591797 1.1080422401428222656 1.3626133203506469727 1.0005103349685668945 1.0418485403060913086 1.2452023029327392578 1.4927037954330444336 1.6011126041412353516 1.418656468391418457 1.3102476596832275391 1.1277914047241210938 1.1338173151016235352 1.0378412008285522461 1.9108177423477172852 1.0087381601333618164 2.5863945484161376953 1.0007755756378173828 1.0007755756378173828 2.2016704082489013672 1.029074549674987793 1.0378412008285522461 1.0378412008285522461 1.0812047719955444336 2.2552065849304199219 1.0007755756378173828 1.3518837690353393555 2.2016704082489013672 2.5863945484161376953 2.8177235126495361328 1.1219903230667114258 1.1219903230667114258 2.8139696121215820313 1.2955501079559326172 1.0151902437210083008 1.0303750038146972656 1.0151902437210083008 1.9108177423477172852 1.4183119535446166992 1.9108177423477172852 1.0663316249847412109 2.1164593696594238281 2.6321852207183837891 1.523708343505859375 2.8139696121215820313 1.4826618432998657227 2.4365799427032470703 2.161235809326171875 2.4173471927642822266 2.0228531360626220703 1.9463419914245605469 2.0096750259399414063 2.5949649810791015625 2.7178809642791748047 2.7832193374633789063 3.2530000209808349609 3.4330236911773681641 4.2048230171203613281 3.6303014755249023438 3.6149098873138427734 3.5606276988983154297 3.4296331405639648438 3.7032697200775146484 3.0426704883575439453 2.9617564678192138672 3.5693202018737792969 3.3398759365081787109 3.6152360439300537109 2.9656221866607666016 2.2448697090148925781 2.4463911056518554688 2.6320512294769287109 2.4906632900238037109 2.3003001213073730469 2.2571365833282470703 1.6606405973434448242 2.0709333419799804688 1.8645445108413696289 1.9651782512664794922 1.8429564237594604492 1.3752928972244262695 1.5669000148773193359 1.3282811641693115234 1.1163218021392822266 1.590539097785949707 1.5577491521835327148 1.2379121780395507813 1.8576163053512573242 1.4113662242889404297 1.7185235023498535156 1.5297275781631469727 1.3024861812591552734 1.6317964792251586914 1.3896845579147338867 1.5794308185577392578 1.0861399173736572266 1.0646787881851196289 1.3752928972244262695 1.0867646932601928711 1.5297275781631469727 1.9664673805236816406 1.1539837121963500977 1.2162303924560546875 1.5233876705169677734 1.7058439254760742188 1.7275257110595703125 1.3057336807250976563 1.8359345197677612305 1.6932291984558105469 1.7402052879333496094 1.9135200977325439453 2.3367638587951660156 2.3766138553619384766 2.2542777061462402344 2.5101563930511474609 2.8226420879364013672 3.3430509567260742188 4.2184767723083496094 4.2821965217590332031 3.7379088401794433594 4.258758544921875 3.1951644420623779297 2.5931799411773681641 3.2459676265716552734 3.8767850399017333984 3.8272702693939208984 4.4302630424499511719 4.3364205360412597656 4.2057499885559082031 3.7374017238616943359 4.1431946754455566406 4.119052886962890625 4.5422954559326171875 5.0929355621337890625 5.4856252670288085938 5.4043450355529785156 5.60913848876953125 5.9020147323608398438 4.6052303314208984375 4.4700570106506347656 3.8955862522125244141 
2.0465691089630126953 2.5291872024536132813 2.4847903251647949219 2.7075684070587158203 2.2156288623809814453 2.2592999935150146484 3.2362489700317382813 3.0669147968292236328 3.1938776969909667969 2.9250307083129882813 2.8677198886871337891 2.2317893505096435547 2.4563817977905273438 1.563617706298828125 1.648852229118347168 1.9804440736770629883 2.2765686511993408203 2.1736414432525634766 1.9370367527008056641 1.9919857978820800781 2.2941033840179443359 2.3875067234039306641 2.8525931835174560547 2.8048784732818603516 2.9784028530120849609 2.5306780338287353516 2.4942421913146972656 2.7258129119873046875 2.8250064849853515625 3.185123443603515625 3.2377691268920898438 2.8571181297302246094 2.2781047821044921875 1.9773446321487426758 2.0434160232543945313 1.791512608528137207 2.0183734893798828125 2.0811381340026855469 2.0236608982086181641 1.4430363178253173828 1.7443147897720336914 1.1494731903076171875 1.0844278335571289063 1 1.1801570653915405273 1.0621008872985839844 1.3752928972244262695 1.1928366422653198242 1.044114232063293457 1.0837826728820800781 1.1271461248397827148 1.2018388509750366211 1.1271461248397827148 1.214518427848815918 1.1054643392562866211 1.0452696084976196289 1.4276585578918457031 1.0455749034881591797 1.1106201410293579102 1.5730910301208496094 1.2379121780395507813 1.7835688591003417969 1.151185154914855957 1.3842949867248535156 1.3906348943710327148 1 1.2452023029327392578 1.2917003631591796875 1.0126281976699829102 1.0015398263931274414 1.0844278335571289063 1.0378412008285522461 1.9041965007781982422 2.4689557552337646484 1.5671200752258300781 1.029074549674987793 1.301726222038269043 1.9318233728408813477 2.1164593696594238281 1.0303750038146972656 1.9041965007781982422 1.0378412008285522461 1.301726222038269043 1.0595229864120483398 1.1028864383697509766 1.0303750038146972656 2.2552065849304199219 1.2311228513717651367 1.0203218460083007813 1.5544667243957519531 3.2410285472869873047 2.1164593696594238281 2.0106759071350097656 1.0378412008285522461 2.4689557552337646484 1.301726222038269043 1.1462500095367431641 1.3437036275863647461 1.052952885627746582 2.5863945484161376953 1.3761197328567504883 1.100308537483215332 3.9627170562744140625 2.6321852207183837891 1.9108177423477172852 1.3138470649719238281 1.6032860279083251953 1.932822108268737793 1.8616530895233154297 2.0516219139099121094 2.4802477359771728516 2.4169809818267822266 2.9659445285797119141 2.7805941104888916016 3.3198964595794677734 2.9000027179718017578 3.26116943359375 3.0390789508819580078 2.8849930763244628906 3.0674302577972412109 2.8662691116333007813 2.9271006584167480469 3.2150394916534423828 3.0612730979919433594 3.1868240833282470703 3.4614150524139404297 3.2404553890228271484 2.782413482666015625 3.1069610118865966797 3.640811920166015625 2.9637720584869384766 2.5305418968200683594 2.1907150745391845703 1.8737390041351318359 1.8655705451965332031 2.3336925506591796875 1.9232007265090942383 2.1272113323211669922 2.1002709865570068359 1.7229738235473632813 1.1685307025909423828 1.5349962711334228516 1.8057688474655151367 2.1347289085388183594 1.5233876705169677734 1.7835688591003417969 1.9473336935043334961 1.3029574155807495117 1.5667512416839599609 1.731329798698425293 1.6534782648086547852 1.684162139892578125 1.6534782648086547852 1.2379121780395507813 1.4691904783248901367 1.2119450569152832031 1.3969746828079223633 1.0508012771606445313 1.5667512416839599609 1.6065020561218261719 1.7618870735168457031 1.5631386041641235352 1.7185235023498535156 2.105182647705078125 1.8576163053512573242 1.6932291984558105469 1.7492074966430664063 1.8518688678741455078 2.0890777111053466797 1.9452545642852783203 2.105182647705078125 2.2352731227874755859 2.2442967891693115234 2.2797219753265380859 3.1108925342559814453 3.4581396579742431641 3.8008980751037597656 4.1808304786682128906 3.4920091629028320313 3.0477499961853027344 2.8021042346954345703 2.9385128021240234375 3.3313984870910644531 3.8434243202209472656 4.1717844009399414063 4.5301012992858886719 3.7029893398284912109 3.9556424617767333984 3.4806013107299804688 4.5080919265747070313 4.8404908180236816406 4.6843390464782714844 4.99762725830078125 5.3219847679138183594 5.6956071853637695313 6.1730451583862304688 5.5706992149353027344 4.8560328483581542969 4.2997326850891113281 3.9592332839965820313 
2.76248931884765625 3.1668119430541992188 2.4200148582458496094 2.2933008670806884766 2.1014988422393798828 2.3333399295806884766 2.7424378395080566406 2.4032988548278808594 2.5108308792114257813 2.0681140422821044922 1.8010653257369995117 2.2028036117553710938 2.4429748058319091797 2.0797286033630371094 1.7391299009323120117 2.4219255447387695313 2.3397297859191894531 2.3923327922821044922 2.3159961700439453125 2.0742878913879394531 1.8384106159210205078 2.8047542572021484375 3.0195558071136474609 3.1087257862091064453 3.0466284751892089844 2.6190550327301025391 2.8027102947235107422 2.7069327831268310547 3.0463852882385253906 3.1761026382446289063 2.931667327880859375 2.915225982666015625 2.0973570346832275391 1.898722529411315918 2.0155010223388671875 1.8077241182327270508 1.1700416803359985352 1.7777552604675292969 1.3966490030288696289 1.5805670022964477539 1.0049611330032348633 1 1.3229272365570068359 1.2362002134323120117 1.1488279104232788086 1.4784525632858276367 1.2795636653900146484 1 1.031940460205078125 1.4676939249038696289 1.0391826629638671875 1.2300459146499633789 1 1.2235205173492431641 1.3969746828079223633 1.0479353666305541992 1 1.4454768896102905273 1.0455749034881591797 1.4800242185592651367 1.792570948600769043 1.9009797573089599609 1.2812757492065429688 1.2162303924560546875 1.440338134765625 1.331929326057434082 1.2018388509750366211 1.3752928972244262695 1.0213152170181274414 1.2300459146499633789 1.0621008872985839844 1.1711549758911132813 1.0595229864120483398 1.1028864383697509766 1.9041965007781982422 1.0595229864120483398 1.1028864383697509766 1.0135469436645507813 1.0203218460083007813 1.9108177423477172852 1.1245682239532470703 1.1028864383697509766 1.0378412008285522461 1.1028864383697509766 1.0378412008285522461 1.0115746259689331055 1.0303750038146972656 2.5863945484161376953 1.2311228513717651367 3.9627170562744140625 1.0151902437210083008 1.0203218460083007813 1.2955501079559326172 1.15718841552734375 2.4689557552337646484 2.2151329517364501953 1.0326956510543823242 1.15718841552734375 1.0812047719955444336 2.5863945484161376953 1.100308537483215332 1.100308537483215332 1.2955501079559326172 1.0151902437210083008 1.301726222038269043 1.2162234783172607422 1.7234236001968383789 1.3719789981842041016 1.4162803888320922852 2.0592036247253417969 1.9937613010406494141 2.7132914066314697266 2.5545742511749267578 2.9814748764038085938 3.2005062103271484375 2.8664681911468505859 2.5522964000701904297 3.2434258460998535156 2.8740181922912597656 2.5592942237854003906 2.6115806102752685547 2.8324778079986572266 2.5904998779296875 2.8640697002410888672 2.9687974452972412109 3.0522603988647460938 3.3365750312805175781 3.0587887763977050781 3.5173003673553466797 3.3678631782531738281 3.6241056919097900391 3.449268341064453125 3.3280653953552246094 2.3829636573791503906 1.7742221355438232422 2.1333131790161132813 1.5418590307235717773 1.4754037857055664063 2.3563568592071533203 2.2755205631256103516 1.2596235275268554688 1.2322576045989990234 1.5956929922103881836 2.1864342689514160156 1.7441799640655517578 1.5233876705169677734 1.7517856359481811523 1.645827174186706543 1.7402052879333496094 1.8209245204925537109 2.1740193367004394531 1.910046696662902832 1.9018425941467285156 2.4220907688140869141 1.7402052879333496094 1.6534782648086547852 1.6751600503921508789 1.6534782648086547852 1.9941501617431640625 1.6134284734725952148 1.8044241666793823242 1.3463209867477416992 1.6751600503921508789 1.5639649629592895508 2.4853329658508300781 2.3927609920501708984 1.9800155162811279297 2.4879274368286132813 2.6225647926330566406 2.2310791015625 2.5221343040466308594 2.6555066108703613281 3.0461354255676269531 2.9839773178100585938 3.4269742965698242188 4.187656402587890625 4.1579527854919433594 3.7146165370941162109 3.2594101428985595703 3.2144324779510498047 3.3786771297454833984 3.0872592926025390625 3.5556952953338623047 3.6323049068450927734 4.4381175041198730469 4.0576167106628417969 3.8282706737518310547 3.6596560478210449219 4.1251392364501953125 4.4638381004333496094 4.2146162986755371094 4.8148064613342285156 4.9514985084533691406 5.5072460174560546875 6.7892127037048339844 6.5068259239196777344 5.0319128036499023438 4.7939162254333496094 4.5394110679626464844 4.8514132499694824219 
2.9650149345397949219 2.6208863258361816406 2.7661449909210205078 2.6593503952026367188 2.5677316188812255859 2.2238202095031738281 1.9166165590286254883 2.1643557548522949219 2.0591008663177490234 1.9774123430252075195 1.9086233377456665039 1.7221589088439941406 2.20162200927734375 2.3898546695709228516 1.8942561149597167969 2.7319126129150390625 1.9104408025741577148 1.8485007286071777344 1.9661960601806640625 2.257114410400390625 2.5824134349822998047 2.8007898330688476563 3.1023192405700683594 3.2623238563537597656 2.6320421695709228516 2.2954838275909423828 2.4254908561706542969 2.7547574043273925781 2.4675204753875732422 2.9921882152557373047 3.2408239841461181641 2.8159360885620117188 2.376346588134765625 1.9395674467086791992 2.0059859752655029297 1.7857400178909301758 1.6754130125045776367 1.6593649387359619141 1.6484457254409790039 1.4805293083190917969 1.3642908334732055664 1.1697165966033935547 1.4458026885986328125 1.6791050434112548828 1.2578819990158081055 1.2457425594329833984 1.0067185163497924805 1.2795636653900146484 1.0187373161315917969 1.2863910198211669922 1.0621008872985839844 1.2668840885162353516 1.331929326057434082 1.1297240257263183594 1.3906348943710327148 1.1559113264083862305 1.2162303924560546875 1.6011126041412353516 1.2812757492065429688 1.6407986879348754883 1.259593963623046875 1.1106201410293579102 1.5631386041641235352 1.7338654994964599609 1.7185235023498535156 1.6011126041412353516 1.418656468391418457 1.0200263261795043945 1.7054418325424194336 1.331929326057434082 1.418656468391418457 1.0309851169586181641 1.1494731903076171875 1.0043752193450927734 1.1028864383697509766 1.1462500095367431641 1.0378412008285522461 1.2955501079559326172 1.0087381601333618164 1.9108177423477172852 1.0595229864120483398 1.1245682239532470703 1.1245682239532470703 1.1245682239532470703 1.6955621242523193359 1.0595229864120483398 1.0378412008285522461 1.100308537483215332 1.100308537483215332 2.5969169139862060547 1.0212770700454711914 1.1245682239532470703 1.9041965007781982422 1.1245682239532470703 1.6868594884872436523 1.0303750038146972656 1.0212770700454711914 1.3215906620025634766 1.0378412008285522461 2.3189318180084228516 3.14661407470703125 3.9627170562744140625 1.301726222038269043 1.0079749822616577148 1.1028864383697509766 1.0595229864120483398 1.2794893980026245117 1.9014084339141845703 1.56885528564453125 1.8187093734741210938 2.3508715629577636719 2.6883485317230224609 3.1097021102905273438 3.0171821117401123047 2.6701369285583496094 2.7388117313385009766 3.4054663181304931641 2.9350645542144775391 2.7591772079467773438 2.4960639476776123047 2.6834537982940673828 2.7989571094512939453 2.5553882122039794922 2.9852192401885986328 2.9634125232696533203 3.05403900146484375 3.1325364112854003906 3.2950739860534667969 2.9454801082611083984 3.3777346611022949219 3.4300973415374755859 3.7465631961822509766 3.1726703643798828125 2.6936349868774414063 1.5095369815826416016 1.5063872337341308594 1.3536111116409301758 1.5658990144729614258 1.3409774303436279297 1.76219940185546875 1.5360673666000366211 1.6402326822280883789 1.3409315347671508789 1.6283322572708129883 2.0262007713317871094 1.6444761753082275391 1.7920064926147460938 1.9466381072998046875 2.5353574752807617188 1.9459618330001831055 2.3343510627746582031 2.2764787673950195313 2.9752140045166015625 2.5556244850158691406 1.6498656272888183594 1.6346447467803955078 1.5667512416839599609 1.9035806655883789063 2.2330784797668457031 1.7565724849700927734 2.1325604915618896484 1.7618870735168457031 1.7275257110595703125 2.0460162162780761719 2.2135913372039794922 3.1623659133911132813 3.2261316776275634766 3.3831193447113037109 2.8735175132751464844 2.8730716705322265625 3.1753127574920654297 3.2886343002319335938 3.1596560478210449219 4.0269150733947753906 4.4638133049011230469 4.372039794921875 4.128162384033203125 3.8065328598022460938 4.3078250885009765625 3.2803125381469726563 2.9295465946197509766 3.7009491920471191406 3.3483490943908691406 3.4554178714752197266 4.1281147003173828125 3.4373223781585693359 3.2558674812316894531 4.0948414802551269531 4.4022874832153320313 4.3531961441040039063 4.5072979927062988281 5.0380635261535644531 5.1595392227172851563 6.3960971832275390625 6.1291422843933105469 5.9644980430603027344 5.2996778488159179688 4.9990887641906738281 4.5894327163696289063 4.2211542129516601563 
2.6991400718688964844 2.5194425582885742188 2.4532599449157714844 2.452693939208984375 2.4262659549713134766 2.308483123779296875 2.2563955783843994141 1.9509077072143554688 2.1843950748443603516 2.1622853279113769531 2.0567378997802734375 2.5296888351440429688 2.2383823394775390625 2.0723743438720703125 1.9049409627914428711 2.5418221950531005859 1.8837592601776123047 1.8572635650634765625 1.6881967782974243164 2.69211578369140625 2.8553013801574707031 3.1569061279296875 3.0322530269622802734 2.8057579994201660156 2.8701007366180419922 2.5858137607574462891 2.1461963653564453125 2.2729609012603759766 2.5977342128753662109 2.9375240802764892578 3.1427643299102783203 2.7851531505584716797 2.2507703304290771484 1.8904089927673339844 1.8385713100433349609 1.4785366058349609375 1.5799500942230224609 1.4159684181213378906 1.8480058908462524414 1.2828426361083984375 1.5525317192077636719 1.8125633001327514648 1.418656468391418457 1.418656468391418457 1.4500248432159423828 1.6906564235687255859 1.6017558574676513672 1.0406931638717651367 1.6401590108871459961 1.0030351877212524414 1.1271461248397827148 1.1801570653915405273 1.1928366422653198242 1.418656468391418457 1.577124476432800293 1.0498460531234741211 1.6227943897247314453 1.7185235023498535156 1.1728669404983520508 1.5233876705169677734 1.2162303924560546875 1.4764115810394287109 2.0400724411010742188 1.9009797573089599609 1.4113662242889404297 1.5233876705169677734 1.5794308185577392578 1.2018388509750366211 1.3969746828079223633 1.0508012771606445313 1.4123165607452392578 1.1080422401428222656 1.044314265251159668 1.9041965007781982422 1.6600682735443115234 1.4710749387741088867 1.1245682239532470703 1.0193825960159301758 2.3019168376922607422 1.9041965007781982422 2.4689557552337646484 1.0303750038146972656 2.3019168376922607422 1.1028864383697509766 1.0378412008285522461 1.2955501079559326172 2.5863945484161376953 3.9627170562744140625 1.5903766155242919922 2.0106759071350097656 1.0595229864120483398 1.0029140710830688477 1.0595229864120483398 1.0595229864120483398 3.4979276657104492188 1.301726222038269043 1.0303750038146972656 1.1245682239532470703 1.301726222038269043 2.1164593696594238281 2.6321852207183837891 1.1219903230667114258 1.100308537483215332 2.0106759071350097656 1.301726222038269043 1.9108177423477172852 3.14661407470703125 1.9041965007781982422 1.9041965007781982422 1.9692580699920654297 1.9819359779357910156 2.3271491527557373047 2.6353483200073242188 2.7779767513275146484 3.142345428466796875 2.7233977317810058594 2.8189408779144287109 3.2056450843811035156 3.5235331058502197266 3.6345112323760986328 3.1823899745941162109 2.5351412296295166016 1.9940440654754638672 2.6352472305297851563 2.7035210132598876953 2.4951653480529785156 2.5760557651519775391 2.8731198310852050781 3.4739904403686523438 3.3336460590362548828 3.5964047908782958984 3.2162637710571289063 2.9941401481628417969 2.5630314350128173828 1.9243537187576293945 1.6016696691513061523 1.2300459146499633789 1.331929326057434082 1.929738163948059082 1.418656468391418457 1.8191460371017456055 1.5667512416839599609 1.4493403434753417969 1.3481119871139526367 2.0573446750640869141 1.5382443666458129883 1.808574676513671875 1.7426353693008422852 2.6557524204254150391 2.4678416252136230469 3.3360390663146972656 2.4576735496520996094 3.4424207210540771484 2.7674176692962646484 2.6226413249969482422 2.8394479751586914063 2.8917219638824462891 2.3184998035430908203 2.6072223186492919922 2.8250751495361328125 2.3952162265777587891 1.9400038719177246094 1.8359345197677612305 1.9498995542526245117 2.3368821144104003906 3.9552237987518310547 4.1366667747497558594 3.9061801433563232422 3.5669841766357421875 3.9989259243011474609 4.0522532463073730469 4.0613470077514648438 4.9547681808471679688 4.6013593673706054688 4.056064605712890625 4.8937320709228515625 4.4415326118469238281 3.9834008216857910156 4.3814001083374023438 4.1809763908386230469 4.1281409263610839844 3.6648738384246826172 3.5998404026031494141 3.4324204921722412109 3.5784673690795898438 3.1562569141387939453 3.7555572986602783203 3.854679107666015625 3.8783469200134277344 5.2289052009582519531 5.1074805259704589844 4.9550189971923828125 4.5007948875427246094 5.0727171897888183594 5.7261567115783691406 4.7493853569030761719 5.0616197586059570313 4.692790985107421875 5.0649037361145019531 5.3993000984191894531 
2.7545094490051269531 2.7107694149017333984 2.8040642738342285156 2.4075746536254882813 2.3526179790496826172 2.2857196331024169922 2.2182009220123291016 2.4840397834777832031 2.6894693374633789063 2.7558841705322265625 2.5491018295288085938 2.0884978771209716797 2.2537643909454345703 2.0277369022369384766 1.5766129493713378906 1.694882512092590332 1.9041965007781982422 2.0196244716644287109 2.1900115013122558594 2.8334763050079345703 2.9071719646453857422 3.2781934738159179688 3.1296732425689697266 3.5444915294647216797 2.7734861373901367188 2.7931320667266845703 2.8304944038391113281 3.075771331787109375 3.4848716259002685547 3.2179248332977294922 2.9596529006958007813 2.4422702789306640625 2.5988996028900146484 2.3022403717041015625 1.9041965007781982422 1.6154121160507202148 1.5563186407089233398 1.7625502347946166992 1.9235798120498657227 2.2686245441436767578 2.6631178855895996094 1.9909050464630126953 2.2258327007293701172 1.9474495649337768555 1.6690905094146728516 1.3924791812896728516 1.7228983640670776367 1.742946624755859375 1.5563584566116333008 1.1271461248397827148 1.0063837766647338867 1.16548919677734375 1.0837826728820800781 1.0837422609329223633 1.1078215837478637695 1.5884330272674560547 1.0418485403060913086 1.0672566890716552734 1.7121837139129638672 1.5450694561004638672 1.151185154914855957 1.2162303924560546875 1.6715474128723144531 1.7582744359970092773 1.6101148128509521484 1.3906348943710327148 1.3409315347671508789 1.2018388509750366211 1.0452696084976196289 1.0513564348220825195 1.3752928972244262695 1.2749919891357421875 1.0258535146713256836 1.0621008872985839844 1.0285193920135498047 1.0711750984191894531 1.0844278335571289063 1.1028864383697509766 1.9041965007781982422 2.1344089508056640625 1.2955501079559326172 1.1245682239532470703 1.0535526275634765625 1.0050448179244995117 1.9108177423477172852 1.7194232940673828125 2.2552065849304199219 2.4689557552337646484 1.029074549674987793 2.0106759071350097656 1.029074549674987793 2.4689557552337646484 2.6398310661315917969 2.4689557552337646484 2.5969169139862060547 2.5863945484161376953 1.2955501079559326172 1.0812047719955444336 1.2144525051116943359 2.4689557552337646484 2.5969169139862060547 1.5903766155242919922 1.2621108293533325195 2.5611174106597900391 1.9108177423477172852 1.9542856216430664063 2.4689557552337646484 1.7714097499847412109 1.9119925498962402344 2.3765139579772949219 2.4254200458526611328 2.1989941596984863281 2.2207975387573242188 2.8400843143463134766 2.5519342422485351563 2.3190996646881103516 2.6060564517974853516 3.0244116783142089844 3.1136596202850341797 3.0858922004699707031 2.1598165035247802734 2.1757566928863525391 2.1323189735412597656 2.4697093963623046875 2.5363056659698486328 2.55792999267578125 3.1322040557861328125 2.6261606216430664063 2.6228411197662353516 2.6182961463928222656 2.5658326148986816406 2.6113944053649902344 2.6132955551147460938 2.1476931571960449219 1.819957733154296875 1.7556712627410888672 1.2446750402450561523 1.4533580541610717773 1.1794087886810302734 1.4529761075973510742 1.9624789953231811523 2.6128835678100585938 1.5755459070205688477 1.9998244047164916992 1.6094706058502197266 2.3812780380249023438 2.3021283149719238281 2.5487856864929199219 2.6558828353881835938 3.1706242561340332031 3.0413429737091064453 3.5764610767364501953 2.7524518966674804688 2.4929561614990234375 3.3827362060546875 3.3627986907958984375 3.2815420627593994141 2.9908697605133056641 3.1827933788299560547 3.1098635196685791016 2.8047177791595458984 3.3403980731964111328 2.8950924873352050781 2.3464376926422119141 2.3713064193725585938 3.1401612758636474609 3.7832894325256347656 4.141231536865234375 4.2930698394775390625 4.4929018020629882813 3.7999868392944335938 4.6810736656188964844 4.9638538360595703125 4.4414677619934082031 4.4978852272033691406 4.8503808975219726563 4.509853363037109375 5.1061038970947265625 4.4706492424011230469 4.8121790885925292969 4.0128498077392578125 3.0702362060546875 3.0199785232543945313 3.1114201545715332031 3.7907741069793701172 4.2833528518676757813 4.4127154350280761719 3.9740176200866699219 4.563884735107421875 5.027599334716796875 5.7387461662292480469 5.3774137496948242188 4.5458383560180664063 5.3917889595031738281 5.8830814361572265625 5.1406073570251464844 5.0367465019226074219 4.3788976669311523438 4.6488442420959472656 5.0726609230041503906 
2.3102633953094482422 2.4515264034271240234 2.2204661369323730469 2.4554226398468017578 2.1331334114074707031 2.1976349353790283203 2.0980629920959472656 2.4468526840209960938 3.0654807090759277344 2.9888255596160888672 2.0159223079681396484 1.8391681909561157227 2.0126194953918457031 1.7345267534255981445 1.9041965007781982422 1.5693765878677368164 2.1344089508056640625 2.0199382305145263672 2.3036503791809082031 2.7121942043304443359 2.9126808643341064453 2.9614887237548828125 3.1922125816345214844 3.7449653148651123047 2.8794603347778320313 2.6998612880706787109 2.9789936542510986328 2.8724491596221923828 2.9273202419281005859 3.1562547683715820313 3.2784583568572998047 2.9604210853576660156 2.8496811389923095703 2.3312370777130126953 2.0609655380249023438 1.8420337438583374023 1.4987437725067138672 1.5943996906280517578 1.9816359281539916992 2.8222150802612304688 3.1694784164428710938 2.2760915756225585938 2.1112513542175292969 2.5236394405364990234 2.1815226078033447266 1.7893595695495605469 2.0890424251556396484 1.4276585578918457031 1.7439358234405517578 1.4313527345657348633 1.2003653049468994141 1.3102476596832275391 1.2298604249954223633 1.2812757492065429688 2.1300127506256103516 1.7492074966430664063 1.1297240257263183594 1.418656468391418457 1.5730910301208496094 1.5514092445373535156 1.6101148128509521484 1.6317964792251586914 1.3463209867477416992 1.259593963623046875 1.3409315347671508789 1.1080422401428222656 1.0863605737686157227 1.2885658740997314453 1.3536111116409301758 1.3102476596832275391 1.440338134765625 1.2885658740997314453 1.0837826728820800781 2.4515626430511474609 2.7452986240386962891 1.0844278335571289063 1.301726222038269043 1.6691575050354003906 1.1462500095367431641 1.9041965007781982422 1.1028864383697509766 1.0812047719955444336 1.0378412008285522461 1.1277914047241210938 1.1245682239532470703 1.0595229864120483398 1.391209721565246582 1.9041965007781982422 1.0378412008285522461 1.1219903230667114258 1.0378412008285522461 2.4689557552337646484 2.2016704082489013672 1.0151902437210083008 3.9627170562744140625 1.0135469436645507813 2.4689557552337646484 1.1019500494003295898 1.3518837690353393555 2.1164593696594238281 2.2016704082489013672 2.4689557552337646484 1.6868594884872436523 1.9122374057769775391 1.1229699850082397461 1.9108177423477172852 1.4182329177856445313 1.4555878639221191406 1.4330070018768310547 2.1498136520385742188 2.4521718025207519531 2.4062983989715576172 2.7106273174285888672 2.0604097843170166016 2.6344234943389892578 2.4241492748260498047 2.0115678310394287109 2.8996491432189941406 3.1061024665832519531 2.8523964881896972656 2.0788538455963134766 2.1078464984893798828 1.9105185270309448242 2.0015223026275634766 2.7098751068115234375 2.8217539787292480469 2.9076323509216308594 2.4571137428283691406 2.5034041404724121094 2.3294084072113037109 2.3800551891326904297 2.3889567852020263672 2.4285376071929931641 1.9668498039245605469 1.3689531087875366211 1.5622986555099487305 1.2045967578887939453 1.737658381462097168 2.0316948890686035156 1.5277475118637084961 1.7683373689651489258 2.2398416996002197266 2.2843794822692871094 2.2018148899078369141 1.6340098381042480469 1.7836477756500244141 2.1520035266876220703 2.5928950309753417969 2.7608850002288818359 2.7572343349456787109 2.88002777099609375 3.0466246604919433594 3.1208040714263916016 2.8985295295715332031 3.5526554584503173828 2.7490513324737548828 3.1637477874755859375 4.3715009689331054688 3.6891679763793945313 4.0404338836669921875 2.4666206836700439453 2.7403333187103271484 2.6319789886474609375 2.3176157474517822266 3.3929126262664794922 4.0155673027038574219 5.4597415924072265625 4.8103299140930175781 4.8616776466369628906 4.4294958114624023438 3.9671754837036132813 4.1656680107116699219 4.194553375244140625 3.8562159538269042969 3.6801660060882568359 3.7533853054046630859 4.0192050933837890625 4.669048309326171875 4.8677744865417480469 4.2863421440124511719 3.7014772891998291016 3.1629188060760498047 3.2158713340759277344 3.3468728065490722656 4.8241915702819824219 4.4441070556640625 4.6559858322143554688 4.41416168212890625 3.8666317462921142578 3.7928760051727294922 4.89218902587890625 4.8526902198791503906 4.4958539009094238281 4.9372987747192382813 4.5760860443115234375 4.729816436767578125 4.1857924461364746094 4.1721773147583007813 4.3676400184631347656 4.6879606246948242188 
2.8323905467987060547 2.1599755287170410156 2.6205890178680419922 2.5643732547760009766 2.6836788654327392578 2.4051749706268310547 2.6926896572113037109 2.3022150993347167969 3.0468642711639404297 2.8925096988677978516 2.8459844589233398438 2.4230561256408691406 2.3104369640350341797 2.1069560050964355469 1.9041965007781982422 1.5923781394958496094 1.3138723373413085938 1.8460730314254760742 2.5655488967895507813 2.8610522747039794922 2.684886932373046875 3.0130746364593505859 3.6354668140411376953 3.4729597568511962891 3.2549068927764892578 2.5380346775054931641 2.644603729248046875 3.2214634418487548828 3.3959062099456787109 3.2613329887390136719 3.3279759883880615234 3.1820909976959228516 2.5016164779663085938 2.5083026885986328125 2.1193621158599853516 2.3334784507751464844 1.8390128612518310547 2.1596958637237548828 2.2304296493530273438 3.2722373008728027344 2.8061530590057373047 2.9064991474151611328 2.9264538288116455078 3.3522694110870361328 2.8540225028991699219 2.2825138568878173828 1.7954109907150268555 2.3196692466735839844 1.6227943897247314453 1.7492074966430664063 1.8142527341842651367 1.6101148128509521484 1.0437591075897216797 1.7835688591003417969 1.7835688591003417969 1.8576163053512573242 1.0386450290679931641 1.3536665439605712891 1.6227943897247314453 1.0490907430648803711 1.1323019266128540039 1.0437591075897216797 1.3626133203506469727 1.440338134765625 1.1080422401428222656 1.3102476596832275391 1.4493403434753417969 1.0559328794479370117 1.0646787881851196289 1.6534782648086547852 1.4927037954330444336 1.0867646932601928711 1.0837826728820800781 1.1054643392562866211 1.0595229864120483398 1.0595229864120483398 1.301726222038269043 1.0378412008285522461 1.301726222038269043 1.1096309423446655273 1.0812047719955444336 1.1028864383697509766 1.0378412008285522461 1.0812047719955444336 2.1344089508056640625 1.106109619140625 1.9041965007781982422 2.2151329517364501953 1.5398709774017333984 3.6311545372009277344 1.0378412008285522461 1.0087381601333618164 2.2552065849304199219 1.0029140710830688477 2.2552065849304199219 1.1219903230667114258 2.2552065849304199219 1.0812047719955444336 1.1245405673980712891 1.3612657785415649414 2.4689557552337646484 2.6321852207183837891 1.4776798486709594727 1.0273030996322631836 1.2542529106140136719 1.4278283119201660156 1.0489264726638793945 1.9390548467636108398 1.5849471092224121094 1.7816687822341918945 2.1635012626647949219 2.6957957744598388672 2.8845231533050537109 2.2269577980041503906 2.1670439243316650391 2.2665009498596191406 2.3611123561859130859 2.8496987819671630859 2.2660150527954101563 2.3934357166290283203 1.8332647085189819336 1.8570721149444580078 2.6414661407470703125 2.1091675758361816406 2.1747965812683105469 2.3513031005859375 2.5169866085052490234 2.4683001041412353516 1.8524413108825683594 2.1460509300231933594 2.067779541015625 2.7146494388580322266 2.0702099800109863281 1.7668452262878417969 1.5270591974258422852 1.6904913187026977539 1.537282109260559082 1.6316028833389282227 1.7687022686004638672 1.8124867677688598633 1.7431319952011108398 2.1532309055328369141 1.8241733312606811523 2.1357812881469726563 2.0743732452392578125 2.7962720394134521484 2.9832429885864257813 2.5820286273956298828 2.2444019317626953125 2.2766785621643066406 3.0099239349365234375 2.5934898853302001953 3.5644176006317138672 3.6238942146301269531 2.7911162376403808594 2.6643593311309814453 2.9813172817230224609 3.9035854339599609375 3.7204635143280029297 3.2845292091369628906 3.4553358554840087891 3.132965087890625 2.8653669357299804688 3.5759768486022949219 4.0466146469116210938 4.2548136711120605469 5.1876363754272460938 5.0495438575744628906 5.5401945114135742188 4.3974552154541015625 3.6176304817199707031 3.6576237678527832031 4.018634796142578125 3.7980935573577880859 3.8628804683685302734 3.5311315059661865234 3.6033937931060791016 3.6188843250274658203 4.1419305801391601563 3.7843306064605712891 3.9026944637298583984 2.6611020565032958984 2.5114231109619140625 3.8524713516235351563 3.854679107666015625 3.5130548477172851563 4.2841200828552246094 4.2208280563354492188 3.8073980808258056641 3.4053742885589599609 4.1375474929809570313 4.5671830177307128906 4.6022267341613769531 4.439228057861328125 4.0040960311889648438 3.9290874004364013672 4.6686420440673828125 4.0602955818176269531 3.6550531387329101563 3.2127728462219238281 
2.6881666183471679688 2.5703928470611572266 2.8009161949157714844 2.7226769924163818359 2.5815606117248535156 3.1508650779724121094 2.5833535194396972656 3.0349109172821044922 2.8373992443084716797 2.4475824832916259766 2.2152249813079833984 2.5815939903259277344 2.4483790397644042969 1.8153487443923950195 1.8690186738967895508 1.229142308235168457 1.887591242790222168 2.4208893775939941406 2.2456231117248535156 2.6989109516143798828 2.595882415771484375 2.6723470687866210938 3.0301311016082763672 3.4061300754547119141 3.3918602466583251953 3.1728217601776123047 2.8674631118774414063 3.0434262752532958984 3.2181277275085449219 2.7411334514617919922 3.0329549312591552734 2.7629237174987792969 2.3169512748718261719 2.3439726829528808594 1.9253678321838378906 2.2496631145477294922 1.8966480493545532227 2.5228445529937744141 2.0414335727691650391 2.5927011966705322266 3.04132080078125 2.9960515499114990234 3.2819309234619140625 3.9390509128570556641 2.4331386089324951172 2.3456177711486816406 2.5316157341003417969 2.1959500312805175781 1.7553664445877075195 1.8375786542892456055 2.0649721622467041016 2.5725715160369873047 1.9577486515045166016 2.1270222663879394531 1.9660249948501586914 1.5233876705169677734 1.6905019283294677734 1.1728669404983520508 1.5794308185577392578 1.5577491521835327148 1.3842949867248535156 1.1539837121963500977 1.0455749034881591797 1.3102476596832275391 1.4276585578918457031 1.2452023029327392578 1.2668840885162353516 1.3102476596832275391 1.4059767723083496094 1.0360988378524780273 1.0496459007263183594 1.0213152170181274414 1.1711549758911132813 1 1.0378412008285522461 1.0378412008285522461 1.0029140710830688477 1.029074549674987793 1.9041965007781982422 1.1928366422653198242 1 1.391209721565246582 1.9041965007781982422 1.1028864383697509766 1.0404191017150878906 1.0605514049530029297 1.9041965007781982422 1.9041965007781982422 1.0844278335571289063 1.029074549674987793 1.0812047719955444336 1.1508209705352783203 2.0106759071350097656 1.100308537483215332 2.8139696121215820313 1.8997918367385864258 2.2016704082489013672 1.0812047719955444336 1.2856231927871704102 1.1245682239532470703 1.9542856216430664063 2.3418080806732177734 1.6600682735443115234 1.4491066932678222656 1.9041965007781982422 1.044114232063293457 1.9041965007781982422 1.4517475366592407227 1.3169862031936645508 1.3969746828079223633 2.3859789371490478516 2.524761199951171875 2.0749990940093994141 2.4032680988311767578 2.0808405876159667969 1.8571017980575561523 2.4708096981048583984 2.8512015342712402344 2.5510325431823730469 2.3520271778106689453 1.6642283201217651367 1.884816288948059082 1.723687291145324707 1.3941397666931152344 2.1886806488037109375 2.3231444358825683594 2.26131439208984375 1.9076752662658691406 1.6011060476303100586 1.5976426601409912109 1.95984649658203125 1.8768807649612426758 1.6483044624328613281 1.3536111116409301758 1.7363059520721435547 1.3536111116409301758 1.4429755210876464844 1.1904656887054443359 1.7393530607223510742 1.7291409969329833984 1.2603366374969482422 1.6180840730667114258 1.7142312526702880859 1.7311004400253295898 1.4710220098495483398 2.0516562461853027344 2.3568832874298095703 1.738816380500793457 2.3342535495758056641 2.0886437892913818359 2.9590137004852294922 3.1448400020599365234 2.7549943923950195313 2.4593098163604736328 2.0389394760131835938 2.5470798015594482422 2.8098540306091308594 3.0405695438385009766 3.9940087795257568359 3.6201581954956054688 3.6265213489532470703 3.5073721408843994141 2.9254930019378662109 2.4176306724548339844 4.2557353973388671875 4.7197237014770507813 4.2680215835571289063 5.2997350692749023438 4.4238533973693847656 5.3782401084899902344 3.8615617752075195313 3.5068521499633789063 3.0001642704010009766 3.6919224262237548828 3.6282479763031005859 3.2573647499084472656 3.6996314525604248047 3.1272406578063964844 4.1220479011535644531 3.5846397876739501953 2.4739809036254882813 2.6631617546081542969 2.5748128890991210938 3.3674895763397216797 3.3981797695159912109 2.7717854976654052734 3.3405568599700927734 4.2238321304321289063 3.6481800079345703125 3.6946518421173095703 3.7629878520965576172 4.0294961929321289063 4.007724761962890625 3.6840124130249023438 3.4146966934204101563 3.8370625972747802734 4.2362499237060546875 3.7431890964508056641 3.1846852302551269531 3.3489308357238769531 
2.4545927047729492188 2.5939688682556152344 2.5004930496215820313 1.9738566875457763672 2.5864717960357666016 2.5245873928070068359 2.8496887683868408203 2.5162589550018310547 2.7255556583404541016 3.1516742706298828125 2.6586372852325439453 2.4142820835113525391 2.3400187492370605469 2.2440268993377685547 1.8395730257034301758 1.9153203964233398438 1.7922774553298950195 1.8777788877487182617 1.7746090888977050781 2.2295055389404296875 2.5011827945709228516 3.1356449127197265625 3.4826092720031738281 3.5591280460357666016 3.5395607948303222656 3.4639956951141357422 3.3079864978790283203 3.0534107685089111328 3.143787384033203125 2.3187465667724609375 2.6061618328094482422 2.8820543289184570313 2.7786848545074462891 2.13818359375 2.4868612289428710938 2.7661015987396240234 2.1669890880584716797 2.4791386127471923828 3.0669066905975341797 3.0059502124786376953 3.5779733657836914063 3.3187837600708007813 2.8842484951019287109 3.2947041988372802734 3.9071595668792724609 2.4893269538879394531 3.6257872581481933594 2.7089014053344726563 2.292812347412109375 3.1805944442749023438 3.4682872295379638672 2.6497826576232910156 2.4087271690368652344 2.1268644332885742188 1.7799562215805053711 1.8450014591217041016 1.6534782648086547852 1.5884330272674560547 1.6101148128509521484 1.4710220098495483398 1.4059767723083496094 1.0889384746551513672 1.5360673666000366211 1.2162303924560546875 1.5794308185577392578 1.3752928972244262695 1.4493403434753417969 1.0863605737686157227 1.3969746828079223633 1.0075553655624389648 1.3536111116409301758 1.1271461248397827148 1.0187373161315917969 1.9062337875366210938 1.9542856216430664063 1.0151902437210083008 1.2955501079559326172 2.2552065849304199219 1.0690859556198120117 1.2578819990158081055 1.0844278335571289063 1.1277914047241210938 1.1245682239532470703 1.1245682239532470703 1.1245682239532470703 1.0574426651000976563 1.031940460205078125 1.1462500095367431641 1.0812047719955444336 1.0923851728439331055 1.5902960300445556641 2.4689557552337646484 2.3019168376922607422 2.4689557552337646484 2.4689557552337646484 1.9108177423477172852 2.2552065849304199219 1.301726222038269043 1.0595229864120483398 1.0931451320648193359 1.6955621242523193359 1.5361024141311645508 1.5523587465286254883 1.6917500495910644531 1.7025278806686401367 1.5854048728942871094 1.8388757705688476563 1.8013879060745239258 1.9656978845596313477 1.9198602437973022461 1.8657793998718261719 1.5094436407089233398 1.9359511137008666992 2.3916850090026855469 1.6607724428176879883 1.5252374410629272461 2.19733428955078125 2.4355072975158691406 2.2700374126434326172 2.3113160133361816406 1.3832165002822875977 1.8601201772689819336 2.1566975116729736328 1.6716461181640625 1.7936182022094726563 2.1238780021667480469 1.6978341341018676758 1.9084048271179199219 1.7895489931106567383 1.4765868186950683594 1.8073301315307617188 1.2018388509750366211 1.0867646932601928711 1.1054643392562866211 1.0382274389266967773 1.0867646932601928711 1.3192497491836547852 1.2988790273666381836 1.7790484428405761719 1.5128532648086547852 1.4493403434753417969 2.0165333747863769531 2.0526928901672363281 2.4268047809600830078 2.0005764961242675781 2.6459503173828125 1.9354400634765625 1.5017257928848266602 2.0061752796173095703 2.4403557777404785156 3.1567165851593017578 3.4331526756286621094 2.3219411373138427734 2.3700563907623291016 2.7129065990447998047 2.6682476997375488281 2.9509816169738769531 2.4613306522369384766 2.8899300098419189453 2.8180298805236816406 2.7616331577301025391 3.4447760581970214844 3.4252724647521972656 2.0504894256591796875 3.1159145832061767578 3.5476541519165039063 3.2308485507965087891 4.1228342056274414063 4.7582554817199707031 4.7579846382141113281 4.1159596443176269531 4.1406426429748535156 3.0949013233184814453 3.2993590831756591797 3.3997871875762939453 3.2807359695434570313 3.3781995773315429688 2.9939787387847900391 4.1287226676940917969 3.9542856216430664063 2.8618500232696533203 3.0259714126586914063 3.0247795581817626953 2.6055703163146972656 2.9977290630340576172 2.8645186424255371094 3.2806353569030761719 3.5157415866851806641 3.1870827674865722656 3.0774717330932617188 3.0642325878143310547 3.2643997669219970703 3.3224239349365234375 3.2031598091125488281 3.6114675998687744141 4.06561279296875 3.7908782958984375 3.4702503681182861328 2.59963226318359375 2.2864668369293212891 
2.3930876255035400391 2.4686932563781738281 2.7113721370697021484 2.3052971363067626953 2.4944536685943603516 2.997974395751953125 2.9547049999237060547 2.8487696647644042969 3.4391763210296630859 2.8796374797821044922 2.5210652351379394531 2.5876512527465820313 3.1928389072418212891 2.3736510276794433594 2.2659511566162109375 1.8954373598098754883 1.8777669668197631836 1.7402646541595458984 1.4786542654037475586 1.8319525718688964844 1.8867090940475463867 2.5693993568420410156 2.7435898780822753906 2.6959476470947265625 3.1275084018707275391 3.0681257247924804688 3.4314451217651367188 2.7482559680938720703 3.2649292945861816406 2.7706863880157470703 2.8622531890869140625 2.7443525791168212891 2.2562503814697265625 2.2002370357513427734 2.2364382743835449219 2.3316783905029296875 2.4821753501892089844 2.5073714256286621094 3.2999656200408935547 3.7360560894012451172 3.2469146251678466797 2.7892673015594482422 3.8736672401428222656 3.6033952236175537109 2.5698804855346679688 3.5741796493530273438 2.8754341602325439453 2.6031293869018554688 2.5229206085205078125 2.7556173801422119141 2.1702277660369873047 2.9555926322937011719 2.8481113910675048828 2.3707597255706787109 2.2786366939544677734 2.1040005683898925781 1.6196446418762207031 1.368002772331237793 1.5667512416839599609 1.6751600503921508789 1.5360673666000366211 1.0508012771606445313 1.0568882226943969727 1.3246392011642456055 1.1539837121963500977 1.4059767723083496094 1.0646787881851196289 1.2700076103210449219 1.0525118112564086914 1.151185154914855957 1.4710220098495483398 1.0063837766647338867 1.3540925979614257813 1.0812047719955444336 1.0029140710830688477 1.0595229864120483398 2.4689557552337646484 1.029074549674987793 1.9041965007781982422 1.4745291471481323242 1.2362002134323120117 1.0621008872985839844 2.1344089508056640625 1.4941908121109008789 1.0711750984191894531 1.0595229864120483398 1.0595229864120483398 1.0812047719955444336 1.5671200752258300781 1.0035790205001831055 1.6691575050354003906 1.0711750984191894531 1.1028864383697509766 1.0690859556198120117 2.2552065849304199219 1.0212770700454711914 2.6151242256164550781 1.301726222038269043 1.0151902437210083008 1.1028864383697509766 1.4710749387741088867 1.1462500095367431641 1.6575944423675537109 1.7217235565185546875 1.2195177078247070313 2.4515626430511474609 1.8519420623779296875 1.8921396732330322266 2.0053725242614746094 1.7588771581649780273 1.8930311203002929688 2.0297551155090332031 1.4284988641738891602 1.7897651195526123047 1.5279030799865722656 1.2121393680572509766 1.8618228435516357422 2.5444157123565673828 2.1506114006042480469 2.4362013339996337891 1.3952602148056030273 1.6932330131530761719 1.7874269485473632813 1.6754418611526489258 2.4425797462463378906 2.1346211433410644531 1.7294685840606689453 1.3420890569686889648 1.4106496572494506836 1.2362002134323120117 1.3561016321182250977 1.214518427848815918 1.1277914047241210938 1.106109619140625 1.2795636653900146484 1.4638935327529907227 1.418656468391418457 1.4676939249038696289 1.5103141069412231445 2.2584965229034423828 2.0744206905364990234 2.0927808284759521484 1.8321126699447631836 1.6664483547210693359 1.7980538606643676758 3.387073516845703125 2.4351372718811035156 2.4776713848114013672 1.9429805278778076172 2.4550938606262207031 2.8059351444244384766 3.4802849292755126953 3.0960352420806884766 3.4262545108795166016 2.2382600307464599609 2.3432910442352294922 2.6910390853881835938 2.0988991260528564453 2.8165578842163085938 2.9708766937255859375 2.7681429386138916016 3.0122175216674804688 2.7452471256256103516 2.5502336025238037109 3.0281059741973876953 3.1074247360229492188 3.4965062141418457031 3.9479506015777587891 3.6496319770812988281 4.72075653076171875 4.4965147972106933594 4.0772953033447265625 3.0756952762603759766 3.4282047748565673828 3.0008895397186279297 3.0957629680633544922 3.4067203998565673828 3.1039958000183105469 3.0728414058685302734 3.5476026535034179688 3.2065789699554443359 3.2709624767303466797 3.0235762596130371094 3.0425164699554443359 3.3259909152984619141 2.8846881389617919922 3.2482454776763916016 3.8843300342559814453 3.3088502883911132813 3.3675405979156494141 3.6918280124664306641 2.5951828956604003906 2.4863066673278808594 3.1234340667724609375 2.5287570953369140625 3.1795380115509033203 3.0558600425720214844 2.5552158355712890625 2.2923827171325683594 1.8798582553863525391 
2.8393259048461914063 2.4367105960845947266 2.6403009891510009766 3.2505230903625488281 3.3015305995941162109 3.4120647907257080078 3.2227747440338134766 3.5710818767547607422 3.2782385349273681641 2.9981687068939208984 3.3076276779174804688 3.0490643978118896484 2.7300097942352294922 2.0539865493774414063 2.0847132205963134766 2.0964932441711425781 2.0916767120361328125 1.9137570858001708984 1.7775137424468994141 1.9619455337524414063 2.5746085643768310547 2.6751296520233154297 3.1448190212249755859 3.1413283348083496094 3.0522849559783935547 3.5557892322540283203 3.2087752819061279297 2.7737243175506591797 2.8103344440460205078 2.5699338912963867188 2.5037505626678466797 2.6523201465606689453 2.1808917522430419922 2.0752530097961425781 2.1750514507293701172 2.6122069358825683594 2.7412152290344238281 3.4124505519866943359 3.6714997291564941406 3.3860189914703369141 2.8821711540222167969 3.4280695915222167969 2.9337987899780273438 3.2552149295806884766 3.2171137332916259766 2.2129657268524169922 2.7400054931640625 3.2425978183746337891 2.8485691547393798828 3.0377223491668701172 2.1329939365386962891 2.1496794223785400391 2.3653635978698730469 2.0383839607238769531 1.5057135820388793945 1.9584723711013793945 1.7402052879333496094 1.5631386041641235352 1.5017060041427612305 1.3246392011642456055 1.4113662242889404297 1.6751600503921508789 1.4330480098724365234 1.7492074966430664063 1.1106201410293579102 1.3906348943710327148 1.5514092445373535156 1.4059767723083496094 1.151185154914855957 1.6101148128509521484 1.1539837121963500977 1.3012454509735107422 1.0837826728820800781 1.301726222038269043 1.0378412008285522461 1.301726222038269043 1.0812047719955444336 1.0258535146713256836 1.2091807126998901367 1.2298604249954223633 1.3102476596832275391 1.4745291471481323242 1.1829878091812133789 2.7689762115478515625 1.126822352409362793 1.0212770700454711914 1.0595229864120483398 1.0336509943008422852 1.0309851169586181641 1.6691575050354003906 1.0309851169586181641 1.0654898881912231445 1.1277914047241210938 1.0812047719955444336 1.0595229864120483398 1.0151902437210083008 2.1164593696594238281 2.5969169139862060547 1.0087381601333618164 1.301726222038269043 1.4529160261154174805 1.6955621242523193359 1.7913882732391357422 1.8752690553665161133 1.7546765804290771484 1.6969379186630249023 1.7536958456039428711 1.8889394998550415039 1.9005478620529174805 2.058094024658203125 1.7119393348693847656 1.6563460826873779297 1.8863259553909301758 1.2116926908493041992 1.418656468391418457 1.403222203254699707 2.0716345310211181641 2.0435254573822021484 1.7253409624099731445 1.9897713661193847656 1.3176680803298950195 1.5653916597366333008 1.6138314008712768555 2.1990921497344970703 1.9112111330032348633 1.8669563531875610352 1.3820549249649047852 1.6884503364562988281 1.5528179407119750977 1.6687564849853515625 1.5042785406112670898 1.3556772470474243164 1.3472334146499633789 1.5411375761032104492 1.0063837766647338867 1.4885419607162475586 1.4417861700057983398 1.4955382347106933594 1.5360673666000366211 1.6659599542617797852 2.2107801437377929688 2.5019249916076660156 2.0120754241943359375 1.6011126041412353516 1.6384699344635009766 2.1566488742828369141 2.2096619606018066406 1.5747009515762329102 2.5297665596008300781 2.9767003059387207031 2.890621185302734375 3.6033587455749511719 3.1026995182037353516 2.6420075893402099609 2.7682299613952636719 3.13291168212890625 3.0279915332794189453 2.3600916862487792969 2.7481153011322021484 3.1524860858917236328 2.7356283664703369141 2.7905106544494628906 2.0859017372131347656 2.6537346839904785156 2.9205605983734130859 3.0562510490417480469 3.5357587337493896484 4.0490746498107910156 3.4886844158172607422 4.50293731689453125 4.2883243560791015625 3.7100141048431396484 2.7270503044128417969 3.0449337959289550781 3.0107982158660888672 2.8838405609130859375 3.60514068603515625 3.5674588680267333984 3.4102191925048828125 3.1800577640533447266 3.2758188247680664063 3.4220080375671386719 3.6579263210296630859 2.7205388545989990234 3.0842859745025634766 3.3198728561401367188 3.2585651874542236328 3.8538959026336669922 3.2662053108215332031 3.6464092731475830078 3.22943115234375 2.8456768989562988281 2.4094026088714599609 2.5397434234619140625 2.7835636138916015625 2.9819049835205078125 2.5725600719451904297 2.1386370658874511719 1.6973910331726074219 1.8934042453765869141 
2.887714385986328125 2.7912170886993408203 2.7771909236907958984 3.4565050601959228516 3.5027990341186523438 3.44789886474609375 3.7297446727752685547 4.0415587425231933594 3.6765170097351074219 3.3356816768646240234 3.0846822261810302734 2.8106875419616699219 3.3256666660308837891 2.8220560550689697266 2.5629241466522216797 2.3694732189178466797 1.7508329153060913086 1.7830201387405395508 1.7863490581512451172 1.6043568849563598633 2.5657038688659667969 2.8726563453674316406 3.2194035053253173828 3.4934360980987548828 3.5239350795745849609 3.3260691165924072266 2.7875761985778808594 2.7968966960906982422 2.6439607143402099609 2.9284293651580810547 2.8051867485046386719 2.5267996788024902344 2.0730524063110351563 2.0497558116912841797 2.3170115947723388672 2.9378468990325927734 2.6823887825012207031 3.3842847347259521484 3.8083200454711914063 3.5071818828582763672 4.0666146278381347656 4.265956878662109375 3.3607399463653564453 3.0390493869781494141 2.7318248748779296875 2.9919302463531494141 3.1161248683929443359 2.9404063224792480469 2.9114706516265869141 2.4588210582733154297 2.72339630126953125 2.4520907402038574219 3.2300779819488525391 2.2986884117126464844 2.1016991138458251953 1.4764115810394287109 1.7411884069442749023 1.9316636323928833008 1.6968418359756469727 1.5197750329971313477 2.0401372909545898438 1.8792979717254638672 1.9443433284759521484 1.8883001804351806641 1.7338654994964599609 1.3536111116409301758 1.0030351877212524414 1.3969746828079223633 1.1323019266128540039 1.5233876705169677734 1.4927037954330444336 1.1928366422653198242 1.0621008872985839844 1.0258535146713256836 1.0187373161315917969 1.0837826728820800781 1 1.2520413398742675781 1.1262996196746826172 1.2300459146499633789 1.2235205173492431641 1.1705096960067749023 1.2293920516967773438 1.3186287879943847656 1.7058150768280029297 1.0378412008285522461 1.0378412008285522461 1.4710749387741088867 1.9041965007781982422 1.0823817253112792969 1.1028864383697509766 1.0378412008285522461 1.1028864383697509766 1.1245682239532470703 1.2955501079559326172 1.2411136627197265625 1.1050202846527099609 2.4689557552337646484 1.2955501079559326172 1.230654597282409668 1.370823979377746582 1.301726222038269043 1.6485716104507446289 1.602939605712890625 1.731329798698425293 2.1344089508056640625 1.8950884342193603516 1.8994624614715576172 1.7194303274154663086 2.11470794677734375 1.7742713689804077148 1.634693145751953125 1.6195311546325683594 1.7772675752639770508 1.284527897834777832 1.524968266487121582 1.5269933938980102539 1.9998902082443237305 1.8974564075469970703 1.446232914924621582 2.0123815536499023438 1.7441145181655883789 1.9646351337432861328 1.5581581592559814453 1.6084200143814086914 1.1572300195693969727 1.4229860305786132813 1.3564537763595581055 1.5967016220092773438 1.3976359367370605469 1.7760738134384155273 1.634652256965637207 1.3678570985794067383 1.3689531087875366211 1.3063263893127441406 1 1.311606287956237793 1.2685438394546508789 1.4248535633087158203 2.1857478618621826172 2.5498111248016357422 2.1750102043151855469 2.0713503360748291016 2.4158785343170166016 2.1373081207275390625 2.5303757190704345703 2.6005573272705078125 2.5060415267944335938 2.41674041748046875 2.8504118919372558594 3.4226291179656982422 2.8745172023773193359 3.3165438175201416016 3.140056610107421875 2.4606847763061523438 2.5710053443908691406 2.8297030925750732422 2.4220430850982666016 2.0940928459167480469 3.0532584190368652344 3.0411517620086669922 3.1340253353118896484 3.0464742183685302734 2.5322811603546142578 2.3450002670288085938 3.1139290332794189453 3.3471822738647460938 3.3818833827972412109 3.2466998100280761719 2.9746942520141601563 3.2921547889709472656 4.280605316162109375 3.6386885643005371094 4.0176615715026855469 4.4221658706665039063 2.8393232822418212891 3.1612789630889892578 4.5441641807556152344 3.9901566505432128906 3.9546213150024414063 3.5185921192169189453 3.8218433856964111328 4.3725748062133789063 3.4021551609039306641 3.2059493064880371094 3.9173572063446044922 4.2652940750122070313 4.1173253059387207031 3.4527921676635742188 3.8574910163879394531 3.0472674369812011719 3.5242013931274414063 2.9156351089477539063 2.7134480476379394531 2.101898193359375 2.4875960350036621094 2.6490101814270019531 2.0855548381805419922 2.3195502758026123047 1.7683473825454711914 
3.2842853069305419922 3.2292740345001220703 3.2666490077972412109 3.8366007804870605469 4.1373848915100097656 3.8484897613525390625 4.3394937515258789063 4.130096435546875 3.6438038349151611328 3.7687284946441650391 3.1734783649444580078 3.00290679931640625 3.0287220478057861328 2.8232529163360595703 3.3618144989013671875 2.5983672142028808594 2.4098834991455078125 2.0825426578521728516 2.1479346752166748047 2.1713619232177734375 1.5884330272674560547 2.6478307247161865234 3.0115473270416259766 3.2327427864074707031 3.7698144912719726563 3.040363311767578125 2.0665049552917480469 2.5260028839111328125 3.00249481201171875 2.9310238361358642578 2.2269306182861328125 2.8589901924133300781 2.7926983833312988281 2.4805605411529541016 2.6677162647247314453 2.7721724510192871094 2.8978464603424072266 4.1003007888793945313 3.8486549854278564453 3.5580840110778808594 3.8514201641082763672 4.1198792457580566406 2.0845098495483398438 2.7395589351654052734 2.9319555759429931641 2.9078261852264404297 3.0718333721160888672 2.4912900924682617188 3.0880951881408691406 2.6886754035949707031 2.68833160400390625 2.2352731227874755859 1.7917170524597167969 1.9281181097030639648 2.0803661346435546875 1.792570948600769043 1.8792979717254638672 1.6875075101852416992 2.0618190765380859375 2.1702277660369873047 2.2135913372039794922 1.8450014591217041016 2.1051177978515625 1.7492074966430664063 1.0022113323211669922 1.3626133203506469727 1.0863605737686157227 1.1054643392562866211 1.0455749034881591797 1.1297240257263183594 1.0035594701766967773 1.1711549758911132813 1.9041965007781982422 1.1028864383697509766 1.0837826728820800781 1.2018388509750366211 1.2235205173492431641 1.1494731903076171875 1.2578819990158081055 1.0867646932601928711 1.2795636653900146484 1.7054418325424194336 1.1494731903076171875 1.3250411748886108398 1.9041965007781982422 1.0844278335571289063 1.9041965007781982422 1.9041965007781982422 1.0595229864120483398 1.301726222038269043 1.2526875734329223633 1.126669764518737793 1.7191646099090576172 1.0115746259689331055 3.14661407470703125 2.4689557552337646484 1.5902960300445556641 1.301726222038269043 1.1686675548553466797 1.2178553342819213867 2.4689557552337646484 2.2552065849304199219 2.5863945484161376953 1.5427732467651367188 1.6759301424026489258 1.7051272392272949219 1.9041965007781982422 2.0177140235900878906 1.8528817892074584961 1.8564658164978027344 1.8849805593490600586 1.2660219669342041016 1.6229505538940429688 1.2298604249954223633 1.4512640237808227539 1.0115746259689331055 1.6071447134017944336 1.694077610969543457 1.3981764316558837891 1.854966282844543457 2.1294667720794677734 1.8288122415542602539 1.7370058298110961914 1.3837660551071166992 1.0365169048309326172 1.6342732906341552734 1.629862666130065918 1.3193432092666625977 1.5800720453262329102 2.1091454029083251953 1.5611510276794433594 1.6826522350311279297 1.5944402217864990234 1.5848203897476196289 1.6968418359756469727 1.6587078571319580078 1.3909623622894287109 1.5384095907211303711 1.6345809698104858398 2.2195403575897216797 2.4564805030822753906 2.4373736381530761719 2.3869657516479492188 2.1870861053466796875 2.2523639202117919922 2.2042734622955322266 2.309600830078125 2.3464307785034179688 2.8583343029022216797 3.3777077198028564453 2.1931562423706054688 3.1120786666870117188 3.3610692024230957031 3.4517323970794677734 2.8810300827026367188 2.8293609619140625 3.3699338436126708984 2.5489101409912109375 2.7060458660125732422 2.9768679141998291016 3.3505029678344726563 3.1869542598724365234 3.3650264739990234375 3.4410083293914794922 2.4963994026184082031 4.0234026908874511719 3.1019341945648193359 3.8710143566131591797 4.4472284317016601563 3.3137507438659667969 4.0023779869079589844 3.6469423770904541016 4.1534271240234375 4.0315093994140625 4.2709970474243164063 3.4692096710205078125 3.7002658843994140625 3.6191058158874511719 4.5600819587707519531 4.41858673095703125 4.1621136665344238281 4.1694126129150390625 3.3394267559051513672 4.1078610420227050781 3.9154734611511230469 3.7447388172149658203 4.66930389404296875 4.2858953475952148438 3.6816205978393554688 3.1962857246398925781 2.8012213706970214844 2.7236661911010742188 2.505390167236328125 2.3525936603546142578 2.1922533512115478516 2.6057562828063964844 2.1785848140716552734 2.1797533035278320313 2.5031452178955078125 2.0266373157501220703 
2.8255677223205566406 2.7759394645690917969 2.9453763961791992188 4.0651631355285644531 4.022815704345703125 4.8824071884155273438 3.8395268917083740234 3.7984471321105957031 3.6008450984954833984 3.8016781806945800781 3.6824526786804199219 3.3743801116943359375 3.5415887832641601563 3.1094095706939697266 2.6063883304595947266 2.5450637340545654297 2.7032873630523681641 2.6598207950592041016 2.6940851211547851563 2.2973666191101074219 2.3085062503814697266 2.8598160743713378906 3.2254505157470703125 3.7767972946166992188 4.2080883979797363281 3.6141505241394042969 2.5075650215148925781 2.4491791725158691406 2.6790246963500976563 2.7646765708923339844 2.7926702499389648438 2.6217815876007080078 2.8109292984008789063 2.5638253688812255859 2.4696221351623535156 2.8972470760345458984 3.0062677860260009766 3.6121842861175537109 3.6195771694183349609 3.2575068473815917969 3.3184156417846679688 3.4348750114440917969 3.2240624427795410156 2.4618687629699707031 2.9556891918182373047 2.3436820507049560547 3.2877092361450195313 2.5551576614379882813 2.3732049465179443359 2.0728230476379394531 2.6561565399169921875 2.7444555759429931641 2.2566204071044921875 1.6065020561218261719 1.6932291984558105469 1.6101148128509521484 1.6498656272888183594 2.6992099285125732422 2.2135913372039794922 2.8206806182861328125 2.6255447864532470703 2.3436820507049560547 2.01845550537109375 1.5401897430419921875 1.684162139892578125 1.0040394067764282227 1.2668840885162353516 1.0452696084976196289 1.2668840885162353516 1.2452023029327392578 1.1054643392562866211 1.301726222038269043 1.0812047719955444336 1.0025691986083984375 1.2795636653900146484 1.0621008872985839844 1.1711549758911132813 1.0627461671829223633 1.0017797946929931641 1.0268088579177856445 1.1262996196746826172 1.1928366422653198242 1.2391861677169799805 1.3268001079559326172 1 1.1277914047241210938 1.0844278335571289063 1.0212770700454711914 1.2955501079559326172 2.2552065849304199219 1.3179562091827392578 1.1518356800079345703 1.0595229864120483398 1.0368345975875854492 1.6868594884872436523 1.0926272869110107422 1.0525033473968505859 1.3733229637145996094 1.0595229864120483398 1.3994431495666503906 2.4689557552337646484 2.4689557552337646484 2.4689557552337646484 1.3469048738479614258 1.847813725471496582 1.8816159963607788086 1.9041965007781982422 2.206050872802734375 1.9593442678451538086 1.4843846559524536133 1.3724932670593261719 2.8139696121215820313 1.4710749387741088867 1.4037011861801147461 1.0212770700454711914 1.3810968399047851563 1.6176390647888183594 1.8576180934906005859 1.7734448909759521484 1.8836098909378051758 1.9466001987457275391 2.0941030979156494141 1.7457319498062133789 2.1978147029876708984 1.6815773248672485352 1.8271280527114868164 2.3989510536193847656 2.1389615535736083984 1.8815171718597412109 1.7969191074371337891 1.5409318208694458008 1.5116456747055053711 2.3587627410888671875 2.4473543167114257813 2.2367091178894042969 2.1197381019592285156 1.9940166473388671875 1.3307071924209594727 1.6700780391693115234 2.0852828025817871094 2.1149277687072753906 2.4116806983947753906 2.2703669071197509766 2.2577061653137207031 2.4200565814971923828 2.7132871150970458984 2.0241971015930175781 2.2075273990631103516 3.2794477939605712891 2.9528505802154541016 3.1710481643676757813 4.02593231201171875 3.3529744148254394531 2.5110197067260742188 3.2306206226348876953 2.9337673187255859375 3.5307071208953857422 3.0853121280670166016 3.3620624542236328125 3.600765228271484375 3.35483551025390625 2.9889698028564453125 2.8553366661071777344 3.8219869136810302734 3.87310791015625 4.4849987030029296875 3.6926712989807128906 4.1501765251159667969 4.659305572509765625 3.7214818000793457031 4.1393904685974121094 5.2523951530456542969 4.2332234382629394531 3.4981441497802734375 4.2014589309692382813 4.273090362548828125 3.9325213432312011719 3.2853002548217773438 3.9154841899871826172 3.4679150581359863281 3.6053619384765625 3.3559584617614746094 3.9968893527984619141 3.7159495353698730469 3.8813204765319824219 4.3193531036376953125 4.4499006271362304688 5.0342936515808105469 4.2591738700866699219 3.4608969688415527344 2.6544601917266845703 2.7571923732757568359 2.4486908912658691406 2.5584108829498291016 2.1340460777282714844 2.3080911636352539063 2.0583493709564208984 1.8773616552352905273 1.7190959453582763672 1.7710499763488769531 
2.9468321800231933594 3.0290904045104980469 3.1407923698425292969 4.1561245918273925781 3.4497346878051757813 3.8882470130920410156 4.0951342582702636719 3.9413282871246337891 3.7818961143493652344 3.9860546588897705078 3.5292522907257080078 3.8047037124633789063 3.3386304378509521484 2.6980319023132324219 2.8545835018157958984 2.8038489818572998047 3.2483577728271484375 3.4164881706237792969 3.0714495182037353516 2.4412829875946044922 2.8278646469116210938 2.9907431602478027344 3.3870937824249267578 3.7733774185180664063 4.2187719345092773438 3.8549878597259521484 3.0759146213531494141 2.7538950443267822266 2.7131953239440917969 2.6251101493835449219 2.6876523494720458984 2.4344882965087890625 3.0704941749572753906 2.4471871852874755859 2.8512027263641357422 2.7846689224243164063 2.8572528362274169922 3.1169047355651855469 3.6200268268585205078 2.9987242221832275391 3.1261308193206787109 2.8126561641693115234 2.3962497711181640625 3.6657185554504394531 2.1718187332153320313 2.8696322441101074219 3.2764813899993896484 2.2307555675506591797 1.7185235023498535156 2.1351687908172607422 1.9740010499954223633 1.9870685338973999023 1.6248227357864379883 1.7799562215805053711 1.5197750329971313477 2.1729447841644287109 1.8946399688720703125 2.0401372909545898438 2.01845550537109375 1.996708989143371582 2.4304089546203613281 2.6256415843963623047 1.8233196735382080078 1.5848203897476196289 1.7492074966430664063 1.0490907430648803711 1 1.0391826629638671875 1.0867646932601928711 1.1245682239532470703 1.1245682239532470703 1.1245682239532470703 1.0699079036712646484 1.0595229864120483398 1.3612657785415649414 1.0812047719955444336 1.0535526275634765625 1.0844278335571289063 1.3319919109344482422 1.1277281045913696289 1.8689830303192138672 1.5824717283248901367 1.3804322481155395508 1.8849902153015136719 1.3063514232635498047 1.3074686527252197266 1.3082194328308105469 1.3320589065551757813 1.1028864383697509766 1.5671200752258300781 1.1452943086624145508 1.6433426141738891602 1.9041965007781982422 2.4801437854766845703 1.5671200752258300781 1.1245682239532470703 1.1425577402114868164 1.150604248046875 1.0581554174423217773 1.4909712076187133789 1.385369420051574707 1.4982399940490722656 1.8563123941421508789 1.835263371467590332 1.9976319074630737305 1.8579782247543334961 1.9041965007781982422 2.0739912986755371094 2.0453307628631591797 2.1881761550903320313 1.7269350290298461914 1.6558682918548583984 1.9108177423477172852 1.4733977317810058594 1.6896399259567260742 1.1833518743515014648 1.4575656652450561523 1.1270197629928588867 1.5594666004180908203 2.1344089508056640625 1.1130442619323730469 1.9275100231170654297 2.1344089508056640625 2.0370533466339111328 1.9776475429534912109 2.6182153224945068359 1.906994938850402832 2.2617807388305664063 2.2828922271728515625 2.0974686145782470703 2.2742388248443603516 2.0491733551025390625 2.4459743499755859375 2.4730587005615234375 1.9235013723373413086 2.00823974609375 1.6745411157608032227 1.5586653947830200195 1.6735501289367675781 2.0748260021209716797 2.314632415771484375 2.4530320167541503906 2.4448680877685546875 2.7382702827453613281 1.9529230594635009766 2.0733036994934082031 1.6896674633026123047 2.7416071891784667969 3.0584769248962402344 3.1438562870025634766 2.6690685749053955078 3.8533537387847900391 3.9895734786987304688 3.7048485279083251953 3.3576040267944335938 3.5731730461120605469 3.8908033370971679688 4.5353331565856933594 3.7831780910491943359 3.4640500545501708984 3.1899602413177490234 3.0814733505249023438 3.3618426322937011719 3.6333253383636474609 3.9738652706146240234 3.3939154148101806641 3.3206224441528320313 4.3524980545043945313 4.9811725616455078125 5.4594516754150390625 5.0429835319519042969 5.2700934410095214844 4.5831274986267089844 3.3555827140808105469 4.8132214546203613281 5.5884580612182617188 3.7621293067932128906 4.4885039329528808594 3.4303071498870849609 3.6293344497680664063 2.9317791461944580078 2.9630360603332519531 3.1960718631744384766 3.4047901630401611328 4.8530836105346679688 5.368366241455078125 5.146701812744140625 4.0294561386108398438 4.3495388031005859375 3.2067205905914306641 2.7433087825775146484 2.7262811660766601563 2.7332506179809570313 1.9338018894195556641 2.0293662548065185547 1.9363008737564086914 2.2175631523132324219 2.1752316951751708984 1.7007912397384643555 1.7430022954940795898 
2.6257750988006591797 2.5018157958984375 3.0349154472351074219 3.2863924503326416016 3.2212929725646972656 3.4520752429962158203 3.5219202041625976563 3.3818066120147705078 3.6807453632354736328 3.8460941314697265625 4.0248208045959472656 3.2967827320098876953 2.9230287075042724609 2.9290924072265625 2.9121210575103759766 3.9268198013305664063 3.4465031623840332031 3.4010632038116455078 3.1086759567260742188 2.7379317283630371094 2.8408372402191162109 3.2090971469879150391 3.4971544742584228516 3.5780782699584960938 2.9831247329711914063 3.3993544578552246094 3.2580232620239257813 2.7404706478118896484 2.6089768409729003906 2.3537626266479492188 2.5433251857757568359 2.4137783050537109375 2.4705829620361328125 2.1482214927673339844 2.7593150138854980469 3.1508617401123046875 3.4449098110198974609 3.572490692138671875 2.9439291954040527344 3.0549428462982177734 3.7111432552337646484 2.8780004978179931641 2.6481494903564453125 2.9503412246704101563 2.7477815151214599609 3.2278842926025390625 2.0039010047912597656 2.9125299453735351563 1.828975677490234375 2.1567058563232421875 1.7185235023498535156 1.792570948600769043 1.4764115810394287109 1.792570948600769043 1.6624803543090820313 1.5794308185577392578 1.6281838417053222656 2.1702277660369873047 1.8142527341842651367 1.6281838417053222656 1.8666183948516845703 1.996773838996887207 1.7794321775436401367 1.7338654994964599609 1.6963381767272949219 1.6122356653213500977 1.1799716949462890625 1.49542236328125 1.1494731903076171875 1.1028864383697509766 1.0812047719955444336 1 1.0193825960159301758 1.0595229864120483398 1.0595229864120483398 1.0378412008285522461 1.0812047719955444336 1.1245682239532470703 1.6691575050354003906 1.2957750558853149414 1.3577073812484741211 1.8296407461166381836 1.1685963869094848633 1.4658683538436889648 1.5522269010543823242 1.4081946611404418945 1.6710126399993896484 1.7054418325424194336 1.1415079832077026367 1.1384136676788330078 1.4562664031982421875 1.2891298532485961914 1.2831625938415527344 1.2252386808395385742 2.2552065849304199219 2.4689557552337646484 1.0851798057556152344 1.9041965007781982422 1.1261903047561645508 1.2205762863159179688 1.578062891960144043 1.5850636959075927734 1.669813990592956543 1.839702606201171875 1.8850998878479003906 2.0387873649597167969 1.9923734664916992188 2.4801437854766845703 2.1380443572998046875 2.2471988201141357422 2.4689557552337646484 1.9542856216430664063 1.6732026338577270508 1.5698653459548950195 1.7402319908142089844 2.1344089508056640625 1.4116988182067871094 1.2008290290832519531 1.5483152866363525391 1.1028864383697509766 1.2793565988540649414 1.9041965007781982422 1.6263369321823120117 2.1362121105194091797 2.103855133056640625 2.2393043041229248047 1.7838256359100341797 2.5810770988464355469 1.7315038442611694336 1.6083464622497558594 1.8949469327926635742 1.8035001754760742188 2.3325700759887695313 1.9474033117294311523 1.9112669229507446289 1.9350957870483398438 1.3409315347671508789 1.3752928972244262695 1.8815112113952636719 2.4021198749542236328 2.1492519378662109375 2.5152292251586914063 2.6910181045532226563 2.4725537300109863281 2.4017503261566162109 2.1994299888610839844 3.2484636306762695313 3.1938009262084960938 3.094905853271484375 3.6965887546539306641 3.130462646484375 3.1878814697265625 4.0892100334167480469 3.8478336334228515625 3.6643245220184326172 4.031352996826171875 5.0878643989562988281 4.7601828575134277344 5.0377025604248046875 4.1025037765502929688 3.4225406646728515625 3.8707828521728515625 3.3469817638397216797 3.5314197540283203125 3.7328016757965087891 3.5644772052764892578 3.5983691215515136719 4.4058856964111328125 4.247989654541015625 5.0784406661987304688 4.8669252395629882813 5.3118734359741210938 4.138446807861328125 4.6551070213317871094 5.4169392585754394531 4.7160191535949707031 4.7169694900512695313 4.4956707954406738281 2.9532384872436523438 3.0781548023223876953 3.3857679367065429688 3.4176206588745117188 3.1322917938232421875 3.2539446353912353516 5.2466259002685546875 5.0340123176574707031 4.7464327812194824219 3.3430840969085693359 3.0075342655181884766 2.9990508556365966797 2.6924786567687988281 2.2174942493438720703 2.2825899124145507813 1.5858051776885986328 1.867348790168762207 1.9029103517532348633 1.8490694761276245117 2.0626642704010009766 2.4045948982238769531 2.0639765262603759766 
2.4070200920104980469 2.8385190963745117188 2.6682617664337158203 2.4845242500305175781 2.9707729816436767578 3.2724437713623046875 3.5687079429626464844 3.6475400924682617188 3.6491982936859130859 3.4893479347229003906 3.9984488487243652344 3.1594016551971435547 2.8815088272094726563 2.8366100788116455078 2.8381235599517822266 3.4736320972442626953 3.1883778572082519531 3.3912546634674072266 3.2373259067535400391 2.9754912853240966797 3.2160422801971435547 3.1488790512084960938 3.6258947849273681641 3.5905683040618896484 3.0146842002868652344 3.5380926132202148438 2.6692628860473632813 2.1672437191009521484 2.2370743751525878906 2.0443699359893798828 2.3087096214294433594 2.0202834606170654297 2.0874781608581542969 2.3043954372406005859 3.2054049968719482422 3.4160900115966796875 3.2327430248260498047 3.8167059421539306641 3.6271009445190429688 3.1550893783569335938 3.2423405647277832031 3.0554471015930175781 3.2944552898406982422 2.9747266769409179688 2.6284036636352539063 2.9513716697692871094 2.3478295803070068359 3.0320737361907958984 2.6108255386352539063 1.8792979717254638672 1.4234737157821655273 2.1015241146087646484 1.6347975730895996094 1.9750920534133911133 1.4113662242889404297 1.5233876705169677734 1.7835688591003417969 1.6932291984558105469 2.01845550537109375 1.7036761045455932617 1.7582744359970092773 1.7799562215805053711 1.2598946094512939453 1.7275257110595703125 2.0644078254699707031 1.5450694561004638672 1.7217191457748413086 1.213780522346496582 1.2795636653900146484 1.5630494356155395508 1.1711549758911132813 1.0621008872985839844 1 1.9041965007781982422 1.1028864383697509766 1.1245682239532470703 1.0378412008285522461 1.0378412008285522461 1.2856231927871704102 2.4515626430511474609 1.4586008787155151367 1.3381630182266235352 1.6955621242523193359 1.5957978963851928711 2.2664148807525634766 2.0925858020782470703 1.0285193920135498047 1.0876491069793701172 1.331929326057434082 1.4020128250122070313 1.4840950965881347656 2.7689762115478515625 1.0151902437210083008 2.1164593696594238281 1.2955501079559326172 1.0837243795394897461 1.2955501079559326172 1.1625233888626098633 1.9108177423477172852 1.0745624303817749023 1.5242445468902587891 2.3418080806732177734 1.3690481185913085938 1.5339365005493164063 1.5692644119262695313 1.908457636833190918 2.2552065849304199219 2.0173726081848144531 2.1376829147338867188 2.126422882080078125 2.3627641201019287109 1.9663082361221313477 1.2256499528884887695 1.4030735492706298828 2.1292879581451416016 1.4131703376770019531 1.8689830303192138672 1.1332421302795410156 1.9041965007781982422 1.7591665983200073242 1.3875889778137207031 1.3393894433975219727 1.0875847339630126953 1.8698809146881103516 1.8389034271240234375 2.0495731830596923828 2.1589534282684326172 2.7539408206939697266 2.3964524269104003906 1.3993374109268188477 1.8476400375366210938 1.53255462646484375 1.5062307119369506836 1.7496018409729003906 1.3409315347671508789 1.5425659418106079102 2.2139313220977783203 2.2450454235076904297 2.16309356689453125 2.0464904308319091797 2.5017600059509277344 2.601345062255859375 2.2370195388793945313 3.1219487190246582031 3.0510907173156738281 2.5880372524261474609 2.3576171398162841797 2.4578516483306884766 2.8053147792816162109 3.4799277782440185547 3.7176492214202880859 3.5214073657989501953 4.0854368209838867188 4.1242694854736328125 5.0359487533569335938 4.5324931144714355469 3.6788434982299804688 3.7623918056488037109 5.3193159103393554688 4.5414195060729980469 4.4119415283203125 3.5830545425415039063 3.5924091339111328125 3.8597681522369384766 4.2302651405334472656 3.3973150253295898438 4.0123343467712402344 3.9878151416778564453 3.2209706306457519531 4.5627026557922363281 4.4069042205810546875 5.4493684768676757813 5.4623389244079589844 5.4862003326416015625 5.3815703392028808594 4.6759853363037109375 3.7589831352233886719 4.0875825881958007813 3.0780546665191650391 3.2436559200286865234 3.4313499927520751953 3.4180600643157958984 4.076351165771484375 3.5774018764495849609 4.4989781379699707031 4.7320475578308105469 4.751911163330078125 4.6307005882263183594 2.8748426437377929688 2.701595306396484375 2.2827382087707519531 2.5764589309692382813 2.2088875770568847656 1.9803847074508666992 1.5369341373443603516 1.8235651254653930664 1.9047820568084716797 2.0487196445465087891 2.0245218276977539063 1.7824171781539916992 
2.6122348308563232422 2.4336934089660644531 3.3185782432556152344 2.6318614482879638672 3.1746618747711181641 3.6106851100921630859 3.7679820060729980469 4.3648586273193359375 4.0072960853576660156 4.568248748779296875 3.8531844615936279297 3.3744661808013916016 2.8467352390289306641 3.3531730175018310547 2.8017477989196777344 3.0671398639678955078 3.1068034172058105469 2.7870564460754394531 2.9927229881286621094 2.9153482913970947266 2.640899658203125 2.4222562313079833984 2.8115942478179931641 2.7712984085083007813 2.6433737277984619141 2.3050374984741210938 2.58058929443359375 2.4595291614532470703 2.6877658367156982422 2.4123122692108154297 2.4232132434844970703 2.6058473587036132813 2.2775938510894775391 2.2812225818634033203 3.2983710765838623047 3.6879992485046386719 4.1808032989501953125 4.1852898597717285156 3.3410184383392333984 3.1526262760162353516 2.9322266578674316406 3.4725394248962402344 3.1784729957580566406 3.2290217876434326172 3.1409697532653808594 3.2836906909942626953 3.3952379226684570313 3.1126041412353515625 3.0906522274017333984 2.1569800376892089844 1.7185235023498535156 1.7240976095199584961 2.2084155082702636719 1.6932706832885742188 1.6968418359756469727 1.9009797573089599609 1.5794308185577392578 1.5848203897476196289 1.8450014591217041016 2.1485462188720703125 1.5884330272674560547 1.6227943897247314453 1.1106201410293579102 1.4113662242889404297 1.6998964548110961914 1.7185235023498535156 1.1636198759078979492 1.2142544984817504883 1.0530669689178466797 1.3102476596832275391 1.2578819990158081055 1.0844278335571289063 1.106109619140625 1.0595229864120483398 1.9041965007781982422 1.110668182373046875 2.0106759071350097656 2.4689557552337646484 1.4035592079162597656 1.6558682918548583984 1.9108177423477172852 1.6630598306655883789 1.3807194232940673828 1.4045073986053466797 2.0367128849029541016 1.786345362663269043 1.2870588302612304688 1.289792180061340332 1.2578819990158081055 1.1419817209243774414 1.5359227657318115234 1.1245682239532470703 2.4689557552337646484 1.1206327676773071289 2.4689557552337646484 1.4720525741577148438 1.3963910341262817383 1.5513173341751098633 2.4689557552337646484 1.3800187110900878906 2.2552065849304199219 1.9108177423477172852 1.301726222038269043 2.0106759071350097656 1.9122374057769775391 1.7260891199111938477 2.5969169139862060547 1.7498775720596313477 2.5863945484161376953 2.5863945484161376953 2.2552065849304199219 1.6255480051040649414 1.6236463785171508789 1.6521210670471191406 1.3065754175186157227 1.5483806133270263672 1.1609913110733032227 1.0801227092742919922 1.7058150768280029297 1.3612657785415649414 2.1473410129547119141 1.8377858400344848633 1.4748053550720214844 1.7780345678329467773 2.8861761093139648438 2.6016626358032226563 2.4830822944641113281 2.4948673248291015625 2.2099907398223876953 1.7113221883773803711 1.8288253545761108398 2.264434814453125 1.7136133909225463867 1.5438163280487060547 2.1091909408569335938 1.8454710245132446289 2.1536829471588134766 2.1397829055786132813 2.9451389312744140625 2.0998692512512207031 2.2822170257568359375 2.7329909801483154297 2.4928941726684570313 3.0761773586273193359 3.0213296413421630859 3.3590281009674072266 2.1038134098052978516 1.9262164831161499023 1.8753992319107055664 3.4024806022644042969 3.2369947433471679688 3.0207502841949462891 4.099727630615234375 3.4961903095245361328 4.5520224571228027344 5.2656283378601074219 4.5616478919982910156 3.9947481155395507813 3.9883377552032470703 4.74538421630859375 4.4203267097473144531 3.9260032176971435547 3.7046957015991210938 4.0533118247985839844 4.1435222625732421875 3.9920542240142822266 4.2565488815307617188 4.9800257682800292969 4.7014212608337402344 5.4865040779113769531 5.7533078193664550781 5.918582916259765625 6.1008563041687011719 4.5502071380615234375 5.27980804443359375 5.1737823486328125 3.4018452167510986328 3.9439034461975097656 3.5693163871765136719 3.1478202342987060547 2.9268729686737060547 2.9342126846313476563 3.1444723606109619141 3.1571772098541259766 3.5986993312835693359 5.1428346633911132813 4.7004494667053222656 4.8183913230895996094 3.9110960960388183594 3.2801694869995117188 2.6214458942413330078 2.9023396968841552734 1.6779782772064208984 1.8683220148086547852 1.6600519418716430664 1.7270762920379638672 1.6286692619323730469 1.3219516277313232422 1.314300537109375 1.5536546707153320313 
2.4947435855865478516 2.4247450828552246094 2.2612714767456054688 2.3464696407318115234 2.6430001258850097656 3.1993403434753417969 3.3438794612884521484 3.4249844551086425781 3.9148457050323486328 3.9199385643005371094 3.8384554386138916016 3.4222660064697265625 2.2761685848236083984 2.4149715900421142578 3.2042908668518066406 2.8482315540313720703 2.7803988456726074219 2.9083135128021240234 2.8662691116333007813 2.001567840576171875 2.0030732154846191406 1.9437834024429321289 2.0983388423919677734 2.5473892688751220703 2.5780549049377441406 2.7226369380950927734 2.4647004604339599609 2.2862532138824462891 2.3710587024688720703 2.5623402595520019531 2.5971326828002929688 2.5701870918273925781 2.7421350479125976563 2.9132609367370605469 2.8522937297821044922 3.3264720439910888672 3.5321955680847167969 3.9781925678253173828 2.9847009181976318359 3.0787363052368164063 2.9641923904418945313 2.8700258731842041016 3.5547027587890625 3.3093180656433105469 2.8365528583526611328 2.6431729793548583984 2.1292285919189453125 3.1862597465515136719 1.9533454179763793945 2.6865134239196777344 1.6715474128723144531 1.3029574155807495117 1.2166534662246704102 1.4113662242889404297 1.5947728157043457031 1.3029574155807495117 1.6101148128509521484 2.3653635978698730469 1.6932291984558105469 1.7149108648300170898 1.6968418359756469727 1.5143855810165405273 1.6498656272888183594 1.5414568185806274414 1.6968418359756469727 1.5514092445373535156 1.5143855810165405273 1.331929326057434082 1.0040394067764282227 1.0646787881851196289 1.2452023029327392578 1.9041965007781982422 1.9041965007781982422 1.0326956510543823242 1.0844278335571289063 1.9041965007781982422 1.21759033203125 2.4689557552337646484 1.301726222038269043 2.4689557552337646484 1.0595229864120483398 2.4689557552337646484 1.301726222038269043 1.1654305458068847656 1.8534407615661621094 1.805901646614074707 1.5730751752853393555 1.5144082307815551758 1.0067545175552368164 1.4389663934707641602 1.4271714687347412109 1.0378412008285522461 1.0378412008285522461 1.2955501079559326172 1.1702958345413208008 1.0595229864120483398 3.0418324470520019531 1.6868594884872436523 1.0765212774276733398 2.2552065849304199219 1.1219903230667114258 2.5863945484161376953 1.4710749387741088867 1.6418770551681518555 1.4793714284896850586 2.5863945484161376953 2.5863945484161376953 2.3271169662475585938 3.9627170562744140625 2.4689557552337646484 2.2765519618988037109 2.5863945484161376953 2.4689557552337646484 3.9627170562744140625 1.6456036567687988281 2.5863945484161376953 2.4689557552337646484 1.2750718593597412109 1.301726222038269043 1.0285193920135498047 1.1965337991714477539 1.4676939249038696289 1.7400610446929931641 1.9871668815612792969 2.3581268787384033203 2.49196624755859375 2.4407517910003662109 2.5583167076110839844 2.7064712047576904297 2.0465333461761474609 1.5234441757202148438 1.2006701231002807617 1.418656468391418457 1.6633611917495727539 1.7399743795394897461 1.5998220443725585938 2.1334135532379150391 2.5709199905395507813 2.61075592041015625 1.8149588108062744141 2.1401493549346923828 2.9705283641815185547 3.2922132015228271484 3.3067166805267333984 3.5672585964202880859 2.4295909404754638672 2.5066213607788085938 2.7287220954895019531 3.6475696563720703125 2.8245127201080322266 2.8906283378601074219 2.479267120361328125 3.4164397716522216797 4.2778768539428710938 3.8689281940460205078 4.4062910079956054688 3.631084442138671875 4.6660928726196289063 3.8495781421661376953 3.8486180305480957031 4.7707991600036621094 4.2329087257385253906 3.9520115852355957031 4.9435544013977050781 4.3214955329895019531 4.373744964599609375 3.5546984672546386719 4.7298521995544433594 4.2960042953491210938 4.8501834869384765625 5.672161102294921875 6.7029957771301269531 5.3065385818481445313 4.814266204833984375 4.0547928810119628906 3.8775026798248291016 2.9909648895263671875 3.1789929866790771484 2.2005808353424072266 2.7472782135009765625 2.6288814544677734375 2.83841705322265625 2.7325036525726318359 3.1622169017791748047 3.5963788032531738281 4.61358642578125 4.3505206108093261719 5.1072740554809570313 5.3661599159240722656 4.3963713645935058594 3.1404361724853515625 2.2058277130126953125 1.6849400997161865234 1.4674762487411499023 1.7432639598846435547 1.5236060619354248047 1.4922872781753540039 1.9041965007781982422 1.1794468164443969727 1.2795636653900146484 
1.9086130857467651367 1.9013259410858154297 2.2358639240264892578 1.953539729118347168 2.3409733772277832031 2.8746912479400634766 2.8806014060974121094 2.9244699478149414063 3.2128465175628662109 3.4876537322998046875 2.9036803245544433594 2.9760160446166992188 2.9745109081268310547 3.1571304798126220703 2.8706257343292236328 2.6578834056854248047 2.4100019931793212891 2.7126066684722900391 2.3081753253936767578 1.5078794956207275391 1.8286519050598144531 1.8582224845886230469 1.9692171812057495117 3.050914764404296875 2.2784228324890136719 2.6043467521667480469 2.32621002197265625 2.0684118270874023438 2.6819479465484619141 2.6547877788543701172 2.4553463459014892578 2.6780874729156494141 3.2057070732116699219 3.5943768024444580078 2.3696460723876953125 2.6547267436981201172 3.7821536064147949219 3.4407265186309814453 3.7636501789093017578 3.1475193500518798828 3.4726161956787109375 3.3440639972686767578 3.6791384220123291016 3.1835777759552001953 2.928668975830078125 3.1142048835754394531 2.9135346412658691406 2.0797402858734130859 2.1847205162048339844 2.6375708580017089844 2.3356254100799560547 1.8571959733963012695 1.5233876705169677734 1.5462846755981445313 1.1945487260818481445 1.5794308185577392578 1.6101148128509521484 1.5848203897476196289 2.0400724411010742188 2.0814645290374755859 1.3463209867477416992 1.3463209867477416992 1.8792979717254638672 1.7058439254760742188 1.1295033693313598633 1.3625496625900268555 1.5360673666000366211 1.3012454509735107422 1.0837826728820800781 1.0867646932601928711 1.2018388509750366211 1.2578819990158081055 1.1076474189758300781 1.0627461671829223633 1.0595229864120483398 1.4710749387741088867 2.0106759071350097656 1.4207936525344848633 1.1134999990463256836 1.301726222038269043 1.2653577327728271484 1.0029140710830688477 3.6012563705444335938 1.2957750558853149414 1.6606107950210571289 1.5419636964797973633 1.8609099388122558594 1.4983206987380981445 1.0404191017150878906 1.1245682239532470703 1.6558682918548583984 1.7194232940673828125 2.5863945484161376953 2.5863945484161376953 1.0029140710830688477 2.4689557552337646484 2.2016704082489013672 3.13358306884765625 2.8177235126495361328 1.7058150768280029297 1.1659181118011474609 1.2642352581024169922 1.4461854696273803711 1.6629397869110107422 2.4689557552337646484 2.8139696121215820313 2.5969169139862060547 1.7602734565734863281 1.6106891632080078125 2.0849905014038085938 2.4689557552337646484 1.5651974678039550781 2.2552065849304199219 3.2410285472869873047 1.1419925689697265625 2.8139696121215820313 1.0087381601333618164 1.0812047719955444336 1.0812047719955444336 1.1711549758911132813 1.5577491521835327148 1.3536111116409301758 1.8147810697555541992 1.6814990043640136719 2.0622651576995849609 1.952899932861328125 2.7683076858520507813 2.2736051082611083984 2.3851974010467529297 2.2765483856201171875 1.8889042139053344727 1.6850303411483764648 2.0287113189697265625 1.8596045970916748047 1.9551132917404174805 2.0775125026702880859 2.3943991661071777344 3.1195321083068847656 2.3548967838287353516 1.9535783529281616211 2.8363051414489746094 2.9671714305877685547 2.8500077724456787109 2.6308696269989013672 3.1449129581451416016 2.7417500019073486328 2.8199334144592285156 2.9595103263854980469 3.5985827445983886719 3.0744211673736572266 3.3616726398468017578 3.9451718330383300781 4.0882320404052734375 4.8654146194458007813 3.9925920963287353516 4.3659429550170898438 4.8466000556945800781 4.6001334190368652344 3.6442050933837890625 3.1961324214935302734 4.9092497825622558594 5.6903386116027832031 4.2766733169555664063 4.7165350914001464844 5.2128515243530273438 4.1273131370544433594 4.4212994575500488281 4.38613128662109375 4.1691536903381347656 5.1337003707885742188 4.6229038238525390625 5.2414102554321289063 5.1941556930541992188 4.2913880348205566406 4.1419053077697753906 3.8968093395233154297 2.7598981857299804688 2.8260309696197509766 2.018390655517578125 2.7439677715301513672 3.0932657718658447266 2.9292347431182861328 2.8104281425476074219 3.6952631473541259766 4.3076086044311523438 5.1475167274475097656 5.5477595329284667969 5.0444512367248535156 4.965667724609375 4.8262567520141601563 3.398792266845703125 2.3429808616638183594 1.7629910707473754883 1.7261950969696044922 1.7114205360412597656 1.6775181293487548828 1.3360164165496826172 1.6955621242523193359 1.0309851169586181641 1.8997983932495117188 
1.7725380659103393555 1.9609092473983764648 1.9515477418899536133 1.7753958702087402344 2.0196523666381835938 2.4358611106872558594 3.0455539226531982422 2.7957501411437988281 2.5541374683380126953 2.704349517822265625 2.8021957874298095703 3.1685009002685546875 2.8562870025634765625 2.6438615322113037109 2.7407624721527099609 2.1628026962280273438 2.2811465263366699219 2.2728724479675292969 2.6895914077758789063 2.0245871543884277344 1.9146413803100585938 2.2482955455780029297 2.4300808906555175781 2.0995898246765136719 2.3863933086395263672 2.6659705638885498047 2.2582743167877197266 2.4661686420440673828 2.1898989677429199219 2.2457637786865234375 3.144054412841796875 2.9741916656494140625 3.3294568061828613281 3.149078369140625 3.0288932323455810547 3.3088555335998535156 3.1183307170867919922 3.4176652431488037109 3.936420440673828125 3.4443345069885253906 3.2550475597381591797 3.1423866748809814453 3.3676524162292480469 2.9302492141723632813 2.3892743587493896484 2.8463151454925537109 1.9371298551559448242 2.1020705699920654297 2.4481813907623291016 2.6486063003540039063 2.6738650798797607422 2.1119406223297119141 2.3198494911193847656 1.7354665994644165039 1.7402052879333496094 1.5450694561004638672 1.5360673666000366211 1.5884330272674560547 1.8792979717254638672 1.3246392011642456055 1.4493403434753417969 1.1323019266128540039 1.6065020561218261719 1.6317964792251586914 1.2365742921829223633 1.4927037954330444336 1.5143855810165405273 1.0030351877212524414 1.0187373161315917969 1.1928366422653198242 1.2749919891357421875 1 1.1271461248397827148 1.6600682735443115234 1.0595229864120483398 1.0595229864120483398 1.2027082443237304688 1.0812047719955444336 1.0595229864120483398 1.2373346090316772461 1.4669190645217895508 1.3560349941253662109 1.9108177423477172852 1.8126618862152099609 1.6263810396194458008 1.9766212701797485352 1.1277914047241210938 1.358135223388671875 1.1028864383697509766 2.7452986240386962891 2.2552065849304199219 1.3161882162094116211 1.5544667243957519531 3.0476539134979248047 1.0087381601333618164 2.5969169139862060547 1.100308537483215332 1.2621108293533325195 1.100308537483215332 1.3161882162094116211 1.100308537483215332 2.5863945484161376953 1.5473655462265014648 2.4689557552337646484 3.0418324470520019531 1.8019057512283325195 2.6321852207183837891 2.6200101375579833984 2.2552065849304199219 1.7398912906646728516 2.1394624710083007813 1.6345198154449462891 2.5863945484161376953 1.9122374057769775391 2.5863945484161376953 1.0303750038146972656 1.1585428714752197266 1.0595229864120483398 1.0212770700454711914 1.6791050434112548828 1.331929326057434082 1.0977942943572998047 1.6358616352081298828 1.9016101360321044922 2.3188700675964355469 2.3262934684753417969 1.807229161262512207 2.3556349277496337891 2.1712415218353271484 2.7638502120971679688 1.6100715398788452148 1.6274080276489257813 1.7825204133987426758 2.017185211181640625 1.423221588134765625 1.9680027961730957031 2.8860094547271728516 2.397426605224609375 2.4025738239288330078 1.6630815267562866211 2.4787654876708984375 2.5709004402160644531 2.8371345996856689453 2.4755899906158447266 2.6670756340026855469 2.5028910636901855469 3.0030825138092041016 3.9899818897247314453 4.4518451690673828125 3.7408428192138671875 3.8090860843658447266 3.3183794021606445313 3.7559657096862792969 4.4874043464660644531 5.3712058067321777344 4.8597850799560546875 3.6173603534698486328 4.6205925941467285156 3.5942265987396240234 3.97899627685546875 5.7777624130249023438 5.0756955146789550781 5.1631331443786621094 5.2347040176391601563 4.1736383438110351563 3.7077302932739257813 4.4233551025390625 5.1589379310607910156 4.7364926338195800781 5.5247941017150878906 3.8482537269592285156 5.0455331802368164063 4.9595847129821777344 3.8957691192626953125 3.4557311534881591797 3.3671233654022216797 2.4488244056701660156 2.1961269378662109375 2.6136331558227539063 3.4456245899200439453 3.3335978984832763672 3.0836548805236816406 3.6044096946716308594 3.6584496498107910156 4.1647582054138183594 5.0845489501953125 4.5545649528503417969 5.1847820281982421875 4.42685699462890625 4.3033032417297363281 3.7088139057159423828 3.1253187656402587891 2.369354248046875 1.8041111230850219727 1.6831744909286499023 1.8829599618911743164 1.0378412008285522461 1.0115746259689331055 1.029074549674987793 1.9108177423477172852 
1.8298420906066894531 1.8383440971374511719 1.5089677572250366211 1.6285517215728759766 2.0013544559478759766 2.3968217372894287109 2.6375701427459716797 2.3336813449859619141 2.6235315799713134766 2.6756775379180908203 3.124797821044921875 3.1132946014404296875 2.7001605033874511719 2.3782942295074462891 3.043262481689453125 2.3739707469940185547 2.2027833461761474609 2.3442363739013671875 1.6534081697463989258 1.4001539945602416992 1.4381136894226074219 2.2627735137939453125 2.5086762905120849609 2.0341284275054931641 2.3842985630035400391 2.3102025985717773438 2.6676557064056396484 2.3300530910491943359 2.1772375106811523438 2.0351209640502929688 2.5235011577606201172 2.8910620212554931641 2.5921959877014160156 2.7196593284606933594 3.148601531982421875 3.3108997344970703125 3.3159060478210449219 3.5078852176666259766 3.0659348964691162109 2.5204920768737792969 2.8911428451538085938 2.4947075843811035156 2.5735528469085693359 2.2405328750610351563 3.0455193519592285156 2.8422389030456542969 2.5819439888000488281 2.6707189083099365234 2.7414369583129882813 1.9500117301940917969 2.3113853931427001953 2.3027472496032714844 2.4407598972320556641 2.9060535430908203125 2.0663378238677978516 1.5233876705169677734 1.5053834915161132813 1.4059767723083496094 1.5884330272674560547 1.368002772331237793 1.0238931179046630859 1.7492074966430664063 1.5794308185577392578 1.4927037954330444336 1 1.3752928972244262695 1.4710220098495483398 1.4059767723083496094 1.0268088579177856445 1.2578819990158081055 1.0837826728820800781 1.1488279104232788086 1.1054643392562866211 1.1711549758911132813 1.0595229864120483398 1.0812047719955444336 1.0627461671829223633 1.1028864383697509766 1.1245682239532470703 1.2283766269683837891 1.4144830703735351563 2.2016704082489013672 2.2016704082489013672 1.4857547283172607422 2.0173537731170654297 1.5432723760604858398 1.3679658174514770508 1.0973119735717773438 1.9108177423477172852 1.301726222038269043 1.2955501079559326172 3.14661407470703125 1.2245688438415527344 1.8997918367385864258 1.2367910146713256836 1.100308537483215332 1.5544667243957519531 2.6200101375579833984 2.2439146041870117188 1.2621108293533325195 2.2243709564208984375 1.4565182924270629883 1.8997918367385864258 1.2621108293533325195 1.7253255844116210938 2.8177235126495361328 1.6276668310165405273 1.2567414045333862305 1.3789192438125610352 3.9627170562744140625 1.1876562833786010742 1.4851753711700439453 2.2552065849304199219 1.2348902225494384766 2.5863945484161376953 1.0877383947372436523 1.0151902437210083008 1.1310622692108154297 1.2831447124481201172 1.1412767171859741211 1.5424926280975341797 1.6262648105621337891 1.8482156991958618164 1.7756381034851074219 1.9830346107482910156 2.3274340629577636719 1.9129612445831298828 1.4276585578918457031 1.8422211408615112305 1.7155628204345703125 1.8798280954360961914 2.5055165290832519531 2.1239809989929199219 1.5780464410781860352 1.4059520959854125977 2.1973562240600585938 2.1565618515014648438 2.0985276699066162109 2.8520503044128417969 2.3002126216888427734 2.0436911582946777344 2.8259601593017578125 2.5782928466796875 2.8430087566375732422 2.9488863945007324219 2.6658682823181152344 2.7252919673919677734 4.11463165283203125 4.0844731330871582031 3.6626117229461669922 3.5172314643859863281 3.1351082324981689453 3.6125583648681640625 3.8111352920532226563 4.7340402603149414063 4.3545041084289550781 3.6300022602081298828 3.5836999416351318359 3.2299795150756835938 4.2010941505432128906 4.9057130813598632813 4.642345428466796875 4.1317496299743652344 4.1701464653015136719 4.3956575393676757813 3.4443056583404541016 3.8487317562103271484 3.3370053768157958984 4.9887447357177734375 4.4875392913818359375 4.4919023513793945313 5.1638503074645996094 4.8269948959350585938 3.813930511474609375 3.1538932323455810547 2.6638257503509521484 2.4605948925018310547 1.8883001804351806641 3.1668751239776611328 3.3150110244750976563 2.8092160224914550781 3.4731419086456298828 3.2273352146148681641 3.8189883232116699219 4.1971812248229980469 4.33642578125 4.86392974853515625 5.5550684928894042969 4.6328649520874023438 4.3495459556579589844 3.7335002422332763672 3.4012091159820556641 2.8015072345733642578 2.4869592189788818359 1.7585910558700561523 1.1792135238647460938 1.5671200752258300781 1.2621108293533325195 2.4689557552337646484 1.1245682239532470703 
1.5214631557464599609 1.8199133872985839844 1.5039862394332885742 1.5041511058807373047 2.1543309688568115234 2.0679423809051513672 2.4853727817535400391 2.6000890731811523438 3.2232577800750732422 3.1190848350524902344 3.3167216777801513672 3.2952322959899902344 3.4010484218597412109 2.8269765377044677734 2.8159410953521728516 2.3126707077026367188 1.9932811260223388672 1.9798368215560913086 1.3915408849716186523 1.5107173919677734375 2.1311573982238769531 1.9652901887893676758 2.1716668605804443359 2.3395535945892333984 2.5123662948608398438 2.7735455036163330078 3.1273965835571289063 2.7839150428771972656 2.0117287635803222656 2.3368806838989257813 2.8393683433532714844 3.0565736293792724609 2.6473319530487060547 2.6113128662109375 2.3847708702087402344 2.7295336723327636719 2.8714060783386230469 3.3518006801605224609 3.0710279941558837891 3.2559652328491210938 2.7300567626953125 2.1200685501098632813 1.9886212348937988281 2.762744903564453125 3.0094745159149169922 3.0105841159820556641 2.5416574478149414063 2.1151649951934814453 1.9721262454986572266 1.9436309337615966797 2.2393095493316650391 2.7998497486114501953 2.6077969074249267578 2.8795647621154785156 2.8120794296264648438 1.5721111297607421875 1.7022695541381835938 1.4493403434753417969 1.1106201410293579102 1.7492074966430664063 1.4980933666229248047 1.4764115810394287109 1.4547297954559326172 1.5360673666000366211 1.4276585578918457031 1.1559113264083862305 1.4059767723083496094 1.1297240257263183594 1.1801570653915405273 1.0690859556198120117 1.0406931638717651367 1.9041965007781982422 1.0336509943008422852 1.0812047719955444336 1.0762196779251098633 2.0106759071350097656 1.5671200752258300781 1.301726222038269043 1.5533812046051025391 1.6801866292953491211 1.5614454746246337891 1.6523412466049194336 2.8139696121215820313 1.7058150768280029297 1.3540925979614257813 1.3319919109344482422 1.2795636653900146484 1.0020645856857299805 2.7689762115478515625 2.2243709564208984375 2.5863945484161376953 1.100308537483215332 1.2311228513717651367 1.3161882162094116211 2.6200101375579833984 1.0352632999420166016 2.6200101375579833984 3.1917226314544677734 2.6200101375579833984 1.100308537483215332 1.5544667243957519531 1.8997918367385864258 1.2832947969436645508 1.1419925689697265625 1.5087311267852783203 3.0062968730926513672 1.2871681451797485352 1.100308537483215332 1.5911804437637329102 2.6321852207183837891 1.3161882162094116211 1.5378041267395019531 1.3156942129135131836 2.4689557552337646484 1.0966405868530273438 1.9041965007781982422 1.1245682239532470703 1.0595229864120483398 1.1028864383697509766 1.214518427848815918 1.3000277280807495117 1.856631159782409668 2.0674850940704345703 2.1057107448577880859 1.9973267316818237305 1.5271942615509033203 1.5031543970108032227 1.8724579811096191406 1.7037980556488037109 1.9816776514053344727 2.1472837924957275391 1.977024078369140625 1.786927342414855957 1.527378082275390625 1.7896958589553833008 1.8883341550827026367 1.9670352935791015625 2.1670887470245361328 2.2376809120178222656 1.9589203596115112305 1.889780879020690918 2.1510050296783447266 1.9572274684906005859 1.7869663238525390625 1.5764032602310180664 2.8630316257476806641 2.8953275680541992188 2.9009234905242919922 4.2862119674682617188 3.7953534126281738281 3.4961299896240234375 3.4324004650115966797 4.0588464736938476563 4.3709750175476074219 3.4150822162628173828 4.0584430694580078125 3.5224697589874267578 3.09403228759765625 2.7655611038208007813 3.1545729637145996094 3.2936415672302246094 3.5171263217926025391 4.1653413772583007813 3.9805533885955810547 4.7758383750915527344 4.2462673187255859375 4.3436923027038574219 3.2825934886932373047 3.8128180503845214844 4.0230655670166015625 4.1196589469909667969 5.1045966148376464844 4.5336155891418457031 3.2181468009948730469 3.4428327083587646484 2.8033223152160644531 2.0817980766296386719 2.3416852951049804688 2.3116023540496826172 2.5733389854431152344 2.5035581588745117188 3.3995189666748046875 4.2079443931579589844 4.2281064987182617188 3.9194250106811523438 4.3842973709106445313 4.4668478965759277344 4.7193713188171386719 4.3660411834716796875 4.1565623283386230469 3.6524035930633544922 3.1049611568450927734 2.6816501617431640625 2.5152616500854492188 2.2330918312072753906 2.1368355751037597656 1.2962552309036254883 2.8139696121215820313 1.301726222038269043 1.6868594884872436523 
1.4414633512496948242 1.4755905866622924805 1.1494731903076171875 1.6443687677383422852 1.8498629331588745117 2.0812199115753173828 2.25579833984375 2.7407996654510498047 2.9752056598663330078 2.6988201141357421875 2.8519134521484375 3.3272845745086669922 2.6689343452453613281 2.8518326282501220703 2.6024968624114990234 2.3342041969299316406 1.8601316213607788086 1.8909726142883300781 1.6485692262649536133 1.7840597629547119141 2.3157055377960205078 1.7371422052383422852 1.9781409502029418945 2.0173258781433105469 2.4736502170562744141 2.5799701213836669922 2.8419353961944580078 2.6239550113677978516 2.2730054855346679688 2.5858197212219238281 2.5695104598999023438 2.3802924156188964844 2.6215050220489501953 2.0495655536651611328 2.0719716548919677734 2.4382805824279785156 3.1823663711547851563 3.1353452205657958984 2.2426943778991699219 2.73184967041015625 2.4265048503875732422 2.5939958095550537109 2.5375742912292480469 3.3493313789367675781 2.7710330486297607422 2.8320813179016113281 2.8159592151641845703 2.2951343059539794922 1.7123976945877075195 2.0644814968109130859 2.6255772113800048828 3.0861790180206298828 2.7879514694213867188 2.6238315105438232422 2.2786366939544677734 1.0525118112564086914 1.6317964792251586914 1.3689531087875366211 1.4276585578918457031 1.5848203897476196289 1.6065020561218261719 1.9534102678298950195 1.8883650302886962891 1.5197750329971313477 1.1945487260818481445 1.6534782648086547852 1.3842949867248535156 1.0103181600570678711 1.0837826728820800781 1.1277914047241210938 1.0812047719955444336 1.9041965007781982422 1.1245682239532470703 1.0595229864120483398 1.301726222038269043 1.9041965007781982422 1.1245682239532470703 1.1245682239532470703 1.9041965007781982422 1.6511363983154296875 1.5538790225982666016 2.6049542427062988281 2.2016704082489013672 1.7483574151992797852 1.6600682735443115234 1.2284859418869018555 1.2896581888198852539 1.2822881937026977539 1.9542856216430664063 1.2955501079559326172 1.301726222038269043 1.3518837690353393555 1.2955501079559326172 2.0106759071350097656 1.4565182924270629883 2.6200101375579833984 2.0501871109008789063 3.9215016365051269531 2.8177235126495361328 1.2621108293533325195 2.6200101375579833984 3.1917226314544677734 1.5911804437637329102 2.8177235126495361328 1.3879953622817993164 1.8986690044403076172 1.6344970464706420898 1.816743016242980957 1.7458671331405639648 2.5863945484161376953 3.9627170562744140625 1.2964682579040527344 1.3248986005783081055 1.9041965007781982422 1.0115746259689331055 1.047404170036315918 1.1245682239532470703 1.1028864383697509766 1.1245682239532470703 1.1265749931335449219 1.3115094900131225586 1.70508575439453125 2.2004687786102294922 1.7632734775543212891 1.7050757408142089844 1.8695348501205444336 2.0895631313323974609 2.0047373771667480469 1.4987249374389648438 1.7802860736846923828 1.3409315347671508789 1.4644697904586791992 1.1320297718048095703 1.4105434417724609375 1.4272629022598266602 1.3032304048538208008 1.6902151107788085938 1.446380615234375 2.171459197998046875 1.549213409423828125 2.0836081504821777344 1.8458297252655029297 2.2348351478576660156 2.0134720802307128906 1.9787073135375976563 2.6100389957427978516 2.3667225837707519531 3.3709807395935058594 4.2108087539672851563 3.6643159389495849609 3.8962788581848144531 3.3100931644439697266 3.6309187412261962891 4.6886749267578125 3.7322299480438232422 3.1858541965484619141 3.3047969341278076172 3.2570395469665527344 2.7244198322296142578 3.9687082767486572266 4.0284261703491210938 3.8973979949951171875 4.061069488525390625 4.9277577400207519531 4.38874053955078125 4.5082731246948242188 3.7937488555908203125 3.67081451416015625 4.095916748046875 3.5308127403259277344 3.5392138957977294922 3.2976794242858886719 3.8400332927703857422 2.7940986156463623047 2.2396116256713867188 2.0335593223571777344 2.0541043281555175781 1.9852969646453857422 3.2732379436492919922 2.6781697273254394531 2.3810622692108154297 2.5846693515777587891 3.4390959739685058594 4.3681173324584960938 3.3321020603179931641 4.2841687202453613281 5.2616252899169921875 5.0465579032897949219 5.4080662727355957031 4.3095412254333496094 4.3453879356384277344 3.8076908588409423828 2.8505148887634277344 2.6794149875640869141 2.6705658435821533203 1.9297130107879638672 1.9041965007781982422 1.1028864383697509766 1.0595229864120483398 1.0050448179244995117 
1.8718611001968383789 1.5570895671844482422 1.2503066062927246094 1.3590145111083984375 1.5225021839141845703 2.0641627311706542969 1.8390146493911743164 1.6871259212493896484 2.1075680255889892578 2.1861119270324707031 2.4393820762634277344 2.2330341339111328125 2.3950769901275634766 2.0150575637817382813 2.2496988773345947266 2.2221841812133789063 1.8380948305130004883 1.4231377840042114258 1.9793970584869384766 2.0080626010894775391 1.397210240364074707 1.4981230497360229492 2.3951435089111328125 2.2526440620422363281 2.1234517097473144531 2.4343724250793457031 2.2424163818359375 2.9744963645935058594 2.8801970481872558594 2.1966123580932617188 2.3822484016418457031 1.8524569272994995117 2.5354316234588623047 2.0338277816772460938 2.1443755626678466797 2.2605493068695068359 2.7098581790924072266 2.9236898422241210938 1.9667171239852905273 2.4548258781433105469 1.7946474552154541016 1.8401795625686645508 1.9103949069976806641 2.2046976089477539063 2.5263326168060302734 2.7655651569366455078 2.7583842277526855469 2.1137802600860595703 1.74918365478515625 1.6144146919250488281 1.7018352746963500977 2.6173212528228759766 2.8563230037689208984 2.5785505771636962891 2.4087271690368652344 1.653423309326171875 1.7024772167205810547 1.7369703054428100586 2.0226197242736816406 2.2569549083709716797 2.0400724411010742188 2.6905901432037353516 2.4737725257873535156 2.4954543113708496094 1.8666183948516845703 1.6968418359756469727 1.0863605737686157227 1.2668840885162353516 1.0837826728820800781 1.1711549758911132813 1.0049611330032348633 1.0627461671829223633 1.3183530569076538086 1.1028864383697509766 1.1245682239532470703 1.9041965007781982422 1.2677161693572998047 1.0813689231872558594 1.3082375526428222656 1.619009852409362793 1.9511252641677856445 1.8474552631378173828 2.0650663375854492188 1.8735963106155395508 1.8520885705947875977 1.2825133800506591797 1.9108177423477172852 1.2955501079559326172 1.2955501079559326172 2.2016704082489013672 1.0303750038146972656 2.4689557552337646484 1.301726222038269043 1.100308537483215332 1.6456036567687988281 2.6200101375579833984 1.731220245361328125 1.5544667243957519531 1.3161882162094116211 1.1219903230667114258 1.2311228513717651367 1.100308537483215332 1.100308537483215332 2.6321852207183837891 2.6321852207183837891 3.9627170562744140625 1.4573549032211303711 1.730509638786315918 1.8928989171981811523 3.9627170562744140625 1.4420080184936523438 1.4670038223266601563 1.5809073448181152344 1.2072728872299194336 1.1310622692108154297 1.0212770700454711914 1.1028864383697509766 1.1481291055679321289 1.9041965007781982422 1.8465199470520019531 1.4378813505172729492 1.3652657270431518555 1.5143855810165405273 1.9576239585876464844 2.1131823062896728516 2.1361300945281982422 1.9617632627487182617 1.8645734786987304688 1.9607899188995361328 2.4039590358734130859 1.9293512105941772461 1.9967865943908691406 1.2578819990158081055 1.3980615139007568359 1.5498743057250976563 1.2018388509750366211 1.0844278335571289063 1.7395218610763549805 1.1133934259414672852 1.5773656368255615234 1.6691575050354003906 1.3698554039001464844 1.6791050434112548828 1.8462796211242675781 2.064380645751953125 1.9508671760559082031 2.7665069103240966797 2.7636170387268066406 3.1355974674224853516 2.9960529804229736328 3.1762096881866455078 3.5846793651580810547 3.9083631038665771484 2.9400045871734619141 3.0030844211578369141 3.2803626060485839844 3.6361632347106933594 3.5462603569030761719 3.1050531864166259766 3.5699656009674072266 3.3867013454437255859 3.9287800788879394531 4.100467681884765625 3.4223995208740234375 2.9293186664581298828 3.0442843437194824219 3.7260098457336425781 3.224079132080078125 3.2112798690795898438 3.4237275123596191406 3.1478841304779052734 3.1606433391571044922 2.7122719287872314453 2.9734160900115966797 2.7633957862854003906 2.2704315185546875 2.1720783710479736328 1.9316636323928833008 2.5156366825103759766 2.396183013916015625 2.4595651626586914063 2.4262793064117431641 3.746517181396484375 4.0899224281311035156 5.1342520713806152344 4.3166480064392089844 6.6407108306884765625 6.64698028564453125 5.0570430755615234375 4.7870922088623046875 4.1789040565490722656 3.0856120586395263672 2.431262969970703125 2.3958353996276855469 1.7133784294128417969 1.2931711673736572266 1.5404224395751953125 1.0016961097717285156 1.6955621242523193359 1.1876382827758789063 
1.9469219446182250977 1.2298604249954223633 1.2018388509750366211 1.4676939249038696289 1.3752928972244262695 1.4335756301879882813 1.6444761753082275391 1.6323326826095581055 1.6976518630981445313 1.7803136110305786133 2.0613760948181152344 2.0720243453979492188 2.0418632030487060547 2.1955964565277099609 1.9984045028686523438 1.9623571634292602539 1.5312695503234863281 1.650042414665222168 1.3380559682846069336 1.5212305784225463867 1.4238802194595336914 1.5293631553649902344 1.6142888069152832031 1.827717900276184082 2.2941153049468994141 2.2787628173828125 2.2236890792846679688 2.6932158470153808594 2.6685771942138671875 1.7641423940658569336 2.2764761447906494141 2.0258581638336181641 2.2233557701110839844 2.3012194633483886719 2.4848828315734863281 2.8330621719360351563 2.9771120548248291016 2.600597381591796875 2.6286208629608154297 2.6690654754638671875 2.3065228462219238281 2.2318084239959716797 2.9562256336212158203 3.0338459014892578125 3.0650198459625244141 2.9011495113372802734 2.6549420356750488281 2.8250815868377685547 2.2963507175445556641 2.0737397670745849609 2.4944117069244384766 2.1794528961181640625 2.4806926250457763672 2.6976745128631591797 2.5787370204925537109 2.2467675209045410156 2.0013601779937744141 2.5346214771270751953 2.4946029186248779297 1.9336377382278442383 2.7152247428894042969 2.5639770030975341797 1.9533454179763793945 2.0401372909545898438 2.0835008621215820313 1.2812757492065429688 1.5667512416839599609 1.1080422401428222656 1.0382274389266967773 1.2300459146499633789 1.0627461671829223633 1.0812047719955444336 1 1.1028864383697509766 1.4099107980728149414 1.0690859556198120117 1.1298934221267700195 1.2440057992935180664 1.3557616472244262695 2.4689557552337646484 2.1164593696594238281 2.5863945484161376953 1.6977829933166503906 1.5328975915908813477 3.14661407470703125 1.7194232940673828125 2.0106759071350097656 2.4689557552337646484 1.1429781913757324219 1.301726222038269043 2.4689557552337646484 3.9627170562744140625 1.0029140710830688477 1.1219903230667114258 2.5863945484161376953 1.8997918367385864258 1.1419925689697265625 2.8177235126495361328 2.6200101375579833984 1.6868594884872436523 2.4689557552337646484 2.2016704082489013672 1.100308537483215332 1.100308537483215332 1.2955501079559326172 2.5863945484161376953 2.5863945484161376953 1.6713459491729736328 1.7518353462219238281 1.7945441007614135742 1.8961508274078369141 1.5658723115921020508 1.3294273614883422852 1.8849902153015136719 1.1245682239532470703 1.4438090324401855469 1.6955621242523193359 1.1013599634170532227 1.2373028993606567383 1.3536111116409301758 1.454985499382019043 1.6058583259582519531 1.4208340644836425781 1.6527513265609741211 1.7264482975006103516 1.5657076835632324219 1.7936804294586181641 1.6551710367202758789 1.8632922172546386719 2.0011112689971923828 1.8422946929931640625 1.7546721696853637695 1.2451254129409790039 1.3925973176956176758 1.6691575050354003906 1.0017797946929931641 1.6920357942581176758 1.9041965007781982422 1.3889206647872924805 1.9041965007781982422 1.3513264656066894531 1.2666993141174316406 1.9167265892028808594 2.0870461463928222656 1.8990105390548706055 1.9221001863479614258 2.1011133193969726563 2.270679473876953125 2.2174558639526367188 3.2157826423645019531 2.1365866661071777344 3.2104511260986328125 3.5116865634918212891 3.5872411727905273438 2.7114088535308837891 3.0765199661254882813 3.2654452323913574219 4.3677096366882324219 3.3063702583312988281 3.5925548076629638672 3.6300725936889648438 3.5099024772644042969 4.3261284828186035156 3.4508321285247802734 3.2446560859680175781 2.8201346397399902344 3.2376863956451416016 2.7347073554992675781 2.4640476703643798828 3.1482207775115966797 2.8411028385162353516 2.4289629459381103516 2.4343333244323730469 2.4295790195465087891 2.4245216846466064453 1.8576163053512573242 1.8555105924606323242 2.0834360122680664063 2.4087271690368652344 2.9074077606201171875 4.0406994819641113281 3.4328405857086181641 4.0187058448791503906 4.153018951416015625 5.1209926605224609375 4.74912261962890625 6.5821657180786132813 6.9244441986083984375 5.3582320213317871094 4.9515109062194824219 4.6183142662048339844 2.7853741645812988281 1.9669507741928100586 1.8841567039489746094 1.5694481134414672852 1.6316655874252319336 1.0285193920135498047 1.0346062183380126953 1.0187373161315917969 1.0837826728820800781 
2.2002186775207519531 1.6884627342224121094 1.1110436916351318359 1.1928366422653198242 1.2018388509750366211 1.5296219587326049805 1.3626133203506469727 1.0513564348220825195 1.5143855810165405273 1.9373407363891601563 2.0011675357818603516 2.1066124439239501953 1.4905589818954467773 1.5092668533325195313 1.076710820198059082 1.4034848213195800781 1.285335540771484375 1.0378412008285522461 1.1613729000091552734 1.6931302547454833984 1.5268089771270751953 1.9719879627227783203 1.9359335899353027344 1.8397369384765625 1.9968308210372924805 1.4298844337463378906 1.6196932792663574219 2.0481457710266113281 1.6046427488327026367 2.1167757511138916016 1.8249799013137817383 2.0278799533843994141 2.6657423973083496094 2.6487843990325927734 2.7865951061248779297 2.8903634548187255859 3.0661115646362304688 3.2599732875823974609 3.3324706554412841797 2.6048734188079833984 2.6389756202697753906 3.1407301425933837891 2.8258881568908691406 3.1532633304595947266 3.1752903461456298828 3.1432824134826660156 2.6612112522125244141 2.2801389694213867188 2.3700799942016601563 2.1109573841094970703 1.9660249948501586914 1.8967864513397216797 1.8539729118347167969 2.8611700534820556641 3.6698369979858398438 2.5306234359741210938 2.331989288330078125 2.7781276702880859375 2.6895475387573242188 2.1691262722015380859 1.9327813386917114258 1.8647753000259399414 2.0618190765380859375 2.0401372909545898438 1.7149108648300170898 1.7708891630172729492 1.7121837139129638672 1.151185154914855957 1.0532671213150024414 1.1864968538284301758 1.1462500095367431641 1.0621008872985839844 1.0867646932601928711 1.6600682735443115234 1.6401140689849853516 1.0404191017150878906 1.9041965007781982422 1.3023484945297241211 2.4689557552337646484 1.3812816143035888672 2.2016704082489013672 1.6237426996231079102 1.4040158987045288086 2.8918948173522949219 2.2016704082489013672 2.4689557552337646484 2.2016704082489013672 3.9627170562744140625 1.1219903230667114258 2.4689557552337646484 1.0087381601333618164 2.4689557552337646484 2.4689557552337646484 1.2621108293533325195 1.3161882162094116211 1.2311228513717651367 1.2621108293533325195 2.8177235126495361328 1.100308537483215332 2.5969169139862060547 1.0378412008285522461 1.6558682918548583984 2.5969169139862060547 2.8139696121215820313 1.0552269220352172852 1.2289282083511352539 1.2856231927871704102 1.301726222038269043 1.584786534309387207 1.7554000616073608398 1.8336954116821289063 1.3991968631744384766 1.2887233495712280273 1.1271461248397827148 1.1909916400909423828 1.3564770221710205078 1.9041965007781982422 1.0463047027587890625 1.4655774831771850586 1.4517540931701660156 1.7626770734786987305 1.4463562965393066406 1.8239678144454956055 2.1224658489227294922 1.5788369178771972656 1.8959953784942626953 1.7187950611114501953 1.8222914934158325195 1.8824155330657958984 1.9418911933898925781 1.437201380729675293 1.0621008872985839844 1.0621008872985839844 1.3612657785415649414 1.0378412008285522461 1.9041965007781982422 1.3307647705078125 1.4621782302856445313 1.66650390625 1.9041965007781982422 1.637054443359375 1.1711549758911132813 1.3032424449920654297 1.5617821216583251953 1.5143855810165405273 2.0125169754028320313 1.9163619279861450195 2.4108643531799316406 2.0167775154113769531 2.4242222309112548828 2.298725128173828125 2.7432324886322021484 2.0905199050903320313 3.2855813503265380859 3.8098599910736083984 2.9687395095825195313 3.3181705474853515625 3.0383009910583496094 4.253543853759765625 3.44567108154296875 3.8321616649627685547 4.4036083221435546875 4.3599238395690917969 3.6861369609832763672 3.6756536960601806641 2.9665815830230712891 2.6391272544860839844 2.1515946388244628906 2.5738050937652587891 2.7343292236328125 2.5926282405853271484 2.1193058490753173828 2.3049097061157226563 2.0683600902557373047 2.4800996780395507813 2.1911463737487792969 1.9750272035598754883 2.7359516620635986328 2.2144482135772705078 2.7565259933471679688 2.8376531600952148438 3.7467789649963378906 4.9145879745483398438 4.4360890388488769531 5.3072514533996582031 5.7944850921630859375 6.3869123458862304688 6.5604262351989746094 5.5811438560485839844 5.2729249000549316406 4.3761081695556640625 3.3219311237335205078 2.5610094070434570313 2.4589283466339111328 2.3391864299774169922 1.7620232105255126953 1.331929326057434082 1.0621008872985839844 1.0035594701766967773 1.0363167524337768555 
1.9247095584869384766 1.9383596181869506836 1.2362002134323120117 1.214518427848815918 1.1054643392562866211 1.4123165607452392578 1.2885658740997314453 1.2056537866592407227 1.0525118112564086914 1.6205292940139770508 1.575519561767578125 2.2989466190338134766 1.6463694572448730469 1.4360808134078979492 1.4432914257049560547 1.5254566669464111328 1.0690859556198120117 1.1076474189758300781 1.6818424463272094727 1.4589534997940063477 1.4547296762466430664 1.7183558940887451172 1.6341110467910766602 1.5804994106292724609 2.0021722316741943359 1.8980057239532470703 1.8402103185653686523 1.6969932317733764648 2.0291593074798583984 1.9942184686660766602 1.7451940774917602539 1.8429604768753051758 2.5882768630981445313 2.4310894012451171875 2.7674708366394042969 3.5635480880737304688 2.9680461883544921875 2.7512261867523193359 3.2016735076904296875 2.6702225208282470703 2.2478473186492919922 2.6316857337951660156 2.6389369964599609375 2.4661622047424316406 3.2755646705627441406 2.992824554443359375 2.0951533317565917969 2.8425133228302001953 2.6393260955810546875 2.5936288833618164063 2.1305851936340332031 1.7948027849197387695 1.9514564275741577148 2.7980794906616210938 3.5800278186798095703 2.6333384513854980469 2.4697575569152832031 2.4267451763153076172 2.554477691650390625 1.9951632022857666016 1.7852157354354858398 2.6403336524963378906 2.4520907402038574219 1.8359345197677612305 1.7149108648300170898 1.6715474128723144531 1.7582744359970092773 1.6751600503921508789 1.1559113264083862305 1.2795636653900146484 1.0837826728820800781 1.1711549758911132813 1.1271461248397827148 1.3612657785415649414 1.331929326057434082 1.3956332206726074219 1.1498551368713378906 1.0735840797424316406 1.1789380311965942383 2.0106759071350097656 3.6311545372009277344 1.5182421207427978516 2.2016704082489013672 2.2552065849304199219 1.6920912265777587891 1.9108177423477172852 3.13358306884765625 2.2552065849304199219 2.5863945484161376953 2.2552065849304199219 1.7058150768280029297 1.0303750038146972656 3.6311545372009277344 1.8997918367385864258 2.8177235126495361328 5.0049319267272949219 3.7933325767517089844 1.5544667243957519531 1.100308537483215332 2.5969169139862060547 2.4689557552337646484 3.9627170562744140625 1.0381839275360107422 1.0303750038146972656 1.0378412008285522461 1.6600682735443115234 1.2956521511077880859 1.6127364635467529297 1.5699658393859863281 1.8485116958618164063 1.7763681411743164063 1.3969746828079223633 1.365084528923034668 1.1496025323867797852 1.1760295629501342773 2.1344089508056640625 1.6975346803665161133 1.9049205780029296875 1.734106898307800293 2.470703125 2.5314280986785888672 2.0683274269104003906 1.5016330480575561523 1.3912904262542724609 1.7719805240631103516 1.8814035654067993164 1.3329555988311767578 1.7512812614440917969 1.5096884965896606445 1.2578819990158081055 1.1048216819763183594 1.0326956510543823242 1.4710749387741088867 1.0812047719955444336 1.0303750038146972656 1.0378412008285522461 1.9041965007781982422 1.9136976003646850586 1.7259035110473632813 1.5117387771606445313 1.9085295200347900391 1.9116252660751342773 1.5509057044982910156 1.2358776330947875977 1.4791611433029174805 2.0252192020416259766 1.7452182769775390625 2.6288497447967529297 2.63385772705078125 2.2859930992126464844 2.3810274600982666016 3.0664005279541015625 2.3251590728759765625 2.7507832050323486328 3.4832642078399658203 2.9320442676544189453 3.21105194091796875 2.6679208278656005859 3.2371275424957275391 3.7714459896087646484 3.8650662899017333984 3.73358154296875 3.8352186679840087891 3.2876491546630859375 3.0137336254119873047 2.7516169548034667969 2.6009576320648193359 2.5037927627563476563 2.3189878463745117188 2.9765884876251220703 2.9228949546813964844 2.3394701480865478516 1.4113662242889404297 1.8359345197677612305 1.8372207880020141602 1.829594731330871582 2.5066556930541992188 2.4204511642456054688 2.3653635978698730469 2.7820186614990234375 3.0775401592254638672 3.4111468791961669922 4.2926983833312988281 4.5699100494384765625 4.8930845260620117188 5.6343312263488769531 5.5821328163146972656 4.6294293403625488281 4.79203033447265625 4.5462794303894042969 3.9983849525451660156 3.49402618408203125 3.1416101455688476563 2.8407003879547119141 2.6117584705352783203 1.5907880067825317383 1.6335966587066650391 1.3537832498550415039 1.1566615104675292969 1.3428004980087280273 
1.4273848533630371094 1.5060790777206420898 1.0923851728439331055 1.9041965007781982422 1.1277914047241210938 1.0399379730224609375 1.0982995033264160156 1.3536111116409301758 1.4966870546340942383 1.6641434431076049805 1.8560278415679931641 1.4722589254379272461 1.56745147705078125 1.6024615764617919922 1.3436429500579833984 1.1239633560180664063 1.3996593952178955078 1.1076474189758300781 1.1458593606948852539 1.6137833595275878906 1.6393431425094604492 1.9978463649749755859 2.0001876354217529297 1.9904651641845703125 2.3938612937927246094 2.0980238914489746094 2.5947580337524414063 2.2084364891052246094 1.7500931024551391602 1.9390568733215332031 1.7494089603424072266 2.3023974895477294922 3.0710287094116210938 2.6400392055511474609 3.3066189289093017578 3.7853479385375976563 2.8475425243377685547 2.8240151405334472656 3.3025369644165039063 2.8524463176727294922 2.7061109542846679688 3.3017990589141845703 3.6756963729858398438 2.9976048469543457031 3.2190952301025390625 2.6544904708862304688 2.243480682373046875 2.2620267868041992188 2.4855720996856689453 2.3119218349456787109 2.0756497383117675781 1.9512654542922973633 1.9886074066162109375 2.5682735443115234375 2.5841622352600097656 2.6213266849517822266 3.2574214935302734375 2.2973566055297851563 2.5402138233184814453 2.5013687610626220703 3.1220800876617431641 2.6402685642242431641 1.9750920534133911133 2.0835008621215820313 2.155609130859375 2.2324738502502441406 1.7275257110595703125 1.4980933666229248047 1.5794308185577392578 1.2300459146499633789 1.0612875223159790039 1.2452023029327392578 1.331929326057434082 1.214518427848815918 1.2543036937713623047 1.0837826728820800781 1.2957750558853149414 1.009360194206237793 1.2955501079559326172 1.3851103782653808594 1.6335653066635131836 2.2016704082489013672 2.5863945484161376953 1.8997918367385864258 2.5863945484161376953 2.5969169139862060547 1.3810710906982421875 1.100308537483215332 2.2552065849304199219 3.14661407470703125 2.0106759071350097656 2.2552065849304199219 1.100308537483215332 1.1219903230667114258 2.1277348995208740234 2.3458511829376220703 1.0352632999420166016 1.100308537483215332 2.5863945484161376953 1.1219903230667114258 1.301726222038269043 1.0595229864120483398 1.9122374057769775391 1.0595229864120483398 2.0106759071350097656 1.2534500360488891602 1.0336509943008422852 1.3535935878753662109 1.8017541170120239258 1.7780103683471679688 1.6982529163360595703 1.1072417497634887695 1.3102476596832275391 1.4270980358123779297 1.5757223367691040039 1.4916673898696899414 1.7006769180297851563 1.8000050783157348633 2.2152779102325439453 2.7145731449127197266 2.1304278373718261719 2.2622759342193603516 1.9545987844467163086 1.4353939294815063477 1.4518229961395263672 1.7069605588912963867 1.4718319177627563477 1.7054487466812133789 1.3275763988494873047 1.3128420114517211914 1.1462500095367431641 1.1028864383697509766 1.0303750038146972656 1.0812047719955444336 1.301726222038269043 1.0595229864120483398 1.265320897102355957 1.6278975009918212891 1.6843006610870361328 1.9041965007781982422 1.0595229864120483398 1.4156960248947143555 1.106109619140625 1.7044533491134643555 1.8480153083801269531 1.5514092445373535156 1.7949309349060058594 1.9138437509536743164 2.2898464202880859375 1.5405414104461669922 2.1643903255462646484 2.8128070831298828125 2.3621988296508789063 3.0206625461578369141 2.3907353878021240234 2.3001251220703125 3.1461253166198730469 2.8994359970092773438 2.2298607826232910156 2.7857689857482910156 2.450550079345703125 3.1291806697845458984 3.0298526287078857422 3.3306427001953125 3.1566512584686279297 3.3608500957489013672 2.6111090183258056641 3.2194523811340332031 2.0848848819732666016 2.9379749298095703125 2.0528688430786132813 1.3295209407806396484 1.5750237703323364258 1.5143855810165405273 1.6968418359756469727 1.1295033693313598633 1.9511123895645141602 1.7058439254760742188 2.1271145343780517578 2.9762215614318847656 3.7886152267456054688 3.5367288589477539063 3.24100494384765625 3.7682034969329833984 4.1791768074035644531 3.8697862625122070313 4.1104474067687988281 4.40081787109375 4.6037545204162597656 4.1753697395324707031 3.3215868473052978516 3.4866654872894287109 3.5527262687683105469 2.8756356239318847656 2.5181972980499267578 1.7797491550445556641 1.6982564926147460938 1.7016111612319946289 1.7212904691696166992 1.3693263530731201172 
1.6842423677444458008 1.3196793794631958008 1.9108177423477172852 1.1462500095367431641 1.4710749387741088867 1.2288765907287597656 1.2298604249954223633 1.0496459007263183594 1.440338134765625 1.2933511734008789063 1.4957844018936157227 1.3969746828079223633 1.4041237831115722656 1.3444837331771850586 1.833621978759765625 1.0404191017150878906 1.2300459146499633789 1.2362002134323120117 1.6423826217651367188 1.4628317356109619141 1.2904720306396484375 1.5954051017761230469 1.8386796712875366211 1.8461904525756835938 1.9365375041961669922 1.8562273979187011719 1.8576689958572387695 2.0705971717834472656 1.9143147468566894531 2.2276470661163330078 2.1505451202392578125 2.7579293251037597656 3.5067532062530517578 3.3404049873352050781 3.4868946075439453125 3.4100115299224853516 3.2074124813079833984 3.3412089347839355469 3.0388317108154296875 3.4583723545074462891 3.0935761928558349609 3.4999463558197021484 3.65213775634765625 3.2995526790618896484 2.7441089153289794922 2.6079702377319335938 2.9282433986663818359 2.34694671630859375 2.6713807582855224609 2.7535495758056640625 2.3952705860137939453 1.7402052879333496094 2.4871764183044433594 1.7908126115798950195 2.1439876556396484375 1.8649984598159790039 3.0326218605041503906 2.8475701808929443359 2.0889179706573486328 2.3585343360900878906 2.7722327709197998047 2.8087980747222900391 2.2352731227874755859 2.1280076503753662109 1.9745839834213256836 2.075931549072265625 2.2252051830291748047 1.6065020561218261719 1.7185235023498535156 1.1539837121963500977 1.1271461248397827148 1.0213152170181274414 1.2452023029327392578 1.2578819990158081055 1.1494731903076171875 1 1.2538273334503173828 1.1568512916564941406 1.0378412008285522461 1.6955621242523193359 1.2955501079559326172 2.4689557552337646484 2.5863945484161376953 2.6200101375579833984 1.1061476469039916992 1.2861768007278442383 1.2657996416091918945 1.9122374057769775391 2.1164593696594238281 2.4689557552337646484 1.2955501079559326172 1.100308537483215332 1.1219903230667114258 1.0087381601333618164 1.8997918367385864258 3.1262457370758056641 2.8918948173522949219 2.8177235126495361328 3.0418324470520019531 2.8139696121215820313 2.4689557552337646484 1.2955501079559326172 1.0203218460083007813 3.9627170562744140625 1.0087381601333618164 1.1930837631225585938 1.9041965007781982422 2.1344089508056640625 1.4828549623489379883 1.6246793270111083984 1.4397747516632080078 1.5889410972595214844 1.4983098506927490234 1.3812483549118041992 1.2814499139785766602 1.2787029743194580078 1.4415132999420166016 1.5577491521835327148 2.0541925430297851563 2.4943521022796630859 2.4588191509246826172 2.2198987007141113281 2.1109213829040527344 2.0148682594299316406 2.1051685810089111328 1.9556163549423217773 1.1510146856307983398 1.4585632085800170898 1.2452023029327392578 1.0844278335571289063 1.1245682239532470703 1.0378412008285522461 1.0378412008285522461 1.301726222038269043 1.0303750038146972656 2.4689557552337646484 1.0205237865447998047 1.23412322998046875 1.1151365041732788086 1.1891150474548339844 1.1245682239532470703 1.0187373161315917969 1.1565049886703491211 1.5607836246490478516 2.7038631439208984375 2.5559504032135009766 2.068996429443359375 1.5024062395095825195 1.8361470699310302734 1.9626727104187011719 2.2820956707000732422 1.6766947507858276367 2.4342107772827148438 2.4642536640167236328 2.6590118408203125 2.239078521728515625 2.6895599365234375 2.6632320880889892578 2.4305341243743896484 2.6235928535461425781 2.2824614048004150391 2.4234926700592041016 3.5556001663208007813 3.9228723049163818359 3.9078352451324462891 3.4144566059112548828 3.0521638393402099609 2.8677387237548828125 2.3223845958709716797 2.5669105052947998047 2.0854735374450683594 1.2617684602737426758 1.1134399175643920898 1.4927037954330444336 1.237805485725402832 1.0863605737686157227 1.042841792106628418 1.4547297954559326172 2.2490422725677490234 2.5518953800201416016 3.0028731822967529297 2.8966329097747802734 3.4918906688690185547 2.5859606266021728516 2.2687366008758544922 3.1947548389434814453 3.5294349193572998047 5.4059252738952636719 4.2630925178527832031 3.4248609542846679688 3.1040747165679931641 2.8859186172485351563 3.1912531852722167969 2.7418630123138427734 2.8573155403137207031 2.7203066349029541016 2.0062520503997802734 1.9333336353302001953 2.0846126079559326172 2.2566154003143310547 
1.8849902153015136719 1.9108177423477172852 1.1028864383697509766 1.0035790205001831055 1.106109619140625 1.0867646932601928711 1.2668840885162353516 1.2668840885162353516 1.3969746828079223633 1.1198683977127075195 1.2362002134323120117 1.0035594701766967773 1.4943218231201171875 1.735004425048828125 1.2940554618835449219 1.1121435165405273438 1.0268088579177856445 1.2452023029327392578 1.3012454509735107422 1.1097518205642700195 1.1271461248397827148 1.4461946487426757813 1.5599578619003295898 1.9096541404724121094 1.7426122426986694336 2.0743005275726318359 1.7353341579437255859 1.5794308185577392578 1.7291321754455566406 2.207061767578125 2.5669596195220947266 3.047962188720703125 3.9564058780670166016 3.2451827526092529297 3.8816008567810058594 3.6821534633636474609 3.1889824867248535156 3.1614143848419189453 3.7478384971618652344 3.2515475749969482422 3.3300464153289794922 3.3047611713409423828 3.0632908344268798828 3.4830138683319091797 2.9204995632171630859 2.8797132968902587891 2.4759452342987060547 2.2128286361694335938 3.1195337772369384766 2.4714508056640625 2.255096435546875 2.4810986518859863281 2.6436545848846435547 1.8657577037811279297 1.7894423007965087891 2.1054368019104003906 2.6651830673217773438 2.6071305274963378906 2.1170208454132080078 2.1342389583587646484 2.9117836952209472656 2.4382696151733398438 2.5825204849243164063 2.0514855384826660156 2.0154242515563964844 2.5690476894378662109 1.7835102081298828125 1.2204018831253051758 1.2834693193435668945 1.5577491521835327148 1.1323019266128540039 1.5577491521835327148 1.4123165607452392578 1.2706634998321533203 1.1277914047241210938 2.1344089508056640625 1.0690859556198120117 1.1245682239532470703 1.3299858570098876953 1.9108177423477172852 1.1109114885330200195 2.5969169139862060547 2.6321852207183837891 2.8177235126495361328 1.4210381507873535156 1.2286937236785888672 2.2016704082489013672 1.7058150768280029297 3.5349488258361816406 3.9627170562744140625 2.8139696121215820313 2.2552065849304199219 2.5969169139862060547 2.0501871109008789063 5.0049319267272949219 2.9014503955841064453 3.7933325767517089844 3.9215016365051269531 1.100308537483215332 1.4521001577377319336 1.5627771615982055664 2.6321852207183837891 3.9627170562744140625 2.8177235126495361328 2.2552065849304199219 1.0913252830505371094 1.0595229864120483398 1.4169198274612426758 1.558653712272644043 1.2868169546127319336 1.4965986013412475586 1.3752928972244262695 1.1802034378051757813 1.456152796745300293 1.4986205101013183594 1.0435590744018554688 1.4691904783248901367 1.613509058952331543 1.6126871109008789063 2.0165543556213378906 1.6608552932739257813 1.9356379508972167969 1.5080457925796508789 1.7762491703033447266 1.7005655765533447266 1.7498242855072021484 1.191356658935546875 1.0837826728820800781 1.0844278335571289063 1.1028864383697509766 1.4130268096923828125 1.0378412008285522461 1.2955501079559326172 1.1219903230667114258 1.1219903230667114258 2.2552065849304199219 1.1028864383697509766 1.3478320837020874023 1.5370018482208251953 1.4972932338714599609 1.2874587774276733398 1.0844278335571289063 1.2571195363998413086 1.8411710262298583984 2.0750424861907958984 1.7301337718963623047 1.8858858346939086914 1.6726744174957275391 2.040348052978515625 1.6570357084274291992 2.5556058883666992188 2.4650821685791015625 2.0525736808776855469 2.8034644126892089844 2.7915689945220947266 1.7390763759613037109 2.2574493885040283203 2.4639234542846679688 2.4752390384674072266 2.5826320648193359375 2.6568841934204101563 3.5210683345794677734 3.5140693187713623047 3.6885282993316650391 4.0200276374816894531 3.2817816734313964844 3.1077978610992431641 2.6299586296081542969 2.2406270503997802734 2.1368470191955566406 1.8372739553451538086 1.6841118335723876953 1.4276585578918457031 1.331929326057434082 1.2287830114364624023 1.2018388509750366211 1.0672566890716552734 1.7147705554962158203 1.4391289949417114258 2.4060289859771728516 3.0711610317230224609 2.5435781478881835938 2.8618638515472412109 2.6089918613433837891 2.1856441497802734375 2.7363095283508300781 3.1829965114593505859 3.4357993602752685547 3.4936766624450683594 3.0893857479095458984 3.0093812942504882813 2.9496622085571289063 3.2121708393096923828 3.0998754501342773438 2.5064127445220947266 2.7774534225463867188 2.6315286159515380859 2.5393877029418945313 2.4999139308929443359 1.969752192497253418 
1.3518837690353393555 1.029074549674987793 1.1245682239532470703 1.1245682239532470703 1.0844278335571289063 1.5630494356155395508 1.1494731903076171875 1.2603366374969482422 1.0200263261795043945 1.2795636653900146484 1.1096309423446655273 1.5630494356155395508 1.5907961130142211914 1.4745291471481323242 1.5120586156845092773 1.2116512060165405273 1.3647389411926269531 1.5179932117462158203 1.3752928972244262695 1.2294418811798095703 1.3439832925796508789 1.8961652517318725586 1.8391747474670410156 2.1070387363433837891 2.2110972404479980469 1.835469365119934082 1.6465262174606323242 1.225434422492980957 1.8161362409591674805 2.5770807266235351563 3.0788390636444091797 3.4408795833587646484 4.1171197891235351563 3.4527399539947509766 4.86232757568359375 4.5436344146728515625 4.0595583915710449219 4.0557537078857421875 3.5771698951721191406 3.3948032855987548828 3.4431917667388916016 3.3271205425262451172 2.8895440101623535156 2.78348541259765625 2.625995635986328125 2.5185801982879638672 2.3172700405120849609 2.8141038417816162109 3.1158807277679443359 2.1901180744171142578 2.2119336128234863281 2.1606192588806152344 2.4398653507232666016 1.7824660539627075195 1.6871255636215209961 1.9603447914123535156 2.0060455799102783203 2.2971901893615722656 2.0616838932037353516 1.9803963899612426758 1.9798980951309204102 2.2357985973358154297 1.7535154819488525391 1.7708891630172729492 1.2824053764343261719 1.7266263961791992188 1.4066922664642333984 1.3787176609039306641 1.1195050477981567383 1.1539837121963500977 1.5667512416839599609 1.3689531087875366211 1.1711549758911132813 1.044314265251159668 1.0837826728820800781 1.1245682239532470703 1.0595229864120483398 1.1028864383697509766 1.1602931022644042969 1.125384211540222168 1.0029140710830688477 1.7194232940673828125 1.1219903230667114258 1.8997918367385864258 1.3339897394180297852 1.4033412933349609375 2.4689557552337646484 1.0378412008285522461 2.2016704082489013672 1.8997918367385864258 1.029074549674987793 2.4689557552337646484 1.1219903230667114258 1.2621108293533325195 3.7933325767517089844 2.6653759479522705078 5.0049319267272949219 2.2954523563385009766 2.8177235126495361328 1.2621108293533325195 1.8997918367385864258 2.5863945484161376953 1.1219903230667114258 1.376195073127746582 3.14661407470703125 1.0812047719955444336 1.3571007251739501953 1.5497975349426269531 1.7354437112808227539 1.106109619140625 1.0732425451278686523 1.0363167524337768555 1.1295099258422851563 1.6922739744186401367 1.3949161767959594727 1.4723918437957763672 1.5143855810165405273 1.9642013311386108398 1.8353325128555297852 1.7027381658554077148 1.603960871696472168 1.8382180929183959961 1.6011126041412353516 1.4710220098495483398 1.8311082124710083008 1.0418485403060913086 1.4186656475067138672 1.0837826728820800781 1.1245682239532470703 2.2552065849304199219 1.15718841552734375 1.0029140710830688477 1.0115746259689331055 2.8139696121215820313 1.2955501079559326172 1.1219903230667114258 2.3418080806732177734 1.3070747852325439453 1.7058150768280029297 1.9790275096893310547 1.3250602483749389648 1.8563123941421508789 1.1054643392562866211 1.2423769235610961914 1.5952354669570922852 1.4425783157348632813 1.6078331470489501953 1.5621711015701293945 1.6227943897247314453 2.1156802177429199219 2.0679888725280761719 2.4293842315673828125 2.8591189384460449219 3.0818531513214111328 2.9501736164093017578 2.7122304439544677734 2.8586914539337158203 2.7866697311401367188 2.602848052978515625 2.9503018856048583984 4.1027216911315917969 3.5452301502227783203 2.8824799060821533203 4.2976903915405273438 3.8879215717315673828 3.9093117713928222656 2.3471000194549560547 2.3960580825805664063 1.8466397523880004883 2.1042411327362060547 1.9846519231796264648 1.7431702613830566406 1.6011126041412353516 1.3192497491836547852 1.0867646932601928711 1.0646787881851196289 1.4123165607452392578 1.6750673055648803711 1.642720341682434082 2.4877786636352539063 2.7866902351379394531 2.1811509132385253906 2.60822296142578125 2.013660430908203125 2.3004641532897949219 2.2505424022674560547 3.1609776020050048828 3.2491164207458496094 2.6024980545043945313 2.72623443603515625 2.7431552410125732422 3.0179145336151123047 3.1057238578796386719 2.8975093364715576172 2.8334493637084960938 3.0420598983764648438 2.8781790733337402344 2.7415668964385986328 2.3368527889251708984 1.9170682430267333984 
1.0984845161437988281 1.5713086128234863281 1.4710749387741088867 1.1245682239532470703 1.0711750984191894531 1.0378412008285522461 1.1028864383697509766 1.1245682239532470703 1.0406931638717651367 1.214518427848815918 1.2957750558853149414 1.4336069822311401367 1.7603837251663208008 1.3449583053588867188 1.8946912288665771484 1.3085767030715942383 1.21695709228515625 1.4276585578918457031 1.5718920230865478516 1.2306227684020996094 2.0911896228790283203 2.0576398372650146484 2.0398669242858886719 1.8805232048034667969 1.814461827278137207 1.7555370330810546875 1.6456037759780883789 1.5778297185897827148 1.7571898698806762695 2.9131040573120117188 3.1434693336486816406 4.1545133590698242188 3.9384324550628662109 4.109661102294921875 4.7774457931518554688 4.3164243698120117188 4.6606121063232421875 4.5944123268127441406 4.4062418937683105469 3.8094446659088134766 3.3377792835235595703 3.5423235893249511719 3.4604153633117675781 2.6418566703796386719 3.1248490810394287109 2.7548403739929199219 2.18377685546875 1.9582740068435668945 2.7063121795654296875 1.8733251094818115234 1.8714157342910766602 1.6710926294326782227 1.8367480039596557617 2.1414372920989990234 1.8637305498123168945 1.3476319313049316406 1.8130984306335449219 1.5011496543884277344 2.0044193267822265625 1.6179696321487426758 1.8427774906158447266 1.698464512825012207 2.1031770706176757813 1.3448358774185180664 1.7917315959930419922 1.5017060041427612305 1.3290483951568603516 1.1728173494338989258 1.1295033693313598633 1.6011126041412353516 1.4276585578918457031 1.2986416816711425781 1.270991206169128418 1.0406931638717651367 1.0837826728820800781 1.0187373161315917969 1.2362002134323120117 1.1928366422653198242 1.8563123941421508789 1.0690859556198120117 1.0595229864120483398 1.3518837690353393555 1.9108177423477172852 2.3189318180084228516 1.1558263301849365234 2.5863945484161376953 1.6868594884872436523 1.0151902437210083008 2.5969169139862060547 1.3161882162094116211 1.3161882162094116211 1.3161882162094116211 1.2621108293533325195 2.0501871109008789063 1.731220245361328125 3.7933325767517089844 3.9215016365051269531 3.7933325767517089844 1.0352632999420166016 1.2621108293533325195 1.2459700107574462891 1.5135337114334106445 1.0115746259689331055 1.7058150768280029297 1.9108177423477172852 1.4098074436187744141 1.5539369583129882813 1.456975102424621582 1.7275555133819580078 1.3582547903060913086 1.1054643392562866211 1.1271461248397827148 1.2290571928024291992 1.3166331052780151367 1.1842590570449829102 1.6341795921325683594 1.677364349365234375 1.9526251554489135742 1.9315236806869506836 1.5733714103698730469 1.4151457548141479492 1.6285609006881713867 1.1042411327362060547 1.4059767723083496094 1.4732624292373657227 1.6011126041412353516 1.331929326057434082 1.0837826728820800781 1.0025691986083984375 1.6868594884872436523 1.0595229864120483398 1.0266088247299194336 1.0203218460083007813 2.2552065849304199219 2.4689557552337646484 2.4689557552337646484 1.0852999687194824219 3.6686847209930419922 2.2016704082489013672 1.3498821258544921875 1.4107851982116699219 1.8275238275527954102 1.4351546764373779297 1.2908180952072143555 1.0775721073150634766 1.6331859827041625977 1.3409315347671508789 1.2173390388488769531 1.6528062820434570313 1.7569059133529663086 1.5814977884292602539 2.1816186904907226563 2.6137566566467285156 2.4147915840148925781 3.3222904205322265625 2.3066589832305908203 1.8898855447769165039 2.841129302978515625 2.8852384090423583984 2.5065417289733886719 2.4714856147766113281 3.5090434551239013672 3.6028492450714111328 4.1434035301208496094 4.15653228759765625 3.2279915809631347656 3.5937693119049072266 2.6997058391571044922 2.0930395126342773438 1.9290597438812255859 2.0915181636810302734 1.6505159139633178711 1.8420562744140625 1.2342828512191772461 1.4629657268524169922 1.1195181608200073242 1.2664899826049804688 2.0382547378540039063 1.8015131950378417969 2.0235984325408935547 2.4989495277404785156 1.8090403079986572266 1.8733564615249633789 1.9334235191345214844 2.1655085086822509766 2.4210059642791748047 2.1332716941833496094 3.3669710159301757813 2.9945700168609619141 2.5290765762329101563 3.0050692558288574219 2.7128179073333740234 2.7690732479095458984 2.714115142822265625 2.5476987361907958984 2.7352931499481201172 2.91719818115234375 2.7752962112426757813 2.0917880535125732422 2.2306284904479980469 
1.4945476055145263672 1.4388844966888427734 1.7118377685546875 1.2473464012145996094 1.2955501079559326172 2.4689557552337646484 1.301726222038269043 1.1028864383697509766 1.2514883279800415039 1.1714900732040405273 1.2957750558853149414 1.2409677505493164063 1.6510834693908691406 2.1916873455047607422 1.3597465753555297852 1.4069535732269287109 1.5993906259536743164 1.6033922433853149414 1.3912650346755981445 1.4927037954330444336 2.0044050216674804688 2.2313809394836425781 1.8386645317077636719 1.6353671550750732422 1.5171403884887695313 1.6027904748916625977 1.4710220098495483398 2.2242019176483154297 2.7970371246337890625 2.9702901840209960938 3.0397646427154541016 2.8196928501129150391 3.47602081298828125 4.8207912445068359375 5.0109009742736816406 5.908306121826171875 5.3907904624938964844 5.1769256591796875 5.0819301605224609375 4.0952315330505371094 3.2548053264617919922 3.2799427509307861328 3.1844484806060791016 3.6077196598052978516 3.3880591392517089844 2.8275144100189208984 2.8437449932098388672 3.0082964897155761719 2.1769113540649414063 1.8745319843292236328 1.6818675994873046875 1.1550543308258056641 1.1124800443649291992 1.614392399787902832 1.4936901330947875977 1.2235205173492431641 1.4694486856460571289 1.3676295280456542969 1.4758534431457519531 1.6064473390579223633 2.0202372074127197266 1.6968418359756469727 2.0041801929473876953 1.4533241987228393555 1.6968418359756469727 1.5334566831588745117 1.1297240257263183594 1.2700076103210449219 1.5143855810165405273 1.2668840885162353516 1.4056197404861450195 1.4276585578918457031 1.3969746828079223633 1.0285193920135498047 1.0837826728820800781 1.1277914047241210938 1.1494731903076171875 1.4142309427261352539 1.0837826728820800781 2.1344089508056640625 1.15718841552734375 1.2955501079559326172 1.0378412008285522461 1.2271931171417236328 1.2955501079559326172 1.1948877573013305664 1.6868594884872436523 1.9108177423477172852 1.6456036567687988281 1.8997918367385864258 1.5544667243957519531 1.0352632999420166016 1.5544667243957519531 3.1424236297607421875 2.9014503955841064453 1.731220245361328125 1.731220245361328125 5.0349431037902832031 2.0501871109008789063 1.1419925689697265625 2.0106759071350097656 1.6417822837829589844 1.0378412008285522461 1.2882797718048095703 1.0812047719955444336 1.3183530569076538086 1.4561830759048461914 1.3841513395309448242 1.2779167890548706055 1.9041965007781982422 1.214518427848815918 1.2578819990158081055 1.8563123941421508789 1.2514832019805908203 1.1735860109329223633 1.4255852699279785156 1.6684374809265136719 1.8641659021377563477 1.7853846549987792969 1.6503161191940307617 1.1951830387115478516 1.284626007080078125 1.231156468391418457 1.2300459146499633789 1.3969746828079223633 1.4710220098495483398 1.3472713232040405273 1.2362002134323120117 1.2795636653900146484 1.301726222038269043 1.7058150768280029297 2.5863945484161376953 1.100308537483215332 1.0595229864120483398 2.4689557552337646484 2.2552065849304199219 1.0087381601333618164 2.2552065849304199219 3.13358306884765625 2.4689557552337646484 1.3948218822479248047 1.2744436264038085938 1.3385088443756103516 1.2836821079254150391 1.5949856042861938477 1.2668840885162353516 1.1660685539245605469 1.3626133203506469727 1.5150156021118164063 1.6572371721267700195 1.0119647979736328125 1.5414218902587890625 2.7054047584533691406 2.0597243309020996094 2.4376027584075927734 2.3115081787109375 2.6763885021209716797 3.0794839859008789063 3.1134097576141357422 2.8073875904083251953 2.9553232192993164063 3.2098708152770996094 4.4338774681091308594 3.0556011199951171875 3.5523931980133056641 2.9347047805786132813 2.9089140892028808594 3.3882403373718261719 2.2400343418121337891 2.3668737411499023438 2.0754425525665283203 2.0597143173217773438 1.6428738832473754883 1.2105237245559692383 1.3815442323684692383 1.3102476596832275391 1.3689197301864624023 1.3842949867248535156 1.1141400337219238281 2.3578021526336669922 2.3155252933502197266 1.8062711954116821289 2.3155040740966796875 2.4051058292388916016 2.1348235607147216797 1.6102559566497802734 2.2188701629638671875 2.8460357189178466797 3.3491427898406982422 2.9766287803649902344 3.7273790836334228516 3.1990795135498046875 2.885944366455078125 2.6165432929992675781 2.7630989551544189453 2.6675553321838378906 2.7213926315307617188 2.6069900989532470703 1.8278967142105102539 1.7774808406829833984 
2.5969169139862060547 1.2228019237518310547 1.2955501079559326172 1.3023484945297241211 2.6321852207183837891 1.5671200752258300781 1.9108177423477172852 1.1433185338973999023 1.3596346378326416016 1.3247694969177246094 1.4710749387741088867 1.7386504411697387695 1.9041965007781982422 1.3642897605895996094 1.0923851728439331055 1.6535369157791137695 1.8144890069961547852 1.428985595703125 1.4008147716522216797 1.4681196212768554688 1.9401488304138183594 1.9484986066818237305 1.4730098247528076172 2.0109956264495849609 1 1.4123165607452392578 1.6091805696487426758 2.5554053783416748047 2.4684262275695800781 3.5674176216125488281 2.8692252635955810547 3.8034515380859375 4.6087040901184082031 4.730968475341796875 5.0759997367858886719 5.7420382499694824219 5.2845163345336914063 5.3987526893615722656 4.7200398445129394531 4.3186178207397460938 3.7022621631622314453 3.3379111289978027344 3.2017874717712402344 3.3765683174133300781 3.1278929710388183594 2.7477488517761230469 2.7492189407348632813 2.3415248394012451172 2.5117235183715820313 1.8081989288330078125 1.6709015369415283203 1.5090684890747070313 1.7693285942077636719 1.6383128166198730469 1.1747163534164428711 1.3969746828079223633 1.2434878349304199219 1.0995775461196899414 1.0429970026016235352 1.3102476596832275391 1.3234273195266723633 1.5217697620391845703 1.4493403434753417969 1.1627748012542724609 1.4085081815719604492 1.3557151556015014648 1.2103797197341918945 1.4286826848983764648 1.2578371763229370117 1.0426037311553955078 1.7221181392669677734 1.4276585578918457031 1.2908754348754882813 1.1488279104232788086 1.0285193920135498047 1.2957750558853149414 1.214518427848815918 1.5470420122146606445 1.4372193813323974609 1.7892693281173706055 1.1462500095367431641 1.1245682239532470703 1.0595229864120483398 1.1659046411514282227 1.2719919681549072266 2.5863945484161376953 1.2311228513717651367 1.100308537483215332 2.8177235126495361328 1.5911804437637329102 1.5911804437637329102 4.4419436454772949219 3.9215016365051269531 3.7933325767517089844 2.6200101375579833984 2.0501871109008789063 2.6200101375579833984 1.731220245361328125 1.3161882162094116211 1.3638215065002441406 3.14661407470703125 1.584679722785949707 1.9108177423477172852 1.6691575050354003906 1.4345678091049194336 1.3388684988021850586 1.1657203435897827148 1.3367553949356079102 1.9041965007781982422 1.0019471645355224609 1.1801570653915405273 1.1076474189758300781 1.3241167068481445313 1.4915845394134521484 1.60677337646484375 2.5164275169372558594 2.2374293804168701172 2.1665155887603759766 1.4569376707077026367 1.2703796625137329102 1.4059767723083496094 1.6270196437835693359 1.2675091028213500977 1.4276585578918457031 1.4710220098495483398 1.418656468391418457 1.2452023029327392578 1.2077718973159790039 1.1028864383697509766 2.4689557552337646484 1.1219903230667114258 3.9627170562744140625 2.4689557552337646484 2.8139696121215820313 3.1896233558654785156 1.0378412008285522461 1.301726222038269043 2.4689557552337646484 1.3518837690353393555 1.5480189323425292969 1.2474367618560791016 1.1582593917846679688 1.6277670860290527344 1.0837826728820800781 1.0621008872985839844 1.8453170061111450195 1.4634209871292114258 2.0978937149047851563 1.8925313949584960938 1.2784355878829956055 1.4797445535659790039 1.9010610580444335938 2.2083785533905029297 2.1681945323944091797 2.5353090763092041016 2.387298583984375 2.2307190895080566406 2.9444072246551513672 2.6340034008026123047 2.7907392978668212891 3.4677515029907226563 3.4615604877471923828 3.1865758895874023438 3.95572662353515625 2.9218153953552246094 2.6666495800018310547 3.3937458992004394531 2.4999063014984130859 2.4656424522399902344 2.1182792186737060547 2.3199136257171630859 2.3129618167877197266 2.1125090122222900391 1.5797349214553833008 1.1514058113098144531 1.6886841058731079102 1.5893409252166748047 1.4087175130844116211 1.7454074621200561523 2.3369774818420410156 1.9153808355331420898 2.2238774299621582031 2.0447497367858886719 2.0063710212707519531 2.2058548927307128906 1.9955086708068847656 2.1842839717864990234 2.9197025299072265625 3.0032060146331787109 3.1851820945739746094 3.0442464351654052734 3.0138444900512695313 3.0621185302734375 2.8774561882019042969 2.4215574264526367188 2.4871115684509277344 2.6384978294372558594 2.1992976665496826172 1.7690227031707763672 1.4977259635925292969 
2.5969169139862060547 2.5863945484161376953 2.2552065849304199219 2.4689557552337646484 1.2955501079559326172 1.3023484945297241211 2.4689557552337646484 1.1678705215454101563 1.9108177423477172852 1.4302290678024291992 1.5659704208374023438 1.3649376630783081055 1.4777281284332275391 1.0812047719955444336 1.5461978912353515625 1.8298308849334716797 1.5505504608154296875 1.7978140115737915039 1.418656468391418457 1.7996063232421875 1.9094948768615722656 1.6424530744552612305 1.5081703662872314453 1.0429970026016235352 1.6601705551147460938 1.1651972532272338867 1.7185235023498535156 2.9440276622772216797 2.9880194664001464844 4.2141013145446777344 4.6824188232421875 4.5675759315490722656 4.62397003173828125 5.9032864570617675781 5.4719958305358886719 4.6446056365966796875 4.7796177864074707031 4.5990304946899414063 4.8827357292175292969 4.3362431526184082031 3.4096281528472900391 2.4838418960571289063 2.4210202693939208984 2.8321702480316162109 2.772247314453125 2.4247508049011230469 2.4011473655700683594 2.3124637603759765625 2.0276768207550048828 1.8617107868194580078 1.6493055820465087891 2.0319838523864746094 1.8275473117828369141 1.7632068395614624023 1.331929326057434082 1.5015157461166381836 1.3536111116409301758 1.0621008872985839844 1.2668840885162353516 1.0027004480361938477 1.3102476596832275391 1.0393826961517333984 1.3102476596832275391 1.3492583036422729492 1.2152510881423950195 1.1078162193298339844 1.5465588569641113281 1.4627050161361694336 1.2885658740997314453 1.2452023029327392578 1.2578819990158081055 1.002951502799987793 1.0646787881851196289 1 1.3512945175170898438 1.1076474189758300781 1.2195757627487182617 1.3376976251602172852 1.6664545536041259766 2.1344089508056640625 1.0378412008285522461 1.0595229864120483398 1.3274054527282714844 1.9041965007781982422 1.0595229864120483398 2.4689557552337646484 1.8997918367385864258 1.0352632999420166016 2.6200101375579833984 2.6200101375579833984 1.1419925689697265625 4.5497288703918457031 3.9215016365051269531 2.8177235126495361328 2.0501871109008789063 1.5903766155242919922 1.6703276634216308594 1.1419925689697265625 2.0501871109008789063 1.2713174819946289063 1.881196141242980957 1.2770628929138183594 1.4319252967834472656 1.2231317758560180664 1.3943817615509033203 1.7208973169326782227 1.9123861789703369141 1.5630494356155395508 1.0049611330032348633 1.1076474189758300781 1.214518427848815918 1.2578819990158081055 1.3969911336898803711 2.1553378105163574219 1.9697693586349487305 1.7610319852828979492 2.3698508739471435547 1.5450694561004638672 1.1080422401428222656 1.4338154792785644531 1.5630729198455810547 1.7558740377426147461 1.399464726448059082 1.3076448440551757813 1.4123165607452392578 1.7054418325424194336 1.2362002134323120117 1.214518427848815918 1.0595229864120483398 2.6321852207183837891 1.2621108293533325195 2.6321852207183837891 1.0378412008285522461 1.0378412008285522461 1.0378412008285522461 1.0029140710830688477 1.0378412008285522461 1.0907677412033081055 1.2955501079559326172 1.0812047719955444336 1.0812047719955444336 1.2856231927871704102 1.4390751123428344727 1.1661446094512939453 1.1928366422653198242 1.2483158111572265625 1.6480555534362792969 1.0762317180633544922 1.250397801399230957 1.4123165607452392578 1.4373286962509155273 1.9905670881271362305 2.0595505237579345703 1.7929422855377197266 2.1441440582275390625 1.954140782356262207 2.7923753261566162109 3.3594071865081787109 3.3633074760437011719 3.5553896427154541016 3.2134516239166259766 3.1296486854553222656 3.4634196758270263672 3.0733695030212402344 2.9029083251953125 2.8958022594451904297 2.6729326248168945313 3.4076035022735595703 2.5568418502807617188 2.6672327518463134766 2.3318383693695068359 2.4933292865753173828 1.9665189981460571289 1.5818169116973876953 2.2932655811309814453 2.4590029716491699219 1.995625615119934082 1.5134663581848144531 1.5816369056701660156 1.5201704502105712891 2.5434551239013671875 1.8830001354217529297 2.6338739395141601563 2.4454939365386962891 2.2082839012145996094 2.9823853969573974609 2.6098377704620361328 2.8018083572387695313 3.450908660888671875 3.5700819492340087891 2.5066540241241455078 2.4018023014068603516 2.8077814579010009766 2.7918307781219482422 3.0628564357757568359 3.0575864315032958984 2.5562691688537597656 2.0934400558471679688 1.8752007484436035156 1.8311506509780883789 
1.100308537483215332 2.4689557552337646484 1.100308537483215332 2.5863945484161376953 2.4689557552337646484 2.4689557552337646484 1.0378412008285522461 1.0595229864120483398 1.0378412008285522461 2.0311861038208007813 2.1344089508056640625 1.3998585939407348633 1.3891474008560180664 1.2830994129180908203 1.1513212919235229492 1.4791327714920043945 1.3012454509735107422 1.1987618207931518555 1.646763920783996582 1.5532687902450561523 1.4257940053939819336 1.3626133203506469727 1.1559113264083862305 1.0391826629638671875 1.3969746828079223633 1.1323019266128540039 1.5233876705169677734 1.7805353403091430664 2.4715695381164550781 3.5245985984802246094 4.12754058837890625 4.6968417167663574219 5.42801666259765625 5.6507792472839355469 4.4899225234985351563 4.3563938140869140625 4.5818972587585449219 3.5782330036163330078 3.5812659263610839844 3.6754059791564941406 3.0031397342681884766 2.3035058975219726563 2.4600422382354736328 2.5414264202117919922 3.1301138401031494141 2.4988651275634765625 2.6453318595886230469 2.2399392127990722656 1.994009852409362793 2.1870234012603759766 1.6892489194869995117 1.0430169105529785156 1.7737299203872680664 1.8553780317306518555 1.331929326057434082 1.440338134765625 1 1.0844278335571289063 1.1494731903076171875 1.0338510274887084961 1.0391826629638671875 1.2018388509750366211 1.214518427848815918 1.2452023029327392578 1.2993345260620117188 1.1643565893173217773 1.0621008872985839844 1.4745852947235107422 1.3950668573379516602 1.4059767723083496094 1.331929326057434082 1.2515420913696289063 1.2795636653900146484 1.153023838996887207 1.2452023029327392578 1.8849902153015136719 1.0844278335571289063 1.6589797735214233398 1.5630494356155395508 1.1841254234313964844 1.6111983060836791992 1.7003813982009887695 1.2700479030609130859 1.1717715263366699219 1.9122374057769775391 3.9627170562744140625 2.8177235126495361328 1.100308537483215332 1.5822858810424804688 3.9627170562744140625 2.2552065849304199219 1.2621108293533325195 1.1219903230667114258 1.2621108293533325195 1.0786268711090087891 1.0352632999420166016 1.1964622735977172852 1.2259089946746826172 1.2621108293533325195 2.2552065849304199219 2.8004152774810791016 1.6525099277496337891 1.3901069164276123047 1.2187192440032958984 1.5321700572967529297 2.2796468734741210938 2.525363922119140625 2.0668590068817138672 1.3405088186264038086 1.9041965007781982422 1.1370552778244018555 1.7756450176239013672 1.3068727254867553711 1.4643975496292114258 1.2934058904647827148 1.6468366384506225586 2.0579423904418945313 1.8096749782562255859 1.5450694561004638672 1.1106201410293579102 1.8430809974670410156 2.2933759689331054688 1.6317964792251586914 1.9643040895462036133 1.2452023029327392578 1.382954716682434082 1.1076474189758300781 1.0595229864120483398 2.4689557552337646484 1.3161882162094116211 2.5969169139862060547 2.2243709564208984375 1.9318233728408813477 1.9108177423477172852 2.6321852207183837891 1.0595229864120483398 2.4515626430511474609 1.6600682735443115234 1.0115746259689331055 1.5634315013885498047 1.9041965007781982422 2.0002715587615966797 1.2497512102127075195 1.9365471601486206055 1.5272688865661621094 1.6796227693557739258 1.9872391223907470703 1.7892849445343017578 1.0910563468933105469 1.4927037954330444336 1.151185154914855957 1.5577491521835327148 1.4760842323303222656 1.9699215888977050781 2.1543250083923339844 2.5468144416809082031 2.1905078887939453125 2.7008469104766845703 2.5939619541168212891 3.0375232696533203125 2.6595387458801269531 3.0583355426788330078 1.9713244438171386719 2.3695251941680908203 2.4584839344024658203 2.7510800361633300781 2.7367510795593261719 2.2272543907165527344 2.8723669052124023438 2.4626989364624023438 3.1025559902191162109 2.7080168724060058594 2.4031205177307128906 2.3080761432647705078 1.9483498334884643555 2.4095079898834228516 2.4293601512908935547 2.5836572647094726563 1.6760288476943969727 2.0545134544372558594 2.301876068115234375 2.3931908607482910156 2.6183180809020996094 2.5012133121490478516 2.2386293411254882813 2.7442874908447265625 2.8876669406890869141 2.9702937602996826172 3.2996501922607421875 3.095577239990234375 2.9280695915222167969 2.6687185764312744141 2.2782227993011474609 2.28466796875 2.1294450759887695313 2.2638864517211914063 1.9766941070556640625 2.398929595947265625 2.4360485076904296875 2.1455357074737548828 
1.1219903230667114258 2.2552065849304199219 1.2955501079559326172 2.5863945484161376953 1.1219903230667114258 1.0087381601333618164 1.301726222038269043 1.3156942129135131836 1.301726222038269043 1.5671200752258300781 1.3373552560806274414 1.3223839998245239258 1.2375694513320922852 1.2509742975234985352 1.4738827943801879883 1.1521236896514892578 1.1271461248397827148 1.3752928972244262695 1.5619121789932250977 1.4245941638946533203 1.4618985652923583984 1.8068298101425170898 1.3969746828079223633 1.0213152170181274414 1.2452023029327392578 1.3192497491836547852 1.4276585578918457031 1.6317964792251586914 2.0700628757476806641 2.7989988327026367188 4.2553620338439941406 4.0708870887756347656 5.2595276832580566406 6.1067481040954589844 4.0673656463623046875 4.7169394493103027344 4.0782251358032226563 2.8781733512878417969 3.3837871551513671875 3.442523956298828125 2.7077322006225585938 1.9096268415451049805 2.3630442619323730469 2.2571375370025634766 2.6723878383636474609 2.5601651668548583984 2.3963844776153564453 2.2630472183227539063 2.0270037651062011719 1.5655008554458618164 1.6661579608917236328 1.9213640689849853516 1.7303692102432250977 2.3202450275421142578 1.3638467788696289063 1.2452023029327392578 1.1872227191925048828 1.2957750558853149414 1.1711549758911132813 1.0621008872985839844 1.1277914047241210938 1.4984530210494995117 1.214518427848815918 1.0844278335571289063 1.0404191017150878906 1.1855400800704956055 1.0595229864120483398 1.4674257040023803711 1.0621008872985839844 1.2668840885162353516 1.2452023029327392578 1.2795636653900146484 1.1054643392562866211 1.3102476596832275391 1.0535526275634765625 1.214518427848815918 1.6600682735443115234 1.6691575050354003906 1.1245682239532470703 1.3319919109344482422 1.3837802410125732422 1.4497561454772949219 2.1344089508056640625 1.0595229864120483398 2.2016704082489013672 3.9627170562744140625 3.9627170562744140625 1.3336969614028930664 1.2933409214019775391 1.2311228513717651367 1.0203218460083007813 1.3161882162094116211 2.8177235126495361328 1.8997918367385864258 2.8177235126495361328 1.3161882162094116211 2.5863945484161376953 2.5969169139862060547 1.472803950309753418 1.2984644174575805664 1.3991640806198120117 1.7504454851150512695 1.3131570816040039063 1.7328449487686157227 1.8069933652877807617 1.6707088947296142578 1.7236490249633789063 2.0915639400482177734 1.7196648120880126953 1.9041965007781982422 1.9905493259429931641 1.4849462509155273438 1.7720241546630859375 1.5071407556533813477 2.2249512672424316406 2.0377590656280517578 1.6045612096786499023 1.8639167547225952148 1.6477130651473999023 1.5667512416839599609 1.6823853254318237305 1.8598303794860839844 1.8105322122573852539 1.8698557615280151367 1.4021735191345214844 1.2081786394119262695 1.1711549758911132813 1.0212770700454711914 1.0193665027618408203 3.5383107662200927734 3.4979276657104492188 2.2016704082489013672 1.1028864383697509766 1.0115746259689331055 2.5863945484161376953 1.0212770700454711914 1.1245682239532470703 1.0812047719955444336 2.0106759071350097656 1.301726222038269043 1.3997805118560791016 1.3170861005783081055 2.1390764713287353516 1.8844749927520751953 1.8942542076110839844 1.8139988183975219727 2.0126326084136962891 1.2885658740997314453 1.0393826961517333984 2.0158410072326660156 1.6011126041412353516 1.8583594560623168945 1.4276585578918457031 1.9748480319976806641 2.3200659751892089844 2.0011792182922363281 2.2855241298675537109 2.0038676261901855469 2.3135404586791992188 2.5854146480560302734 1.8730641603469848633 2.8442347049713134766 2.5111203193664550781 2.0480601787567138672 2.4918639659881591797 2.1484787464141845703 2.2903478145599365234 2.2633852958679199219 2.9845759868621826172 2.5750560760498046875 2.5394036769866943359 2.3995616436004638672 2.7699744701385498047 2.4580981731414794922 2.0457234382629394531 2.3908727169036865234 1.8133854866027832031 2.4468929767608642578 2.3404691219329833984 1.9078998565673828125 2.7650892734527587891 3.085296630859375 2.3653113842010498047 2.9663710594177246094 2.2114505767822265625 2.6267902851104736328 2.8786678314208984375 2.5611593723297119141 2.9672608375549316406 2.6657519340515136719 2.6786417961120605469 2.3485443592071533203 2.7854361534118652344 2.3900506496429443359 2.0188117027282714844 2.2406265735626220703 2.0510549545288085938 1.9673435688018798828 1.9312975406646728516 2.4309215545654296875 
5.7250204086303710938 1.100308537483215332 1.7058150768280029297 2.0106759071350097656 1.0087381601333618164 1.2642998695373535156 1.0303750038146972656 1.0378412008285522461 2.4689557552337646484 1.2955501079559326172 1.9108177423477172852 1.0812047719955444336 1.2351614236831665039 1.672265172004699707 1.3667118549346923828 1.3999167680740356445 1.2362002134323120117 1.0424036979675292969 1.331929326057434082 1.8118536472320556641 1.5794219970703125 1.3536111116409301758 1 1.0404191017150878906 1.4676939249038696289 1.6011126041412353516 1.4113662242889404297 2.018390655517578125 2.3121497631072998047 2.8878531455993652344 3.0694479942321777344 3.3758502006530761719 4.2587609291076660156 3.9165010452270507813 4.3456120491027832031 4.717983245849609375 4.1933565139770507813 3.4102022647857666016 3.6742923259735107422 3.5744550228118896484 3.3851716518402099609 2.3618185520172119141 1.6641728878021240234 1.9477661848068237305 1.8701437711715698242 2.3457250595092773438 2.1108715534210205078 2.0147261619567871094 2.0440466403961181641 2.27201080322265625 1.6610366106033325195 1.8003281354904174805 1.4893593788146972656 1.4890233278274536133 2.0074410438537597656 1.2668840885162353516 1.2362002134323120117 1.0535526275634765625 1.0017797946929931641 1.2508054971694946289 1.5630494356155395508 1.9041965007781982422 1.106109619140625 1.2578819990158081055 1.2795636653900146484 1.4892177581787109375 1.0812047719955444336 1.0711750984191894531 1.1462500095367431641 1.9041965007781982422 1.9041965007781982422 1.9041965007781982422 1.5170578956604003906 1.0812047719955444336 1 1.9041965007781982422 1.1494731903076171875 1.3558303117752075195 1.0907677412033081055 1.1711549758911132813 1.1897779703140258789 1.4513922929763793945 1 1.0595229864120483398 1.0151902437210083008 2.2016704082489013672 2.2016704082489013672 3.9627170562744140625 2.4689557552337646484 1.100308537483215332 1.1219903230667114258 1.100308537483215332 2.5969169139862060547 1.1219903230667114258 3.6012563705444335938 2.4689557552337646484 1.3064169883728027344 2.6321852207183837891 1.9108177423477172852 1.3569055795669555664 1.4295480251312255859 1.6870584487915039063 1.5681750774383544922 1.6683713197708129883 1.947728276252746582 1.5701698064804077148 1.8778667449951171875 1.947022557258605957 2.1386513710021972656 1.9130091667175292969 1.7736160755157470703 1.5398398637771606445 1.358066558837890625 1.5118621587753295898 1.2603366374969482422 1.3752928972244262695 1.3832080364227294922 1.5728744268417358398 1.5460835695266723633 1.1106201410293579102 1.6714090108871459961 1.3166061639785766602 1.6227943897247314453 1.3409315347671508789 1.2603366374969482422 1.0621008872985839844 1.0397378206253051758 1.0812047719955444336 1.0043752193450927734 2.8139696121215820313 2.4689557552337646484 1.3518837690353393555 1.0151902437210083008 1.9108177423477172852 1.301726222038269043 1.1028864383697509766 1.1028864383697509766 1.1028864383697509766 2.6321852207183837891 1.0035790205001831055 1.4710749387741088867 1.4710749387741088867 1.7280869483947753906 2.2835834026336669922 2.3352479934692382813 2.0462384223937988281 1.9778423309326171875 1.7975625991821289063 1.9143174886703491211 1.912106633186340332 2.1002657413482666016 2.0698106288909912109 1.5853861570358276367 1.6688903570175170898 2.0505859851837158203 1.5643770694732666016 1.7773573398590087891 1.7595123052597045898 2.3155887126922607422 2.4680228233337402344 1.5463414192199707031 1.7033331394195556641 2.3546431064605712891 2.5304133892059326172 1.9951045513153076172 2.0569503307342529297 2.0778295993804931641 2.6289856433868408203 2.6672606468200683594 2.6530587673187255859 2.5805304050445556641 2.6324350833892822266 2.133571624755859375 3.52944183349609375 2.3139598369598388672 1.9538971185684204102 1.881778717041015625 2.0709586143493652344 2.6446001529693603516 2.4467067718505859375 2.4780402183532714844 3.4512898921966552734 2.9627778530120849609 3.0102791786193847656 3.2896091938018798828 2.8091461658477783203 2.8531272411346435547 2.5394067764282226563 2.3080921173095703125 2.2399718761444091797 2.9287395477294921875 3.0359885692596435547 2.7722554206848144531 2.1116755008697509766 2.2996239662170410156 1.8154110908508300781 2.0789978504180908203 2.0721693038940429688 2.3056988716125488281 2.1106960773468017578 
2.0501871109008789063 1.100308537483215332 1.1369876861572265625 1.4109985828399658203 1.9108177423477172852 1.1462500095367431641 1.2955501079559326172 1.6868594884872436523 3.1010553836822509766 1.1668236255645751953 1.2268984317779541016 1.029074549674987793 1.3875284194946289063 1.2866617441177368164 1.3678495883941650391 1.5630494356155395508 1.9041965007781982422 1.9041965007781982422 1.4697228670120239258 1.5518128871917724609 1.5833579301834106445 1.4057585000991821289 1.0416485071182250977 1.3012454509735107422 1.0452696084976196289 1.0040394067764282227 1.5276595354080200195 2.3317229747772216797 2.5388178825378417969 2.1702277660369873047 2.6905901432037353516 2.6313509941101074219 2.8795571327209472656 3.7887156009674072266 3.6413202285766601563 3.392711639404296875 4.1907253265380859375 4.110870361328125 3.6190259456634521484 3.2411105632781982422 3.6223320960998535156 2.5951037406921386719 2.1519920825958251953 2.1000576019287109375 2.6549863815307617188 1.804682612419128418 1.7848569154739379883 2.1413648128509521484 1.771166682243347168 1.6310670375823974609 1.9398279190063476563 1.6236432790756225586 1.0964981317520141602 1.2817734479904174805 1.1706322431564331055 1.4233684539794921875 1.4715286493301391602 1.5597226619720458984 1.3208838701248168945 1.2754981517791748047 1.2957750558853149414 1.1028864383697509766 2.4515626430511474609 1.0627461671829223633 1.0844278335571289063 1.0812047719955444336 1.047404170036315918 1.0212770700454711914 1.0303750038146972656 1.1028864383697509766 1.1277914047241210938 1.0690859556198120117 1.1462500095367431641 1.9041965007781982422 1.1494731903076171875 1.9041965007781982422 1.1245682239532470703 2.2233111858367919922 1.6691575050354003906 1.0690859556198120117 1.1928366422653198242 1.535193324089050293 1.1277914047241210938 1.301726222038269043 2.4515626430511474609 1.0378412008285522461 1.5671200752258300781 2.2552065849304199219 1.6868594884872436523 2.4689557552337646484 2.2552065849304199219 1.9108177423477172852 1.0378412008285522461 1.301726222038269043 2.0106759071350097656 1.6868594884872436523 1.1248711347579956055 1.2877734899520874023 1.6600682735443115234 1.5727633237838745117 1.6119866371154785156 1.6977481842041015625 1.8087266683578491211 1.9061487913131713867 1.9201356172561645508 2.7689762115478515625 2.06227874755859375 2.2781746387481689453 2.1577997207641601563 2.1869628429412841797 1.7031844854354858398 1.9550284147262573242 1.7399245500564575195 1.5302748680114746094 1.7536925077438354492 1.6011126041412353516 1.5434167385101318359 1.9335688352584838867 1.8784091472625732422 1.0455749034881591797 1.0889384746551513672 1.1619912385940551758 1.0481355190277099609 1.3048692941665649414 1.1271461248397827148 1.0268088579177856445 1.0035594701766967773 1.0711750984191894531 1.6955621242523193359 1.3841513395309448242 1.9542856216430664063 1.9108177423477172852 1.301726222038269043 2.3189318180084228516 1.6868594884872436523 2.1344089508056640625 1.4710749387741088867 1.1028864383697509766 1.2955501079559326172 1.9542856216430664063 1.1245682239532470703 1.4966516494750976563 1.8582730293273925781 2.0398833751678466797 2.2256038188934326172 2.1186530590057373047 1.7023673057556152344 1.7876970767974853516 1.5146994590759277344 1.7021503448486328125 1.4809195995330810547 1.7874970436096191406 1.8144533634185791016 2.0984134674072265625 1.4212677478790283203 1.172959446907043457 1.5359549522399902344 1.3117498159408569336 1.4630124568939208984 2.0597958564758300781 1.6745415925979614258 1.7579897642135620117 1.5560203790664672852 1.548112034797668457 1.3963325023651123047 1.797131657600402832 1.5836896896362304688 2.6197493076324462891 2.7185606956481933594 2.2016501426696777344 2.5675210952758789063 2.7178511619567871094 2.3043875694274902344 2.1830575466156005859 2.5832219123840332031 1.8259278535842895508 2.1673634052276611328 2.5394027233123779297 1.9109899997711181641 1.9273252487182617188 3.1960542201995849609 3.1299691200256347656 2.9681010246276855469 3.0332133769989013672 2.9393818378448486328 2.792095184326171875 2.2903048992156982422 2.3759703636169433594 2.0134725570678710938 2.8263821601867675781 2.7527110576629638672 2.324230194091796875 2.1169621944427490234 2.1044094562530517578 2.1127278804779052734 1.9523653984069824219 2.1424367427825927734 3.1080453395843505859 1.9942146539688110352 2.2603108882904052734 
1.5544667243957519531 1.0352632999420166016 1.100308537483215332 2.5863945484161376953 1.6225229501724243164 1.0378412008285522461 1.3518837690353393555 1.2955501079559326172 2.6321852207183837891 1.0710953474044799805 1.4382355213165283203 1.0812047719955444336 1.6600682735443115234 1.1076474189758300781 1.6600682735443115234 1.4293276071548461914 1.4972856044769287109 1.4302041530609130859 1.7357622385025024414 1.72202301025390625 1.1928366422653198242 1.1271461248397827148 1.0404191017150878906 1.2018388509750366211 1.2795636653900146484 1.3102476596832275391 1.5450694561004638672 1.9255143404006958008 1.9443433284759521484 2.01845550537109375 2.2270474433898925781 3.1197259426116943359 3.5502645969390869141 3.4700422286987304688 4.2008690834045410156 3.7035653591156005859 4.2495937347412109375 4.6686978340148925781 3.0062158107757568359 2.845554351806640625 3.0728075504302978516 2.5930247306823730469 2.3263943195343017578 2.3360638618469238281 2.2015810012817382813 1.7521061897277832031 1.6030553579330444336 1.6422170400619506836 1.6098175048828125 1.0867646932601928711 1.2515420913696289063 1.2102882862091064453 1.0015398263931274414 1.4073352813720703125 1.5302834510803222656 1.5581127405166625977 1.2885658740997314453 1.2608336210250854492 1.0844278335571289063 1.1245682239532470703 1.6955621242523193359 1.029074549674987793 1.0595229864120483398 1.301726222038269043 1.1245682239532470703 2.1164593696594238281 2.4689557552337646484 1.0203218460083007813 1.0203218460083007813 1.301726222038269043 1.3161333799362182617 1.391209721565246582 1.0309851169586181641 1.0595229864120483398 1.0844278335571289063 1.214518427848815918 1.031940460205078125 1.0844278335571289063 1.4710749387741088867 2.4801437854766845703 1.5630494356155395508 1.0187373161315917969 1.3885015249252319336 1.0812157392501831055 1.0126478672027587891 1.0812047719955444336 2.2552065849304199219 1.0786268711090087891 1.7194232940673828125 1.0378412008285522461 1.029074549674987793 1.0812047719955444336 1.0378412008285522461 1.1028864383697509766 1.0812047719955444336 1.2324674129486083984 1.4710749387741088867 2.1344089508056640625 1.7009520530700683594 1.8558794260025024414 1.936043858528137207 2.0462062358856201172 1.8654994964599609375 2.2281439304351806641 1.9747996330261230469 2.4133808612823486328 2.2831089496612548828 2.7906460762023925781 2.6005539894104003906 2.0356731414794921875 1.7545419931411743164 1.8703589439392089844 2.26324462890625 2.3453822135925292969 1.862153172492980957 1.651915431022644043 1.4305703639984130859 1.7158482074737548828 1.582897186279296875 2.1737418174743652344 1.6101148128509521484 1.6317964792251586914 1.618180394172668457 1.259593963623046875 1.1080422401428222656 1.0867646932601928711 1 1.1928366422653198242 1.2957750558853149414 1.0016961097717285156 1.391209721565246582 1.301726222038269043 1.0378412008285522461 1.5671200752258300781 1.2726421356201171875 1.0595229864120483398 1.0309851169586181641 1.0378412008285522461 2.1164593696594238281 1.0595229864120483398 1.6600682735443115234 1.1462500095367431641 1.3540925979614257813 1.8048739433288574219 2.1812245845794677734 2.2993156909942626953 2.4301645755767822266 1.6717439889907836914 1.3490318059921264648 1.5408731698989868164 1.4276585578918457031 1.4246503114700317383 1.8531098365783691406 1.4728972911834716797 1.6791050434112548828 1.230881810188293457 1.2388098239898681641 1.5630494356155395508 1.6955621242523193359 2.7689762115478515625 1.6955621242523193359 1.0378412008285522461 1.3788684606552124023 1.9041965007781982422 1.5353100299835205078 1.8149216175079345703 1.89641571044921875 2.4409847259521484375 2.7335424423217773438 2.8987383842468261719 2.4975554943084716797 2.371448516845703125 2.5807003974914550781 2.5188825130462646484 2.8149790763854980469 2.3775317668914794922 1.9597337245941162109 1.7458336353302001953 1.8808840513229370117 2.2641527652740478516 2.527088165283203125 3.0992701053619384766 2.8690035343170166016 2.67535400390625 2.6808154582977294922 2.6981062889099121094 3.0584194660186767578 2.4890043735504150391 2.9905292987823486328 2.8449792861938476563 2.9391372203826904297 2.5805180072784423828 2.2351636886596679688 2.3203706741333007813 2.2258086204528808594 2.2472968101501464844 2.4674885272979736328 2.5764470100402832031 2.6132137775421142578 2.9740428924560546875 
2.6200101375579833984 2.8177235126495361328 2.8139696121215820313 1.4746870994567871094 2.2016704082489013672 1.4565182924270629883 1.100308537483215332 2.2552065849304199219 2.4689557552337646484 1.1528047323226928711 1.0378412008285522461 1.029074549674987793 1.0378412008285522461 1.0627461671829223633 1.4497008323669433594 2.1344089508056640625 1.6480554342269897461 1.8259772062301635742 1.5631424188613891602 1.6407104730606079102 1.5598509311676025391 1.1277914047241210938 1.214518427848815918 1.2018388509750366211 1.0404191017150878906 1.3012454509735107422 1.1309812068939208984 1.5910185575485229492 1.6715474128723144531 2.1160523891448974609 2.6857089996337890625 2.8975784778594970703 2.7595794200897216797 3.2507326602935791016 4.5270676612854003906 3.3006367683410644531 3.7738428115844726563 4.2324604988098144531 3.0788478851318359375 3.5774893760681152344 3.1478495597839355469 2.9025626182556152344 2.4056711196899414063 1.8777701854705810547 1.6961572170257568359 1.6679339408874511719 1.2885658740997314453 1.2578819990158081055 1.2795636653900146484 1.3165444135665893555 1.1245682239532470703 1.2957750558853149414 1.2018388509750366211 1.2668840885162353516 1.8603631258010864258 1.6535151004791259766 1.6794681549072265625 1.6052663326263427734 1.5257720947265625 1.0378412008285522461 1.6868594884872436523 3.2410285472869873047 1.0309851169586181641 1.7058150768280029297 1.0378412008285522461 2.2552065849304199219 1.9793697595596313477 2.5863945484161376953 1.0378412008285522461 1.0378412008285522461 1.1711549758911132813 1.9041965007781982422 1.251868128776550293 1.9119677543640136719 1.2853072881698608398 1.2501555681228637695 1.044114232063293457 1.1494731903076171875 1.214518427848815918 1.1494731903076171875 1.214518427848815918 1.3263258934020996094 1.9108177423477172852 1.1028864383697509766 1.4710749387741088867 1.9108177423477172852 3.2410285472869873047 1.100308537483215332 1.0203218460083007813 1.0378412008285522461 1.1245682239532470703 1.1494731903076171875 1.1310622692108154297 2.4515626430511474609 1.031940460205078125 1.1245682239532470703 1.0690859556198120117 1.301726222038269043 1.7822993993759155273 1.9399672746658325195 2.1048045158386230469 2.3633768558502197266 2.8905467987060546875 2.2733583450317382813 2.6480515003204345703 2.1767182350158691406 2.3833510875701904297 3.1474864482879638672 3.1544916629791259766 2.8707234859466552734 2.5375847816467285156 2.226348876953125 2.0010259151458740234 2.0871164798736572266 1.8638898134231567383 2.3312501907348632813 1.8366119861602783203 1.5360673666000366211 1.84168243408203125 1.9181112051010131836 1.792570948600769043 1.5181423425674438477 1.6065020561218261719 1.684162139892578125 1.3906348943710327148 1.331929326057434082 1.3752928972244262695 1.0027004480361938477 1.2749919891357421875 1.2362002134323120117 1.0837826728820800781 1.0399379730224609375 1 1.9041965007781982422 1.1245682239532470703 1.1245682239532470703 1.0595229864120483398 1.1750205755233764648 1.0838989019393920898 1.2244741916656494141 1.3612657785415649414 1.1028864383697509766 1.1028864383697509766 1.0826756954193115234 1.4737929105758666992 1.7116178274154663086 1.9626995325088500977 1.6984133720397949219 1.4049401283264160156 1.4126945734024047852 1.1966655254364013672 1.6011126041412353516 1.5794308185577392578 1.7978936433792114258 1.5143855810165405273 1.2668840885162353516 1.1600593328475952148 1.0812047719955444336 1.0812047719955444336 1.5572867393493652344 1.301726222038269043 1.2942038774490356445 1.2085336446762084961 1.5089554786682128906 1.4724683761596679688 1.4941599369049072266 1.8072127103805541992 1.9041965007781982422 2.3411018848419189453 2.4455354213714599609 2.8651509284973144531 2.4097230434417724609 2.2267107963562011719 2.4916951656341552734 2.5140538215637207031 3.4946825504302978516 2.4628312587738037109 2.7161607742309570313 2.4201493263244628906 2.1879193782806396484 2.8056850433349609375 3.0246274471282958984 2.7748203277587890625 2.8345046043395996094 2.3302476406097412109 2.3990414142608642578 3.2213757038116455078 2.8472375869750976563 2.6884834766387939453 3.3216798305511474609 3.0215823650360107422 3.1638481616973876953 3.1974241733551025391 2.57036590576171875 2.9060659408569335938 2.4747180938720703125 2.5036001205444335938 2.1868562698364257813 2.5932362079620361328 2.8335344791412353516 
2.6200101375579833984 2.8177235126495361328 2.2552065849304199219 3.0418324470520019531 1.1804804801940917969 1.8997918367385864258 2.5969169139862060547 2.5863945484161376953 2.4689557552337646484 1.0203218460083007813 2.4689557552337646484 1.2955501079559326172 1.0115746259689331055 1.0595229864120483398 1.2599593400955200195 1.2205883264541625977 1.6799459457397460938 1.84879302978515625 1.4997377395629882813 1.6679002046585083008 1.2919239997863769531 1.2795636653900146484 1.3906348943710327148 1.3102476596832275391 1.6932330131530761719 1.3842949867248535156 1.0874695777893066406 1.6317964792251586914 1.3896845579147338867 2.1246609687805175781 2.5484371185302734375 2.9498090744018554688 2.3312966823577880859 2.5744922161102294922 3.2982237339019775391 3.3035075664520263672 3.4071941375732421875 3.1009600162506103516 2.5840663909912109375 3.6601614952087402344 3.0184419155120849609 2.5974950790405273438 1.1508923768997192383 1.2578819990158081055 1.0856248140335083008 1.0424036979675292969 1.0621008872985839844 1.0536931753158569336 1.0309851169586181641 1.6691575050354003906 1.1028864383697509766 1.15718841552734375 1.0378412008285522461 1.4650558233261108398 1.811301112174987793 1.6414180994033813477 1.8003653287887573242 1.6906683444976806641 1.5722178220748901367 2.4689557552337646484 1.2747226953506469727 1.9108177423477172852 1.6558682918548583984 2.2016704082489013672 1.0087381601333618164 1.100308537483215332 1.3161882162094116211 1.2621108293533325195 2.5863945484161376953 1.1028864383697509766 1.4370970726013183594 1.0595229864120483398 1.0212770700454711914 2.1164593696594238281 1.1716122627258300781 1.9041965007781982422 1.3056579828262329102 1.0406931638717651367 1.9041965007781982422 1.1310622692108154297 1.6691575050354003906 1.1928366422653198242 1.1028864383697509766 1.0378412008285522461 2.3411428928375244141 3.9627170562744140625 2.6049542427062988281 1.301726222038269043 2.6321852207183837891 1.5106464624404907227 1.0595229864120483398 2.1344089508056640625 1.4403538703918457031 1.1421606540679931641 1.2362002134323120117 1.2424281835556030273 1.1743122339248657227 1.3294333219528198242 1.7562236785888671875 1.900860905647277832 2.3330597877502441406 2.8133211135864257813 3.0131981372833251953 3.1367518901824951172 2.8245692253112792969 2.5862636566162109375 2.4375672340393066406 2.7309908866882324219 2.6786556243896484375 2.9786212444305419922 2.5111293792724609375 2.2919192314147949219 2.3461101055145263672 1.331929326057434082 1.8895832300186157227 1.9594057798385620117 1.4638142585754394531 1.6134138107299804688 2.1481697559356689453 1.7756364345550537109 1.9604094028472900391 1.8443386554718017578 1.7058439254760742188 1.368002772331237793 1.4276585578918457031 1.3536111116409301758 1.3626133203506469727 1.0863605737686157227 1.3102476596832275391 1.2885658740997314453 1.1494731903076171875 1.1271461248397827148 1.3183530569076538086 1 1.2957750558853149414 1.5630494356155395508 1.9041965007781982422 1.1494731903076171875 1.1711549758911132813 1.2558301687240600586 1.4710749387741088867 1.5544989109039306641 1.4358448982238769531 1.1076474189758300781 1.2957750558853149414 1.5293023586273193359 2.2115490436553955078 1.7730586528778076172 1.9467005729675292969 1.4519398212432861328 1.3238148689270019531 1.0022113323211669922 1.2749919891357421875 1.2018388509750366211 1.0837826728820800781 1.0923851728439331055 1.1245682239532470703 1.9108177423477172852 1.1245682239532470703 1.6868594884872436523 2.4689557552337646484 1.0212770700454711914 1.1494731903076171875 2.3413937091827392578 2.1316154003143310547 1.5902960300445556641 2.0976891517639160156 1.293848872184753418 1.7452678680419921875 1.9708812236785888672 2.6910164356231689453 2.8771071434020996094 2.8750927448272705078 2.6875257492065429688 2.6961112022399902344 2.6756992340087890625 2.4289143085479736328 2.9583158493041992188 2.1893768310546875 2.3763878345489501953 2.9475152492523193359 3.8120009899139404297 3.0155732631683349609 3.0232622623443603516 2.6698246002197265625 2.5042004585266113281 3.1621809005737304688 3.3579304218292236328 3.02410125732421875 3.053852081298828125 3.4020373821258544922 3.1224024295806884766 2.6996352672576904297 2.8473885059356689453 2.7777285575866699219 2.480442047119140625 2.6359040737152099609 2.7347054481506347656 2.7103888988494873047 3.0829408168792724609 
3.9215016365051269531 1.2621108293533325195 2.5969169139862060547 1.100308537483215332 2.6049542427062988281 2.5863945484161376953 1.2621108293533325195 3.6686847209930419922 1.0631164312362670898 2.2016704082489013672 2.4689557552337646484 1.0115746259689331055 2.6321852207183837891 2.2016704082489013672 1.1887084245681762695 1.1236815452575683594 1.1928366422653198242 1.6301400661468505859 1.3367940187454223633 1.7054418325424194336 1.6258254051208496094 1.3782529830932617188 1.3793344497680664063 1.198584437370300293 1.0426037311553955078 1.0015398263931274414 1.47838592529296875 1.4249854087829589844 1.5017060041427612305 2.0079452991485595703 2.4848847389221191406 2.7618386745452880859 2.8182938098907470703 3.0075085163116455078 3.4997370243072509766 3.4092211723327636719 2.7825636863708496094 3.1727194786071777344 2.7618322372436523438 3.1788563728332519531 3.3291928768157958984 2.1428983211517333984 1.2885658740997314453 1.214518427848815918 1.0837826728820800781 1.1076474189758300781 1.1076474189758300781 1.1028864383697509766 1.3612657785415649414 1.0844278335571289063 1.0595229864120483398 1.9041965007781982422 2.1344089508056640625 1.1226254701614379883 1.9041965007781982422 1.9808696508407592773 1.56844329833984375 1.1946939229965209961 2.2016704082489013672 2.0106759071350097656 3.6012563705444335938 2.4689557552337646484 2.3019168376922607422 1.8997918367385864258 2.8918948173522949219 1.5658303499221801758 1.100308537483215332 2.8177235126495361328 2.6298980712890625 2.4689557552337646484 1.9108177423477172852 1.2955501079559326172 2.0106759071350097656 2.0106759071350097656 1.9617695808410644531 1.9041965007781982422 1.4582424163818359375 1.5630494356155395508 1.0812047719955444336 1.0268088579177856445 1.0424036979675292969 1.0285193920135498047 1.1245682239532470703 1.5671200752258300781 2.2552065849304199219 2.2552065849304199219 2.2552065849304199219 1.3518837690353393555 2.5863945484161376953 2.4689557552337646484 1.301726222038269043 1.3350409269332885742 1.8055050373077392578 1.4529548883438110352 1.1641954183578491211 1.230167388916015625 1.0378412008285522461 1.4563390016555786133 1.2903325557708740234 1.8791713714599609375 2.1857798099517822266 2.4651031494140625 2.721172332763671875 2.3788518905639648438 2.5967791080474853516 2.5596935749053955078 2.2367410659790039063 2.5628781318664550781 2.3130414485931396484 2.1445639133453369141 2.1066770553588867188 1.5338133573532104492 1.4059767723083496094 1.2907820940017700195 1.5667512416839599609 1.8314471244812011719 1.6011126041412353516 2.08600616455078125 2.0769765377044677734 1.6195982694625854492 1.8269323110580444336 1.6534782648086547852 1.2379121780395507813 1.4276585578918457031 1.4927037954330444336 1.2885658740997314453 1.0391826629638671875 1.3842949867248535156 1.4059767723083496094 1.3752928972244262695 1.2749919891357421875 1.1271461248397827148 1.3752928972244262695 1.331929326057434082 1.2300459146499633789 1.1096309423446655273 1.2795636653900146484 1.1801570653915405273 1.1525145769119262695 1.7240493297576904297 1.2830735445022583008 1.5700833797454833984 1.7697176933288574219 1.7445175647735595703 1.6212589740753173828 1.3536111116409301758 2.2318544387817382813 2.5209317207336425781 1.6568356752395629883 1.1308037042617797852 1.0452696084976196289 1.2018388509750366211 1.6691575050354003906 1.1494731903076171875 1.0627461671829223633 2.1164593696594238281 1.0812047719955444336 1.0378412008285522461 1.0378412008285522461 1.0087381601333618164 2.2552065849304199219 1.0378412008285522461 1.0812047719955444336 1.4084984064102172852 1.1660517454147338867 1.7149306535720825195 1.5318986177444458008 1.8172502517700195313 1.9041965007781982422 2.2315931320190429688 2.3096213340759277344 2.6496002674102783203 2.4478709697723388672 2.6794421672821044922 2.5010385513305664063 3.0244157314300537109 3.4078125953674316406 3.126972198486328125 2.6893179416656494141 2.6783003807067871094 3.0563328266143798828 3.4064640998840332031 3.2189080715179443359 2.6474697589874267578 3.0365688800811767578 2.6903176307678222656 3.5597088336944580078 3.1668157577514648438 2.9372532367706298828 3.3261573314666748047 2.9678769111633300781 3.1127514839172363281 2.7877190113067626953 3.1702437400817871094 2.8348915576934814453 2.7257392406463623047 2.6393439769744873047 2.7439436912536621094 2.5215253829956054688 3.1293540000915527344 
3.2817137241363525391 1.5544667243957519531 2.8177235126495361328 4.9327759742736816406 3.0418324470520019531 1.0812047719955444336 2.2016704082489013672 1.0087381601333618164 1.0087381601333618164 1.3161882162094116211 2.8139696121215820313 1.1219903230667114258 1.100308537483215332 2.2552065849304199219 1.9108177423477172852 1.1028864383697509766 1.2957750558853149414 1.0016961097717285156 1.4676939249038696289 1.5693830251693725586 1.4347498416900634766 1.5070363283157348633 1.0920913219451904297 1.3856376409530639648 1.3842949867248535156 1.0513564348220825195 1.5450694561004638672 1.3842949867248535156 1.7402052879333496094 1.8808254003524780273 2.1986272335052490234 2.8527731895446777344 1.923821568489074707 2.4338548183441162109 2.6647517681121826172 3.0498890876770019531 3.3779940605163574219 3.1170759201049804688 3.1802570819854736328 3.0505437850952148438 2.9429123401641845703 1.6233627796173095703 1.6977747678756713867 1.604523777961730957 1.1711549758911132813 1.5630494356155395508 1.1245682239532470703 1.0627461671829223633 1.0844278335571289063 1 1.1245682239532470703 1.1028864383697509766 1.1462500095367431641 1.1245682239532470703 1.9108177423477172852 1.3659405708312988281 2.3019168376922607422 3.0418324470520019531 1.9122374057769775391 1.2468702793121337891 1.1590858697891235352 2.4689557552337646484 2.5969169139862060547 2.6200101375579833984 1.0786268711090087891 3.1917226314544677734 1.100308537483215332 1.9108177423477172852 1.301726222038269043 1.2955501079559326172 1.0303750038146972656 2.2254660129547119141 1.2955501079559326172 1.6752535104751586914 1.3378869295120239258 1.590755462646484375 1.2343425750732421875 1.2922302484512329102 1.6868594884872436523 1.0595229864120483398 1.0595229864120483398 2.4515626430511474609 2.0106759071350097656 2.2552065849304199219 2.5969169139862060547 3.14661407470703125 1.0151902437210083008 2.0106759071350097656 2.2552065849304199219 2.6321852207183837891 1.4605619907379150391 1.759090423583984375 2.1004459857940673828 2.0043663978576660156 1.5597569942474365234 1.1245682239532470703 1.0875151157379150391 1.2965006828308105469 1.4562036991119384766 1.4712778329849243164 1.4850151538848876953 1.6781553030014038086 2.3294467926025390625 2.1653020381927490234 2.1734972000122070313 2.3269720077514648438 2.6973962783813476563 2.3391301631927490234 2.2648684978485107422 2.5374138355255126953 2.3881697654724121094 1.8838326930999755859 1.5569217205047607422 1.5884330272674560547 1.3345599174499511719 1.7402052879333496094 1.8986589908599853516 2.5527501106262207031 1.8231241703033447266 1.962304234504699707 1.9226615428924560547 1.3577085733413696289 1.1323019266128540039 1.0238931179046630859 1.0435590744018554688 1.0015398263931274414 1.0889384746551513672 1.4123165607452392578 1.4710220098495483398 1.0238931179046630859 1.2888622283935546875 1.151185154914855957 1.4710220098495483398 1.0150895118713378906 1.0646787881851196289 1.0374721288681030273 1.273223876953125 1.2795636653900146484 1.5447396039962768555 1.4373750686645507813 1.1178246736526489258 1.9149802923202514648 1.5784066915512084961 1.1784225702285766602 1.7063999176025390625 1.06565093994140625 1.7436906099319458008 1.8303724527359008789 1.1008056402206420898 1.2578819990158081055 1.3319919109344482422 1.6831744909286499023 1.1076474189758300781 1.0711750984191894531 2.1344089508056640625 1.0378412008285522461 1.029074549674987793 2.3019168376922607422 2.4689557552337646484 1.0151902437210083008 1.0303750038146972656 1.9041965007781982422 1.4357311725616455078 1.1224267482757568359 1.4946585893630981445 1.9041965007781982422 1.8575773239135742188 1.3293347358703613281 2.5622398853302001953 1.5592695474624633789 2.1420640945434570313 2.4347066879272460938 2.1804993152618408203 2.0398733615875244141 2.9639935493469238281 2.8205440044403076172 2.8145880699157714844 3.6484246253967285156 2.4660673141479492188 2.8597309589385986328 3.3301928043365478516 3.6202731132507324219 3.6180987358093261719 3.0959801673889160156 3.4502394199371337891 3.49198150634765625 4.4318075180053710938 3.9830329418182373047 2.9812591075897216797 3.972866058349609375 3.2702512741088867188 3.5910308361053466797 3.2589476108551025391 3.4148695468902587891 3.255840301513671875 3.0956902503967285156 2.7797360420227050781 3.0160415172576904297 3.2342312335968017578 2.6207575798034667969 
2.6200101375579833984 1.100308537483215332 2.2552065849304199219 1.0303750038146972656 1.301726222038269043 1.047404170036315918 1.5671200752258300781 1.0303750038146972656 1.0087381601333618164 2.2552065849304199219 1.100308537483215332 2.5863945484161376953 2.5863945484161376953 3.2410285472869873047 1.1245682239532470703 1.0378412008285522461 1.0595229864120483398 1.0285193920135498047 1.1277914047241210938 1.3102476596832275391 1.7660069465637207031 1.2907359600067138672 1.331929326057434082 1.4810581207275390625 1.2870295047760009766 1.1191465854644775391 1.5233876705169677734 1.1766448020935058594 1.1945487260818481445 1.9534102678298950195 2.4510178565979003906 2.0434551239013671875 2.6673133373260498047 2.1501827239990234375 2.9654657840728759766 3.6077096462249755859 2.5108599662780761719 3.2382371425628662109 3.0399169921875 2.48143768310546875 2.8195424079895019531 2.4028704166412353516 1.8415541648864746094 1.0141685009002685547 1.2885658740997314453 1.1488279104232788086 1.1245682239532470703 1.8849902153015136719 1.0844278335571289063 1.3183530569076538086 1.0690859556198120117 1.1076474189758300781 1.0258535146713256836 1.2362002134323120117 1.1494731903076171875 1.0812047719955444336 3.14661407470703125 2.2552065849304199219 2.5969169139862060547 1.2311228513717651367 2.8177235126495361328 1.100308537483215332 1.2621108293533325195 5.0049319267272949219 4.445049285888671875 3.0779531002044677734 2.8177235126495361328 1.0087381601333618164 1.0212770700454711914 1.301726222038269043 1.416939854621887207 2.5863945484161376953 2.4689557552337646484 1.7912125587463378906 2.2243709564208984375 2.5863945484161376953 1.5671200752258300781 1.3034150600433349609 2.3019168376922607422 2.2552065849304199219 1.0378412008285522461 1.301726222038269043 1.0151902437210083008 2.5863945484161376953 2.2016704082489013672 1.6868594884872436523 1.9130034446716308594 1.2905783653259277344 1.7346410751342773438 2.4689557552337646484 1.4949284791946411133 1.5386638641357421875 1.5327080488204956055 1.4955643415451049805 1.3116494417190551758 1.9041965007781982422 1.5097608566284179688 2.4515626430511474609 1.1028864383697509766 1.1119544506072998047 1.4412177801132202148 1.8849902153015136719 1.7052832841873168945 1.8724015951156616211 1.7326290607452392578 2.3899860382080078125 2.5077316761016845703 2.1304461956024169922 2.2333264350891113281 2.7973692417144775391 1.8103216886520385742 2.3567609786987304688 2.2408432960510253906 1.792570948600769043 2.1799862384796142578 2.1490473747253417969 1.9523248672485351563 2.6694037914276123047 2.40924835205078125 2.3220002651214599609 2.0835008621215820313 1.9750272035598754883 1.7289339303970336914 1.3029574155807495117 1.0646855831146240234 1.0672566890716552734 1.6932291984558105469 1.9009797573089599609 1.5947728157043457031 1.5143855810165405273 1.4148935079574584961 1.6213102340698242188 1.5360673666000366211 1.5143855810165405273 1.3536111116409301758 1.2578819990158081055 1.2728000879287719727 1.4123165607452392578 1.3962671756744384766 1.1690181493759155273 1.3084694147109985352 1.7664093971252441406 1.9623526334762573242 1.3189359903335571289 1.5018775463104248047 2.04738616943359375 1.5848203897476196289 2.2671246528625488281 1.418656468391418457 1.4493403434753417969 1.2452023029327392578 1.1271461248397827148 1.1271461248397827148 1.15718841552734375 1.3156942129135131836 1.0087381601333618164 1.6326173543930053711 1.7092456817626953125 1.0029140710830688477 1.7058150768280029297 2.4689557552337646484 1.5671200752258300781 1.5671200752258300781 1.7348064184188842773 1.0358780622482299805 1.9592213630676269531 1.3328869342803955078 2.6030442714691162109 2.0925288200378417969 2.5020785331726074219 2.6812469959259033203 2.4990186691284179688 2.5515246391296386719 2.767425537109375 3.3712546825408935547 3.2946255207061767578 2.3820402622222900391 2.4445841312408447266 3.4709811210632324219 3.5808033943176269531 3.4232997894287109375 3.3963141441345214844 4.1321229934692382813 3.0620152950286865234 4.1115322113037109375 4.2578258514404296875 4.3429927825927734375 4.0805268287658691406 3.9231433868408203125 3.6773347854614257813 4.3519549369812011719 4.1329336166381835938 3.5487017631530761719 3.9319312572479248047 3.9461617469787597656 3.3975553512573242188 3.5884883403778076172 2.7927715778350830078 2.1993927955627441406 2.0474615097045898438 
1.0352632999420166016 1.1219903230667114258 1.100308537483215332 3.9627170562744140625 1.9122374057769775391 1.0378412008285522461 1.0812047719955444336 2.1164593696594238281 2.2552065849304199219 1.0303750038146972656 2.2552065849304199219 1.100308537483215332 1.8997918367385864258 1.1219903230667114258 1.6868594884872436523 1.301726222038269043 2.4689557552337646484 1.0285193920135498047 1.5513265132904052734 1.3969746828079223633 1.9398213624954223633 1.6127791404724121094 1.4123165607452392578 1.3252123594284057617 1.3689531087875366211 1.0213152170181274414 1.4493403434753417969 1.7489703893661499023 1.9869761466979980469 1.6782405376434326172 1.9009797573089599609 2.2584710121154785156 2.6370253562927246094 2.6549389362335205078 2.9638721942901611328 2.9464662075042724609 2.6622555255889892578 2.8988037109375 2.1437778472900390625 1.6902997493743896484 1.8614732027053833008 2.1189742088317871094 1.6542459726333618164 1.331929326057434082 1.5605351924896240234 1.1711549758911132813 1.1028864383697509766 1.0690859556198120117 1.9041965007781982422 1.01744842529296875 1.0029140710830688477 1.029074549674987793 1.0378412008285522461 1.0844278335571289063 1.1028864383697509766 1.0151902437210083008 1.2435169219970703125 1.7343676090240478516 2.5969169139862060547 2.2016704082489013672 1.8997918367385864258 2.8177235126495361328 3.9215016365051269531 3.9215016365051269531 3.2817137241363525391 2.0501871109008789063 1.0352632999420166016 1.8997918367385864258 3.9627170562744140625 2.6049542427062988281 1.1845338344573974609 1.2634485960006713867 2.4689557552337646484 1.1219903230667114258 2.3271169662475585938 1.6838058233261108398 3.14661407470703125 1.5407291650772094727 2.2552065849304199219 2.4689557552337646484 2.4689557552337646484 1.9108177423477172852 1.9041965007781982422 1.9108177423477172852 1.6868594884872436523 1.9400916099548339844 1.5805028676986694336 1.641544342041015625 1.5977585315704345703 2.0125224590301513672 1.760476231575012207 1.2204086780548095703 1.2362002134323120117 1.106109619140625 1.0126478672027587891 1.1245682239532470703 1.181798100471496582 1.1028864383697509766 1.5902960300445556641 1.301726222038269043 1.6955621242523193359 1.8214535713195800781 1.871573328971862793 1.9273862838745117188 1.9982663393020629883 2.5212693214416503906 2.2198243141174316406 2.5312466621398925781 2.5276589393615722656 2.5581793785095214844 2.7941827774047851563 2.3046221733093261719 3.6951973438262939453 3.0424602031707763672 2.3282291889190673828 2.6296303272247314453 2.0835008621215820313 2.1174561977386474609 2.105182647705078125 2.2569549083709716797 2.2715613842010498047 2.0835008621215820313 1.996708989143371582 1.7402052879333496094 1.7185235023498535156 1.0889384746551513672 1.368002772331237793 1.7121837139129638672 1.4547297954559326172 1.1295033693313598633 1.4493403434753417969 1.3752928972244262695 1.1297240257263183594 1.3626133203506469727 1.0109039545059204102 1.0508012771606445313 1.2018388509750366211 1.0513564348220825195 1.3102476596832275391 1.2362002134323120117 1.0187373161315917969 1.3766094446182250977 1.2663730382919311523 1.2081786394119262695 1.4710220098495483398 1.5794308185577392578 1.7492074966430664063 1.7338654994964599609 1.440338134765625 1.0429970026016235352 1.2885658740997314453 1.1928366422653198242 1 1.0378412008285522461 2.2552065849304199219 2.5863945484161376953 2.4689557552337646484 2.5863945484161376953 2.2016704082489013672 2.4689557552337646484 2.4689557552337646484 1.6868594884872436523 1.0812047719955444336 1.9108177423477172852 1.8750181198120117188 1.9041965007781982422 2.1026465892791748047 2.1976792812347412109 2.7894384860992431641 2.8662486076354980469 2.2146816253662109375 2.4801492691040039063 2.7267460823059082031 3.1996448040008544922 4.065464019775390625 3.7075595855712890625 3.8393309116363525391 3.7006351947784423828 3.9499833583831787109 3.7835261821746826172 3.7473452091217041016 3.7138507366180419922 3.2996470928192138672 3.9292695522308349609 3.6013596057891845703 4.21624755859375 4.5394597053527832031 3.8559298515319824219 4.2231841087341308594 4.6312260627746582031 4.5914416313171386719 4.1847820281982421875 4.2313580513000488281 4.1330585479736328125 3.8585481643676757813 4.0626573562622070313 3.2315502166748046875 2.8492732048034667969 2.1749792098999023438 2.4874365329742431641 
3.9215016365051269531 1.0352632999420166016 3.1917226314544677734 1.3161882162094116211 1.100308537483215332 2.4689557552337646484 1.2955501079559326172 2.4689557552337646484 2.5863945484161376953 1.301726222038269043 1.5544667243957519531 1.5658303499221801758 1.0786268711090087891 1.6868594884872436523 1.301726222038269043 1.135417938232421875 1.0378412008285522461 1.2452023029327392578 1.5395330190658569336 1.8073047399520874023 1.8929005861282348633 1.7084374427795410156 1.3842949867248535156 1.5143855810165405273 1.4059767723083496094 1.331929326057434082 1.4710220098495483398 1.5577491521835327148 1.7618870735168457031 1.9360852241516113281 1.438958287239074707 2.4622557163238525391 2.5436604022979736328 2.7752797603607177734 2.8884682655334472656 2.7220754623413085938 3.3212411403656005859 3.2570252418518066406 2.6119928359985351563 2.3818984031677246094 2.0433471202850341797 1.9386107921600341797 1.6619867086410522461 1.3906348943710327148 1.119393467903137207 2.1344089508056640625 1.5630494356155395508 1.1711549758911132813 1.0595229864120483398 1.9041965007781982422 3.2410285472869873047 2.4689557552337646484 2.4689557552337646484 1.3518837690353393555 1.301726222038269043 2.5863945484161376953 1.0303750038146972656 2.3271169662475585938 1.0786268711090087891 1.3411645889282226563 4.5497288703918457031 2.6200101375579833984 1.0352632999420166016 1.0352632999420166016 3.7933325767517089844 3.1917226314544677734 1.1419925689697265625 1.1419925689697265625 1.1419925689697265625 2.5863945484161376953 1.1219903230667114258 2.6321852207183837891 3.9627170562744140625 1.0352632999420166016 2.3271169662475585938 1.5126112699508666992 2.2016704082489013672 1.3292684555053710938 1.1028864383697509766 2.8139696121215820313 1.9108177423477172852 1.2279304265975952148 1.9108177423477172852 2.1344089508056640625 1.9942829608917236328 2.5315749645233154297 1.6596772670745849609 2.1409096717834472656 2.0577454566955566406 1.9933093786239624023 1.9137487411499023438 1.5654759407043457031 1.1076474189758300781 1.9041965007781982422 1.0025691986083984375 1.0115746259689331055 1.9041965007781982422 1.1862467527389526367 1.3378096818923950195 1.9108177423477172852 1.387495875358581543 1.4524283409118652344 2.1905755996704101563 1.7867890596389770508 2.1772921085357666016 2.8334486484527587891 2.4448111057281494141 2.7864735126495361328 2.2945110797882080078 2.7360124588012695313 2.6068761348724365234 2.5437781810760498047 3.0113878250122070313 2.6615884304046630859 2.3913288116455078125 2.2996966838836669922 2.1956932544708251953 1.9316636323928833008 2.0758624076843261719 2.3513653278350830078 2.5914249420166015625 2.7106809616088867188 2.4266111850738525391 1.9959259033203125 1.6932291984558105469 1.368002772331237793 1.9316636323928833008 1.4980933666229248047 1.6065020561218261719 1.4927037954330444336 1.0863605737686157227 1.1488279104232788086 1.2018388509750366211 1.1054643392562866211 1.2885658740997314453 1.0498460531234741211 1.0426037311553955078 1.0429970026016235352 1.0435590744018554688 1.0404191017150878906 1.2578819990158081055 1.2018388509750366211 1.1711549758911132813 1.1711549758911132813 1.1297240257263183594 1.0508012771606445313 1.5947728157043457031 1.1539837121963500977 1.4493403434753417969 1.0646787881851196289 1.214518427848815918 1.1494731903076171875 1.1462500095367431641 2.4689557552337646484 1.100308537483215332 1.1219903230667114258 1.0073053836822509766 2.4689557552337646484 2.0106759071350097656 2.5969169139862060547 2.0106759071350097656 1.0378412008285522461 1.1424831151962280273 1.4994027614593505859 1.0303750038146972656 1.0303750038146972656 1.4705514907836914063 1.9041965007781982422 2.0957365036010742188 2.3634383678436279297 2.1697735786437988281 2.4345452785491943359 2.0771031379699707031 3.2228488922119140625 3.3977243900299072266 4.0768451690673828125 3.6090776920318603516 3.851749420166015625 3.7140190601348876953 2.9765608310699462891 3.3484668731689453125 3.7167003154754638672 2.8523662090301513672 3.1419513225555419922 3.6880540847778320313 3.7553124427795410156 3.9478623867034912109 3.5523536205291748047 4.27883148193359375 4.3879919052124023438 4.337055206298828125 4.5696344375610351563 4.6468000411987304688 3.8514385223388671875 3.8113620281219482422 4.1735787391662597656 3.2871279716491699219 3.1959960460662841797 2.9047324657440185547 2.7275454998016357422 
4.4419436454772949219 3.1917226314544677734 1.1419925689697265625 2.5969169139862060547 1.100308537483215332 1.0352632999420166016 1.2628736495971679688 1.1219903230667114258 1.2923723459243774414 1.0200481414794921875 1.0786268711090087891 2.8177235126495361328 1.3560349941253662109 1.0378412008285522461 1.9108177423477172852 1.0812047719955444336 1.1277914047241210938 1.2300459146499633789 1.3563725948333740234 1.3842949867248535156 1.6135879755020141602 1.3946268558502197266 1.0559328794479370117 1.5143855810165405273 1.0576434135437011719 1.4927037954330444336 1.5651290416717529297 1.6155979633331298828 1.6270825862884521484 1.6165926456451416016 1.9801914691925048828 2.3283288478851318359 2.7442109584808349609 2.5866196155548095703 2.6789546012878417969 2.5439276695251464844 2.9016835689544677734 3.0651609897613525391 2.4968402385711669922 2.2324078083038330078 1.5730910301208496094 1.7403694391250610352 1.8920648097991943359 1.5143855810165405273 1.2885658740997314453 1.3588008880615234375 1.3556143045425415039 1.0837826728820800781 1.3411334753036499023 1.9041965007781982422 1.0595229864120483398 1.2955501079559326172 2.2016704082489013672 2.2552065849304199219 2.2552065849304199219 1.100308537483215332 3.9627170562744140625 1.2832947969436645508 2.8177235126495361328 2.6200101375579833984 2.6200101375579833984 1.5911804437637329102 2.0501871109008789063 3.9215016365051269531 3.9215016365051269531 1.0352632999420166016 1.2621108293533325195 3.6919023990631103516 2.8177235126495361328 1.8997918367385864258 1.100308537483215332 1.3187257051467895508 1.0701094865798950195 1.1750012636184692383 1.1582103967666625977 1.2621108293533325195 1.5840623378753662109 3.9627170562744140625 1.3384810686111450195 1.0378412008285522461 1.1245682239532470703 1.0506632328033447266 1.5116471052169799805 1.6394336223602294922 2.0978486537933349609 2.1702377796173095703 1.5598039627075195313 1.9948364496231079102 1.6557674407958984375 2.5359225273132324219 2.2787427902221679688 1.469960331916809082 1.9041965007781982422 1.0627461671829223633 1.9041965007781982422 1.0812047719955444336 1.0016961097717285156 1.0844278335571289063 1.5971699953079223633 1.526340484619140625 1.7767539024353027344 1.7408585548400878906 1.6815010309219360352 1.7246850728988647461 1.6775139570236206055 2.2022500038146972656 2.5056707859039306641 2.3406744003295898438 2.6830000877380371094 2.8551537990570068359 3.2966392040252685547 2.8022208213806152344 2.5585963726043701172 2.7196722030639648438 2.5706396102905273438 2.6354835033416748047 2.4598701000213623047 1.9862653017044067383 1.8803639411926269531 2.0835008621215820313 2.4087271690368652344 2.1268644332885742188 2.3245894908905029297 2.3379154205322265625 1.7582744359970092773 1.8883650302886962891 2.1051177978515625 1.6101148128509521484 1.5143855810165405273 1.4493403434753417969 1.0391826629638671875 1.0382274389266967773 1.0035594701766967773 1.2452023029327392578 1.3102476596832275391 1.0867646932601928711 1.1271461248397827148 1.3536111116409301758 1.4493403434753417969 1.331929326057434082 1.2300459146499633789 1.214518427848815918 1.044114232063293457 1.0646787881851196289 1.1829513311386108398 1.9164708852767944336 1.1728669404983520508 1.5360673666000366211 1.3969746828079223633 1.0504174232482910156 1.0863605737686157227 1 1 1.0595229864120483398 1.5911804437637329102 1.100308537483215332 3.9627170562744140625 2.0106759071350097656 1.301726222038269043 1.2955501079559326172 1.5671200752258300781 1.0595229864120483398 1.0690859556198120117 2.1344089508056640625 1.3024830818176269531 1.1733605861663818359 1.9041965007781982422 1.4238437414169311523 1.7104251384735107422 2.2458698749542236328 2.12928009033203125 2.2940042018890380859 2.9048876762390136719 3.3447253704071044922 3.1667571067810058594 3.1497647762298583984 3.2087221145629882813 3.1863143444061279297 3.2251684665679931641 3.2179296016693115234 3.5891840457916259766 2.7175040245056152344 3.0139904022216796875 3.5093340873718261719 3.4960286617279052734 3.5989413261413574219 3.4906206130981445313 3.8201174736022949219 4.2478361129760742188 4.2726716995239257813 4.2721171379089355469 4.3482432365417480469 4.8041319847106933594 4.3206343650817871094 3.6984815597534179688 4.0306944847106933594 3.4498510360717773438 3.0307300090789794922 2.3263936042785644531 2.2692158222198486328 
2.6200101375579833984 2.5863945484161376953 2.4689557552337646484 1.0203218460083007813 1.2367910146713256836 1.2832947969436645508 2.8177235126495361328 1.1219903230667114258 2.2552065849304199219 2.6321852207183837891 3.9627170562744140625 2.5863945484161376953 2.2016704082489013672 1.1695951223373413086 1.0711750984191894531 1.0844278335571289063 1.2795636653900146484 1.2162797451019287109 1.0454696416854858398 1.4059767723083496094 1.4528267383575439453 1.5394892692565917969 1.4059767723083496094 1.440338134765625 1.2637150287628173828 1.6011126041412353516 1.692723393440246582 1.8439810276031494141 1.9554730653762817383 1.9931356906890869141 2.1023638248443603516 1.962189793586730957 2.9914684295654296875 3.6196806430816650391 2.5449578762054443359 2.1360456943511962891 2.7779476642608642578 3.1195266246795654297 2.9968569278717041016 2.5772817134857177734 1.8604998588562011719 2.2588012218475341797 1.7827898263931274414 1.4276585578918457031 1.1175454854965209961 1.0213152170181274414 1.4083505868911743164 1.044114232063293457 1.0406931638717651367 1.0309851169586181641 1.029074549674987793 2.2552065849304199219 2.6321852207183837891 1.1219903230667114258 2.6321852207183837891 2.6321852207183837891 1.8997918367385864258 3.1917226314544677734 2.8177235126495361328 1.0352632999420166016 5.0049319267272949219 3.9215016365051269531 1.731220245361328125 3.1917226314544677734 6.8670935630798339844 3.6919023990631103516 1.731220245361328125 3.7933325767517089844 2.6200101375579833984 1.0352632999420166016 1.2621108293533325195 1.1959824562072753906 1.0786268711090087891 1.2621108293533325195 1.8997918367385864258 2.0501871109008789063 4.8980765342712402344 1.1367368698120117188 3.9627170562744140625 2.4689557552337646484 1.9041965007781982422 1.0595229864120483398 1.6228803396224975586 1.1998952627182006836 2.1780834197998046875 1.4727410078048706055 1.9217611551284790039 2.2100419998168945313 2.2171921730041503906 2.3112447261810302734 2.1348605155944824219 1.8563123941421508789 1.8371138572692871094 1.3689419031143188477 1.3155775070190429688 1.5902960300445556641 1.456859588623046875 2.0305688381195068359 1.8682806491851806641 1.6343010663986206055 1.2551237344741821289 2.2397229671478271484 2.0077269077301025391 2.1581141948699951172 3.1307795047760009766 3.1748204231262207031 3.3864979743957519531 2.699695587158203125 2.4981100559234619141 3.0699748992919921875 3.6032404899597167969 3.7741687297821044922 3.41387939453125 4.0571122169494628906 3.0253732204437255859 2.5179946422576904297 2.6688232421875 2.3436820507049560547 2.3220002651214599609 1.7312413454055786133 1.8260420560836791992 2.0006737709045410156 2.4590609073638916016 2.1494848728179931641 2.2352731227874755859 2.0401372909545898438 1.6715474128723144531 1.7799562215805053711 1.1295033693313598633 1.0646787881851196289 1.0429970026016235352 1.0429970026016235352 1.3906348943710327148 1.3752928972244262695 1.2235205173492431641 1.2452023029327392578 1.3088968992233276367 1.3626133203506469727 1.4620199203491210938 1.3842949867248535156 1.2668840885162353516 1.2362002134323120117 1.331929326057434082 1.2235205173492431641 1.1080422401428222656 1.3229731321334838867 1.259593963623046875 1.0585987567901611328 1.04718017578125 1.0399379730224609375 1.3102476596832275391 1.2957750558853149414 1.1028864383697509766 1.301726222038269043 2.2016704082489013672 1.9122374057769775391 2.2552065849304199219 2.4689557552337646484 2.1164593696594238281 1.100308537483215332 1.0115746259689331055 1.0378412008285522461 1.3612657785415649414 1.9041965007781982422 1.1076474189758300781 1.1749675273895263672 1.2957750558853149414 1.5524553060531616211 1.8603746891021728516 2.1286990642547607422 2.7431302070617675781 2.7680504322052001953 2.3793818950653076172 3.9483189582824707031 2.9294462203979492188 3.8743851184844970703 3.7922871112823486328 3.3034131526947021484 3.4995706081390380859 3.5857357978820800781 3.268310546875 3.5023920536041259766 3.6630029678344726563 2.6249928474426269531 2.972625732421875 3.4539961814880371094 3.1590952873229980469 3.2899510860443115234 3.7105858325958251953 3.5795769691467285156 4.0086851119995117188 4.0378580093383789063 3.9088909626007080078 3.3810930252075195313 4.1295981407165527344 4.58014678955078125 4.111995697021484375 4.5683069229125976563 3.2309479713439941406 2.7472426891326904297 
1.7058150768280029297 1.301726222038269043 1.1462500095367431641 1.0812047719955444336 1.7194232940673828125 1.5903766155242919922 2.8177235126495361328 1.1219903230667114258 2.7220542430877685547 2.5863945484161376953 1.6003824472427368164 2.2016704082489013672 1.1245682239532470703 1.0378412008285522461 1.0595229864120483398 1.2957750558853149414 1.0863605737686157227 1.2668840885162353516 1.1590615510940551758 1.2452023029327392578 1.2812757492065429688 1.5297275781631469727 1.0504174232482910156 1.8198760747909545898 1.4710220098495483398 2.0071308612823486328 1.7618870735168457031 2.1908638477325439453 2.0451149940490722656 2.4747648239135742188 2.4701371192932128906 2.2248547077178955078 2.3903062343597412109 2.2376859188079833984 1.8138585090637207031 1.5607607364654541016 2.0379936695098876953 1.8678969144821166992 2.0921351909637451172 2.0385823249816894531 2.3383030891418457031 2.2180583477020263672 1.7246623039245605469 1.8003714084625244141 1.3747630119323730469 1.1559300422668457031 1.0126281976699829102 1.1076474189758300781 1.0535526275634765625 1.0844278335571289063 1.0378412008285522461 1.0303750038146972656 2.6049542427062988281 1.0203218460083007813 4.5117664337158203125 3.1917226314544677734 2.0501871109008789063 5.0049319267272949219 1.0421332120895385742 1.2988507747650146484 1.5544667243957519531 5.7250204086303710938 4.5228104591369628906 3.7933325767517089844 3.9215016365051269531 4.4419436454772949219 1.731220245361328125 3.6919023990631103516 2.0501871109008789063 3.4576802253723144531 3.0779531002044677734 1.2126451730728149414 2.8177235126495361328 2.6321852207183837891 1.2621108293533325195 2.8177235126495361328 1.464793086051940918 1.4565182924270629883 1.100308537483215332 2.1164593696594238281 1.0627461671829223633 1.0812047719955444336 1.2688333988189697266 1 1.347325444221496582 1.7346749305725097656 2.2880575656890869141 1.6955621242523193359 2.3880090713500976563 2.02895355224609375 1.8604043722152709961 2.0622479915618896484 1.7369458675384521484 1.3215467929840087891 1.0844278335571289063 2.3090257644653320313 2.3213160037994384766 2.306690216064453125 2.1855013370513916016 2.7365992069244384766 2.0518858432769775391 2.2398614883422851563 3.1557269096374511719 3.4294669628143310547 3.5005822181701660156 3.8129100799560546875 3.7583632469177246094 4.0400319099426269531 3.5011696815490722656 3.6852409839630126953 3.6792991161346435547 3.5609381198883056641 4.0779757499694824219 3.6304802894592285156 3.0624756813049316406 3.1298005580902099609 2.9353799819946289063 2.7988018989562988281 3.2037570476531982422 1.9483585357666015625 1.9680877923965454102 2.1148242950439453125 1.909981846809387207 1.6715474128723144531 2.01845550537109375 2.6255447864532470703 2.2786366939544677734 2.0400724411010742188 1.8015731573104858398 1.5884330272674560547 1.5794308185577392578 1.151185154914855957 1.5017060041427612305 1.3842949867248535156 1.3752928972244262695 1.0015398263931274414 1.0547771453857421875 1.3472713232040405273 1.3848978281021118164 1.4276585578918457031 1.2668840885162353516 1.0837826728820800781 1.2235205173492431641 1.5143855810165405273 1.0525118112564086914 1.0532671213150024414 1.4330480098724365234 1.0629750490188598633 1.2668840885162353516 1.3969746828079223633 1.3012454509735107422 1.3319919109344482422 1.0812047719955444336 2.0106759071350097656 1.5671200752258300781 1.0303750038146972656 1.6600682735443115234 1.6003824472427368164 1.301726222038269043 2.4689557552337646484 1.1028864383697509766 1.0193825960159301758 1.9041965007781982422 2.2233111858367919922 1.9108177423477172852 1.1566880941390991211 1.3501056432723999023 1.6273310184478759766 2.2761876583099365234 2.3722512722015380859 2.1987054347991943359 2.5314567089080810547 2.5532119274139404297 3.5451500415802001953 3.6648721694946289063 3.2361197471618652344 2.8100323677062988281 2.2803847789764404297 2.4617018699645996094 3.4411876201629638672 3.0537762641906738281 2.9184103012084960938 3.8270902633666992188 3.4083898067474365234 3.2962844371795654297 2.9691221714019775391 3.7783503532409667969 3.4032640457153320313 3.4088494777679443359 3.0738880634307861328 2.9990277290344238281 4.1123499870300292969 3.9848084449768066406 4.0991425514221191406 4.0207805633544921875 4.0275292396545410156 4.7921662330627441406 4.3358941078186035156 3.0075261592864990234 2.1563451290130615234 
1.1028864383697509766 1.1028864383697509766 1.6756902933120727539 1.1028864383697509766 2.4689557552337646484 1.2621108293533325195 1.1219903230667114258 2.5969169139862060547 1.6868594884872436523 2.3418080806732177734 1.1310622692108154297 1.0627461671829223633 1 1.1277914047241210938 1.8849902153015136719 1.1076474189758300781 1.2885658740997314453 1.2095897197723388672 1.4153913259506225586 1.331929326057434082 1.5443757772445678711 1.2162303924560546875 1.5017060041427612305 2.0465095043182373047 1.2555480003356933594 2.1968204975128173828 1.3463209867477416992 1.7595980167388916016 1.7812825441360473633 2.4928948879241943359 1.9345554113388061523 2.2478311061859130859 2.2105772495269775391 2.0041048526763916016 1.5143855810165405273 1.5577491521835327148 1.656340479850769043 1.6011126041412353516 1.9826494455337524414 1.5104668140411376953 1.8891063928604125977 1.7483789920806884766 1.3925917148590087891 1.2603499889373779297 1.3079599142074584961 1.5286884307861328125 1.0646787881851196289 1.1054643392562866211 1 1.4710749387741088867 1.0812047719955444336 1.2955501079559326172 2.5863945484161376953 2.5863945484161376953 3.9627170562744140625 1.100308537483215332 1.5544667243957519531 1.2621108293533325195 3.9627170562744140625 2.8177235126495361328 3.1917226314544677734 5.0349431037902832031 6.8670935630798339844 6.8670935630798339844 3.9215016365051269531 1.5911804437637329102 3.1917226314544677734 2.8177235126495361328 2.6200101375579833984 1.0352632999420166016 1.8997918367385864258 2.5969169139862060547 2.2552065849304199219 2.5969169139862060547 1.8997918367385864258 2.0501871109008789063 2.8177235126495361328 1.0352632999420166016 2.8177235126495361328 2.5969169139862060547 1.029074549674987793 1.0115746259689331055 2.4689557552337646484 1.9041965007781982422 1.241888880729675293 2.2612891197204589844 1.7534614801406860352 1.7195515632629394531 1.6014962196350097656 1.4899358749389648438 2.2000036239624023438 2.2817223072052001953 1.9705890417098999023 1.9041965007781982422 1.9435876607894897461 2.1140363216400146484 2.4185457229614257813 2.1658027172088623047 2.18041229248046875 1.9165709018707275391 2.2130069732666015625 3.1303741931915283203 3.4915173053741455078 4.1649546623229980469 4.3890728950500488281 4.0616860389709472656 5.1050038337707519531 3.5935587882995605469 3.600505828857421875 4.2463402748107910156 4.4227457046508789063 4.3195395469665527344 4.1317744255065917969 4.415515899658203125 3.8143792152404785156 3.1615700721740722656 3.3636209964752197266 2.9274542331695556641 2.5838618278503417969 1.7708891630172729492 1.792570948600769043 1.8576163053512573242 1.792570948600769043 2.1305363178253173828 1.8946399688720703125 2.6905901432037353516 2.7556354999542236328 2.9074077606201171875 1.996708989143371582 1.7555472850799560547 1.259593963623046875 1.7185235023498535156 1.5197750329971313477 1.1666402816772460938 1.0525118112564086914 1.4927037954330444336 1.440338134765625 1.3842949867248535156 1.4710220098495483398 1.5360673666000366211 1.61051177978515625 1.2018388509750366211 1.3752928972244262695 1.2700076103210449219 1.0481355190277099609 1.6225690841674804688 1.6025707721710205078 1.0429970026016235352 1.2452023029327392578 1.214518427848815918 1.1028864383697509766 1.0378412008285522461 1.0812047719955444336 1.0029140710830688477 1.9041965007781982422 1 1.9041965007781982422 1.0035790205001831055 1.1462500095367431641 1.0203218460083007813 1.0299739837646484375 1.5309280157089233398 1.2093708515167236328 1.6638535261154174805 1.8574979305267333984 1.7504941225051879883 1.9643237590789794922 2.0216915607452392578 2.3195319175720214844 2.5172231197357177734 2.3030812740325927734 3.0706911087036132813 2.9872491359710693359 3.1018235683441162109 3.6624343395233154297 3.3707277774810791016 2.9583919048309326172 2.8209657669067382813 2.28507232666015625 3.4498956203460693359 2.9882071018218994141 3.1763598918914794922 3.2408809661865234375 3.0160710811614990234 3.1151578426361083984 3.3821310997009277344 3.3644709587097167969 2.9325757026672363281 3.2817342281341552734 2.8827724456787109375 2.659061431884765625 3.7463822364807128906 4.377086639404296875 3.6102883815765380859 3.7167465686798095703 4.3631768226623535156 4.0158948898315429688 3.7720918655395507813 3.4501996040344238281 2.9603688716888427734 
1.214518427848815918 1.1096309423446655273 1.9041965007781982422 1.1928366422653198242 1.1245682239532470703 1.1219903230667114258 2.6151242256164550781 1.0378412008285522461 1.9542856216430664063 1.9041965007781982422 1.106109619140625 1.0378412008285522461 1.0621008872985839844 1.2235205173492431641 1.2885658740997314453 1.1886091232299804688 1.1099781990051269531 1.0516448020935058594 1.350172877311706543 1.7036836147308349609 1.8757872581481933594 2.0877399444580078125 1.7350388765335083008 1.6534782648086547852 1.7708891630172729492 1.4764115810394287109 1.553424835205078125 1.6375483274459838867 1.7188942432403564453 2.1783144474029541016 2.3430292606353759766 2.0053014755249023438 2.0458018779754638672 1.7188385725021362305 1.5360673666000366211 1.4036543369293212891 1.5679939985275268555 1.9627039432525634766 1.3536111116409301758 1.3969746828079223633 1.7715137004852294922 1.2235205173492431641 1.8945280313491821289 1.1361551284790039063 1.418656468391418457 1.4579062461853027344 1.0022113323211669922 1.4115010499954223633 1.2046227455139160156 1.6600682735443115234 1.1903195381164550781 3.0062968730926513672 1.0352632999420166016 1.2311228513717651367 1.1219903230667114258 1.100308537483215332 1.1219903230667114258 2.2552065849304199219 3.0841305255889892578 3.9627170562744140625 1.8997918367385864258 4.4419436454772949219 3.6919023990631103516 5.8873801231384277344 6.8670935630798339844 4.5497288703918457031 1.5544667243957519531 1.3161882162094116211 2.8177235126495361328 1.100308537483215332 1.5544667243957519531 1.1219903230667114258 3.0418324470520019531 1.100308537483215332 2.6321852207183837891 2.8177235126495361328 1.731220245361328125 3.1262457370758056641 2.0501871109008789063 1.0786268711090087891 1.0303750038146972656 1.9542856216430664063 1.0378412008285522461 1.0326956510543823242 1.3703178167343139648 1.8690457344055175781 1.6453036069869995117 1.897799372673034668 1.6204297542572021484 1.5038701295852661133 1.9062337875366210938 2.0199263095855712891 1.9041965007781982422 1.232547760009765625 1.5893597602844238281 1.3683725595474243164 1.7368704080581665039 2.1724953651428222656 1.3075654506683349609 2.1088500022888183594 2.7023761272430419922 3.3245019912719726563 4.2919635772705078125 4.5918955802917480469 4.8101778030395507813 5.1163578033447265625 5.7802867889404296875 4.0182542800903320313 5.1087594032287597656 4.6544241905212402344 4.2057204246520996094 4.4862055778503417969 4.2317061424255371094 4.6945433616638183594 4.19451904296875 3.6968913078308105469 4.0461974143981933594 3.6775405406951904297 2.9264881610870361328 2.1485462188720703125 1.368002772331237793 1.6407986879348754883 2.1878221035003662109 2.0167329311370849609 2.045520782470703125 2.3220002651214599609 2.9074077606201171875 3.1242253780364990234 2.3436820507049560547 2.01845550537109375 1.7338654994964599609 1.6065020561218261719 1.9660249948501586914 1.259593963623046875 1.6227943897247314453 1.2379121780395507813 1.1673591136932373047 1.0039557218551635742 1.4276585578918457031 1.4123165607452392578 1.0525118112564086914 1.0646787881851196289 1.3969746828079223633 1.3869479894638061523 1.331929326057434082 1.4710220098495483398 1.6199949979782104492 1.6534782648086547852 1.4676939249038696289 1.2957750558853149414 1.0711750984191894531 1.1028864383697509766 1.0595229864120483398 1.0535526275634765625 1.0015398263931274414 1.3319919109344482422 1.1245682239532470703 2.4689557552337646484 1.301726222038269043 1.0812047719955444336 1.9108177423477172852 1.0595229864120483398 1.0907677412033081055 1.7165638208389282227 2.8321664333343505859 2.6079509258270263672 2.2392785549163818359 2.0003042221069335938 2.2292797565460205078 2.7161090373992919922 2.9964976310729980469 1.9867160320281982422 2.9276201725006103516 2.8528156280517578125 3.6035742759704589844 2.9081702232360839844 3.1376919746398925781 3.8947336673736572266 2.9808344841003417969 2.6065421104431152344 2.5498194694519042969 3.2440783977508544922 3.9001863002777099609 3.6117420196533203125 2.9298527240753173828 2.6854825019836425781 4.0503330230712890625 3.1111059188842773438 3.4773073196411132813 2.8551990985870361328 3.1274411678314208984 3.8869392871856689453 3.3382651805877685547 4.0607972145080566406 3.8744382858276367188 4.5258569717407226563 4.3236260414123535156 3.6422190666198730469 3.5470814704895019531 2.5843465328216552734 
1.1928366422653198242 1.2081786394119262695 1.2795636653900146484 1.2578819990158081055 1.0016961097717285156 1.15718841552734375 2.2552065849304199219 1.9108177423477172852 1.3518837690353393555 1.0361877679824829102 1.2298604249954223633 1.106109619140625 1.0424036979675292969 1.1277914047241210938 1.418656468391418457 1.1080422401428222656 1.4200650453567504883 1.7668459415435791016 1.904908299446105957 2.2717347145080566406 1.793979644775390625 1.3970770835876464844 1.8483713865280151367 1.28812408447265625 1.8142527341842651367 1.7402052879333496094 1.6544201374053955078 1.5360673666000366211 1.6308928728103637695 1.4112085103988647461 2.0331842899322509766 1.8270769119262695313 1.9609473943710327148 2.1165816783905029297 1.2775189876556396484 1.1080422401428222656 1.5546501874923706055 1.359267115592956543 1.401453852653503418 1.7537711858749389648 1.7010715007781982422 1.0867646932601928711 1.4592691659927368164 1.3623994588851928711 1.3969746828079223633 1.1559113264083862305 1.5143855810165405273 1.7655777931213378906 1.214518427848815918 1.301726222038269043 2.6321852207183837891 1.8997918367385864258 1.0786268711090087891 1.0303750038146972656 1.0212770700454711914 2.2016704082489013672 1.2955501079559326172 1.0378412008285522461 2.4689557552337646484 2.6321852207183837891 1.0352632999420166016 5.7250204086303710938 6.8670935630798339844 4.38135528564453125 2.6678845882415771484 4.4705133438110351563 2.0501871109008789063 5.7816576957702636719 3.6919023990631103516 3.9215016365051269531 1.8997918367385864258 1.100308537483215332 3.9627170562744140625 1.1219903230667114258 2.8177235126495361328 1.5911804437637329102 5.0049319267272949219 1.3161882162094116211 2.2552065849304199219 2.4689557552337646484 1 1.1028864383697509766 1.9041965007781982422 1.5530953407287597656 1.169983983039855957 1.301726222038269043 1.545531153678894043 1.286431431770324707 1.5995656251907348633 1.6600682735443115234 1.4028353691101074219 1.9041965007781982422 1.9041965007781982422 1.3822209835052490234 1.1488279104232788086 2.3498156070709228516 2.2734992504119873047 2.2902362346649169922 2.0927431583404541016 2.2351486682891845703 2.1806309223175048828 2.9477567672729492188 3.9816699028015136719 4.4554386138916015625 5.6969690322875976563 5.2847819328308105469 5.3753995895385742188 5.5273690223693847656 5.038959503173828125 5.8835721015930175781 4.4654679298400878906 4.2533106803894042969 4.2083191871643066406 5.3511991500854492188 4.1481699943542480469 4.6980242729187011719 3.7505757808685302734 3.9438235759735107422 2.3621506690979003906 1.9533454179763793945 1.6057140827178955078 1.6443487405776977539 1.5169662237167358398 1.6715474128723144531 1.4330480098724365234 1.7582744359970092773 2.6905901432037353516 2.3653635978698730469 2.2786366939544677734 1.909981846809387207 1.6101148128509521484 1.3896845579147338867 1.6932291984558105469 1.5577491521835327148 1.3463209867477416992 1.6011126041412353516 1.5730910301208496094 1.1295033693313598633 1.1080422401428222656 1.4276585578918457031 1.6147062778472900391 1.5667512416839599609 1.1295033693313598633 1.6209001541137695313 1.1494895219802856445 1.440338134765625 1.5357003211975097656 1.4240972995758056641 1.3102476596832275391 1.106109619140625 1.0595229864120483398 1.1028864383697509766 1.1076474189758300781 1.0837826728820800781 1.2298604249954223633 1.3612657785415649414 2.4979000091552734375 2.1780834197998046875 1.2856231927871704102 1.1245682239532470703 1.0303750038146972656 1.0447363853454589844 1.717563629150390625 3.0452258586883544922 2.3105363845825195313 3.5204010009765625 3.1962416172027587891 2.2684643268585205078 2.7843365669250488281 2.76752471923828125 2.3113489151000976563 2.7906744480133056641 2.8288021087646484375 3.2316684722900390625 2.9353246688842773438 3.1755199432373046875 3.014301300048828125 3.1973106861114501953 3.0301623344421386719 2.5627770423889160156 3.2461254596710205078 3.6067194938659667969 3.3444943428039550781 3.4913375377655029297 3.2432427406311035156 3.2329254150390625 3.5724320411682128906 2.9940264225006103516 3.8647196292877197266 3.5141348838806152344 3.4067671298980712891 3.7973535060882568359 2.7102673053741455078 3.3168275356292724609 4.1439690589904785156 4.3483562469482421875 4.7528290748596191406 3.8184168338775634766 3.4866919517517089844 3.2175803184509277344 
1.0844278335571289063 1.1605012416839599609 1.0711750984191894531 1.0338510274887084961 1.1028864383697509766 1.0378412008285522461 1.0812047719955444336 1.2856231927871704102 1.2018388509750366211 1.2452023029327392578 1.0716547966003417969 1.0867646932601928711 1.7054418325424194336 1.1262996196746826172 1.6791050434112548828 1.1193977594375610352 1.3969746828079223633 1.3536111116409301758 1.7096102237701416016 2.4244649410247802734 2.08014678955078125 1.6659729480743408203 1.3964095115661621094 1.5031795501708984375 1.6608059406280517578 1.6081357002258300781 1.8291819095611572266 1.0455749034881591797 1.8250019550323486328 1.0515565872192382813 1.617670893669128418 1.4836369752883911133 1.989052891731262207 1.3626133203506469727 1.5813338756561279297 1.0943340063095092773 1.940514683723449707 1.5233876705169677734 1.8033174276351928711 1.8172837495803833008 1.0360988378524780273 1.3658423423767089844 1.31684112548828125 1.2379121780395507813 1.5344665050506591797 1.6317964792251586914 1.5577491521835327148 1.4493403434753417969 1.0268088579177856445 1.9041965007781982422 2.5969169139862060547 2.5863945484161376953 2.2552065849304199219 2.4689557552337646484 1.0087381601333618164 2.2016704082489013672 2.5969169139862060547 1.6868594884872436523 2.5969169139862060547 1.0786268711090087891 1.0352632999420166016 5.0349431037902832031 4.5369915962219238281 2.7776699066162109375 4.4419436454772949219 2.9014503955841064453 5.7250204086303710938 3.0779531002044677734 1.0352632999420166016 1.0352632999420166016 2.8177235126495361328 1.3692437410354614258 2.6321852207183837891 1.5544667243957519531 2.8177235126495361328 1.5544667243957519531 1.731220245361328125 2.6321852207183837891 1.6326173543930053711 2.4689557552337646484 2.2016704082489013672 1.6520684957504272461 1.1813958883285522461 1.6600682735443115234 1.1028864383697509766 1.0484638214111328125 1.7229237556457519531 1.4102634191513061523 1.1245682239532470703 1.7662465572357177734 1.2234959602355957031 1.1641391515731811523 1.6600682735443115234 1.1046459674835205078 1.2978044748306274414 1.7037187814712524414 2.7051677703857421875 2.2938730716705322266 2.0848858356475830078 2.4114396572113037109 2.1485047340393066406 3.0142376422882080078 4.3174791336059570313 5.0510563850402832031 4.6664338111877441406 5.249904632568359375 6.0512347221374511719 5.2281446456909179688 5.8140263557434082031 6.2164387702941894531 5.0081486701965332031 4.8979854583740234375 4.8747072219848632813 5.3373169898986816406 4.5206518173217773438 5.6334447860717773438 4.6197309494018554688 4.8062252998352050781 2.8312516212463378906 2.5214359760284423828 2.31104278564453125 1.6167490482330322266 1.5679978132247924805 1.2812757492065429688 1.2812757492065429688 1.6932291984558105469 2.0835008621215820313 1.8883650302886962891 1.8079129457473754883 1.7555472850799560547 1.3246392011642456055 1.4927037954330444336 1.4927037954330444336 1.3192497491836547852 1.0889384746551513672 1.2812757492065429688 1.3246392011642456055 1.6688202619552612305 1.1879873275756835938 1.3061716556549072266 1.4059767723083496094 1.259593963623046875 1.0889384746551513672 1.2668840885162353516 1.331929326057434082 1.3969746828079223633 1.3906348943710327148 1.3626133203506469727 1.3102476596832275391 1 1.301726222038269043 1.0812047719955444336 1.6691575050354003906 1.0404191017150878906 1.0844278335571289063 2.1344089508056640625 1.6600682735443115234 1.0844278335571289063 1.0812047719955444336 1.0285193920135498047 1.1407071352005004883 1.510542750358581543 2.3096439838409423828 2.3656468391418457031 3.0225737094879150391 3.0316946506500244141 2.7194652557373046875 2.9293568134307861328 2.5083622932434082031 2.2101595401763916016 2.7948529720306396484 2.5119152069091796875 3.1833765506744384766 3.0859854221343994141 3.5022833347320556641 2.7237207889556884766 3.0025918483734130859 2.1567299365997314453 2.7542958259582519531 2.4193623065948486328 2.7882447242736816406 2.7560873031616210938 2.7692315578460693359 3.1399979591369628906 3.2592830657958984375 2.8027272224426269531 3.9284806251525878906 3.1609914302825927734 3.2603297233581542969 3.8445491790771484375 3.6578915119171142578 2.6890642642974853516 2.5922856330871582031 2.7987320423126220703 3.2593204975128173828 3.2957286834716796875 3.9815773963928222656 4.3302435874938964844 3.8805184364318847656 3.1848230361938476563 
1.0050448179244995117 1.2271817922592163086 1.0812047719955444336 1.391209721565246582 1.6401140689849853516 1.1310622692108154297 1.0844278335571289063 1.0621008872985839844 1.0496459007263183594 1.2220176458358764648 1.2018388509750366211 1.3102476596832275391 1.3969746828079223633 1.331929326057434082 1.331929326057434082 1.1728669404983520508 1.1297240257263183594 1.8658967018127441406 2.12583160400390625 2.53643035888671875 2.3984739780426025391 1.6488773822784423828 1.4927037954330444336 1.4123165607452392578 1.6011126041412353516 2.1130397319793701172 1.8738151788711547852 1.5450694561004638672 1.1893546581268310547 1.7867242097854614258 1.536568760871887207 1.6475920677185058594 1.844771265983581543 2.2179663181304931641 2.0297837257385253906 1.6721788644790649414 2.2180752754211425781 1.8621085882186889648 1.8056898117065429688 1.529866337776184082 1.0238931179046630859 1.6124641895294189453 1.4391456842422485352 1.5884330272674560547 1.6094429492950439453 1.7932577133178710938 1.2994233369827270508 1.4123165607452392578 1.6831744909286499023 1.106109619140625 1.9041965007781982422 1.1028864383697509766 1.6558682918548583984 1.0151902437210083008 1.0203218460083007813 1.9292426109313964844 1.1219903230667114258 1.2955501079559326172 1.0786268711090087891 1.1219903230667114258 2.6200101375579833984 3.7933325767517089844 5.7065744400024414063 2.6678845882415771484 6.8670935630798339844 3.7319250106811523438 2.9014503955841064453 2.8177235126495361328 3.9215016365051269531 1.8997918367385864258 1.100308537483215332 2.5863945484161376953 3.9627170562744140625 1.5903766155242919922 1.8997918367385864258 2.8177235126495361328 1.0352632999420166016 1.0203218460083007813 2.6321852207183837891 1.5671200752258300781 1.0378412008285522461 1.0711750984191894531 1.1028864383697509766 2.1344089508056640625 1.0595229864120483398 1.1995258331298828125 1.1090929508209228516 1.4121190309524536133 1.4611656665802001953 2.4515626430511474609 1.106109619140625 1.0918276309967041016 1.0690859556198120117 1.031940460205078125 1.4767658710479736328 1.440338134765625 1.9511922597885131836 2.1546494960784912109 1.8316888809204101563 1.8076524734497070313 2.6072087287902832031 3.1205523014068603516 4.7542376518249511719 5.0192213058471679688 5.3433370590209960938 6.3481192588806152344 5.8973484039306640625 5.4816064834594726563 5.5354609489440917969 6.2817468643188476563 4.4115037918090820313 5.0861020088195800781 4.5068140029907226563 3.9415810108184814453 4.10467529296875 4.4631905555725097656 4.4974832534790039063 3.7477750778198242188 2.6838245391845703125 1.9410444498062133789 1.9605164527893066406 1.418656468391418457 1.5998775959014892578 1.6968418359756469727 1.0889384746551513672 1.6712845563888549805 2.01845550537109375 1.4764115810394287109 1.2162303924560546875 1.4493403434753417969 1.0005234479904174805 1.4691904783248901367 1.331929326057434082 1.1080422401428222656 1.3077549934387207031 1.0429970026016235352 1 1.1559113264083862305 1.3906348943710327148 1.0391826629638671875 1.2798988819122314453 1.4276585578918457031 1.3689531087875366211 1.3906348943710327148 1.4285868406295776367 1.0863605737686157227 1.2668840885162353516 1.2235205173492431641 1.1494731903076171875 1.0266088247299194336 1.1245682239532470703 1.1245682239532470703 1.106109619140625 1.1028864383697509766 1.0285193920135498047 1.2578819990158081055 1.2362002134323120117 1.1277914047241210938 1.0711750984191894531 1.0535526275634765625 1.214518427848815918 1.4684714078903198242 2.2182052135467529297 1.9601457118988037109 3.2176799774169921875 2.5347080230712890625 2.9042870998382568359 3.2574458122253417969 3.3358249664306640625 2.4971611499786376953 2.8166115283966064453 3.2426342964172363281 3.1560561656951904297 3.0809528827667236328 3.4275126457214355469 3.135814666748046875 2.9685499668121337891 2.7886490821838378906 2.5878970623016357422 2.5401842594146728516 2.7655951976776123047 2.8855991363525390625 3.134311676025390625 3.4469478130340576172 2.9897251129150390625 3.248321533203125 3.4732861518859863281 3.6168167591094970703 3.3418166637420654297 3.9535195827484130859 2.8581185340881347656 3.1060233116149902344 2.9998118877410888672 2.5474371910095214844 3.6282467842102050781 3.6283702850341796875 3.0617768764495849609 3.6933853626251220703 3.5307645797729492188 3.0910632610321044922 
1.3103883266448974609 1.0595229864120483398 1.1028864383697509766 1.0812047719955444336 1.6600682735443115234 1.0535526275634765625 1.106109619140625 1.4149039983749389648 1.2668840885162353516 1.418656468391418457 1.2018388509750366211 1.3409774303436279297 1 1.2218084335327148438 1.3409315347671508789 1.1829689741134643555 1.3273500204086303711 1.5857510566711425781 2.1428291797637939453 2.1549668312072753906 2.0809185504913330078 1.8882386684417724609 1.66828155517578125 1.2668840885162353516 1.9017773866653442383 1.8249065876007080078 1.4493403434753417969 1.7294979095458984375 1.6317964792251586914 1.5450694561004638672 1.8016946315765380859 2.0929911136627197266 2.0527806282043457031 1.8998421430587768555 2.4061987400054931641 2.2394087314605712891 2.0811436176300048828 1.6401253938674926758 1.3426407575607299805 1.6033136844635009766 1.5360673666000366211 2.6223177909851074219 1.1521906852722167969 1.4927037954330444336 1.5667512416839599609 1.6319665908813476563 1.5017060041427612305 1.5360673666000366211 1.067053675651550293 1.2668840885162353516 1.1054643392562866211 1.1277914047241210938 1.9041965007781982422 1.0212770700454711914 1.0595229864120483398 1.2923723459243774414 3.4576802253723144531 1.4565182924270629883 1.8997918367385864258 1.2311228513717651367 2.6200101375579833984 4.4419436454772949219 1.9413686990737915039 7.1345343589782714844 6.898479461669921875 4.4419436454772949219 5.0049319267272949219 1.8997918367385864258 1.731220245361328125 3.2817137241363525391 1.5544667243957519531 2.5863945484161376953 2.5863945484161376953 1.2621108293533325195 1.100308537483215332 2.6200101375579833984 3.9215016365051269531 2.5969169139862060547 1.0212770700454711914 1.9041965007781982422 1.1245682239532470703 2.4515626430511474609 1.0812047719955444336 1.0812047719955444336 1.0595229864120483398 1.0812047719955444336 1.2957750558853149414 1.1245682239532470703 1.0690859556198120117 1.1028864383697509766 1.1928366422653198242 1.3801958560943603516 1.2858101129531860352 1.8689830303192138672 1.2603366374969482422 1.3006902933120727539 2.1437792778015136719 2.1026051044464111328 2.0431654453277587891 2.82993316650390625 3.2793102264404296875 3.4423034191131591797 3.534656524658203125 3.8634734153747558594 5.3914771080017089844 6.3116464614868164063 5.2124032974243164063 5.4027037620544433594 6.3798041343688964844 5.5605731010437011719 4.9130816459655761719 4.6403102874755859375 5.6199493408203125 5.2641119956970214844 4.4346680641174316406 3.4301695823669433594 3.9762537479400634766 3.1783497333526611328 2.9902238845825195313 2.1987810134887695313 1.4988915920257568359 1.1816352605819702148 1.5655936002731323242 1.5161095857620239258 1.7217868566513061523 1.8450014591217041016 2.2352731227874755859 1.3463209867477416992 1.6101148128509521484 1 1.1297240257263183594 1.2795636653900146484 1.1494731903076171875 1.1096309423446655273 1.0435590744018554688 1.2795636653900146484 1.506605982780456543 1.0621008872985839844 1.1494731903076171875 1.1711549758911132813 1.1271461248397827148 1.0416485071182250977 1.7021908760070800781 1.418656468391418457 1.4745291471481323242 1.1277914047241210938 1.2018388509750366211 1.1071105003356933594 1.1076474189758300781 1.214518427848815918 1.3085476160049438477 1.0621008872985839844 1.1245682239532470703 1.1310622692108154297 1.0812047719955444336 1.4710749387741088867 1.2018388509750366211 1.0406931638717651367 1.2578819990158081055 1.1076474189758300781 1.2885658740997314453 1.7521655559539794922 2.3714888095855712891 1.9016213417053222656 2.3108115196228027344 2.3356919288635253906 2.7097256183624267578 2.4321475028991699219 2.1985108852386474609 2.7661750316619873047 3.2693827152252197266 3.0445120334625244141 3.2463409900665283203 3.3578152656555175781 3.4110875129699707031 3.5825381278991699219 3.76589202880859375 3.9159214496612548828 3.2998385429382324219 2.9518954753875732422 3.1562151908874511719 3.2989830970764160156 2.9391887187957763672 3.114490509033203125 2.7667691707611083984 3.5330331325531005859 3.1780037879943847656 3.3293004035949707031 3.1987454891204833984 3.6363329887390136719 3.4745883941650390625 2.7315938472747802734 2.3685774803161621094 2.6368052959442138672 3.4119665622711181641 3.2900536060333251953 3.0790917873382568359 2.8852777481079101563 3.4573662281036376953 3.6728594303131103516 
1.2362002134323120117 1.4531282186508178711 1.8106858730316162109 1.4465247392654418945 1.6955621242523193359 1.044314265251159668 1.0844278335571289063 1.0187373161315917969 1.2795636653900146484 1.0404191017150878906 1.0469801425933837891 1.3969746828079223633 1.440338134765625 1.2885658740997314453 1.0040394067764282227 1.1080422401428222656 2.1357560157775878906 1.6355756521224975586 2.1063053607940673828 1.8087060451507568359 1.9707101583480834961 1.9831966161727905273 2.0706896781921386719 1.6755287647247314453 1.3626133203506469727 1.7402052879333496094 1.4276585578918457031 1.7167211771011352539 1.4713878631591796875 1.8525979518890380859 1.8083418607711791992 1.4800242185592651367 1.7996484041213989258 2.5110809803009033203 2.2645998001098632813 2.1317875385284423828 2.6879787445068359375 1.3649048805236816406 1.0551776885986328125 1.4059767723083496094 1.331929326057434082 1.2735137939453125 1.5955121517181396484 1.3471444845199584961 1.5606344938278198242 1.331929326057434082 1.0469801425933837891 1.0030351877212524414 1.3536111116409301758 1.0187373161315917969 1.1277914047241210938 1.0127462148666381836 1.0621008872985839844 1.0690859556198120117 1.1245682239532470703 1.7058150768280029297 3.9627170562744140625 2.5863945484161376953 2.4689557552337646484 1.1219903230667114258 1.5911804437637329102 3.9215016365051269531 3.6919023990631103516 4.4419436454772949219 4.38135528564453125 1.731220245361328125 3.1424236297607421875 3.7993910312652587891 1.731220245361328125 1.3161882162094116211 3.9627170562744140625 2.2016704082489013672 1.6868594884872436523 1.100308537483215332 2.5969169139862060547 3.9215016365051269531 1.0352632999420166016 2.2016704082489013672 2.4689557552337646484 1.9041965007781982422 1.0378412008285522461 1.0029140710830688477 3.1644721031188964844 1.301726222038269043 2.8139696121215820313 1.9108177423477172852 1.0605514049530029297 1.1277914047241210938 1.106109619140625 1.1076474189758300781 2.1344089508056640625 1.0715032815933227539 1.2362002134323120117 1.4145659208297729492 1.6339830160140991211 1.4378522634506225586 1.5856336355209350586 2.1523652076721191406 2.4260818958282470703 2.5730113983154296875 3.2494101524353027344 4.2127022743225097656 4.0017170906066894531 4.2439355850219726563 5.2687425613403320313 5.9638957977294921875 4.6781449317932128906 5.00897216796875 6.4501161575317382813 5.1087298393249511719 4.2789855003356933594 4.8262219429016113281 6.1448640823364257813 4.5972161293029785156 4.5019240379333496094 3.3462328910827636719 3.2893347740173339844 3.7826116085052490234 2.7941746711730957031 2.5153367519378662109 1.7858208417892456055 1.3102476596832275391 1.6585608720779418945 1.6911107301712036133 1.0629750490188598633 1.792570948600769043 1.7582744359970092773 1.7121837139129638672 1.151185154914855957 1.5233876705169677734 1.0532671213150024414 1.2578819990158081055 1.0621008872985839844 1.0837826728820800781 1.3319919109344482422 1.0363167524337768555 1.1928366422653198242 2.4515626430511474609 2.7689762115478515625 1 1.0837826728820800781 1.1928366422653198242 1.0947500467300415039 1.2452023029327392578 1.6791050434112548828 1.5902960300445556641 1.2578819990158081055 1.8298467397689819336 1.2749919891357421875 1.106109619140625 1.1245682239532470703 1.0844278335571289063 1.1028864383697509766 1.1028864383697509766 1.0595229864120483398 1.391209721565246582 1 1.6915094852447509766 1.0404191017150878906 1.7054418325424194336 1.4710220098495483398 1.507899165153503418 2.1550388336181640625 1.9537894725799560547 3.1370184421539306641 1.7939636707305908203 2.4706518650054931641 2.2987210750579833984 2.5029778480529785156 3.3675968647003173828 3.202152252197265625 3.3143718242645263672 3.7981204986572265625 4.3423895835876464844 3.6441884040832519531 3.1455886363983154297 3.3942317962646484375 2.8700196743011474609 2.9096004962921142578 3.3490612506866455078 2.7243318557739257813 3.3511035442352294922 2.4604604244232177734 2.3135836124420166016 2.7247557640075683594 3.2533364295959472656 3.0448713302612304688 3.8294589519500732422 3.5128591060638427734 3.5257031917572021484 3.7007544040679931641 3.7326147556304931641 2.5835826396942138672 2.7906019687652587891 3.1412611007690429688 2.9953112602233886719 2.9410696029663085938 3.2022509574890136719 3.5393567085266113281 3.1721236705780029297 
1.6499178409576416016 1.7107886075973510742 1.5755158662796020508 1.1681486368179321289 1.9717382192611694336 1.9436317682266235352 1.8436821699142456055 1.1054643392562866211 1.0404191017150878906 1.2287830114364624023 1.0646787881851196289 1.1080422401428222656 1.3969746828079223633 1.5103157758712768555 1.6247770786285400391 1.5766160488128662109 1.5676290988922119141 2.6438400745391845703 2.4264919757843017578 2.5142824649810791016 2.5540993213653564453 2.1506628990173339844 2.6660361289978027344 1.9061138629913330078 1.6859948635101318359 2.2891561985015869141 1.418656468391418457 1.2813861370086669922 1.3246392011642456055 1.8359345197677612305 1.6652625799179077148 1.5577491521835327148 1.5269079208374023438 1.7006771564483642578 1.623503565788269043 1.709824681282043457 1.8111265897750854492 1.3969746828079223633 1.4082901477813720703 1.430922389030456543 1.440338134765625 1.7952527999877929688 1.5496259927749633789 1.6085858345031738281 1.2452023029327392578 1.214518427848815918 1.006049036979675293 1 1.1277914047241210938 1.0844278335571289063 1.9041965007781982422 1.2362002134323120117 1 2.4663248062133789063 1.301726222038269043 2.4689557552337646484 2.1164593696594238281 2.5863945484161376953 1.3560349941253662109 1.0203218460083007813 1.1219903230667114258 3.9215016365051269531 3.1917226314544677734 6.8670935630798339844 6.8670935630798339844 9.2493410110473632813 6.8670935630798339844 6.8670935630798339844 6.8670935630798339844 1.1219903230667114258 1.0087381601333618164 1.9108177423477172852 2.2552065849304199219 2.6298980712890625 3.9627170562744140625 1.5544667243957519531 1.3161882162094116211 1.3161882162094116211 2.2552065849304199219 1.0595229864120483398 1.0326956510543823242 1.0595229864120483398 2.4689557552337646484 2.4689557552337646484 3.2410285472869873047 2.7689762115478515625 1.2804532051086425781 1.9041965007781982422 1.0690859556198120117 1.0336509943008422852 1.2957750558853149414 1.1204363107681274414 1.6101661920547485352 1.9342437982559204102 1.5561394691467285156 2.0159981250762939453 2.1671946048736572266 1.9780774116516113281 2.41356658935546875 2.8032801151275634766 2.6628355979919433594 3.9454295635223388672 3.8584077358245849609 3.9066016674041748047 5.2085633277893066406 5.7892141342163085938 6.1139044761657714844 5.06627655029296875 5.40909576416015625 6.2837243080139160156 5.3237128257751464844 5.9712495803833007813 4.8874907493591308594 4.9188146591186523438 5.3725004196166992188 4.8494939804077148438 3.7150969505310058594 3.0720963478088378906 3.0351421833038330078 2.127475738525390625 1.1080422401428222656 1.4154328107833862305 1.0863605737686157227 1.3752928972244262695 1.102254033088684082 1.6227943897247314453 1.6751600503921508789 1.3246392011642456055 1.0015201568603515625 1.0646855831146240234 1.4493403434753417969 1.3409774303436279297 1 1.0867646932601928711 1.3319919109344482422 1.1928366422653198242 1.031940460205078125 1.1277914047241210938 1.1028864383697509766 1.0812047719955444336 1.0053795576095581055 1.0605514049530029297 1.5668034553527832031 1.2957750558853149414 1.1928366422653198242 1.0035594701766967773 1 1.1271461248397827148 1.4894225597381591797 1.1245682239532470703 1.5671200752258300781 1.9041965007781982422 1.0258535146713256836 1.9041965007781982422 1.0378412008285522461 1.9041965007781982422 1.0187373161315917969 1.3918768167495727539 1.4787045717239379883 1.6831744909286499023 1.3842949867248535156 1.4252208471298217773 1.1345920562744140625 2.4310050010681152344 2.3228230476379394531 2.1853730678558349609 2.1690452098846435547 2.2433784008026123047 2.8984262943267822266 2.4829547405242919922 2.4906320571899414063 2.9665939807891845703 3.66358184814453125 3.3110833168029785156 3.7273414134979248047 3.8115835189819335938 3.0387856960296630859 3.0756747722625732422 2.5880105495452880859 2.7535760402679443359 2.8107292652130126953 2.5336554050445556641 2.4551534652709960938 2.4716255664825439453 2.7202286720275878906 3.4411289691925048828 3.3950145244598388672 3.130657196044921875 3.2225427627563476563 3.8811147212982177734 3.7264115810394287109 3.6958250999450683594 3.7627635002136230469 3.0328099727630615234 2.9039125442504882813 2.4324593544006347656 3.4981656074523925781 3.1654200553894042969 3.0054211616516113281 3.2273023128509521484 
1.2331256866455078125 1.8828351497650146484 1.5587323904037475586 1.4742270708084106445 2.4752237796783447266 1.5610953569412231445 1.6011126041412353516 1.0055594444274902344 1.214518427848815918 1.1054643392562866211 1.0213152170181274414 1.0418485403060913086 1.3752928972244262695 1.0496459007263183594 1.531634211540222168 2.4230990409851074219 2.59188079833984375 2.2019898891448974609 3.0282907485961914063 3.0290570259094238281 2.6776678562164306641 3.2339107990264892578 2.4430000782012939453 1.7446148395538330078 1.7983587980270385742 1.720813751220703125 1.3536111116409301758 1.3246392011642456055 1.9163217544555664063 1.856082916259765625 1.977309107780456543 1.5718228816986083984 1.6544346809387207031 1.7105218172073364258 2.3038268089294433594 1.9078447818756103516 2.533145904541015625 1.2867808341979980469 1.4177347421646118164 1.7272751331329345703 1.7387402057647705078 2.1520514488220214844 1.3969746828079223633 1.2885658740997314453 1.002951502799987793 1.3612657785415649414 1.0326956510543823242 1.0595229864120483398 1.0690859556198120117 1.0907677412033081055 2.1653585433959960938 1.4710749387741088867 1.0627461671829223633 1.2856231927871704102 1.0812047719955444336 3.2410285472869873047 1.100308537483215332 2.6321852207183837891 2.5969169139862060547 1.0378412008285522461 2.8487415313720703125 4.4419436454772949219 3.7319250106811523438 4.4419436454772949219 4.38135528564453125 5.0349431037902832031 6.8670935630798339844 4.4419436454772949219 2.9014503955841064453 2.8177235126495361328 2.2016704082489013672 3.6012563705444335938 2.5969169139862060547 2.5863945484161376953 2.5863945484161376953 1.9793697595596313477 1.5544667243957519531 1.100308537483215332 2.2552065849304199219 2.4689557552337646484 3.14661407470703125 1.0378412008285522461 1.0029140710830688477 1.2955501079559326172 1.6868594884872436523 1.0303750038146972656 1.0303750038146972656 1.1028864383697509766 1.0449569225311279297 1.2213962078094482422 1.3260687589645385742 1.2803754806518554688 1.4903452396392822266 1.8951307535171508789 2.1680643558502197266 2.8424429893493652344 2.6962392330169677734 2.6951944828033447266 2.529689788818359375 2.7904577255249023438 3.5265219211578369141 3.3921587467193603516 3.7502157688140869141 4.211940765380859375 4.8555660247802734375 5.8187775611877441406 6.2262396812438964844 5.2507762908935546875 4.9456973075866699219 5.3137998580932617188 5.5194363594055175781 5.78241729736328125 5.8997201919555664063 4.6279768943786621094 4.8500728607177734375 4.2932910919189453125 4.1787676811218261719 3.3935174942016601563 3.1022536754608154297 2.7587807178497314453 1.879773259162902832 1.5029524564743041992 1.0652134418487548828 1.0863605737686157227 1.3752928972244262695 1.4710220098495483398 1.5017060041427612305 1.0863605737686157227 1.3752928972244262695 1.3626133203506469727 1.0551776885986328125 1.4059767723083496094 1.0496459007263183594 1.331929326057434082 1.1271461248397827148 1.3612657785415649414 2.7452986240386962891 1.9041965007781982422 1.9041965007781982422 1.9041965007781982422 1.0336509943008422852 1.0844278335571289063 1.9041965007781982422 1.0378412008285522461 1.9108177423477172852 1.1245682239532470703 1.0016961097717285156 1.2957750558853149414 2.1344089508056640625 1.5671200752258300781 1.0923851728439331055 1.0627461671829223633 1.0258535146713256836 1.170467376708984375 1.2916483879089355469 1.2973854541778564453 1.1064138412475585938 1.0844278335571289063 1.4087815284729003906 1.2578819990158081055 1.218463897705078125 1.1801570653915405273 1.3536111116409301758 1.418656468391418457 1.3508322238922119141 1.9497528076171875 2.0917432308197021484 2.5337176322937011719 2.3971028327941894531 2.0074956417083740234 2.4260733127593994141 2.8712518215179443359 3.0396552085876464844 3.4861042499542236328 3.02571868896484375 3.2930407524108886719 3.4090015888214111328 3.2623469829559326172 2.8767325878143310547 2.8064143657684326172 2.7334232330322265625 2.5112125873565673828 2.8627922534942626953 2.4091486930847167969 2.8733756542205810547 3.4088227748870849609 3.5860877037048339844 3.7686276435852050781 3.2373147010803222656 3.5069887638092041016 3.2017297744750976563 3.1557216644287109375 3.4049413204193115234 3.8739566802978515625 3.6389565467834472656 3.3381290435791015625 3.6057779788970947266 3.5501477718353271484 3.4514648914337158203 2.3517282009124755859 
1.4014514684677124023 1.4604283571243286133 1.5102576017379760742 1.6739308834075927734 1.8429138660430908203 1.1664620637893676758 1.1556137800216674805 1.1076474189758300781 1.1795229911804199219 1.0399379730224609375 1.0547775030136108398 1.0213152170181274414 1.440338134765625 2.0862245559692382813 1.7144027948379516602 2.2151944637298583984 2.8424615859985351563 1.9453941583633422852 3.0130300521850585938 3.2288205623626708984 2.7838866710662841797 2.5072202682495117188 1.566519618034362793 2.06139373779296875 1.7402052879333496094 1.3909364938735961914 1.1559113264083862305 1.151185154914855957 1.7492074966430664063 2.018390655517578125 2.1476504802703857422 1.5740741491317749023 1.9067049026489257813 1.5143855810165405273 1.7355151176452636719 1.5779937505722045898 1.3978649377822875977 1.3409315347671508789 1.6540273427963256836 1.3803251981735229492 1.605543971061706543 1.1638987064361572266 1.5794308185577392578 1.2081786394119262695 1.0404191017150878906 1.0049611330032348633 1.1028864383697509766 1.301726222038269043 1.0029140710830688477 1.9108177423477172852 1.6955621242523193359 2.0106759071350097656 1.9108177423477172852 3.14661407470703125 2.4689557552337646484 2.2552065849304199219 2.5863945484161376953 1.0203218460083007813 1.0378412008285522461 2.2016704082489013672 1.5544667243957519531 3.7933325767517089844 3.7933325767517089844 2.9014503955841064453 6.8670935630798339844 3.7933325767517089844 2.9014503955841064453 2.3271169662475585938 1.731220245361328125 1.0786268711090087891 1.100308537483215332 2.5863945484161376953 2.4689557552337646484 1.3518837690353393555 2.5969169139862060547 1.4565182924270629883 2.8177235126495361328 1.1219903230667114258 2.6321852207183837891 2.0106759071350097656 1.0212770700454711914 1.2955501079559326172 1.0029140710830688477 1.2955501079559326172 2.4689557552337646484 1.0029140710830688477 1.0812047719955444336 1.0812047719955444336 1.0711750984191894531 1.5630494356155395508 1.6281368732452392578 1.5013937950134277344 2.0035841464996337891 2.1883203983306884766 2.0920183658599853516 2.4820520877838134766 2.6615197658538818359 2.7879211902618408203 2.6274933815002441406 3.0769674777984619141 3.5297479629516601563 3.2460491657257080078 3.4662268161773681641 4.15869903564453125 4.54619598388671875 5.8851580619812011719 7.2374668121337890625 6.0893197059631347656 5.03734588623046875 5.8505373001098632813 5.796398162841796875 4.9770464897155761719 4.2682948112487792969 4.8652377128601074219 4.1368412971496582031 4.39044952392578125 4.0532088279724121094 3.5653188228607177734 3.066638946533203125 2.6404430866241455078 2.3203666210174560547 1.5436345338821411133 1.2569762468338012695 1.2452023029327392578 1.0027004480361938477 1.331929326057434082 1.4610555171966552734 1.506605982780456543 1.3969746828079223633 1.151185154914855957 1.5233876705169677734 1.151185154914855957 1.4493403434753417969 1.2603366374969482422 1.1928366422653198242 1.0268088579177856445 1.0690859556198120117 1.0907677412033081055 1.4710749387741088867 1.9041965007781982422 1.0627461671829223633 1.0812047719955444336 1.6868594884872436523 1.0812047719955444336 1.0378412008285522461 1.6868594884872436523 1.1560308933258056641 1.1245682239532470703 1.1028864383697509766 1.0812047719955444336 1.6955621242523193359 1.0844278335571289063 1.1711549758911132813 1.1635590791702270508 1.2795636653900146484 1.1711549758911132813 1.5711829662322998047 1.2152019739151000977 1.9041965007781982422 1.1054643392562866211 1.2018388509750366211 1.0513564348220825195 1.6791050434112548828 1.4124059677124023438 1.4909164905548095703 2.4359681606292724609 2.0107610225677490234 1.793252110481262207 2.6806752681732177734 2.7518846988677978516 2.5969648361206054688 2.1363992691040039063 2.8843359947204589844 2.8811652660369873047 2.6773648262023925781 3.1089856624603271484 3.0190098285675048828 3.4121136665344238281 3.5101368427276611328 2.8675785064697265625 2.9059658050537109375 2.7505605220794677734 2.9596095085144042969 2.3663389682769775391 2.7091073989868164063 2.7864105701446533203 3.3833987712860107422 3.5162069797515869141 3.7111449241638183594 3.2336893081665039063 2.9960641860961914063 3.5404133796691894531 4.1041316986083984375 4.0494351387023925781 3.4213948249816894531 3.3800797462463378906 3.6808130741119384766 3.2188267707824707031 3.4389708042144775391 3.1887199878692626953 
1.9724447727203369141 1.7047388553619384766 1.5332772731781005859 1.5249122381210327148 1.6791050434112548828 1.6791050434112548828 1.6691575050354003906 1.6621632575988769531 1.331929326057434082 1.418656468391418457 1.5450694561004638672 1.4059767723083496094 1.440338134765625 1.1557643413543701172 1.5440768003463745117 1.7561733722686767578 2.6473975181579589844 3.0349988937377929688 3.1834628582000732422 3.2605745792388916016 2.927490234375 2.9254751205444335938 2.1292271614074707031 1.7551350593566894531 1.0629750490188598633 1.3895164728164672852 1.3752928972244262695 1.5297275781631469727 1.6534782648086547852 1.8729581832885742188 2.2714610099792480469 2.5685431957244873047 2.2957997322082519531 1.4670743942260742188 1.6937403678894042969 1.2081055641174316406 1.3196048736572265625 1.0786005258560180664 1.2256520986557006836 1.5348802804946899414 1.3842949867248535156 1.3903841972351074219 1.2668840885162353516 1.2018388509750366211 1.2362002134323120117 1.0309851169586181641 1.0627461671829223633 1.0049611330032348633 1.2856231927871704102 1.1028864383697509766 1.9101415872573852539 1.0203218460083007813 1.1219903230667114258 1.9122374057769775391 1.301726222038269043 1.1219903230667114258 1.1219903230667114258 3.9627170562744140625 2.2552065849304199219 2.5969169139862060547 3.9215016365051269531 3.7319250106811523438 6.8670935630798339844 3.6919023990631103516 3.9215016365051269531 1.0352632999420166016 2.0501871109008789063 1.100308537483215332 1.0786268711090087891 2.5969169139862060547 2.8177235126495361328 1.100308537483215332 1.6868594884872436523 1.6868594884872436523 3.9627170562744140625 2.6049542427062988281 1.7058150768280029297 1.1219903230667114258 2.5969169139862060547 3.6311545372009277344 1.1245682239532470703 2.3019168376922607422 1.102965235710144043 1.1028864383697509766 2.4689557552337646484 1.029074549674987793 1.0812047719955444336 1.1550689935684204102 1.9041965007781982422 1.3096731901168823242 1.5337027311325073242 1.8454167842864990234 1.8526386022567749023 2.7077193260192871094 2.0619599819183349609 2.1130990982055664063 2.8750042915344238281 2.5031716823577880859 2.7671797275543212891 3.2032184600830078125 3.4480128288269042969 3.2344441413879394531 3.3375985622406005859 3.9491276741027832031 4.93607330322265625 4.54927825927734375 4.9937701225280761719 5.7319598197937011719 4.740436553955078125 5.6733641624450683594 4.7505922317504882813 3.8958134651184082031 4.8191256523132324219 5.0439419746398925781 4.8921523094177246094 4.6384129524230957031 4.0793542861938476563 3.3058850765228271484 3.3974053859710693359 3.4324698448181152344 2.3745625019073486328 1.5880388021469116211 1.2362002134323120117 1.0837826728820800781 1.2018388509750366211 1.0287194252014160156 1.7054418325424194336 1.2795636653900146484 1.0621008872985839844 1.0672566890716552734 1.3246392011642456055 1.5414568185806274414 1.5017060041427612305 1.418656468391418457 1.0496459007263183594 1.0213152170181274414 1.2603366374969482422 1.2362002134323120117 1.2362002134323120117 1.1928366422653198242 1.0595229864120483398 1.0115746259689331055 1.9542856216430664063 1.0595229864120483398 1.6558682918548583984 2.2552065849304199219 1.0007755756378173828 1.0812047719955444336 2.6049542427062988281 1.029074549674987793 1.0378412008285522461 1.3612657785415649414 1.5630494356155395508 1.2362002134323120117 1.6913570165634155273 1.4561135768890380859 1.2066408395767211914 1 1.1936357021331787109 1.2362002134323120117 1.1801570653915405273 1.2668840885162353516 1.0863605737686157227 1.291260838508605957 1.4803100824356079102 1.7483597993850708008 1.8800172805786132813 2.4071555137634277344 2.6296398639678955078 1.9970091581344604492 2.3637089729309082031 2.3983378410339355469 2.8840916156768798828 2.6294374465942382813 2.3273782730102539063 2.7012436389923095703 3.1203587055206298828 2.6441640853881835938 3.0147809982299804688 3.20653533935546875 3.0178163051605224609 2.4632434844970703125 2.5397329330444335938 2.68865203857421875 2.8533928394317626953 2.6757020950317382813 3.3180410861968994141 3.5715339183807373047 3.7629590034484863281 3.2356166839599609375 3.6598873138427734375 4.7357659339904785156 4.4354815483093261719 3.9462647438049316406 3.8398237228393554688 3.6343290805816650391 3.0813078880310058594 3.4813420772552490234 3.0351469516754150391 3.2484729290008544922 
2.3914132118225097656 2.7320268154144287109 1.2614274024963378906 1.5662537813186645508 1.5916464328765869141 1.6910920143127441406 1.8109091520309448242 1.4037739038467407227 1.8501082658767700195 1.6658986806869506836 1.1106201410293579102 1.5577491521835327148 1.9876455068588256836 1.331929326057434082 1.5086293220520019531 1.9807757139205932617 2.0928316116333007813 2.1698017120361328125 3.1828939914703369141 3.3956115245819091797 2.8921172618865966797 2.6505599021911621094 2.1167860031127929688 1.6567790508270263672 1.418656468391418457 1 1.2274423837661743164 1.1323019266128540039 1.3246392011642456055 1.8883001804351806641 2.3437268733978271484 2.5489513874053955078 1.7343833446502685547 1.6503252983093261719 1.7773760557174682617 1.5685542821884155273 1.3969746828079223633 1.2383141517639160156 1.3176479339599609375 1.0959526300430297852 1.3536111116409301758 1.0646787881851196289 1.1080422401428222656 1.0027841329574584961 1.0844278335571289063 1.9041965007781982422 1.1028864383697509766 1.0595229864120483398 1.0595229864120483398 1.6691575050354003906 1.301726222038269043 1.9108177423477172852 2.4689557552337646484 1.1219903230667114258 1.2955501079559326172 1.1219903230667114258 1.5544667243957519531 2.5863945484161376953 2.8177235126495361328 2.0501871109008789063 6.8670935630798339844 6.898479461669921875 5.1868848800659179688 5.0049319267272949219 3.3940508365631103516 1.0352632999420166016 2.8177235126495361328 1.1219903230667114258 1.2621108293533325195 1.1219903230667114258 2.8139696121215820313 1.2955501079559326172 1.1028864383697509766 1.5671200752258300781 3.9627170562744140625 1.0043752193450927734 1.3627235889434814453 2.3418080806732177734 1.2955501079559326172 1.9108177423477172852 1.0595229864120483398 1.301726222038269043 1.0812047719955444336 1.0378412008285522461 1.0043752193450927734 1.1028864383697509766 1.2659692764282226563 1.8849902153015136719 1.6031942367553710938 1.7336570024490356445 1.7397845983505249023 1.6791050434112548828 1.8946046829223632813 1.6618416309356689453 1.7641373872756958008 2.3329780101776123047 2.7286667823791503906 2.7386486530303955078 2.669879913330078125 2.6924695968627929688 2.8633286952972412109 3.0913174152374267578 2.9356794357299804688 3.5559470653533935547 4.2333989143371582031 5.1042265892028808594 4.6458897590637207031 5.328128814697265625 6.45452880859375 5.9654507637023925781 4.5256943702697753906 3.4316258430480957031 5.0113377571105957031 4.7058348655700683594 4.9632825851440429688 3.9649953842163085938 3.7696580886840820313 2.9464242458343505859 2.9225616455078125 3.3415951728820800781 2.4414274692535400391 1.4493403434753417969 1.1054643392562866211 1.2603366374969482422 1.1076474189758300781 1 1.2235205173492431641 1.2885658740997314453 1.418656468391418457 1.3463209867477416992 1.4113662242889404297 1.151185154914855957 1.0672566890716552734 1.1297240257263183594 1.2018388509750366211 1.1928366422653198242 1.0711750984191894531 1.0406931638717651367 1.9041965007781982422 1.0346062183380126953 1.9108177423477172852 1.0595229864120483398 1.301726222038269043 1.1245682239532470703 1.0812047719955444336 1.1245682239532470703 1.0180181264877319336 2.4515626430511474609 1.1245682239532470703 1.6756902933120727539 1.1245682239532470703 1.6756902933120727539 1.6256515979766845703 1.5195566415786743164 1.6147751808166503906 1.5681612491607666016 1.1680315732955932617 1.3842504024505615234 1.2300459146499633789 1.331929326057434082 1.4144904613494873047 1.3882576227188110352 1.3626133203506469727 1.1559113264083862305 1.3192497491836547852 1.5647184848785400391 1.8087813854217529297 1.8686870336532592773 2.1297965049743652344 2.1103336811065673828 2.2521941661834716797 2.7299549579620361328 3.0486032962799072266 3.0023641586303710938 2.703090667724609375 2.7745289802551269531 2.8995950222015380859 2.7059824466705322266 3.1313307285308837891 4.0511541366577148438 3.0269777774810791016 2.81058502197265625 2.6609883308410644531 2.4399456977844238281 2.6097898483276367188 3.1516590118408203125 3.43927001953125 3.3570456504821777344 4.0952458381652832031 4.1542911529541015625 4.0852007865905761719 4.229496002197265625 5.085575103759765625 4.2549414634704589844 3.4118328094482421875 2.7771971225738525391 2.6338665485382080078 2.9749760627746582031 3.3610949516296386719 2.9712212085723876953 
2.4151828289031982422 2.3246381282806396484 2.1073927879333496094 2.1633687019348144531 2.0495162010192871094 2.7457666397094726563 2.1681089401245117188 2.3645164966583251953 2.343265533447265625 1.9000307321548461914 1.0040394067764282227 1.1969776153564453125 1.4927037954330444336 1.0931744575500488281 1.3899027109146118164 1.5168451070785522461 1.9597599506378173828 1.8246413469314575195 2.2463808059692382813 1.8383181095123291016 1.6534782648086547852 1.6227943897247314453 1.8194994926452636719 1.9007322788238525391 1.6861475706100463867 1.1080422401428222656 1.5450694561004638672 1.3664304018020629883 1.0672566890716552734 1.2812757492065429688 1.5667512416839599609 1.8446162939071655273 1.5884330272674560547 1.5577491521835327148 1.5577491521835327148 1.3871139287948608398 1.0796606540679931641 1.4628423452377319336 1.3957459926605224609 1.1160709857940673828 1.0672566890716552734 1.1514058113098144531 1 1.2018388509750366211 1.0431021451950073242 1.2268515825271606445 1.0016961097717285156 1.6600682735443115234 1.1245682239532470703 1.0378412008285522461 1.0029140710830688477 1.6868594884872436523 1.100308537483215332 1.5911804437637329102 3.5383107662200927734 2.2243709564208984375 1.3161882162094116211 1.0786268711090087891 2.8177235126495361328 3.6919023990631103516 7.1345343589782714844 4.38135528564453125 5.9050498008728027344 1.731220245361328125 2.0501871109008789063 2.3271169662475585938 1.3161882162094116211 3.1229813098907470703 1.100308537483215332 3.0418324470520019531 1.6003824472427368164 1.029074549674987793 1.0378412008285522461 1.1028864383697509766 1.9122374057769775391 1.15718841552734375 1.4710749387741088867 1.6868594884872436523 1.183018803596496582 1.1245682239532470703 1.0812047719955444336 1.301726222038269043 1.0812047719955444336 1.0690859556198120117 1.0627461671829223633 1.6627179384231567383 1.0336509943008422852 1.5437922477722167969 1.0867646932601928711 1.8400071859359741211 1.9767817258834838867 1.5620521306991577148 1.3095455169677734375 1.9236365556716918945 1.6092061996459960938 2.2229778766632080078 2.3564133644104003906 4.0618600845336914063 3.4104857444763183594 2.6815600395202636719 2.3808379173278808594 2.7989988327026367188 3.1854226589202880859 3.5780589580535888672 3.9343705177307128906 4.2423901557922363281 4.5837345123291015625 5.4699411392211914063 6.2622904777526855469 5.5549397468566894531 3.291431427001953125 4.06693267822265625 4.44518280029296875 5.3195185661315917969 4.6791682243347167969 4.2087569236755371094 3.725208282470703125 2.9338064193725585938 2.7502682209014892578 3.1316282749176025391 2.5902457237243652344 1.3969746828079223633 1.1271461248397827148 1.6791050434112548828 1.0374721288681030273 1.1711549758911132813 1.0867646932601928711 1.0672566890716552734 1.4493403434753417969 1.4113662242889404297 1.6011126041412353516 1.1728669404983520508 1.6534782648086547852 1.2885658740997314453 1.044314265251159668 1.0336509943008422852 1.1028864383697509766 1.106109619140625 1.0496459007263183594 1.1271461248397827148 1.0812047719955444336 1.0378412008285522461 1.0378412008285522461 1.6003824472427368164 1.0595229864120483398 1.5274420976638793945 1.9041965007781982422 2.1344089508056640625 1.1705844402313232422 1.6868503093719482422 1.5746515989303588867 1.2388091087341308594 1.5130165815353393555 1.214518427848815918 1.2663730382919311523 1.0863605737686157227 1.2700076103210449219 1.5577491521835327148 1.1367509365081787109 1.4927037954330444336 1.9554650783538818359 1.5687335729598999023 1.8584110736846923828 1.8858560323715209961 1.9775269031524658203 2.0212323665618896484 1.5674191713333129883 1.2892135381698608398 1.4774930477142333984 2.3124237060546875 2.9940278530120849609 2.8303327560424804688 3.0069861412048339844 3.3480813503265380859 2.9700319766998291016 2.6142475605010986328 2.260951995849609375 2.8492350578308105469 3.2906155586242675781 3.7928788661956787109 3.1887352466583251953 2.7504231929779052734 2.1064665317535400391 2.1653933525085449219 2.7085711956024169922 2.1237778663635253906 3.0423853397369384766 3.5108938217163085938 3.6786484718322753906 3.6418926715850830078 3.8177974224090576172 4.7359375953674316406 5.9507427215576171875 4.2158980369567871094 3.644687652587890625 3.1792078018188476563 3.5671908855438232422 2.5791082382202148438 2.5661058425903320313 3.4484393596649169922 
2.9383938312530517578 2.7781441211700439453 2.8427956104278564453 2.5221168994903564453 2.9725444316864013672 2.5087535381317138672 2.8737227916717529297 2.0291652679443359375 1.8792979717254638672 2.0899817943572998047 1.2162303924560546875 1.4518899917602539063 1.5514092445373535156 1.4927037954330444336 1.7720671892166137695 1.1715093851089477539 1.1080422401428222656 1.4276585578918457031 1.5197472572326660156 2.5025684833526611328 1.3509564399719238281 1.8206193447113037109 1.8576768636703491211 1.9509328603744506836 1.2697790861129760742 1.3450896739959716797 2.0622148513793945313 1.259593963623046875 1.6101148128509521484 1.8665925264358520508 1.8459558486938476563 1.5233876705169677734 1.5143855810165405273 1.5055733919143676758 1.7219357490539550781 1.7379050254821777344 1.8490058183670043945 1.5470833778381347656 1.6761192083358764648 1.3981131315231323242 1.0559328794479370117 1.0418485403060913086 1.0429970026016235352 1.3969746828079223633 1.2232909202575683594 1.517388463020324707 1.106109619140625 1.0378412008285522461 1.0029140710830688477 1.5671200752258300781 1.0378412008285522461 2.2016704082489013672 2.1374356746673583984 1.1419925689697265625 1.1419925689697265625 1.0352632999420166016 1.5911804437637329102 1.100308537483215332 2.0501871109008789063 5.0049319267272949219 6.8670935630798339844 4.38135528564453125 6.8670935630798339844 4.4419436454772949219 3.6919023990631103516 5.0049319267272949219 1.0352632999420166016 2.6200101375579833984 2.5863945484161376953 1.100308537483215332 1.6558682918548583984 1.2199838161468505859 1.0378412008285522461 1.0812047719955444336 1.0595229864120483398 1.1414473056793212891 1.0303750038146972656 1.0595229864120483398 1.1028864383697509766 1.15718841552734375 1.5769153833389282227 1.7058150768280029297 1.0812047719955444336 1.0258535146713256836 1.1494731903076171875 1.0867646932601928711 1.2795636653900146484 1.4326442480087280273 1.2668840885162353516 1.3536111116409301758 1.2298604249954223633 1.2720019817352294922 1.2578819990158081055 1.3797876834869384766 1.832125544548034668 2.0812485218048095703 2.7420697212219238281 3.5613420009613037109 3.1093592643737792969 2.9136500358581542969 2.2352731227874755859 2.6674787998199462891 2.4712531566619873047 2.8596713542938232422 2.1482536792755126953 3.8070631027221679688 4.1935362815856933594 4.0239915847778320313 4.4979662895202636719 3.8848521709442138672 4.8840193748474121094 4.4424829483032226563 3.7639496326446533203 4.0790309906005859375 3.9493525028228759766 3.6975347995758056641 3.7604157924652099609 2.9642608165740966797 2.9623212814331054688 3.3648996353149414063 2.5126569271087646484 1.562235713005065918 1.2426012754440307617 1.1928366422653198242 1.2018388509750366211 1 1.3752928972244262695 1.0508012771606445313 1.3029574155807495117 1.2162303924560546875 1.3689531087875366211 1.4620199203491210938 1.0498460531234741211 1.007387995719909668 1.2018388509750366211 1.214518427848815918 1.3088968992233276367 1.0404191017150878906 1.2452023029327392578 1.0187373161315917969 1.9041965007781982422 1.0378412008285522461 1.0595229864120483398 1.0378412008285522461 1.3179066181182861328 1.9041965007781982422 1.0837826728820800781 1.2203086614608764648 1.0621008872985839844 1.2701574563980102539 1.3360942602157592773 1.0844278335571289063 1.3993297815322875977 1.2795636653900146484 1.3969746828079223633 1.7054418325424194336 1.4493403434753417969 1.4059767723083496094 1.5730910301208496094 1.6968418359756469727 2.35479736328125 2.2059490680694580078 2.1235477924346923828 2.6776220798492431641 2.4691278934478759766 2.0620419979095458984 1.5205862522125244141 1.2009378671646118164 1.5798569917678833008 2.3353946208953857422 2.7703518867492675781 2.9119288921356201172 3.0441486835479736328 2.9485521316528320313 2.8742907047271728516 2.7323064804077148438 2.8171846866607666016 2.9648253917694091797 2.781688690185546875 2.8553833961486816406 3.3660700321197509766 2.9449388980865478516 2.1830892562866210938 1.611263275146484375 1.9843318462371826172 2.28475189208984375 2.8899981975555419922 3.3302805423736572266 3.7065317630767822266 3.5411696434020996094 3.7750365734100341797 4.3523616790771484375 3.7542476654052734375 3.7789242267608642578 2.8017933368682861328 2.4594202041625976563 2.4061913490295410156 3.0559065341949462891 3.3033769130706787109 3.2484667301177978516 
2.8430416584014892578 3.1695079803466796875 2.8190746307373046875 2.3011610507965087891 2.4312670230865478516 2.4374005794525146484 2.2200362682342529297 1.8906030654907226563 2.0970349311828613281 2.3333249092102050781 1.7216523885726928711 1.779877781867980957 2.0064785480499267578 1.7185235023498535156 1.8634256124496459961 1.6136397123336791992 1.2259545326232910156 1.6663833856582641602 1.6227943897247314453 1.6835883855819702148 1.5646045207977294922 2.0108630657196044922 1.6341168880462646484 1.4276585578918457031 1.0455749034881591797 1.4202928543090820313 1.0022113323211669922 1.5667512416839599609 1.7185235023498535156 1.3842949867248535156 1.4456058740615844727 1.3409315347671508789 1.3906348943710327148 1.8764923810958862305 2.2615075111389160156 1.6062550544738769531 2.0140385627746582031 1.7574911117553710938 1.8252655267715454102 1.4493066072463989258 1.160663604736328125 1.5143855810165405273 1.4951404333114624023 1.7215692996978759766 1.5996518135070800781 1.0837826728820800781 1.0053795576095581055 1.1028864383697509766 1.6955621242523193359 1.2874174118041992188 2.0106759071350097656 1.2832947969436645508 1.5911804437637329102 2.8177235126495361328 2.8177235126495361328 1.0786268711090087891 2.6200101375579833984 2.6200101375579833984 1.731220245361328125 3.1917226314544677734 3.7319250106811523438 4.38135528564453125 3.6919023990631103516 3.9215016365051269531 3.6919023990631103516 3.7933325767517089844 1.5544667243957519531 1.5544667243957519531 2.8177235126495361328 2.5863945484161376953 2.2552065849304199219 2.8004152774810791016 1.0378412008285522461 1.1245682239532470703 1.3612657785415649414 1.9041965007781982422 1.0533257722854614258 1.1711549758911132813 1.2362002134323120117 1.1277914047241210938 1.1936619281768798828 1.0621008872985839844 1.1810079813003540039 1.0605514049530029297 1.0621008872985839844 1.3961793184280395508 1.1054643392562866211 1.0187373161315917969 1.5793881416320800781 1 1.9888185262680053711 1.6268742084503173828 1.3317743539810180664 1.5669494867324829102 1.7715623378753662109 2.6998188495635986328 2.6312770843505859375 3.1793067455291748047 3.0263445377349853516 2.4315068721771240234 2.8617627620697021484 2.5821812152862548828 2.5857524871826171875 2.4647104740142822266 2.3579277992248535156 2.8334002494812011719 3.4973342418670654297 4.4122834205627441406 4.3454914093017578125 3.9057536125183105469 3.7670016288757324219 3.7464709281921386719 3.8398733139038085938 4.8932156562805175781 5.177093505859375 5.02081298828125 4.340892791748046875 3.6096854209899902344 2.6817049980163574219 2.4080851078033447266 2.3776185512542724609 1.798137664794921875 1.0015398263931274414 1.1928366422653198242 1.2578819990158081055 1.9041965007781982422 1.2235205173492431641 1.3536111116409301758 1.3409315347671508789 1 1.0863605737686157227 1.0126281976699829102 1.0837826728820800781 1.1928366422653198242 1.2795636653900146484 1.9041965007781982422 1.1271461248397827148 1.0406931638717651367 1.2300459146499633789 1.1054643392562866211 1.1028864383697509766 1.0378412008285522461 1 1.9041965007781982422 1.0627461671829223633 1.9041965007781982422 1.39852142333984375 1.0844278335571289063 1.1801570653915405273 1.2018388509750366211 1.0424036979675292969 1.1582593917846679688 1.0397378206253051758 1.2795636653900146484 1.2018388509750366211 1.3102476596832275391 1.26874542236328125 1.1403138637542724609 1.0391826629638671875 1.4519249200820922852 1.3085199594497680664 2.6687493324279785156 2.9958283901214599609 2.7999432086944580078 2.6496183872222900391 2.1311855316162109375 2.1587202548980712891 2.0507340431213378906 1.9597657918930053711 2.0646209716796875 2.2077212333679199219 2.5540091991424560547 2.6626427173614501953 3.0367100238800048828 3.4194729328155517578 3.8275504112243652344 3.0876946449279785156 3.0909626483917236328 3.8013150691986083984 2.9394605159759521484 2.7003891468048095703 2.6332480907440185547 2.5143616199493408203 1.784502863883972168 2.3411071300506591797 2.2760608196258544922 2.5787196159362792969 2.2472784519195556641 3.7381093502044677734 3.8694000244140625 4.5041751861572265625 4.1952290534973144531 4.1046147346496582031 3.5163166522979736328 3.0934004783630371094 3.6407995223999023438 2.2168788909912109375 2.5436387062072753906 3.2436439990997314453 3.5832126140594482422 
3.6196939945220947266 3.6782042980194091797 2.9539673328399658203 3.0973408222198486328 3.2021493911743164063 2.1870815753936767578 2.2230391502380371094 1.9463647603988647461 1.7487010955810546875 2.3108203411102294922 1.6427015066146850586 2.3309483528137207031 2.0218768119812011719 1.757883906364440918 1.8486365079879760742 2.167598724365234375 1.6011126041412353516 1.6286399364471435547 1.8989641666412353516 1.7445631027221679688 1.3020011186599731445 1.6806547641754150391 1.6557195186614990234 1.4387042522430419922 1.331929326057434082 1.3536111116409301758 1.4927037954330444336 1.6610317230224609375 1.5884549617767333984 1.0646787881851196289 1.0867646932601928711 1.4943218231201171875 1.2678469419479370117 2.5061366558074951172 2.1769130229949951172 2.2486219406127929688 2.3730640411376953125 1.7168594598770141602 1.8305704593658447266 1.6153941154479980469 1.3842949867248535156 1.8641484975814819336 1.9642413854598999023 1.7311307191848754883 1.7338851690292358398 1.6445307731628417969 1.3631531000137329102 1.1494731903076171875 1.1245682239532470703 1.2158502340316772461 2.2016704082489013672 1.1219903230667114258 2.3271169662475585938 1.100308537483215332 2.8177235126495361328 1.1219903230667114258 1.0203218460083007813 2.4689557552337646484 2.0501871109008789063 2.8177235126495361328 3.1917226314544677734 2.9014503955841064453 1.731220245361328125 3.9215016365051269531 1.5544667243957519531 3.9627170562744140625 2.0501871109008789063 1.8997918367385864258 1.1219903230667114258 3.9627170562744140625 1.1219903230667114258 1.0212770700454711914 1.9108177423477172852 1.0378412008285522461 1.0690859556198120117 1.1028864383697509766 2.7689762115478515625 1.5902960300445556641 1.0336509943008422852 1.0027841329574584961 1.3969746828079223633 1.0213152170181274414 1.1271461248397827148 1.0285193920135498047 1.044314265251159668 1.2018388509750366211 1.0867646932601928711 1.4437491893768310547 1.1910575628280639648 1.7777791023254394531 1.9865300655364990234 1.6880872249603271484 2.2456972599029541016 1.8874831199645996094 1.9898003339767456055 2.2942750453948974609 2.425640106201171875 2.0964260101318359375 2.1958203315734863281 1.7111415863037109375 1.909981846809387207 2.5270876884460449219 3.1833879947662353516 2.2819774150848388672 2.6513483524322509766 4.0234141349792480469 4.2402691841125488281 4.6993560791015625 4.4956269264221191406 4.8294248580932617188 4.9844160079956054688 4.6376085281372070313 4.5914835929870605469 4.0553808212280273438 3.7540547847747802734 2.9953744411468505859 3.4032044410705566406 2.3220002651214599609 2.1268644332885742188 2.2294199466705322266 1.6751600503921508789 1.6101148128509521484 1.0818256139755249023 1.0418485403060913086 1.0399379730224609375 1.2795636653900146484 1.2578819990158081055 1.2018388509750366211 1.331929326057434082 1.0576434135437011719 1.3969746828079223633 1.0200263261795043945 1.2749919891357421875 1.0535526275634765625 1.1310622692108154297 1.1076474189758300781 1.1277914047241210938 1.0627461671829223633 1.1054643392562866211 1.106109619140625 2.2151329517364501953 1.0844278335571289063 1.214518427848815918 1.1488279104232788086 1.2018388509750366211 1.1076474189758300781 1.0621008872985839844 1.0621008872985839844 1.1096309423446655273 1.1076474189758300781 1.5902960300445556641 2.7689762115478515625 1.1494731903076171875 1.2795636653900146484 1.0969965457916259766 1.4854696989059448242 1.4029366970062255859 1.6398111581802368164 1.3906348943710327148 1.3752928972244262695 2.1788327693939208984 1.9733148813247680664 2.0877997875213623047 2.6886410713195800781 2.8556580543518066406 2.7083024978637695313 2.8750178813934326172 2.7519223690032958984 1.9382764101028442383 1.9755750894546508789 2.0771045684814453125 2.5823533535003662109 2.5892193317413330078 2.7570137977600097656 2.7301037311553955078 2.470355987548828125 2.8264391422271728516 2.50341796875 3.2107248306274414063 2.5076472759246826172 2.5896499156951904297 3.3521754741668701172 2.5579555034637451172 2.2364780902862548828 2.3237497806549072266 1.9493604898452758789 2.4861013889312744141 2.7220251560211181641 3.0128641128540039063 4.2482428550720214844 4.0048775672912597656 4.1383342742919921875 3.8241572380065917969 3.5267956256866455078 2.2583498954772949219 2.570751190185546875 2.9876024723052978516 2.8926897048950195313 2.8622868061065673828 3.9118416309356689453 
3.6360354423522949219 3.1574773788452148438 4.129878997802734375 3.0904157161712646484 3.0864729881286621094 2.4267368316650390625 3.0469009876251220703 1.6534782648086547852 2.1289563179016113281 2.0546870231628417969 1.7121837139129638672 1.8854157924652099609 1.8666183948516845703 1.74481201171875 1.4957548379898071289 2.0201053619384765625 1.9524011611938476563 1.9545851945877075195 1.0672566890716552734 1.0833742618560791016 1.3842949867248535156 1.1951485872268676758 1.1769965887069702148 1.1514058113098144531 1.0365169048309326172 1.5143855810165405273 1.1116225719451904297 1.0031188726425170898 1.0549776554107666016 1.044089198112487793 1.2885658740997314453 1.2885658740997314453 1.2300165891647338867 1.9856331348419189453 2.2020411491394042969 1.8752096891403198242 2.4400582313537597656 1.8663862943649291992 1.7495285272598266602 1.9259152412414550781 1.7613775730133056641 1.5095795392990112305 1.7602597475051879883 1.9821106195449829102 2.1078679561614990234 2.00820159912109375 1.4724861383438110352 1.6362890005111694336 1.0434135198593139648 1.3560349941253662109 1.9108177423477172852 2.2552065849304199219 1.0786268711090087891 1.9122374057769775391 1.3161882162094116211 3.9627170562744140625 2.6151242256164550781 2.1164593696594238281 1.100308537483215332 1.0352632999420166016 2.9014503955841064453 2.9014503955841064453 3.6919023990631103516 2.3271169662475585938 1.2832947969436645508 1.3161882162094116211 2.3271169662475585938 1.0352632999420166016 2.8177235126495361328 1.5911804437637329102 1.100308537483215332 1.0303750038146972656 1.1028864383697509766 1.1245682239532470703 1 1.1054643392562866211 1.1277914047241210938 1.1277914047241210938 1.1514058113098144531 1.420375823974609375 1.5360673666000366211 1.1962064504623413086 1 1.2362002134323120117 1.2362002134323120117 1.2603366374969482422 1.2018388509750366211 1.3906348943710327148 1.3192497491836547852 1.875087738037109375 1.6968418359756469727 1.8294119834899902344 2.4587526321411132813 1.759108424186706543 2.8458220958709716797 2.7477922439575195313 1.8249353170394897461 1.8950694799423217773 1.7214046716690063477 1.6905019283294677734 1.5667512416839599609 1.684162139892578125 1.4537687301635742188 2.5599882602691650391 2.1880872249603271484 3.7558429241180419922 4.0877976417541503906 4.5127482414245605469 3.9970600605010986328 5.0002398490905761719 5.1023268699645996094 4.5868096351623535156 4.4399485588073730469 3.3204877376556396484 3.6887962818145751953 2.7537922859191894531 2.0590565204620361328 1.7382016181945800781 2.7267451286315917969 1.6912617683410644531 1.6723748445510864258 1.6968418359756469727 1.4620199203491210938 1.0429970026016235352 1.0336509943008422852 1.1277914047241210938 1.8849902153015136719 1.2362002134323120117 1.0404191017150878906 1.418656468391418457 1.3626133203506469727 1.0030351877212524414 1.0837826728820800781 2.4979000091552734375 1.0711750984191894531 1.1245682239532470703 1 1.9041965007781982422 1.3540925979614257813 1.1054643392562866211 1.1494731903076171875 2.4515626430511474609 1.1262996196746826172 1.0435590744018554688 1.3572707176208496094 1.2018388509750366211 1.6791050434112548828 1.3612657785415649414 1.0285193920135498047 1.214518427848815918 1.9041965007781982422 1.3612657785415649414 1.2081786394119262695 1.161954045295715332 2.2170617580413818359 2.2041976451873779297 1.4519366025924682617 1.4719043970108032227 1.4800242185592651367 1.6939294338226318359 1.7536233663558959961 1.6646773815155029297 2.0034854412078857422 2.5748703479766845703 2.8550894260406494141 2.6824922561645507813 2.3124933242797851563 2.6172738075256347656 3.4385354518890380859 2.6141097545623779297 2.3153667449951171875 2.9738357067108154297 3.286197662353515625 3.1511359214782714844 2.1935787200927734375 2.8606779575347900391 2.7771081924438476563 2.2497601509094238281 2.1667129993438720703 2.0294704437255859375 2.5491666793823242188 3.1742808818817138672 2.3403069972991943359 2.1225702762603759766 2.2433431148529052734 1.9982491731643676758 2.194187164306640625 2.5754096508026123047 3.0922362804412841797 3.4483249187469482422 3.9565131664276123047 4.0138630867004394531 3.3402314186096191406 3.094669342041015625 3.4403603076934814453 3.0046665668487548828 2.942668914794921875 2.6863040924072265625 2.1925122737884521484 2.5777993202209472656 
4.0002303123474121094 3.6725406646728515625 3.68866729736328125 3.6928870677947998047 3.0660369396209716797 3.0798480510711669922 2.1808135509490966797 2.4125831127166748047 2.4780776500701904297 1.9399074316024780273 1.6564286947250366211 1.9935621023178100586 2.1702277660369873047 1.9534102678298950195 1.4086191654205322266 1.4547297954559326172 2.0618190765380859375 1.792570948600769043 1.0615639686584472656 1.3077549934387207031 1.1271461248397827148 1.3842949867248535156 1.3192497491836547852 1.1080422401428222656 1.0646787881851196289 1.1078215837478637695 1.3409774303436279297 1.3409315347671508789 1.4059767723083496094 1.3199176788330078125 1.0404191017150878906 1.0646787881851196289 1.5472576618194580078 1.7073460817337036133 1.6870734691619873047 1.8723304271697998047 2.1020784378051757813 2.1008658409118652344 2.0533449649810791016 2.39492034912109375 1.7220227718353271484 1.9624704122543334961 1.9656178951263427734 1.8115905523300170898 1.5293900966644287109 1.6520514488220214844 1.642681121826171875 1.2261224985122680664 1.0151902437210083008 1.1097508668899536133 1.0212770700454711914 1.5731774568557739258 2.2552065849304199219 2.2552065849304199219 1.100308537483215332 2.6321852207183837891 3.14661407470703125 2.4689557552337646484 3.9627170562744140625 1.100308537483215332 4.5497288703918457031 1.8997918367385864258 2.8177235126495361328 2.6321852207183837891 1.3161882162094116211 2.2016704082489013672 2.6321852207183837891 2.2016704082489013672 1.3560349941253662109 1.0303750038146972656 2.4689557552337646484 1.0690859556198120117 1.1028864383697509766 1.106109619140625 1.2081786394119262695 1.2300459146499633789 1.0268088579177856445 1.1271461248397827148 1.3102476596832275391 1.6227943897247314453 1.6188882589340209961 1.3132096529006958008 1.4123165607452392578 1.2081786394119262695 1.1899261474609375 1.2795636653900146484 1.214518427848815918 1.3536111116409301758 1.6362824440002441406 1.5975427627563476563 1.7838796377182006836 1.780858159065246582 2.0370976924896240234 2.0614290237426757813 2.7049319744110107422 3.0340836048126220703 2.6662516593933105469 2.2019474506378173828 1.2368509769439697266 1.6011126041412353516 1.4927037954330444336 1.9482431411743164063 2.1070215702056884766 1.9206396341323852539 2.0623683929443359375 2.7402520179748535156 3.972812652587890625 3.6065506935119628906 3.8729016780853271484 5.3963470458984375 4.9533104896545410156 4.680267333984375 4.3921675682067871094 3.8836145401000976563 3.1141228675842285156 2.950771331787109375 2.7975444793701171875 1.7365926504135131836 1.5414568185806274414 1.7365926504135131836 1.6065020561218261719 1.368002772331237793 1.7185235023498535156 1.3969746828079223633 1.2957750558853149414 1.1245682239532470703 1.0309851169586181641 1.6691575050354003906 1.0326956510543823242 1.2515420913696289063 1.0837826728820800781 1.0837826728820800781 1.1801570653915405273 1.1245682239532470703 1.9041965007781982422 1.9041965007781982422 1.0627461671829223633 1.0837826728820800781 1.0535526275634765625 1.1494731903076171875 1.0404191017150878906 1.0404191017150878906 1.0321404933929443359 1.2300459146499633789 1.0293450355529785156 1.2018388509750366211 1.0837826728820800781 1.3569240570068359375 1.9041965007781982422 1.6401140689849853516 1.0711750984191894531 1.0812047719955444336 1.2795636653900146484 1.6001609563827514648 1.9957082271575927734 2.0844981670379638672 1.6691325902938842773 1.4234827756881713867 1.6968418359756469727 1.4710220098495483398 1.5632061958312988281 1.3955922126770019531 1.8252924680709838867 2.5328607559204101563 3.0021588802337646484 2.745822906494140625 2.4355819225311279297 2.9840757846832275391 3.4459199905395507813 3.4107754230499267578 2.7122719287872314453 3.3571224212646484375 3.6755855083465576172 3.3249630928039550781 2.5832457542419433594 2.5853464603424072266 2.0826506614685058594 1.9879078865051269531 1.9644975662231445313 2.5690927505493164063 2.450511932373046875 2.7206811904907226563 2.6771938800811767578 3.1034471988677978516 2.679058074951171875 1.7973440885543823242 2.0891337394714355469 2.7732632160186767578 2.5992009639739990234 3.2583563327789306641 3.8581502437591552734 3.4815113544464111328 4.4995379447937011719 3.3717389106750488281 3.0432424545288085938 2.7874720096588134766 3.3234615325927734375 2.1939141750335693359 2.4999840259552001953 2.7408432960510253906 
4.1985826492309570313 4.1899685859680175781 4.6433777809143066406 3.8458883762359619141 4.0710711479187011719 3.2709612846374511719 2.7583081722259521484 2.9775223731994628906 2.2885403633117675781 2.9281532764434814453 2.2289514541625976563 1.9750920534133911133 2.3700778484344482422 1.9534102678298950195 1.3029574155807495117 1.959685206413269043 1.9443433284759521484 1.6968418359756469727 1.6534782648086547852 1.3626133203506469727 1.0867646932601928711 1.3409315347671508789 1 1.3140838146209716797 1.4059767723083496094 1.5360673666000366211 1.0041230916976928711 1.3842949867248535156 1.0615377426147460938 1.3698128461837768555 1.1414818763732910156 1.5360673666000366211 1.4223375320434570313 1.2800809144973754883 1.5806889533996582031 1.7926003932952880859 1.7178205251693725586 2.0784661769866943359 2.2010529041290283203 1.5814194679260253906 1.5264885425567626953 1.7708611488342285156 1.9887840747833251953 2.0130569934844970703 2.0505237579345703125 1.5848519802093505859 1.6060901880264282227 1.0285193920135498047 1.0115746259689331055 1.0151902437210083008 1.029074549674987793 1.2955501079559326172 1.2428262233734130859 2.4689557552337646484 1.0151902437210083008 2.6321852207183837891 1.1219903230667114258 2.5969169139862060547 2.4689557552337646484 2.9921739101409912109 2.6321852207183837891 2.5863945484161376953 1.0378412008285522461 1.1245682239532470703 2.2552065849304199219 2.2552065849304199219 1.0029140710830688477 3.1010553836822509766 1.100308537483215332 2.5969169139862060547 1.0212770700454711914 1.0690859556198120117 1.1245682239532470703 1.9041965007781982422 1.1076474189758300781 1.2515420913696289063 1.2018388509750366211 1.2795636653900146484 1.3752928972244262695 1.4059767723083496094 1.3969746828079223633 1.4620199203491210938 1.1080422401428222656 1.0867646932601928711 1 1.2362002134323120117 1.2018388509750366211 1.4676939249038696289 1.1374566555023193359 1.3752928972244262695 1.812716364860534668 2.4024293422698974609 1.96205902099609375 2.2113587856292724609 2.4924671649932861328 2.2380342483520507813 1.6622002124786376953 1.6837695837020874023 1.6606525182723999023 1.4202299118041992188 1.1559113264083862305 1.3763613700866699219 1.7121837139129638672 2.1267995834350585938 2.7162451744079589844 2.9971590042114257813 2.5837652683258056641 3.2417879104614257813 4.2479653358459472656 4.3805561065673828125 4.5128283500671386719 5.0425238609313964844 4.1235966682434082031 3.7287945747375488281 3.9836854934692382813 3.0582106113433837891 2.6689083576202392578 1.8450014591217041016 1.6101148128509521484 1.851276397705078125 2.3246817588806152344 1.7799562215805053711 1.2379121780395507813 1.0429970026016235352 1.0404191017150878906 1.1494731903076171875 1 1.2622792720794677734 1.2362002134323120117 1.214518427848815918 1.1494731903076171875 1.0621008872985839844 1 1.01744842529296875 1.1245682239532470703 1.0535526275634765625 1.2726421356201171875 1.0690859556198120117 1.1711549758911132813 1.9041965007781982422 1.0621008872985839844 1.9041965007781982422 1.044314265251159668 1.1054643392562866211 1.9041965007781982422 1.1711549758911132813 1.0336509943008422852 1.0404191017150878906 1.0326956510543823242 1.5734229087829589844 1.0187373161315917969 1.1245682239532470703 1.1076474189758300781 1.7518061399459838867 2.2220680713653564453 1.7463865280151367188 1.8813186883926391602 2.2410402297973632813 1.8657068014144897461 1.7507988214492797852 1.9415305852890014648 2.1395680904388427734 3.0154850482940673828 3.5210759639739990234 3.5671451091766357422 4.0930008888244628906 3.6074855327606201172 3.7272710800170898438 3.7854323387145996094 3.558948516845703125 3.7775716781616210938 3.6737332344055175781 4.2178821563720703125 3.4745328426361083984 3.5578606128692626953 2.6820635795593261719 2.2013661861419677734 2.6712472438812255859 2.5335693359375 2.7858650684356689453 2.5253381729125976563 2.6686089038848876953 3.5660390853881835938 3.173030853271484375 2.5516757965087890625 2.4646704196929931641 2.3529179096221923828 2.5209836959838867188 3.2082920074462890625 3.1516156196594238281 3.5269024372100830078 4.333133697509765625 4.6392383575439453125 4.3346972465515136719 3.7520046234130859375 3.065937042236328125 2.7908687591552734375 3.5361120700836181641 3.6779356002807617188 2.5241308212280273438 
3.5481183528900146484 4.3727436065673828125 4.7846050262451171875 3.3873245716094970703 4.1172509193420410156 3.3857734203338623047 2.9236607551574707031 2.6479070186614990234 3.0131742954254150391 2.4014477729797363281 2.1268644332885742188 2.0400724411010742188 1.7582744359970092773 2.1268644332885742188 1.7582744359970092773 1.8142527341842651367 1.6498656272888183594 1.7708891630172729492 1.1539837121963500977 1.331929326057434082 1.3752928972244262695 1.0694620609283447266 1.5450694561004638672 1.5577491521835327148 1.3360576629638671875 1.7402052879333496094 1.8359345197677612305 1.5482580661773681641 1.3689531087875366211 1.1362510919570922852 1.3102476596832275391 1.31153106689453125 1.3409315347671508789 1.4691904783248901367 1.8016582727432250977 1.9582647085189819336 1.918984532356262207 2.5503830909729003906 2.4684326648712158203 2.0207884311676025391 1.9971451759338378906 2.3156263828277587891 1.7929910421371459961 1.7496035099029541016 1.4316551685333251953 1.5460910797119140625 1.3319919109344482422 1.9041965007781982422 1.0203218460083007813 1.2856231927871704102 2.8139696121215820313 1.3023484945297241211 1.0303750038146972656 1.2955501079559326172 1.0812047719955444336 2.2016704082489013672 2.2243709564208984375 1.301726222038269043 1.0595229864120483398 2.2552065849304199219 1.7058150768280029297 1.2955501079559326172 2.2016704082489013672 1.0378412008285522461 1.0087381601333618164 2.4689557552337646484 1.1219903230667114258 2.0106759071350097656 1.0212770700454711914 1.0029140710830688477 1.301726222038269043 1.1245682239532470703 1.1076474189758300781 1.0187373161315917969 1.0015398263931274414 1.0429970026016235352 1 1.0399379730224609375 1.3969746828079223633 1.3906348943710327148 1.0479353666305541992 1.0863605737686157227 1.5143855810165405273 1.0889384746551513672 1.1711549758911132813 1.0426037311553955078 1.0127462148666381836 1.3752928972244262695 1.3409315347671508789 1.6943249702453613281 1.5771143436431884766 1.7603926658630371094 1.9524281024932861328 2.0144810676574707031 2.1816680431365966797 2.3399965763092041016 1.9383713006973266602 1.9599176645278930664 1.4927037954330444336 1.2700076103210449219 1.6503401994705200195 1.6317964792251586914 2.5029027462005615234 1.9533454179763793945 2.6888911724090576172 2.8611545562744140625 3.2528753280639648438 3.9843573570251464844 3.8081049919128417969 4.6300797462463378906 4.565883636474609375 4.238048553466796875 3.5966792106628417969 2.6400957107543945313 3.3606929779052734375 2.653278350830078125 2.7339537143707275391 2.0401372909545898438 1.5667512416839599609 1.6751600503921508789 1.3029574155807495117 1.508622288703918457 1.5794308185577392578 1.0549776554107666016 1.0867646932601928711 1.6791050434112548828 1.0767126083374023438 1.2209448814392089844 1.1245682239532470703 1.6691575050354003906 1.6401140689849853516 1.214518427848815918 1.2578819990158081055 1.6600682735443115234 1.1028864383697509766 2.4801437854766845703 1.0378412008285522461 1.6691575050354003906 1.1711549758911132813 1.1462500095367431641 1.0171008110046386719 1.9041965007781982422 1.214518427848815918 1.5630494356155395508 1.8689830303192138672 1.1245682239532470703 1.1494731903076171875 1.1028864383697509766 1.1423696279525756836 1.4710749387741088867 1.0690859556198120117 1.0595229864120483398 1.1494731903076171875 1.8035417795181274414 1.6791050434112548828 1.3984005451202392578 1.5283629894256591797 1.2469534873962402344 1.3409315347671508789 1.7658863067626953125 2.497287750244140625 2.3026189804077148438 3.3545892238616943359 4.2331104278564453125 3.7016186714172363281 3.9445843696594238281 3.5597670078277587891 3.8342750072479248047 4.3332262039184570313 3.7313146591186523438 4.3977856636047363281 4.3718657493591308594 4.7003817558288574219 3.9621720314025878906 3.9767146110534667969 3.1459071636199951172 2.9761917591094970703 2.8799936771392822266 2.5795245170593261719 2.0873849391937255859 2.582965850830078125 2.8732111454010009766 3.4966509342193603516 3.3633890151977539063 2.4739243984222412109 2.9075961112976074219 2.1637349128723144531 2.9703023433685302734 3.5029375553131103516 4.3907818794250488281 4.2143087387084960938 3.7028226852416992188 4.2716031074523925781 4.0235910415649414063 3.0349421501159667969 3.1800665855407714844 2.527416229248046875 3.6653549671173095703 2.4433841705322265625 2.8619315624237060547 
3.7026247978210449219 4.0011167526245117188 3.8644866943359375 3.4793038368225097656 4.0938038825988769531 3.5335993766784667969 3.0573151111602783203 2.7422666549682617188 2.2812855243682861328 2.105182647705078125 1.9534102678298950195 1.6281838417053222656 1.8883001804351806641 1.7799562215805053711 1.9316636323928833008 1.7365926504135131836 1.7402052879333496094 1.7185235023498535156 1.1106201410293579102 1.0672566890716552734 1.0015201568603515625 1.3041353225708007813 1.418656468391418457 1.5233876705169677734 1.5947728157043457031 1.6968418359756469727 1.6932291984558105469 1.2863129377365112305 1.0030351877212524414 1.2300459146499633789 1.4620199203491210938 1.1054643392562866211 1.0460247993469238281 1.195374608039855957 1.805535435676574707 2.1385676860809326172 2.0320982933044433594 2.2831745147705078125 2.3099751472473144531 1.7900918722152709961 1.7992846965789794922 2.0690643787384033203 1.6016757488250732422 1.1468412876129150391 1.1993875503540039063 1.3857364654541015625 1.1076474189758300781 1.0844278335571289063 1.0595229864120483398 1.0378412008285522461 1.3023484945297241211 1.2955501079559326172 2.4689557552337646484 1.9108177423477172852 1.0029140710830688477 1.0595229864120483398 1.301726222038269043 1.0266088247299194336 1.2957750558853149414 1.0812047719955444336 2.3019168376922607422 2.2016704082489013672 2.4689557552337646484 2.2016704082489013672 1.0151902437210083008 1.6558682918548583984 2.4689557552337646484 2.1344089508056640625 1.0595229864120483398 1.1245682239532470703 1.1245682239532470703 1.3319919109344482422 1.0460247993469238281 1.0424036979675292969 1.1271461248397827148 1.2452023029327392578 1.9234972000122070313 1.1494731903076171875 1.1494731903076171875 1.1054643392562866211 1.2452023029327392578 1.1297240257263183594 1.070888519287109375 1.0646787881851196289 1.2081786394119262695 1.0621008872985839844 1.4676939249038696289 1.1074891090393066406 2.1048181056976318359 1.4710220098495483398 1.0827484130859375 1.4535319805145263672 1.7942826747894287109 2.2436029911041259766 2.9456582069396972656 2.8439571857452392578 2.0199074745178222656 1.5117543935775756836 1.0410932302474975586 1.811722874641418457 1.7155747413635253906 2.019016265869140625 1.6723290681838989258 2.3577535152435302734 2.9906494617462158203 3.6161932945251464844 3.5047249794006347656 4.7422742843627929688 4.6729135513305664063 4.9546251296997070313 3.9677195549011230469 3.4399132728576660156 3.2261819839477539063 2.7287263870239257813 1.9887714385986328125 2.5963876247406005859 2.3767409324645996094 2.1268644332885742188 1.2379121780395507813 1.6534782648086547852 1.9750272035598754883 1.6911777257919311523 1.6101148128509521484 1.0542223453521728516 1.0863605737686157227 1.3752928972244262695 1.4059767723083496094 1 1.0404191017150878906 1.0285193920135498047 1.0187373161315917969 1.0049611330032348633 1.9041965007781982422 1.0595229864120483398 1.8689830303192138672 1.796580195426940918 1.3612657785415649414 1.0404191017150878906 1.0016961097717285156 1.1310622692108154297 1.106109619140625 1.1096309423446655273 1.1277914047241210938 1.0711750984191894531 1.0285193920135498047 2.2233111858367919922 1.1028864383697509766 1.5734229087829589844 1.1028864383697509766 1.9041965007781982422 1.3126333951950073242 1.2453609704971313477 1.562029719352722168 1.323394775390625 1.4945359230041503906 1.0844278335571289063 1.0336509943008422852 1.0287194252014160156 1.2578819990158081055 1.7031424045562744141 2.5521836280822753906 2.3985769748687744141 3.1021602153778076172 3.8020224571228027344 3.6151068210601806641 3.7165226936340332031 3.3672189712524414063 3.4899923801422119141 5.2281427383422851563 4.0335745811462402344 4.9032559394836425781 5.8026661872863769531 5.6895117759704589844 4.7937207221984863281 4.4812264442443847656 3.7147946357727050781 3.3635809421539306641 2.765716552734375 2.9205467700958251953 2.6121485233306884766 2.3528940677642822266 3.2896752357482910156 2.4264545440673828125 2.5203573703765869141 2.5075013637542724609 2.7623550891876220703 3.2109522819519042969 3.5255029201507568359 5.3354401588439941406 5.1241297721862792969 5.0578961372375488281 3.5354568958282470703 3.1940271854400634766 2.9021096229553222656 3.0919313430786132813 3.0131940841674804688 2.9792561531066894531 2.3133966922760009766 2.5276608467102050781 2.6559772491455078125 
3.2159593105316162109 2.7161970138549804688 3.5866289138793945313 3.657501220703125 3.6303467750549316406 3.7003731727600097656 2.9297740459442138672 3.0049064159393310547 2.9972760677337646484 2.6472265720367431641 2.3870453834533691406 1.9317284822463989258 2.0835008621215820313 2.0835008621215820313 2.1702277660369873047 1.6281838417053222656 1.7708891630172729492 1.5197750329971313477 1.4113662242889404297 1.0672566890716552734 1.3536111116409301758 1.0863605737686157227 1.3192497491836547852 1.0525118112564086914 1.6011126041412353516 1.6053242683410644531 1.5233876705169677734 1.5238664150238037109 1.541276097297668457 1.3409315347671508789 1.2018388509750366211 1.3504724502563476563 1.0435590744018554688 1.4651961326599121094 1.7875306606292724609 2.3106369972229003906 2.0849971771240234375 1.7263600826263427734 1.7726575136184692383 1.5459828376770019531 2.0217761993408203125 1.6710622310638427734 1.6296753883361816406 1.5318207740783691406 1.1961104869842529297 1.3212575912475585938 1.1271461248397827148 1.1028864383697509766 1.0595229864120483398 1.6868594884872436523 1.9122374057769775391 2.4689557552337646484 1.0087381601333618164 1.1219903230667114258 2.2552065849304199219 1.9122374057769775391 1.1028864383697509766 1.3612657785415649414 1.0812047719955444336 1.0212770700454711914 2.4689557552337646484 1.5903766155242919922 1.2955501079559326172 1.6003824472427368164 1.5671200752258300781 1.0203218460083007813 1.0378412008285522461 1.6691575050354003906 1.1310622692108154297 1.0378412008285522461 1.0187373161315917969 1.2018388509750366211 1.0035594701766967773 1.0711750984191894531 1.0837826728820800781 1.1928366422653198242 1.1054643392562866211 1.0627461671829223633 1.2795636653900146484 1.0391826629638671875 1.0435590744018554688 1.0479353666305541992 1.0498460531234741211 1 1.1054643392562866211 1.0406931638717651367 1.2885658740997314453 1.3102476596832275391 1.5360673666000366211 1.3626133203506469727 1.0863605737686157227 1.7560087442398071289 2.0520017147064208984 2.3596551418304443359 2.3729496002197265625 2.8892314434051513672 2.6595811843872070313 1.4289686679840087891 1.6313235759735107422 1.382620692253112793 1.7122604846954345703 1.722019195556640625 1.9317946434020996094 2.1672890186309814453 2.1859929561614990234 2.7293269634246826172 3.634220123291015625 4.3422160148620605469 4.6764397621154785156 4.7996211051940917969 3.2552206516265869141 3.0386478900909423828 3.2544105052947998047 2.5088737010955810547 2.495059967041015625 2.6278998851776123047 2.0275030136108398438 1.7492074966430664063 1.4764115810394287109 1.7185235023498535156 1.6751600503921508789 1.259593963623046875 1.2812757492065429688 1.260023951530456543 1.5360673666000366211 1.4276585578918457031 1.3752928972244262695 1.4146721363067626953 1.1440041065216064453 1.2795636653900146484 1.0844278335571289063 1.106109619140625 1.1277914047241210938 1.2199838161468505859 1.2957750558853149414 1.8689830303192138672 1.0627461671829223633 1.0016961097717285156 1.1494731903076171875 1.0711750984191894531 1.9041965007781982422 1.0907677412033081055 1.031940460205078125 1.2452023029327392578 1.5902960300445556641 1.0595229864120483398 1.0303750038146972656 1.0326956510543823242 1.1028864383697509766 1.1028864383697509766 1.3907288312911987305 1.3380128145217895508 1.5932550430297851563 1.5296236276626586914 1.9041965007781982422 1.2375315427780151367 1.0923851728439331055 1.1245682239532470703 1.0621008872985839844 1.4335792064666748047 1.8695483207702636719 2.0871303081512451172 2.053256988525390625 2.6537904739379882813 3.1282014846801757813 3.8637995719909667969 3.2471785545349121094 3.2563917636871337891 4.940052032470703125 4.6039414405822753906 6.2126073837280273438 6.5074334144592285156 6.5500960350036621094 5.5208072662353515625 5.5758633613586425781 4.5295815467834472656 4.1972470283508300781 4.0697879791259765625 3.5951001644134521484 2.1433751583099365234 2.7122433185577392578 2.8750517368316650391 3.0279254913330078125 2.6098830699920654297 3.3314056396484375 3.3118214607238769531 3.6222174167633056641 3.4925251007080078125 4.7630491256713867188 4.8175568580627441406 4.3035249710083007813 4.3346309661865234375 3.4737784862518310547 3.3675711154937744141 2.5467090606689453125 2.5053360462188720703 2.9299097061157226563 2.5845513343811035156 2.6551802158355712891 2.3669686317443847656 
3.8168802261352539063 3.2254202365875244141 3.5456302165985107422 3.9521272182464599609 3.20668792724609375 3.6001751422882080078 3.396068572998046875 2.254459381103515625 2.2441585063934326172 2.3234343528747558594 2.3870453834533691406 2.1268644332885742188 2.01845550537109375 2.105182647705078125 1.9226615428924560547 2.0401372909545898438 1.909981846809387207 1.1393834352493286133 1.3647545576095581055 1.5794308185577392578 1.0455749034881591797 1.0863605737686157227 1.0672566890716552734 1.0863605737686157227 1.0629750490188598633 1.6227943897247314453 1.8792979717254638672 1.8698799610137939453 1.6546059846878051758 1.5798017978668212891 1.1958117485046386719 1.0455749034881591797 1.3626133203506469727 1.5653090476989746094 2.1230132579803466797 2.2875216007232666016 2.292537689208984375 1.9133225679397583008 2.0848448276519775391 1.3752928972244262695 1.6190401315689086914 1.472370147705078125 1.1801570653915405273 1.0621008872985839844 1.1835364103317260742 1.2499318122863769531 1.6791050434112548828 1.1711549758911132813 1.9122374057769775391 1.1028864383697509766 1.3156942129135131836 2.4689557552337646484 2.6321852207183837891 1.2367910146713256836 2.6321852207183837891 1.3023484945297241211 1.0595229864120483398 1.1245682239532470703 1.6558682918548583984 1.0203218460083007813 3.9627170562744140625 1.100308537483215332 2.8139696121215820313 1.2955501079559326172 1.2199838161468505859 1.0812047719955444336 1.0690859556198120117 1.1494731903076171875 1.1711549758911132813 1.031940460205078125 2.1344089508056640625 1.0837826728820800781 1.0621008872985839844 1.3102476596832275391 1.1374566555023193359 1.3969746828079223633 1.5794308185577392578 1.4676939249038696289 1.0867646932601928711 1.2885658740997314453 1.0080938339233398438 1.1559113264083862305 1.0542223453521728516 1.1559113264083862305 1.2452023029327392578 1.3752928972244262695 1.1559113264083862305 1.0568882226943969727 1.6684374809265136719 1.0498460531234741211 1.103547215461730957 1.5884330272674560547 1.9937280416488647461 2.5540363788604736328 2.4067015647888183594 2.3666553497314453125 2.5281045436859130859 1.774655461311340332 1.0532671213150024414 1.4937551021575927734 1.9152601957321166992 1.4059767723083496094 1.7185235023498535156 2.0145757198333740234 2.5778491497039794922 2.7561204433441162109 3.4305562973022460938 4.4155263900756835938 5.9281125068664550781 4.4629874229431152344 3.839962005615234375 2.8092110157012939453 3.8334469795227050781 2.9757158756256103516 2.5923628807067871094 2.4390709400177001953 1.6978603601455688477 1.7058439254760742188 1.1323019266128540039 1.4691904783248901367 1.4493403434753417969 1.5794308185577392578 1.6317964792251586914 1.5577491521835327148 1.6101148128509521484 1.0551776885986328125 1.0005103349685668945 1.6310782432556152344 1.1297240257263183594 1.0027004480361938477 1.0187373161315917969 1.0406931638717651367 1.9041965007781982422 1.1076474189758300781 1.2162797451019287109 1.214518427848815918 1.214518427848815918 1.1494731903076171875 1.0621008872985839844 1.3612657785415649414 1.0346062183380126953 1.2298604249954223633 1.2885658740997314453 1.418656468391418457 1.1028864383697509766 1.0303750038146972656 1.6955621242523193359 1.1245682239532470703 2.1344089508056640625 1.106109619140625 1.2640324831008911133 1.5097033977508544922 1.2963069677352905273 1.2795636653900146484 1.3319919109344482422 1.9041965007781982422 1.1028864383697509766 1.9041965007781982422 1.3752928972244262695 1.4076514244079589844 1.2721210718154907227 1.2429536581039428711 1.6334019899368286133 1.9851796627044677734 2.5795104503631591797 3.640369415283203125 3.6394562721252441406 2.8404893875122070313 4.3678517341613769531 6.0825061798095703125 7.0114355087280273438 7.3631048202514648438 5.8464097976684570313 6.1737461090087890625 6.5933070182800292969 5.76804351806640625 4.3748569488525390625 3.0781185626983642578 2.2898302078247070313 2.5639550685882568359 2.8176064491271972656 3.0318355560302734375 3.1337912082672119141 2.8740568161010742188 3.5628030300140380859 3.6156065464019775391 3.4257667064666748047 4.2584047317504882813 4.5109605789184570313 5.2374863624572753906 5.0693173408508300781 4.59963226318359375 4.2543873786926269531 3.0184175968170166016 3.6815288066864013672 3.1148188114166259766 3.3390212059020996094 2.8436298370361328125 2.5496809482574462891 2.2412140369415283203 
3.1855013370513916016 4.00839996337890625 3.6079089641571044922 3.8689565658569335938 3.812961578369140625 3.4336161613464355469 2.2478308677673339844 2.7189607620239257813 3.0829367637634277344 1.9983385801315307617 2.871700286865234375 2.0617542266845703125 1.8359345197677612305 1.9347045421600341797 1.996773838996887207 2.018390655517578125 2.2786366939544677734 1.7582744359970092773 1.8270031213760375977 1.5017060041427612305 1.3842949867248535156 1 1.3246392011642456055 1.1945487260818481445 1.259593963623046875 1.3246392011642456055 1.7185235023498535156 1.9177517890930175781 1.682872772216796875 1.7257857322692871094 1.5360673666000366211 1.3626133203506469727 1.0646787881851196289 1.3088459968566894531 1.7819814682006835938 2.4082705974578857422 1.5621609687805175781 1.7306803464889526367 1.5871423482894897461 1.9311231374740600586 1.8714979887008666992 1.6913321018218994141 1.3177454471588134766 1.0837826728820800781 1.2287830114364624023 1.4102802276611328125 1.9041965007781982422 1.9101415872573852539 2.2016704082489013672 1.9122374057769775391 2.8139696121215820313 2.2016704082489013672 1.2621108293533325195 1.100308537483215332 1.2955501079559326172 2.5969169139862060547 1.0378412008285522461 1.1245682239532470703 2.8004152774810791016 1.100308537483215332 1.100308537483215332 2.2016704082489013672 1.5671200752258300781 1.0378412008285522461 1.0627461671829223633 1.9041965007781982422 1.0535526275634765625 1.2578819990158081055 1.3752928972244262695 1.1271461248397827148 1.0844278335571289063 1.0621008872985839844 1.1277914047241210938 1.1080422401428222656 1.1271461248397827148 1.3536111116409301758 1.0508012771606445313 1.5143855810165405273 1.4493403434753417969 1.2668840885162353516 1.2885658740997314453 1.0040394067764282227 1.0238931179046630859 1.060309290885925293 1.1514058113098144531 1.3842949867248535156 1.259593963623046875 1.3491928577423095703 1.1297240257263183594 1.2162303924560546875 1.5080457925796508789 1.5017060041427612305 2.5283284187316894531 2.7169210910797119141 2.3640549182891845703 2.4509398937225341797 1.9512511491775512695 1.5582804679870605469 1.1759335994720458984 1.3920207023620605469 1.0073043107986450195 1.0690947771072387695 1.4534071683883666992 2.6115629673004150391 2.1889767646789550781 2.3028497695922851563 3.0608534812927246094 3.4653532505035400391 5.2478842735290527344 3.763210296630859375 3.1562936305999755859 2.6689469814300537109 2.8870899677276611328 2.5604994297027587891 1.584238886833190918 1.7058439254760742188 2.0454287528991699219 1.2867093086242675781 1.418656468391418457 1.0452696084976196289 1.0238931179046630859 1 1.3626133203506469727 1.0015201568603515625 1.3626133203506469727 1.0889384746551513672 1.5577491521835327148 1.3192497491836547852 1.418656468391418457 1.2957750558853149414 1.2362002134323120117 1.2362002134323120117 1.1271461248397827148 1.1076474189758300781 1.0016961097717285156 1.1462500095367431641 1.8563123941421508789 1.1711549758911132813 1.0404191017150878906 1.2957750558853149414 1.0268088579177856445 1.9041965007781982422 1.2578819990158081055 1.0017797946929931641 1.1028864383697509766 1.0812047719955444336 1.1028864383697509766 1.8689830303192138672 1.1698389053344726563 1.6699918508529663086 1.6605832576751708984 1.8720329999923706055 1.4710749387741088867 1.2392636537551879883 1.2957750558853149414 1.0812047719955444336 1.0595229864120483398 1.214518427848815918 1.1928366422653198242 1.0867646932601928711 1.0584545135498046875 1.7095311880111694336 1.7493638992309570313 2.3633115291595458984 2.7697417736053466797 2.9380121231079101563 3.8106567859649658203 3.7944629192352294922 4.632869720458984375 5.7978243827819824219 6.7715387344360351563 9.0077581405639648438 5.8716168403625488281 6.0239324569702148438 5.5194010734558105469 4.7385725975036621094 3.7007229328155517578 4.6648917198181152344 3.3931496143341064453 3.7035162448883056641 3.7116818428039550781 2.9561662673950195313 2.7175426483154296875 2.1702277660369873047 2.90801239013671875 3.5594155788421630859 3.3217306137084960938 4.0564670562744140625 4.7885689735412597656 4.4688558578491210938 3.70660400390625 4.2312564849853515625 3.9286463260650634766 2.8466951847076416016 2.5108497142791748047 3.04717254638671875 2.9091105461120605469 2.7018628120422363281 2.2678399085998535156 2.2701535224914550781 
3.4009392261505126953 4.0045900344848632813 5.0361561775207519531 3.4361195564270019531 3.9354040622711181641 3.0619442462921142578 2.5915343761444091797 2.4448626041412353516 2.5856721401214599609 2.3644647598266601563 2.4331829547882080078 2.414836883544921875 1.8666183948516845703 1.9316636323928833008 2.0804769992828369141 1.8450014591217041016 2.3344092369079589844 2.018390655517578125 1.7338654994964599609 1.7185235023498535156 1.1728669404983520508 1.2812757492065429688 1.7492074966430664063 1.9226615428924560547 1.259593963623046875 1.8233196735382080078 1.5197750329971313477 1.1745139360427856445 1.5447177886962890625 1.1808005571365356445 1.0627901554107666016 1.5730910301208496094 1.3613945245742797852 1.5360673666000366211 1.6049736738204956055 1.7999945878982543945 1.8928741216659545898 2.1493663787841796875 1.4564386606216430664 1.4165605306625366211 1.5960326194763183594 1.9544295072555541992 1.8429356813430786133 1.2668840885162353516 1.0030351877212524414 1.426102757453918457 1.6756902933120727539 1.1028864383697509766 2.4689557552337646484 2.2552065849304199219 1.0595229864120483398 1.9108177423477172852 1.731220245361328125 1.100308537483215332 2.4689557552337646484 1.0303750038146972656 2.6321852207183837891 1.0151902437210083008 1.2955501079559326172 3.2410285472869873047 1.0203218460083007813 1.0690859556198120117 1.1028864383697509766 1.9108177423477172852 1.3841513395309448242 1.1624150276184082031 1.2668840885162353516 1.3536111116409301758 1.1308037042617797852 1.214518427848815918 1.1054643392562866211 1.1711549758911132813 1.1711549758911132813 1.0426037311553955078 1.0027004480361938477 1.006634831428527832 1.0393991470336914063 1.1297240257263183594 1.0549776554107666016 1.4710220098495483398 1.3906348943710327148 1.3246392011642456055 1.5360673666000366211 1.5360673666000366211 1.0481355190277099609 1.440338134765625 1.6317964792251586914 1.2162303924560546875 1.5794308185577392578 1.7058439254760742188 1.8198031187057495117 1.7072914838790893555 1.8816626071929931641 1.6624803543090820313 2.8337790966033935547 2.6364891529083251953 1.4573390483856201172 1.4837017059326171875 1.0200263261795043945 1.2300459146499633789 1.0867646932601928711 1.813076019287109375 1.7320708036422729492 2.5435729026794433594 2.2955026626586914063 2.7007398605346679688 2.2509260177612304688 2.1234686374664306641 2.9718651771545410156 2.7297942638397216797 2.6955187320709228516 2.4792940616607666016 2.5113825798034667969 2.3003184795379638672 2.1281366348266601563 1.7733644247055053711 1.8926688432693481445 1.1945487260818481445 1.061480402946472168 1.1080422401428222656 1.440338134765625 1.0437591075897216797 1.0863605737686157227 1.3409315347671508789 1.5360673666000366211 1.1080422401428222656 1.1945487260818481445 1.5514092445373535156 1.0226042270660400391 1.0867646932601928711 1.418656468391418457 1.3102476596832275391 1.0452696084976196289 1.0837826728820800781 1.1928366422653198242 1.9041965007781982422 1.9041965007781982422 1 1.9041965007781982422 1.0690859556198120117 2.0311861038208007813 1.1277914047241210938 1.1028864383697509766 1.0378412008285522461 1.1028864383697509766 1.106109619140625 1.0812047719955444336 1.6600682735443115234 1.9041965007781982422 1.5780694484710693359 1.7167018651962280273 1.5577137470245361328 1.1580643653869628906 1.9041965007781982422 1.5630494356155395508 1.0812047719955444336 1.301726222038269043 1.2957750558853149414 1.6791050434112548828 1.2050483226776123047 1.2267701625823974609 1.3183348178863525391 2.2244226932525634766 2.0602347850799560547 3.1150965690612792969 3.0297574996948242188 3.3368887901306152344 3.0201101303100585938 3.8090870380401611328 5.3606109619140625 5.7530651092529296875 6.8601937294006347656 6.5696878433227539063 5.1987857818603515625 5.1797990798950195313 4.4289226531982421875 4.1105737686157226563 4.4851326942443847656 4.0092110633850097656 2.9119658470153808594 3.5751848220825195313 3.5919132232666015625 2.7807672023773193359 2.1485462188720703125 2.3653635978698730469 3.0816991329193115234 3.3887465000152587891 3.8572864532470703125 5.4365382194519042969 4.1057376861572265625 3.7103776931762695313 3.2693665027618408203 3.1168856620788574219 2.2786366939544677734 2.5171360969543457031 2.9624805450439453125 2.6472265720367431641 2.9715666770935058594 2.5259981155395507813 2.9978859424591064453 
3.5578606128692626953 4.33672332763671875 4.9450082778930664063 4.6122746467590332031 3.8766067028045654297 3.5056531429290771484 3.1778492927551269531 2.7703166007995605469 2.5220763683319091797 3.2097456455230712891 2.2352731227874755859 2.6255447864532470703 2.6056635379791259766 2.4087271690368652344 2.3220002651214599609 2.5957629680633544922 1.9443433284759521484 1.6498656272888183594 1.6303571462631225586 1.7492074966430664063 1.829594731330871582 1.9009797573089599609 1.7402052879333496094 1.6498656272888183594 1.7618870735168457031 1.6281838417053222656 1.6011126041412353516 1.1080422401428222656 1.6534782648086547852 1.1944173574447631836 1.4059767723083496094 1 1.3842949867248535156 1.6281529664993286133 1.5018442869186401367 1.6919709444046020508 1.7182462215423583984 2.222232818603515625 2.0479183197021484375 2.0612621307373046875 1.833118438720703125 2.2214016914367675781 1.8574374914169311523 1.7819832563400268555 1.3213068246841430664 1.2061033248901367188 1.1076474189758300781 1.1028864383697509766 1.6868594884872436523 2.5863945484161376953 1.301726222038269043 1.0812047719955444336 1.1219903230667114258 3.9627170562744140625 2.4689557552337646484 1.2856231927871704102 3.6311545372009277344 2.2016704082489013672 1.2955501079559326172 1.9108177423477172852 1.0378412008285522461 1.1494731903076171875 1.1494731903076171875 1.0711750984191894531 1.0050448179244995117 1.214518427848815918 1.4676939249038696289 1.1455162763595581055 1.2795636653900146484 1.1076474189758300781 1.1080422401428222656 1.0391826629638671875 1.0844278335571289063 1.0621008872985839844 1.0030351877212524414 1.2298604249954223633 1.5450694561004638672 1.0481355190277099609 1.3752928972244262695 1.0886278152465820313 1.2072561979293823242 1.2812757492065429688 1.4925754070281982422 1.0672566890716552734 1.5017060041427612305 1.5794308185577392578 1.259593963623046875 1.4927037954330444336 1.3626133203506469727 1.5766142606735229492 1.6317964792251586914 1.4951175451278686523 1.5631386041641235352 1.7492074966430664063 1.9874855279922485352 1.8402402400970458984 2.0018799304962158203 1.3536111116409301758 1.2515420913696289063 1.0213223695755004883 1.2668840885162353516 1.2658200263977050781 2.5260758399963378906 1.7367368936538696289 2.5973939895629882813 2.1711132526397705078 2.1705434322357177734 1.9432855844497680664 2.3168170452117919922 1.9982013702392578125 2.1362795829772949219 2.1384029388427734375 2.1702277660369873047 2.3003184795379638672 1.7121837139129638672 1.4106818437576293945 1.5450694561004638672 1.4980933666229248047 1.5233876705169677734 1.4059767723083496094 1.3969746828079223633 1.0837826728820800781 1.0452696084976196289 1.3969746828079223633 1.4493403434753417969 1.1261423826217651367 1.5884330272674560547 1 1.0005234479904174805 1.0213152170181274414 1 1.4276585578918457031 1.2668840885162353516 1.0867646932601928711 1.1801570653915405273 1.3612657785415649414 1.1076474189758300781 1.0378412008285522461 1.301726222038269043 2.4515626430511474609 1.9041965007781982422 1.1245682239532470703 1.0007755756378173828 1.0326956510543823242 1.0595229864120483398 1.6600682735443115234 1.6955621242523193359 1.106109619140625 1.9041965007781982422 1.7280870676040649414 1.7430379390716552734 1.3181359767913818359 1.1028864383697509766 1.0309851169586181641 1.0595229864120483398 1.1462500095367431641 1.3612657785415649414 1.2362002134323120117 1.2668840885162353516 1.2668840885162353516 1.0837826728820800781 1.3985311985015869141 1.7301230430603027344 2.3454544544219970703 2.6462647914886474609 3.338283538818359375 2.3827357292175292969 2.6844680309295654297 3.5270743370056152344 5.8524947166442871094 5.721927642822265625 6.3737311363220214844 5.8561272621154785156 4.3788423538208007813 4.1783909797668457031 3.6012239456176757813 4.2803735733032226563 3.8799879550933837891 3.6903836727142333984 3.1416075229644775391 2.90953826904296875 2.7989988327026367188 2.9145154953002929688 2.3897418975830078125 3.0228703022003173828 2.4927349090576171875 3.5361788272857666016 3.5589702129364013672 4.5735654830932617188 5.0879764556884765625 3.5585465431213378906 3.13249969482421875 2.3603978157043457031 1.9750920534133911133 2.7556354999542236328 2.4304089546203613281 3.2327859401702880859 3.1025435924530029297 2.7556354999542236328 2.7928245067596435547 
3.5631406307220458984 4.1649498939514160156 3.9264504909515380859 4.0629944801330566406 3.939174652099609375 3.4342718124389648438 3.0907382965087890625 2.7989988327026367188 3.5305535793304443359 2.4414894580841064453 2.1268644332885742188 2.9290895462036132813 2.6255447864532470703 3.744831085205078125 2.6905901432037353516 1.9750920534133911133 1.9624717235565185547 1.368002772331237793 1.8232548236846923828 1.8016380071640014648 1.7772078514099121094 1.7582744359970092773 1.4547297954559326172 1.5667512416839599609 1.7185235023498535156 1.7365926504135131836 1.4790605306625366211 1.6317964792251586914 1.7058439254760742188 1.7642463445663452148 1.7527655363082885742 1.2090497016906738281 1.5360673666000366211 1.3409315347671508789 1.0937446355819702148 1.8239744901657104492 2.0120797157287597656 2.2614235877990722656 1.6906319856643676758 1.6684374809265136719 1.9034329652786254883 2.0684490203857421875 2.4970872402191162109 1.4788237810134887695 1.8187960386276245117 1.260550379753112793 1.0309851169586181641 1.1245682239532470703 1.2955501079559326172 1.0917675495147705078 1.2270352840423583984 1.1735060214996337891 1.9108177423477172852 1.1508209705352783203 1.0812047719955444336 1.1028864383697509766 1.0690859556198120117 1.0087381601333618164 1.0303750038146972656 1.0378412008285522461 1.9041965007781982422 1.2795636653900146484 1.0844278335571289063 1.2362002134323120117 1.0285193920135498047 1.1711549758911132813 1.006634831428527832 1 1.2885658740997314453 1.0404191017150878906 1.3102476596832275391 1.6791050434112548828 1.0418485403060913086 1.6932330131530761719 1.418656468391418457 1.440338134765625 1.5143855810165405273 1.1323019266128540039 1.259593963623046875 1.1539837121963500977 1.5233876705169677734 1.3463209867477416992 1.6968418359756469727 1.1078215837478637695 1.4059767723083496094 1.0889384746551513672 1.440338134765625 1.2700076103210449219 1.0646855831146240234 1.4059767723083496094 1.5233876705169677734 2.0805234909057617188 1.8078529834747314453 1.5945799350738525391 1.5501306056976318359 1.8714882135391235352 1.5184904336929321289 1.3744095563888549805 1.1928366422653198242 1.2885658740997314453 1.440338134765625 1.4092013835906982422 1.7204016447067260742 2.0034954547882080078 2.3254091739654541016 2.9192204475402832031 2.5490009784698486328 2.4748873710632324219 2.5391268730163574219 1.5892279148101806641 2.1121582984924316406 2.0136857032775878906 2.6320614814758300781 1.9226615428924560547 1.8142527341842651367 1.9019793272018432617 1.6407986879348754883 1.7402052879333496094 1.5450694561004638672 1.0889384746551513672 1.5794308185577392578 1.4676939249038696289 1.3626133203506469727 1.4940928220748901367 1.5143855810165405273 1.5514092445373535156 1.2384417057037353516 1.4493403434753417969 1.1764801740646362305 1.2885658740997314453 1.331929326057434082 1 1.1928366422653198242 1.0426037311553955078 1.2885658740997314453 1.2300459146499633789 1.0406931638717651367 1.0627461671829223633 1.9041965007781982422 1.0812047719955444336 1.0812047719955444336 1.0309851169586181641 1.6868594884872436523 2.4689557552337646484 1.9108177423477172852 1.9108177423477172852 1.106109619140625 1.2578819990158081055 1.8849902153015136719 1.7266509532928466797 1.6860327720642089844 1.5411285161972045898 1.9041965007781982422 1.1216605901718139648 1.9041965007781982422 1.3320589065551757813 1.2957750558853149414 1.2362002134323120117 1.4604794979095458984 1.4678120613098144531 1.2452023029327392578 1.1494731903076171875 1.8603113889694213867 2.0861470699310302734 2.4110851287841796875 2.4936535358428955078 2.8224897384643554688 2.8461868762969970703 3.3818237781524658203 4.8000936508178710938 4.9913654327392578125 5.6034674644470214844 5.4180502891540527344 6.0062036514282226563 4.7254223823547363281 3.8269281387329101563 3.6050498485565185547 2.85996246337890625 3.7447845935821533203 3.0646274089813232422 3.2349071502685546875 2.3514509201049804688 2.3436820507049560547 2.6043958663940429688 3.3075151443481445313 3.5009975433349609375 4.353015899658203125 5.8488888740539550781 4.5564889907836914063 4.7623782157897949219 4.4320483207702636719 3.9003667831420898438 3.0190670490264892578 2.3744142055511474609 2.1485462188720703125 3.2326340675354003906 2.7634253501892089844 3.4704401493072509766 3.3275492191314697266 4.2219491004943847656 
2.5441813468933105469 3.2543158531188964844 3.0158164501190185547 3.5817518234252929688 3.8397424221038818359 3.7861547470092773438 3.4496364593505859375 2.6038630008697509766 3.7616355419158935547 3.7906191349029541016 2.4737725257873535156 3.0674879550933837891 2.9290895462036132813 3.0591800212860107422 2.3436820507049560547 1.8016380071640014648 1.9533454179763793945 1.8142527341842651367 1.7185235023498535156 1.7185235023498535156 1.5848203897476196289 1.910046696662902832 1.4028522968292236328 1.684162139892578125 1.905903935432434082 1.8666832447052001953 1.4330480098724365234 1.5387732982635498047 1.6820559501647949219 2.3516738414764404297 1.4396753311157226563 1.4691904783248901367 1.4138988256454467773 1.5577491521835327148 2.0091948509216308594 2.1767096519470214844 2.6718344688415527344 1.8155002593994140625 1.7756333351135253906 2.1430652141571044922 1.8585566282272338867 2.2387449741363525391 2.2626461982727050781 1.7280648946762084961 1.9272619485855102539 1.5630494356155395508 1.9041965007781982422 1.0303750038146972656 1.301726222038269043 1.1697901487350463867 1.1181159019470214844 1.9041965007781982422 1.0378412008285522461 1.1028864383697509766 1.2362002134323120117 1.9041965007781982422 1.0711750984191894531 1.2856231927871704102 1.0844278335571289063 1.2957750558853149414 1.214518427848815918 1.0137505531311035156 1.0837826728820800781 1.1076474189758300781 1.2795636653900146484 1.2362002134323120117 1.4503114223480224609 1.331929326057434082 1.2668840885162353516 1.0426037311553955078 1.4676939249038696289 1.1801570653915405273 1.0035594701766967773 1.3842949867248535156 1.4503114223480224609 1.0867646932601928711 1.440338134765625 1.4059767723083496094 1.1728669404983520508 1.6715474128723144531 1.5848203897476196289 1.0670740604400634766 1.7185235023498535156 1.5577491521835327148 1.3906348943710327148 1.2885658740997314453 1.3536111116409301758 1.4276585578918457031 1.1297240257263183594 1.5450694561004638672 1.5143855810165405273 2.0108141899108886719 2.1944959163665771484 1.5577491521835327148 2.0952675342559814453 1.8187631368637084961 2.0639429092407226563 1.2321630716323852539 1.0709298849105834961 1.0863605737686157227 1.6817302703857421875 1.0646787881851196289 1.418656468391418457 2.1675121784210205078 2.4292724132537841797 2.5088894367218017578 2.9664947986602783203 2.1496663093566894531 1.1696759462356567383 1.2762784957885742188 2.0532891750335693359 2.0383577346801757813 2.1485462188720703125 2.2464997768402099609 1.9889866113662719727 1.9572389125823974609 1.5139127969741821289 1.8088548183441162109 1.1078215837478637695 1.7185235023498535156 1.151185154914855957 1.4059767723083496094 1.418656468391418457 1.5794308185577392578 1.248250126838684082 1.3906348943710327148 1.0393826961517333984 1.4059767723083496094 1.0863605737686157227 1.4276585578918457031 1.2018388509750366211 1.3102476596832275391 1.0837826728820800781 1.1297240257263183594 1.418656468391418457 1.2668840885162353516 1.2795636653900146484 1.1054643392562866211 1.1076474189758300781 1.0193825960159301758 2.1164593696594238281 1.0812047719955444336 1.1245682239532470703 1.0007755756378173828 1.9122374057769775391 1.0378412008285522461 1.1054643392562866211 1.2660925388336181641 1.3747328519821166992 1.3356840610504150391 1.3173286914825439453 1.0627461671829223633 1.0812047719955444336 1.047404170036315918 1.539761662483215332 1.9041965007781982422 1.9234972000122070313 1.3102476596832275391 1.3032283782958984375 1.1925065517425537109 1.3416787385940551758 1.2515420913696289063 1.2389699220657348633 1.5195428133010864258 2.0639581680297851563 2.2196409702301025391 2.8938474655151367188 3.1474490165710449219 3.4690737724304199219 3.4213662147521972656 4.379337310791015625 3.8750317096710205078 4.4293475151062011719 4.8976526260375976563 3.9091508388519287109 2.5171360969543457031 3.3769216537475585938 2.7084820270538330078 2.8546259403228759766 3.5574929714202880859 2.2954859733581542969 2.9916672706604003906 3.2200775146484375 3.5318677425384521484 4.0269417762756347656 4.0518689155578613281 4.3250684738159179688 4.297382354736328125 5.6207447052001953125 5.706634521484375 6.1601576805114746094 4.5556011199951171875 4.2370553016662597656 3.6786746978759765625 4.3144178390502929688 3.73014068603515625 3.6751945018768310547 4.1946649551391601563 3.5200860500335693359 3.7508075237274169922 
2.5388178825378417969 2.4954543113708496094 2.7543740272521972656 2.9724528789520263672 3.7042675018310546875 2.8857259750366210938 3.0516448020935058594 2.9290895462036132813 3.4094991683959960938 2.9724528789520263672 3.1279006004333496094 3.0374982357025146484 3.0591800212860107422 2.950771331787109375 2.6905901432037353516 1.996773838996887207 1.8016380071640014648 1.5197750329971313477 1.6968418359756469727 1.7402052879333496094 1.7149108648300170898 1.7708891630172729492 1.5297275781631469727 1.4113662242889404297 1.8449366092681884766 2.091094970703125 1.5434333086013793945 1.9821629524230957031 1.7638216018676757813 1.9462122917175292969 1.7902497053146362305 1.5340936183929443359 1.215005040168762207 1.6008148193359375 1.8838301897048950195 2.4277753829956054688 2.9171342849731445313 2.5305943489074707031 2.4112405776977539063 2.3164165019989013672 2.2855112552642822266 1.5677201747894287109 1.7266278266906738281 1.9703686237335205078 1.2795636653900146484 1.0711750984191894531 1.1076474189758300781 1.15718841552734375 1.029074549674987793 1.9041965007781982422 1.5902960300445556641 1.0424036979675292969 1.6691575050354003906 1.9041965007781982422 1.6401140689849853516 1.1054643392562866211 1.3524492979049682617 1.2452023029327392578 1.2300459146499633789 1.0844278335571289063 1.0035594701766967773 1.2749919891357421875 1.2668840885162353516 1.2578819990158081055 1.2362002134323120117 1.1271461248397827148 1.2362002134323120117 1.1080422401428222656 1.3752928972244262695 1.0399379730224609375 1.1494731903076171875 1.214518427848815918 1.1928366422653198242 1.331929326057434082 1.0837826728820800781 1.3536111116409301758 1.3752928972244262695 1.0040394067764282227 1.1728669404983520508 1.0455749034881591797 1.0672566890716552734 1.2129635810852050781 1.1539837121963500977 1.6101148128509521484 1.1559113264083862305 1.1106201410293579102 1.4276585578918457031 1.1514058113098144531 1.0542223453521728516 1.0420485734939575195 1.4276585578918457031 1.4276585578918457031 1.479583740234375 2.2631227970123291016 2.2061657905578613281 1.8685590028762817383 1.7252707481384277344 1.4493403434753417969 1.4059767723083496094 1.0820776224136352539 1.5577491521835327148 1.5577491521835327148 2.4525139331817626953 1.8986279964447021484 2.0446114540100097656 2.2580332756042480469 2.6091237068176269531 1.560889124870300293 1.6011126041412353516 1.04718017578125 1.7232428789138793945 1.9534102678298950195 2.2569549083709716797 2.4959766864776611328 2.5365202426910400391 1.7582744359970092773 1.9093869924545288086 1.8625184297561645508 1.4472296237945556641 1.8142527341842651367 1.7708891630172729492 1.1772805452346801758 1.0646787881851196289 1.5233876705169677734 1.4123165607452392578 1.1514058113098144531 1.3752928972244262695 1.0515565872192382813 1.1559113264083862305 1.331929326057434082 1.1604782342910766602 1 1.4493403434753417969 1.3969746828079223633 1.3906348943710327148 1.440338134765625 1.2018388509750366211 1.0837826728820800781 1.1076474189758300781 1.0535526275634765625 1.1028864383697509766 1.9041965007781982422 1.0812047719955444336 1.1028864383697509766 1.6868594884872436523 1.0595229864120483398 1.2298604249954223633 1.5311911106109619141 1.3356765508651733398 1.5516171455383300781 1.3488006591796875 1.1560387611389160156 1.2827243804931640625 1.0844278335571289063 1.4523985385894775391 1.1494731903076171875 1.3378862142562866211 1.6055769920349121094 1.3102476596832275391 1 1.2792381048202514648 1.1494731903076171875 1.4676939249038696289 1.4174057245254516602 1.373044133186340332 1.5867308378219604492 2.2794921398162841797 2.4232039451599121094 2.9626526832580566406 3.5124421119689941406 3.5791928768157958984 3.4124934673309326172 4.0515079498291015625 3.6245143413543701172 2.950771331787109375 2.6689083576202392578 3.4776515960693359375 4.2280840873718261719 3.1327290534973144531 3.1408469676971435547 2.6967248916625976563 2.8699090480804443359 3.7837557792663574219 3.4324347972869873047 4.0429615974426269531 4.5813097953796386719 4.0380387306213378906 4.6665067672729492188 5.0592217445373535156 6.076374053955078125 6.0006361007690429688 6.2058053016662597656 4.8833565711975097656 3.8549377918243408203 4.1303591728210449219 3.9989218711853027344 4.2187557220458984375 3.2049777507781982422 3.0507593154907226563 3.8561749458312988281 
2.1919095516204833984 2.7855989933013916016 3.0059151649475097656 2.3436820507049560547 2.7695298194885253906 2.7655842304229736328 2.8015797138214111328 3.0808618068695068359 3.0808618068695068359 2.4447524547576904297 2.9302103519439697266 3.6614902019500732422 4.641948699951171875 4.0348591804504394531 3.1448872089385986328 2.5604994297027587891 1.9750272035598754883 1.7492074966430664063 1.5448675155639648438 1.5414568185806274414 1.7911580801010131836 1.7338654994964599609 1.8946399688720703125 1.8449366092681884766 2.3374910354614257813 2.6281790733337402344 1.9736117124557495117 1.8570364713668823242 1.7202421426773071289 2.0113837718963623047 1.8019285202026367188 1.7622859477996826172 1.5806152820587158203 1.8378417491912841797 1.5577491521835327148 2.1299793720245361328 2.2643799781799316406 2.3888304233551025391 2.7563357353210449219 2.6729533672332763672 2.5807018280029296875 1.8374140262603759766 1.6294568777084350586 1.8082928657531738281 1.5549604892730712891 1.0844278335571289063 1.3730664253234863281 1.1928366422653198242 1.3617156744003295898 1.6401140689849853516 1.2615015506744384766 1.3088968992233276367 1.0844278335571289063 1.0346062183380126953 1.3828115463256835938 1.6882951259613037109 1.7192555665969848633 1.2069675922393798828 1 1.0293710231781005859 1.106109619140625 1.2795636653900146484 1.0035594701766967773 1.3102476596832275391 1.0040545463562011719 1.3752928972244262695 1.9307734966278076172 1.0867646932601928711 1.044314265251159668 1.1310622692108154297 1.0837826728820800781 1.2452023029327392578 1.1297240257263183594 1.506605982780456543 1.0469801425933837891 1.2668840885162353516 1.418656468391418457 1.0889384746551513672 1.0525118112564086914 1.3409315347671508789 1.0498460531234741211 1.5794308185577392578 1 1.0515565872192382813 1.2704352140426635742 1.5667512416839599609 1.7338654994964599609 1.2668840885162353516 1.0488907098770141602 1.3102476596832275391 1.3154829740524291992 1.6387177705764770508 2.2500083446502685547 2.3945410251617431641 2.2309873104095458984 1.6943689584732055664 1.8014887571334838867 1.8533132076263427734 1.4832146167755126953 1.4644247293472290039 1.5903270244598388672 1.9096748828887939453 2.3724343776702880859 1.9760783910751342773 2.6310672760009765625 3.1197850704193115234 2.5671098232269287109 2.9048397541046142578 2.0188000202178955078 1.6772408485412597656 2.1793596744537353516 2.0108239650726318359 1.8359345197677612305 2.108280181884765625 2.2976632118225097656 2.1837580204010009766 2.9011235237121582031 1.8041439056396484375 1.8906776905059814453 2.036815643310546875 1.9308149814605712891 1.504055023193359375 1.5730910301208496094 1.4710220098495483398 1.1575825214385986328 1.5143855810165405273 1.1323019266128540039 1.3409315347671508789 1.4059767723083496094 1.3192497491836547852 1.0455749034881591797 1.3906348943710327148 1.4276585578918457031 1.0525118112564086914 1.0393991470336914063 1.1575825214385986328 1.1080422401428222656 1.1494731903076171875 1.0621008872985839844 1.0187373161315917969 1.0187373161315917969 1.106109619140625 1.6955621242523193359 2.4689557552337646484 1.0812047719955444336 1.1028864383697509766 1.1271461248397827148 1.3969746828079223633 1.3355479240417480469 1.2238861322402954102 1.1842850446701049805 1.2050193548202514648 1.2975012063980102539 1.4885255098342895508 1.6718089580535888672 1.9041965007781982422 1.4312547445297241211 1.0404191017150878906 1.0178890228271484375 1.1010726690292358398 1.1604658365249633789 1.2654466629028320313 1.4811006784439086914 1.5902960300445556641 1.2452023029327392578 1.470892786979675293 2.1632215976715087891 2.0758042335510253906 2.6033742427825927734 3.0591800212860107422 3.2543158531188964844 3.2109522819519042969 3.3844063282012939453 2.5985767841339111328 2.3858387470245361328 2.6905901432037353516 3.60955047607421875 4.2018175125122070313 3.9259247779846191406 3.4835073947906494141 4.3255152702331542969 3.3257215023040771484 2.8995530605316162109 3.9298975467681884766 3.9845349788665771484 3.2277505397796630859 4.2814912796020507813 4.3899302482604980469 5.2024068832397460938 5.1613054275512695313 5.7932991981506347656 4.4622411727905273438 3.6686034202575683594 3.2760479450225830078 4.1872181892395019531 5.3017163276672363281 5.4971280097961425781 3.2684845924377441406 3.7961788177490234375 3.3211979866027832031 
2.9290895462036132813 3.7746779918670654297 3.2871472835540771484 2.5604994297027587891 1.996773838996887207 2.0451741218566894531 2.1702277660369873047 2.6647968292236328125 2.8385930061340332031 2.8629086017608642578 3.2939612865447998047 4.4253087043762207031 4.9454932212829589844 3.6879510879516601563 3.2976794242858886719 2.3653635978698730469 2.3850319385528564453 2.1702277660369873047 1.949985504150390625 1.8666183948516845703 1.4980933666229248047 1.7708891630172729492 2.0319187641143798828 2.9398758411407470703 3.1907293796539306641 2.8493421077728271484 2.1971833705902099609 1.9077297449111938477 1.5735602378845214844 1.5003767013549804688 1.982279658317565918 1.5002030134201049805 1.6968418359756469727 1.6513321399688720703 2.2782924175262451172 2.6883196830749511719 2.8445594310760498047 2.7909381389617919922 3.0464365482330322266 2.969387054443359375 2.2817533016204833984 2.8242058753967285156 1.7511931657791137695 2.0627348423004150391 1.1761108636856079102 1.4808140993118286133 1.0844278335571289063 1.9041965007781982422 1.348110198974609375 1.1054643392562866211 1.5732209682464599609 1.7034437656402587891 1.0837826728820800781 1.3536111116409301758 1.5728003978729248047 1.7381762266159057617 1.9301328659057617188 1.6864153146743774414 1.1277914047241210938 1.0285193920135498047 1.0621008872985839844 1.0268088579177856445 1.2795636653900146484 1.2235205173492431641 1.6586110591888427734 1.044314265251159668 1.0213152170181274414 1.331929326057434082 1.0863605737686157227 1.2018388509750366211 1.0374721288681030273 1.4927037954330444336 1.418656468391418457 1.0646787881851196289 1.1080422401428222656 1.0646855831146240234 1.1080422401428222656 1.3626133203506469727 1.0391826629638671875 1.0621008872985839844 1.2795636653900146484 1.0867646932601928711 1.0418485403060913086 1.4276585578918457031 1.5667512416839599609 1.7618870735168457031 1.4113662242889404297 1.4059767723083496094 1.0542223453521728516 1.2452023029327392578 1.112683415412902832 1.3749974966049194336 1.8475316762924194336 2.6229767799377441406 2.5302541255950927734 1.9772533178329467773 1.706673741340637207 2.3214738368988037109 2.1941823959350585938 2.1718075275421142578 1.9607465267181396484 1.9417583942413330078 2.5212609767913818359 2.3655569553375244141 3.3146710395812988281 3.3745477199554443359 3.1976468563079833984 2.6683161258697509766 2.8129470348358154297 2.1170954704284667969 1.91468048095703125 1.8590730428695678711 2.9040429592132568359 1.9844791889190673828 2.1845242977142333984 2.3158130645751953125 2.3723666667938232422 2.3091630935668945313 2.150432586669921875 1.7451276779174804688 1.4800242185592651367 1.4166408777236938477 1.2379121780395507813 1.1078215837478637695 1.5577491521835327148 1.3842949867248535156 1.4620199203491210938 1.1945487260818481445 1.3086796998977661133 1.4927037954330444336 1.0073043107986450195 1.0863605737686157227 1.1684000492095947266 1.5450694561004638672 1.1106201410293579102 1.0523372888565063477 1.0382274389266967773 1.3012454509735107422 1.1076474189758300781 1.3102476596832275391 1.1277914047241210938 1.031940460205078125 1.0711750984191894531 1.0378412008285522461 1.1028864383697509766 1.1028864383697509766 1.2885658740997314453 1.2578819990158081055 1.0336509943008422852 1.9277949333190917969 1.7132929563522338867 1.9557206630706787109 1.3508111238479614258 1.9041965007781982422 1.2957384586334228516 1.0595229864120483398 1.1245682239532470703 1.031940460205078125 1.1928366422653198242 1.2081786394119262695 1.1817059516906738281 1.2954747676849365234 1.3908106088638305664 1.715832829475402832 1.5557254552841186523 1.8325423002243041992 1.6828520298004150391 1.910796046257019043 2.8199782371520996094 2.6433289051055908203 2.7339537143707275391 3.0207145214080810547 3.6928033828735351563 2.6319019794464111328 2.2367851734161376953 2.0835008621215820313 3.5594975948333740234 3.2921688556671142578 4.2123541831970214844 4.5264682769775390625 3.5065419673919677734 3.8044812679290771484 3.4192092418670654297 3.6630585193634033203 3.7225549221038818359 3.8723897933959960938 4.2073893547058105469 4.5794782638549804688 4.653499603271484375 5.4426603317260742188 5.5127935409545898438 4.8889312744140625 4.0225300788879394531 4.2268166542053222656 4.3052630424499511719 5.4568052291870117188 5.7719130516052246094 5.8848934173583984375 4.2605500221252441406 3.8336300849914550781 
2.5698344707489013672 3.1892704963684082031 2.9234180450439453125 2.5171360969543457031 2.2665803432464599609 2.7339537143707275391 2.7063930034637451172 2.1702277660369873047 2.2569549083709716797 2.7556354999542236328 2.7989988327026367188 2.9941346645355224609 4.0131773948669433594 3.0591800212860107422 3.5361788272857666016 2.9724528789520263672 2.5908372402191162109 2.3203623294830322266 2.4954543113708496094 1.6281838417053222656 1.3896845579147338867 1.9316636323928833008 2.3653635978698730469 3.2731664180755615234 3.4283690452575683594 3.1883509159088134766 2.5551118850708007813 1.8337324857711791992 1.3661878108978271484 1.4300119876861572266 1.9091783761978149414 2.0396387577056884766 2.379367828369140625 1.7559816837310791016 2.6285402774810791016 2.919124603271484375 3.0297422409057617188 3.0720114707946777344 3.3185904026031494141 2.9878430366516113281 3.0563161373138427734 3.0377581119537353516 2.2986609935760498047 1.5646231174468994141 1.6976463794708251953 1.7026772499084472656 1.2957750558853149414 1.1096309423446655273 1.2864279747009277344 1.500929713249206543 1.7606585025787353516 1.3501588106155395508 1.6357643604278564453 1.7932819128036499023 2.1412374973297119141 2.1470627784729003906 1.859462738037109375 1.1321585178375244141 1.1076474189758300781 1.0627461671829223633 1.1076474189758300781 1.0404191017150878906 1.1711549758911132813 1.0621008872985839844 1.2162797451019287109 1.0844278335571289063 1.0460247993469238281 1.6011126041412353516 1.1439336538314819336 1.4710220098495483398 1.1922432184219360352 1.4927037954330444336 1.0861399173736572266 1.1323019266128540039 1.3896845579147338867 1.1539837121963500977 1.5233876705169677734 1.4059767723083496094 1.3102476596832275391 1.2452023029327392578 1.0017797946929931641 1.0141685009002685547 1.3102476596832275391 1.0863605737686157227 1.1106201410293579102 1.0889384746551513672 1.1514058113098144531 1.3842949867248535156 1.0498460531234741211 1.0108202695846557617 1.1616251468658447266 1.7486411333084106445 2.0731828212738037109 2.2222177982330322266 2.9707710742950439453 2.6580197811126708984 2.482364654541015625 2.5504124164581298828 2.7828490734100341797 2.3430411815643310547 2.8270220756530761719 2.7688002586364746094 2.6559059619903564453 2.8460576534271240234 4.0348567962646484375 3.8603563308715820313 3.8063051700592041016 4.0586004257202148438 2.6445446014404296875 2.1415832042694091797 2.5526893138885498047 2.2470550537109375 2.2101426124572753906 2.8096797466278076172 3.263214111328125 2.6266472339630126953 2.3640353679656982422 2.0254628658294677734 2.4803466796875 2.4693284034729003906 1.7856268882751464844 1.5933760404586791992 1.6317964792251586914 1.2588617801666259766 1.1030468940734863281 1.3102476596832275391 1.0005103349685668945 1.3536111116409301758 1.0845980644226074219 1.0015398263931274414 1.0187373161315917969 1.2957750558853149414 1.3102476596832275391 1.4276585578918457031 1 1 1.1494731903076171875 1.0285193920135498047 1.1494731903076171875 1.2298604249954223633 1.0535526275634765625 1.0535526275634765625 1.0127462148666381836 1.9108177423477172852 1.106109619140625 1.1245682239532470703 1.1245682239532470703 1.6756902933120727539 1.2105348110198974609 1.4595005512237548828 2.0082576274871826172 1.369253993034362793 1.376149296760559082 1.2543087005615234375 1.0378412008285522461 2.0106759071350097656 2.0106759071350097656 2.4689557552337646484 1.0595229864120483398 1.3612657785415649414 1.0844278335571289063 1.2587461471557617188 1.6696431636810302734 2.1011266708374023438 2.0892412662506103516 2.3074243068695068359 1.6737332344055175781 1.6112875938415527344 2.0479228496551513672 2.6181867122650146484 2.5304861068725585938 2.3901088237762451172 2.5461449623107910156 2.4737725257873535156 2.7349374294281005859 2.2135913372039794922 3.2934923171997070313 3.8249154090881347656 3.7178051471710205078 3.8178281784057617188 4.7002530097961425781 3.3022437095642089844 3.3175842761993408203 3.4923012256622314453 3.7048938274383544922 3.5498061180114746094 4.657314300537109375 4.8019232749938964844 3.6852164268493652344 4.3273267745971679688 4.9293880462646484375 3.4158236980438232422 3.2561056613922119141 3.9865350723266601563 4.9593472480773925781 4.5866541862487792969 5.9950461387634277344 5.2707195281982421875 5.3695511817932128906 3.5729465484619140625 
2.442230224609375 3.4494516849517822266 3.2043447494506835938 3.0187654495239257813 2.4087271690368652344 2.8423624038696289063 2.6249852180480957031 3.1675887107849121094 2.3003184795379638672 2.7339537143707275391 2.7339537143707275391 2.2786366939544677734 2.3436820507049560547 2.7556354999542236328 2.5604994297027587891 2.9417903423309326172 2.3003184795379638672 2.01845550537109375 2.2135913372039794922 1.792570948600769043 1.4764115810394287109 2.4000020027160644531 2.864044189453125 3.6496043205261230469 3.5205161571502685547 4.1841397285461425781 2.8548238277435302734 2.6009035110473632813 1.9589360952377319336 1.9418802261352539063 2.1882119178771972656 2.2552051544189453125 2.2726471424102783203 2.0911951065063476563 2.4318971633911132813 2.3808839321136474609 3.6094324588775634766 3.6031050682067871094 3.3499982357025146484 3.5583078861236572266 3.6871478557586669922 4.163669586181640625 2.9038984775543212891 1.9059609174728393555 1.5504509210586547852 1.4957793951034545898 1.2885658740997314453 1.4249171018600463867 1.3229272365570068359 1.5649863481521606445 1.6663480997085571289 1.746262669563293457 1.8111151456832885742 1.7537741661071777344 2.0403778553009033203 2.3271389007568359375 1.722291111946105957 1.4842269420623779297 1.1928366422653198242 1.0621008872985839844 1.9041965007781982422 1.0844278335571289063 1.1711549758911132813 1.6791050434112548828 1.6600682735443115234 1.0382274389266967773 1.1297240257263183594 1.1418483257293701172 1.6932330131530761719 1.0073043107986450195 1.5450694561004638672 1.2379121780395507813 1.6905019283294677734 1.7185235023498535156 1.6534782648086547852 1.0551776885986328125 1.1078215837478637695 1.1559113264083862305 1.2668840885162353516 1.3102476596832275391 1.2795636653900146484 1.2452023029327392578 1.3752928972244262695 1 1.0150895118713378906 1.0508012771606445313 1.0238931179046630859 1.5143855810165405273 1.3842949867248535156 1.2165007591247558594 1.3842846155166625977 1.5017060041427612305 1.8798780441284179688 2.1884763240814208984 2.3676791191101074219 2.6784241199493408203 2.3681266307830810547 2.1623113155364990234 2.4987006187438964844 2.8260772228240966797 2.4327602386474609375 3.1136782169342041016 3.2593035697937011719 3.3477716445922851563 4.1524820327758789063 4.4478983879089355469 4.3155512809753417969 3.4023334980010986328 2.7675335407257080078 3.0745534896850585938 2.8657944202423095703 2.7095911502838134766 2.9586234092712402344 2.683910369873046875 2.8813815116882324219 2.9072453975677490234 2.3890068531036376953 2.2939157485961914063 2.113216400146484375 1.9853415489196777344 2.3510215282440185547 1.9305737018585205078 1.6433829069137573242 1.4547297954559326172 1.1295033693313598633 1.1559113264083862305 1.0557328462600708008 1.0070644617080688477 1.2452023029327392578 1.2235205173492431641 1.0027841329574584961 1.1271461248397827148 1.3088968992233276367 1.1054643392562866211 1.0837826728820800781 1.9041965007781982422 1.1076474189758300781 1.6955621242523193359 1.0016961097717285156 1.9041965007781982422 1.1494731903076171875 1.2298604249954223633 1.0711750984191894531 1.1245682239532470703 1.2856231927871704102 1.9041965007781982422 1.0627461671829223633 1.0844278335571289063 1.0050448179244995117 1.2957750558853149414 1.0921411514282226563 1.3238588571548461914 1.3551679849624633789 1.2229874134063720703 1.4839137792587280273 1.3132987022399902344 2.2552065849304199219 1.2489066123962402344 1.2955501079559326172 1.1028864383697509766 1.1028864383697509766 1.1908869743347167969 1.8951145410537719727 1.6932330131530761719 2.2041182518005371094 2.3237864971160888672 2.2857327461242675781 1.8349229097366333008 2.1927363872528076172 2.7908167839050292969 2.0549015998840332031 2.5398173332214355469 2.4340660572052001953 2.2352731227874755859 2.5171360969543457031 2.487834930419921875 2.9579572677612304688 3.1588830947875976563 2.8451197147369384766 3.4034936428070068359 3.3369588851928710938 3.0721070766448974609 3.2031795978546142578 3.2645082473754882813 4.2084221839904785156 3.4168157577514648438 3.6430552005767822266 3.2566716670989990234 3.6666851043701171875 4.0947513580322265625 3.6461188793182373047 3.1399109363555908203 3.6918599605560302734 3.3172032833099365234 4.6413288116455078125 4.6556940078735351563 4.9397687911987304688 4.6593699455261230469 5.0367665290832519531 4.1944308280944824219 
1.7338654994964599609 2.5714583396911621094 3.0158164501190185547 2.7496211528778076172 2.5587668418884277344 2.7174403667449951172 2.4737725257873535156 2.6472265720367431641 2.8202760219573974609 2.9075949192047119141 2.9236350059509277344 2.1394548416137695313 1.8233196735382080078 2.2135913372039794922 1.909981846809387207 1.8792979717254638672 1.7708891630172729492 2.1485462188720703125 1.7149108648300170898 1.5848203897476196289 1.7582744359970092773 1.9750272035598754883 2.7621579170227050781 3.6929254531860351563 3.3734951019287109375 4.3167018890380859375 3.2758316993713378906 2.9620175361633300781 2.3995954990386962891 2.7249460220336914063 3.1108121871948242188 2.4687898159027099609 1.7117190361022949219 1.9202723503112792969 2.6554648876190185547 2.9032683372497558594 3.8123762607574462891 4.3522167205810546875 3.5260641574859619141 3.6446194648742675781 4.1626591682434082031 3.3949024677276611328 3.1368451118469238281 2.5475995540618896484 2.0579321384429931641 1.8266352415084838867 1.8204088211059570313 1.9334630966186523438 1.5887444019317626953 1.2362002134323120117 1.411725163459777832 2.1876537799835205078 1.4984606504440307617 1.7402197122573852539 1.7727603912353515625 2.0891420841217041016 2.0104069709777832031 1.3484302759170532227 1.3137286901473999023 1.1488279104232788086 1.1711549758911132813 1.1054643392562866211 1.0027004480361938477 1.0404191017150878906 1.2235205173492431641 1.1804971694946289063 1.6011126041412353516 1.4276585578918457031 1.2188745737075805664 1.5420883893966674805 1.6281838417053222656 1.5884330272674560547 1.792570948600769043 1.996708989143371582 1.5848203897476196289 1.0672566890716552734 1.3077549934387207031 1.440338134765625 1.1559113264083862305 1.2603366374969482422 1.0867646932601928711 1.0213152170181274414 1.1076865196228027344 1.440338134765625 1.4493403434753417969 1.1295033693313598633 1.0015201568603515625 1.1106201410293579102 1.2042243480682373047 1.6444761753082275391 1.5577491521835327148 1.1728669404983520508 1.8827270269393920898 1.8479350805282592773 2.3909091949462890625 3.0542998313903808594 2.9671628475189208984 2.15596771240234375 2.2821707725524902344 2.5868272781372070313 3.1798584461212158203 3.1132462024688720703 3.3261814117431640625 3.3896939754486083984 3.8823626041412353516 4.4375519752502441406 3.6422104835510253906 3.5734097957611083984 3.2232327461242675781 3.3513422012329101563 3.7077817916870117188 4.2179517745971679688 2.9143271446228027344 3.5395398139953613281 3.4882359504699707031 2.7660076618194580078 2.0202977657318115234 2.6329710483551025391 1.9965033531188964844 2.6320445537567138672 1.8792979717254638672 2.3029506206512451172 1.322011113166809082 1.5848203897476196289 1.5713464021682739258 1.1606699228286743164 1.0429970026016235352 1.2452023029327392578 1.2578819990158081055 1.1488279104232788086 1.0141685009002685547 1.0391826629638671875 1.2300459146499633789 1.0053795576095581055 1.1028864383697509766 1.4710749387741088867 1.0595229864120483398 1.0595229864120483398 1.9108177423477172852 1.106109619140625 1.4676939249038696289 1.0621008872985839844 1.8563123941421508789 1.9041965007781982422 1.0595229864120483398 1.0151902437210083008 2.2151329517364501953 1.3612657785415649414 1.0711750984191894531 1.0595229864120483398 1.9292426109313964844 1.0043752193450927734 1.0812047719955444336 1.3065142631530761719 1.3044917583465576172 1.4857403039932250977 1.7058150768280029297 1.7058150768280029297 2.5863945484161376953 1.0690859556198120117 1.1494731903076171875 1.9598891735076904297 1.8218861818313598633 1.4536719322204589844 1.849821925163269043 2.2157025337219238281 2.17255401611328125 2.0518374443054199219 2.3465631008148193359 2.2040746212005615234 1.6932291984558105469 2.2158989906311035156 2.0607254505157470703 1.996773838996887207 2.1686365604400634766 2.0834360122680664063 2.6982858180999755859 3.2551045417785644531 2.7900650501251220703 3.1174774169921875 2.9770910739898681641 2.9003005027770996094 3.0141930580139160156 4.097110748291015625 3.1108763217926025391 2.8798506259918212891 2.5540649890899658203 2.8607497215270996094 3.0835995674133300781 2.4810881614685058594 2.2546744346618652344 2.6486032009124755859 4.3957128524780273438 4.3493862152099609375 4.4435901641845703125 4.9613318443298339844 4.4949359893798828125 3.9843311309814453125 5.3327083587646484375 5.6278028488159179688 
1.1728669404983520508 1.259593963623046875 1.9317284822463989258 1.8883650302886962891 2.5011780261993408203 2.0400724411010742188 2.5171360969543457031 2.8920361995697021484 2.2375800609588623047 3.2247953414916992188 2.3870453834533691406 1.6317964792251586914 1.6498656272888183594 1.996708989143371582 1.6191169023513793945 1.6968418359756469727 1.1078215837478637695 1.6498656272888183594 1.6624803543090820313 1.6534782648086547852 1.8233196735382080078 1.7058439254760742188 2.5604994297027587891 2.7828361988067626953 2.8450076580047607422 4.0239644050598144531 3.5465683937072753906 3.1885478496551513672 2.6907296180725097656 2.6116249561309814453 3.2920100688934326172 2.5955190658569335938 2.1642553806304931641 2.0347447395324707031 2.9438378810882568359 2.7031264305114746094 3.5544385910034179688 3.5468916893005371094 4.0924038887023925781 3.9030489921569824219 3.4778742790222167969 3.7082812786102294922 3.1271359920501708984 2.5410466194152832031 2.3772628307342529297 2.0901572704315185547 2.1535613536834716797 1.8356382846832275391 1.875283360481262207 1.2578819990158081055 1.6015182733535766602 2.0219318866729736328 1.398232579231262207 1.7252221107482910156 1.842853546142578125 1.2885658740997314453 1.4360823631286621094 1.3556742668151855469 1.2578819990158081055 1.2080862522125244141 1.5004503726959228516 1.2749919891357421875 1.214518427848815918 1.2298604249954223633 1.0750422477722167969 1.2018388509750366211 1.1776293516159057617 1.1801570653915405273 1.1575833559036254883 1.5450694561004638672 1.4980933666229248047 1.8792979717254638672 1.8666183948516845703 1.9750272035598754883 1.9750272035598754883 1.7058439254760742188 1.0498460531234741211 1.5143855810165405273 1.4927037954330444336 1.3626133203506469727 1.5143855810165405273 1.3842949867248535156 1.3549501895904541016 1.0646787881851196289 1.151185154914855957 1.1945487260818481445 1.4493403434753417969 1.5577491521835327148 1.5514092445373535156 1.5631386041641235352 1.7708891630172729492 2.411830902099609375 1.982962489128112793 2.0536141395568847656 2.5353472232818603516 2.7044734954833984375 2.3966329097747802734 2.561275482177734375 1.9344753026962280273 2.1042757034301757813 2.8292517662048339844 3.1921098232269287109 3.6363668441772460938 3.7805402278900146484 3.8072264194488525391 4.0508470535278320313 3.4006197452545166016 4.6642928123474121094 4.4409513473510742188 3.6780827045440673828 4.0956926345825195313 3.2168121337890625 3.502750396728515625 3.2323436737060546875 3.7808935642242431641 2.8979876041412353516 2.54145050048828125 2.3811559677124023438 2.3272421360015869141 2.0952513217926025391 2.2845149040222167969 2.2482554912567138672 2.0309929847717285156 1.8384456634521484375 1.6867922544479370117 1.4927037954330444336 1.4493403434753417969 1.3969746828079223633 1.4926232099533081055 1.2578819990158081055 1.2668840885162353516 1.2300459146499633789 1.2795636653900146484 1.0812047719955444336 1.1245682239532470703 1.301726222038269043 1.0595229864120483398 1.1028864383697509766 1.2957750558853149414 1.0867646932601928711 1.3969746828079223633 1.3689531087875366211 1.2668840885162353516 1.0711750984191894531 1.0007755756378173828 1.301726222038269043 1.1054643392562866211 1.8563123941421508789 1.2795636653900146484 1.0690859556198120117 1.0812047719955444336 2.2418386936187744141 2.4663248062133789063 1.2123689651489257813 1.6557081937789916992 2.0911614894866943359 2.4689557552337646484 2.4689557552337646484 1.0931404829025268555 1.05234527587890625 1.269894719123840332 1.1572126150131225586 1.2957750558853149414 1.2836825847625732422 1.4315813779830932617 1.2032027244567871094 1.8987518548965454102 1.8570473194122314453 1.3984878063201904297 1.4635231494903564453 1.6227943897247314453 1.3604061603546142578 2.4118907451629638672 2.4499709606170654297 2.3870453834533691406 2.6472265720367431641 2.2870099544525146484 3.0024867057800292969 3.1092603206634521484 3.3484117984771728516 3.1699085235595703125 3.3363435268402099609 2.9817256927490234375 2.6844456195831298828 2.7705900669097900391 2.4040858745574951172 2.4766447544097900391 2.9282486438751220703 2.9630823135375976563 2.0164446830749511719 2.2059276103973388672 2.5390794277191162109 3.6291646957397460938 4.7584714889526367188 5.1575555801391601563 4.9300522804260253906 4.5685849189758300781 5.4563155174255371094 5.6180653572082519531 4.4270567893981933594 
1.5143855810165405273 1.4800242185592651367 1.1728669404983520508 1.7058439254760742188 2.2786366939544677734 2.0835008621215820313 2.1919095516204833984 2.5863614082336425781 1.8450014591217041016 2.2139730453491210938 1.792570948600769043 1.6751600503921508789 1.2340834140777587891 1.7365926504135131836 1.8792979717254638672 1.259593963623046875 1.1323019266128540039 1.5233876705169677734 1.2171982526779174805 1.4330480098724365234 1.4469025135040283203 1.7338654994964599609 2.5449659824371337891 2.7780478000640869141 3.3974521160125732422 3.2753539085388183594 3.3067145347595214844 3.0661835670471191406 3.2889587879180908203 2.9959607124328613281 3.0033025741577148438 3.185680389404296875 2.7698922157287597656 2.1567778587341308594 2.0303509235382080078 2.2524890899658203125 2.7749035358428955078 3.2887709140777587891 3.1027331352233886719 3.4050564765930175781 3.5120780467987060547 3.3457322120666503906 3.0817360877990722656 2.8560652732849121094 2.4456682205200195313 1.8869014978408813477 1.8263566493988037109 1.6853389739990234375 1.9359176158905029297 1.7109431028366088867 1.9750559329986572266 1.7298824787139892578 1.7037684917449951172 1.4133048057556152344 1.331929326057434082 1.2885658740997314453 1.2603366374969482422 1.2452023029327392578 1.1559113264083862305 1.4710220098495483398 1.2290974855422973633 1.0557328462600708008 1.2578819990158081055 1.2578819990158081055 1.1296267509460449219 1.1159840822219848633 1.6805245876312255859 1.3222500085830688477 1.9707634449005126953 1.1323019266128540039 1.6751600503921508789 1.8016380071640014648 2.2754280567169189453 2.1485462188720703125 1.7699007987976074219 1.2162303924560546875 1.7185235023498535156 1.259593963623046875 1.151185154914855957 1.5450694561004638672 1.151185154914855957 1.5884330272674560547 1.1295033693313598633 1.259593963623046875 1.792570948600769043 1.5724141597747802734 1.6751600503921508789 1.4764115810394287109 1.8792979717254638672 2.1340231895446777344 2.4144959449768066406 2.4000325202941894531 2.2145297527313232422 2.4089961051940917969 2.0999493598937988281 2.660243988037109375 1.7979902029037475586 2.1994836330413818359 2.2327873706817626953 2.4493772983551025391 2.9309434890747070313 3.0646009445190429688 3.4667963981628417969 3.0845417976379394531 3.4576315879821777344 4.2771306037902832031 4.7313036918640136719 4.3387126922607421875 3.9817557334899902344 4.6939806938171386719 3.9571254253387451172 3.7830638885498046875 3.301975250244140625 2.6088113784790039063 2.9116740226745605469 3.755283355712890625 4.042331695556640625 3.0197594165802001953 3.1375093460083007813 2.3952031135559082031 2.0226538181304931641 2.3323733806610107422 1.5884330272674560547 2.1552577018737792969 1.824235081672668457 1.5669789314270019531 1.6837935447692871094 1.0672566890716552734 1.1080422401428222656 1.1374566555023193359 1.2804007530212402344 1.331929326057434082 1.0867646932601928711 1.1277914047241210938 1.1076474189758300781 1.0812047719955444336 1.0016961097717285156 1.0187373161315917969 1.0017797946929931641 1.0837826728820800781 1.2885658740997314453 1.3626133203506469727 1.2452023029327392578 1.0285193920135498047 1.1076474189758300781 2.4515626430511474609 1.1245682239532470703 1.0595229864120483398 1.0268088579177856445 1.047404170036315918 1.0923851728439331055 1.1597397327423095703 2.4689557552337646484 1.1308679580688476563 1.4058804512023925781 1.5551759004592895508 2.2016704082489013672 2.2552065849304199219 2.2552065849304199219 1.2955501079559326172 1.2033503055572509766 1.1028864383697509766 1.0605514049530029297 1.1928366422653198242 1.4120519161224365234 1.1801570653915405273 1.331929326057434082 1.1685997247695922852 1.5667512416839599609 1.4927037954330444336 1.4710220098495483398 1.2300475835800170898 2.2855429649353027344 2.3213703632354736328 2.736751556396484375 2.3435842990875244141 2.5074675083160400391 2.6527533531188964844 3.3381714820861816406 2.6740324497222900391 2.9722437858581542969 3.3795435428619384766 3.1544702053070068359 2.7593774795532226563 2.3783764839172363281 1.7552093267440795898 2.0101747512817382813 2.4108607769012451172 2.4836881160736083984 2.3145585060119628906 2.0124084949493408203 2.3170232772827148438 2.6748590469360351563 3.2252871990203857422 4.7377300262451171875 5.3091511726379394531 4.4947972297668457031 5.0019140243530273438 4.7347464561462402344 3.8039598464965820313 
1.0455749034881591797 1.3842949867248535156 1.0501562356948852539 1.5667512416839599609 1.9653414487838745117 2.1268644332885742188 2.4737725257873535156 1.9258512258529663086 1.6498656272888183594 1.4330480098724365234 1.4927037954330444336 1.0077227354049682617 1.2700076103210449219 1.6101148128509521484 1.6881908178329467773 1.9009797573089599609 1.5054246187210083008 1.5794308185577392578 1.7492074966430664063 2.0080153942108154297 1.7043607234954833984 2.3090376853942871094 2.6583950519561767578 2.777317047119140625 3.0102345943450927734 2.8096764087677001953 3.3538048267364501953 3.2026562690734863281 2.9955530166625976563 2.9934515953063964844 2.6722834110260009766 2.9886927604675292969 2.6818463802337646484 2.9318017959594726563 2.6179931163787841797 2.2436683177947998047 3.0755865573883056641 3.4346635341644287109 3.1901960372924804688 2.9168925285339355469 2.6744685173034667969 2.2171375751495361328 2.5216913223266601563 3.1628398895263671875 2.4394176006317138672 1.9228919744491577148 1.9063842296600341797 1.7923589944839477539 1.6762290000915527344 1.5628914833068847656 1.9737049341201782227 2.0425035953521728516 2.1865117549896240234 1.3860260248184204102 1.6571222543716430664 1.5794308185577392578 1.1801570653915405273 1.3409774303436279297 1.1945487260818481445 1.1323019266128540039 1.5514092445373535156 1.5134485960006713867 1.0365169048309326172 1.3536111116409301758 1.2668840885162353516 1.0391826629638671875 1.4342582225799560547 2.0142061710357666016 1.6751600503921508789 1.3195567131042480469 1.5233876705169677734 1.7058439254760742188 1.9988218545913696289 1.909981846809387207 1.7758185863494873047 1.5233876705169677734 1.2162303924560546875 1.8142527341842651367 2.0617542266845703125 2.0835008621215820313 1.9738986492156982422 1.7365926504135131836 2.0013823509216308594 1.4764115810394287109 1.762547612190246582 1.9149161577224731445 2.2852594852447509766 2.0334908962249755859 1.8286759853363037109 2.3441083431243896484 2.5765404701232910156 2.7183973789215087891 2.5204360485076904297 2.1861789226531982422 2.200489044189453125 2.4589898586273193359 1.9755642414093017578 2.35282135009765625 2.0436859130859375 3.1471931934356689453 3.2701640129089355469 3.5887167453765869141 4.233905792236328125 4.06594085693359375 4.5515031814575195313 4.2513966560363769531 4.1439518928527832031 4.0778837203979492188 5.1019978523254394531 4.8268136978149414063 4.880451202392578125 4.6893544197082519531 3.4438431262969970703 3.5890407562255859375 3.2924609184265136719 4.1276445388793945313 3.4562172889709472656 2.6055653095245361328 2.7636005878448486328 2.5580244064331054688 1.9309934377670288086 2.2133321762084960938 2.5779833793640136719 2.4288911819458007813 2.6555192470550537109 1.5569524765014648438 1.4927037954330444336 1.0393826961517333984 1.4123165607452392578 1.1080422401428222656 1.1559113264083862305 1.3421536684036254883 1.2235205173492431641 1.2298604249954223633 1.1028864383697509766 1.0923851728439331055 1.1494731903076171875 1.0363167524337768555 1.1076474189758300781 1.9041965007781982422 1.1271461248397827148 1.418656468391418457 1.3536111116409301758 1.0612875223159790039 1.1054643392562866211 1.0812047719955444336 1.5630494356155395508 1.9041965007781982422 2.3418080806732177734 1.1028864383697509766 1.0595229864120483398 1.301726222038269043 2.2552065849304199219 3.2410285472869873047 1.9108177423477172852 1.5054367780685424805 3.4979276657104492188 2.2552065849304199219 2.5969169139862060547 2.4689557552337646484 1.0595229864120483398 1.6600682735443115234 1.0812047719955444336 1.106109619140625 1.2452023029327392578 1.2300459146499633789 1.0285990238189697266 1.1590218544006347656 1.0226042270660400391 1.3752928972244262695 1.2697402238845825195 1.6140177249908447266 2.1249063014984130859 2.4525547027587890625 2.25696563720703125 2.9423184394836425781 2.9078350067138671875 2.745296478271484375 1.9805157184600830078 2.3676276206970214844 2.4487459659576416016 2.6714518070220947266 2.0899879932403564453 2.4641110897064208984 2.1281044483184814453 2.0461342334747314453 1.9081213474273681641 2.7993113994598388672 1.9980969429016113281 2.3417823314666748047 1.9664318561553955078 2.2180881500244140625 2.3618493080139160156 3.5645816326141357422 4.2313327789306640625 3.8328917026519775391 4.0537667274475097656 4.0772705078125 4.7479825019836425781 4.3225951194763183594 
1.0508012771606445313 1.2227556705474853516 1.331929326057434082 1.5577491521835327148 1.368002772331237793 1.7708891630172729492 1.7630624771118164063 1.8883001804351806641 1.7365926504135131836 1.0022113323211669922 1.2119240760803222656 1.4704341888427734375 1.1945487260818481445 1.7080142498016357422 1.5415666103363037109 1.909981846809387207 1.2506355047225952148 1.6191169023513793945 1.6498656272888183594 2.1647064685821533203 1.8792979717254638672 1.8934150934219360352 2.6038630008697509766 3.9258508682250976563 3.0317809581756591797 2.8746037483215332031 2.8859336376190185547 3.1389892101287841797 2.6858956813812255859 2.7832620143890380859 2.5633449554443359375 2.7227590084075927734 2.1353197097778320313 2.0669589042663574219 2.4297132492065429688 2.4613025188446044922 2.7617013454437255859 3.0290288925170898438 4.2607107162475585938 3.8105990886688232422 2.8149654865264892578 2.1909346580505371094 2.2132046222686767578 2.7149486541748046875 2.5870265960693359375 1.5143855810165405273 2.0416023731231689453 1.8201695680618286133 2.3740553855895996094 2.1781241893768310547 1.881251215934753418 2.0466151237487792969 2.1683645248413085938 1.8539144992828369141 1.7077268362045288086 1.4059767723083496094 1.1080422401428222656 1.0238931179046630859 1.2812757492065429688 1.5360673666000366211 1.7402052879333496094 1.6011126041412353516 1.4211555719375610352 1.4276585578918457031 1.3331836462020874023 1.1374566555023193359 1.4927037954330444336 1.2887755632400512695 1.1693601608276367188 1.307976841926574707 1.5794308185577392578 1.1811001300811767578 1.6905019283294677734 1.5197750329971313477 1.0889384746551513672 1.6101148128509521484 1.368002772331237793 2.2786366939544677734 2.0835008621215820313 3.1892704963684082031 2.6038630008697509766 2.2569549083709716797 2.0617542266845703125 2.6472265720367431641 2.0653748512268066406 1.8233196735382080078 2.6279790401458740234 2.4283978939056396484 2.2855689525604248047 2.0984547138214111328 2.9367024898529052734 2.2430868148803710938 2.1880199909210205078 2.7280731201171875 2.8458971977233886719 2.8910086154937744141 2.6024558544158935547 2.6648399829864501953 2.1110770702362060547 2.8827025890350341797 3.1988997459411621094 3.9332196712493896484 4.1249508857727050781 4.2126460075378417969 4.0573029518127441406 4.2129974365234375 3.6315629482269287109 4.6756529808044433594 4.4597849845886230469 4.6694993972778320313 5.1690316200256347656 4.6195445060729980469 3.7011699676513671875 3.1507227420806884766 3.5691537857055664063 3.5036759376525878906 3.49681854248046875 3.1400299072265625 2.60376739501953125 2.2843782901763916016 2.7357578277587890625 2.4966242313385009766 3.65085601806640625 2.84819793701171875 2.3839929103851318359 2.4350786209106445313 1.1042217016220092773 1.1367782354354858398 1.2424292564392089844 1.418656468391418457 1.2298604249954223633 1.0116183757781982422 1.1801570653915405273 1.0027004480361938477 1.1277914047241210938 1.5391228199005126953 1.2452023029327392578 1.2957750558853149414 1.1494731903076171875 1.1262996196746826172 1.2885658740997314453 1.1801570653915405273 1.3969746828079223633 1.256558537483215332 1.214518427848815918 1.1928366422653198242 1.1711549758911132813 1.1277914047241210938 1.9041965007781982422 1.0378412008285522461 1.1028864383697509766 1.0690859556198120117 2.0106759071350097656 1.3023484945297241211 1.6868594884872436523 1.9108177423477172852 2.5969169139862060547 3.0418324470520019531 2.5863945484161376953 1.0595229864120483398 1.4008883237838745117 1.0151902437210083008 1.0212770700454711914 1.106109619140625 1.2018388509750366211 1.0424036979675292969 1.1432149410247802734 1.0504174232482910156 1.1801570653915405273 1.009566187858581543 1.331929326057434082 1.7357349395751953125 1.8478189706802368164 2.4872181415557861328 2.4441249370574951172 2.763904571533203125 2.5853121280670166016 2.2292094230651855469 2.1571552753448486328 2.5087914466857910156 2.8311967849731445313 2.1769559383392333984 1.7800470590591430664 2.2099518775939941406 2.3170118331909179688 1.9775129556655883789 2.2949352264404296875 2.0339543819427490234 2.3946065902709960938 2.1333854198455810547 2.2538583278656005859 2.6524627208709716797 2.5856010913848876953 3.1701719760894775391 2.8427994251251220703 2.7362732887268066406 3.3627107143402099609 2.6038630008697509766 2.8416032791137695313 3.3085467815399169922 
1.3102476596832275391 1.3969746828079223633 1.1081465482711791992 1.4972451925277709961 1.6248031854629516602 1.3477064371109008789 1.4547297954559326172 1.6968418359756469727 1.4129811525344848633 1.5143855810165405273 1.4330480098724365234 1.4330480098724365234 1.5197750329971313477 1.7402052879333496094 1.5197750329971313477 1.7176995277404785156 1.851276397705078125 1.9009797573089599609 1.6571456193923950195 1.6400903463363647461 1.7121837139129638672 2.2025485038757324219 3.1181643009185791016 3.693943023681640625 2.8742039203643798828 3.1733832359313964844 2.8146288394927978516 3.0431597232818603516 2.7061951160430908203 2.4594786167144775391 2.5146839618682861328 2.1467804908752441406 2.04278564453125 2.7477838993072509766 3.269321441650390625 3.0453429222106933594 2.8244068622589111328 2.4840154647827148438 3.1488506793975830078 2.97399139404296875 3.0561470985412597656 2.860607147216796875 2.3368475437164306641 2.2019343376159667969 2.7484889030456542969 2.3218729496002197266 2.1507103443145751953 1.9006723165512084961 2.3856472969055175781 2.2859892845153808594 2.2262232303619384766 2.5404267311096191406 2.2840502262115478516 2.6042635440826416016 1.7751648426055908203 1.3566675186157226563 1.0861399173736572266 1.1080422401428222656 1.1559113264083862305 1.4710220098495483398 1.1539837121963500977 1.6011126041412353516 1.425288081169128418 1.3192497491836547852 1.4708822965621948242 1.1080422401428222656 1.3409315347671508789 1.440338134765625 1.3969746828079223633 1.0428037643432617188 1.3626133203506469727 1.1374566555023193359 1.1295033693313598633 1.6534782648086547852 1.259593963623046875 1.7492074966430664063 1.6751600503921508789 2.2135913372039794922 2.4520907402038574219 3.1582293510437011719 3.6662693023681640625 3.2109522819519042969 3.0272471904754638672 3.1459071636199951172 2.6758294105529785156 2.4737725257873535156 2.6632244586944580078 3.6234509944915771484 2.8206806182861328125 2.7399885654449462891 2.9838941097259521484 3.1157500743865966797 2.9957399368286132813 2.9804718494415283203 2.4889028072357177734 2.5198907852172851563 2.4519543647766113281 2.3524656295776367188 2.4496624469757080078 3.2722797393798828125 4.0371317863464355469 4.500087738037109375 4.0569109916687011719 4.0291075706481933594 3.8417754173278808594 3.7158420085906982422 4.432037353515625 4.9398932456970214844 4.3002800941467285156 4.5096745491027832031 5.005985260009765625 4.8688907623291015625 5.1307592391967773438 3.8721547126770019531 4.6035327911376953125 3.4467685222625732422 3.5846295356750488281 3.6164193153381347656 3.1594269275665283203 2.5089318752288818359 2.9853672981262207031 3.2838287353515625 3.0422224998474121094 3.0821020603179931641 3.744548797607421875 2.6693732738494873047 2.1034376621246337891 1.8973730802536010742 1.7139077186584472656 1.5491012334823608398 1.0609108209609985352 1.044314265251159668 1.6932330131530761719 1.3012454509735107422 1.1076474189758300781 1.9041965007781982422 1.1494731903076171875 1.2362002134323120117 1.0837826728820800781 1.1481657028198242188 1.3536111116409301758 1.2140526771545410156 1.2235205173492431641 1.2749919891357421875 1.1054643392562866211 1.1494731903076171875 1.106109619140625 1.0837826728820800781 1.0258535146713256836 1.044114232063293457 2.1344089508056640625 1.1245682239532470703 1.1028864383697509766 1.1245682239532470703 1.0907677412033081055 1.9108177423477172852 3.9627170562744140625 2.5969169139862060547 2.8177235126495361328 1.301726222038269043 1.6868594884872436523 1.0378412008285522461 1.1245682239532470703 1.1076474189758300781 1.3620718717575073242 1.3102476596832275391 1.3536111116409301758 1.0426037311553955078 1.2081786394119262695 1.259516596794128418 1.5945414304733276367 1.9898312091827392578 1.5729763507843017578 1.9013200998306274414 2.2439050674438476563 2.3616533279418945313 2.7706029415130615234 1.9300630092620849609 2.2718412876129150391 2.2994174957275390625 2.3309283256530761719 1.7544044256210327148 2.0462751388549804688 1.6350731849670410156 1.8080589771270751953 2.3036592006683349609 2.1068031787872314453 2.9323356151580810547 2.5329854488372802734 2.4771239757537841797 2.4055228233337402344 2.41179656982421875 2.2505595684051513672 2.6341307163238525391 2.0435688495635986328 2.2352731227874755859 2.9628405570983886719 2.1919095516204833984 2.7209506034851074219 3.3206396102905273438 
1.3969746828079223633 1.1106201410293579102 1.6317964792251586914 1.5794308185577392578 1.2123941183090209961 1.206936955451965332 1.5017060041427612305 1.6534782648086547852 1.1055889129638671875 1.5667512416839599609 1.7275257110595703125 1.8617002964019775391 2.6600596904754638672 2.0835008621215820313 2.502185821533203125 2.4087271690368652344 2.4520907402038574219 1.5631386041641235352 1.792570948600769043 1.3178408145904541016 1.6631389856338500977 1.9163217544555664063 2.6856620311737060547 3.1148500442504882813 2.2569549083709716797 3.1290686130523681641 2.9727571010589599609 2.451526641845703125 2.2748551368713378906 2.2924413681030273438 2.8798131942749023438 1.9878007173538208008 2.3498201370239257813 2.3437085151672363281 2.5225226879119873047 2.3916442394256591797 2.1742486953735351563 2.1644067764282226563 2.5312526226043701172 2.92986297607421875 2.6192700862884521484 2.0690407752990722656 2.2869906425476074219 2.2738516330718994141 1.8444968461990356445 2.0763480663299560547 1.8503873348236083984 2.0111827850341796875 2.0584042072296142578 2.1522414684295654297 2.6682109832763671875 3.1539571285247802734 2.5306787490844726563 2.8654131889343261719 1.8366914987564086914 1.5577491521835327148 1.5455136299133300781 1.5078794956207275391 1 1.0672566890716552734 1.4927037954330444336 1.1404494047164916992 1.0030351877212524414 1.2885658740997314453 1.2668840885162353516 1.2452023029327392578 1.3752928972244262695 1.3969746828079223633 1.0322164297103881836 1.3969746828079223633 1.1945487260818481445 1.2812757492065429688 1.601015925407409668 1.3771353960037231445 1.4547297954559326172 1.7402052879333496094 2.0076045989990234375 2.0835008621215820313 2.2569549083709716797 3.8560013771057128906 4.0159363746643066406 3.4094784259796142578 3.890979766845703125 3.6428172588348388672 3.1946446895599365234 2.8739192485809326172 2.9427556991577148438 3.9201407432556152344 3.6922893524169921875 3.6773598194122314453 2.7206568717956542969 3.0355947017669677734 2.4402127265930175781 2.2412526607513427734 1.9761642217636108398 2.4532580375671386719 2.4401264190673828125 2.3575460910797119141 3.0501618385314941406 3.3235118389129638672 3.5816652774810791016 3.7689287662506103516 3.6696298122406005859 3.763057708740234375 3.6233248710632324219 3.6036782264709472656 3.4622588157653808594 4.283298492431640625 4.7859883308410644531 4.7376108169555664063 4.8862257003784179688 5.5267343521118164063 4.5089712142944335938 3.5389702320098876953 3.9773087501525878906 3.66262054443359375 3.583209991455078125 3.5201766490936279297 3.2034940719604492188 3.5473144054412841797 3.7799544334411621094 2.838390350341796875 3.1988131999969482422 3.6452457904815673828 3.4312691688537597656 3.1351881027221679688 2.5397951602935791016 2.0608627796173095703 2.1778676509857177734 1.8447639942169189453 1.3151792287826538086 1.1801570653915405273 1.367663264274597168 1.608239293098449707 1.3102476596832275391 1.1054643392562866211 1.1928366422653198242 1.0027004480361938477 1.4438956975936889648 1.4832340478897094727 1.2018388509750366211 1.0547775030136108398 1.5013735294342041016 1.2018388509750366211 1.5630494356155395508 1.9041965007781982422 1.0621008872985839844 1.1054643392562866211 1.106109619140625 1.1054643392562866211 1.9041965007781982422 2.4515626430511474609 2.1344089508056640625 1.1028864383697509766 1.0711750984191894531 1.1028864383697509766 3.4979276657104492188 2.2552065849304199219 3.5383107662200927734 1.0303750038146972656 1.1245682239532470703 1.0424036979675292969 1.1262996196746826172 1.2362002134323120117 1.2795636653900146484 1.2668840885162353516 1.2603366374969482422 1.0141685009002685547 1.3752928972244262695 1.3409315347671508789 1.0832463502883911133 1.2795636653900146484 1.3926205635070800781 2.0611932277679443359 1.7821925878524780273 2.29891204833984375 2.0691089630126953125 2.1400771141052246094 2.3027336597442626953 2.5197429656982421875 2.2904725074768066406 2.4095304012298583984 2.5907158851623535156 2.1869218349456787109 1.7344340085983276367 2.4646387100219726563 2.2389008998870849609 2.940761566162109375 3.2133510112762451172 3.1860094070434570313 3.2127962112426757813 2.4210264682769775391 2.0939118862152099609 2.2571556568145751953 2.183895111083984375 2.7584557533264160156 2.1268644332885742188 2.3653635978698730469 2.1268644332885742188 2.7616474628448486328 
1.4059767723083496094 1.2494072914123535156 1.4547297954559326172 1.3246392011642456055 1.3311879634857177734 1.7121837139129638672 1.3841392993927001953 1.8359345197677612305 1.8792979717254638672 2.2178332805633544922 2.1077077388763427734 2.3653635978698730469 2.6530525684356689453 2.3346168994903564453 2.4061238765716552734 2.7339537143707275391 2.0718019008636474609 1.8792979717254638672 2.0624659061431884766 1.7566199302673339844 1.8015731573104858398 1.9317284822463989258 2.1508500576019287109 2.215984344482421875 2.2569549083709716797 2.7278995513916015625 2.445587158203125 2.0246605873107910156 1.9820179939270019531 1.9236434698104858398 1.9081864356994628906 1.8588675260543823242 2.4440507888793945313 1.6884723901748657227 1.9853874444961547852 2.5878505706787109375 2.4886949062347412109 1.9798352718353271484 2.3326652050018310547 2.3367929458618164063 2.4723691940307617188 2.8105237483978271484 2.5787680149078369141 1.7736130952835083008 1.7586343288421630859 1.8255672454833984375 1.8337156772613525391 1.8242330551147460938 2.5430674552917480469 3.0464277267456054688 2.9902663230895996094 2.8480634689331054688 2.6808273792266845703 2.6121187210083007813 2.5218379497528076172 1.5143855810165405273 1.2700076103210449219 1.0039557218551635742 1.5143855810165405273 1.0488907098770141602 1.331929326057434082 1.331929326057434082 1.0452696084976196289 1.2663730382919311523 1.1277914047241210938 1.1494731903076171875 1.3969746828079223633 1.1054643392562866211 1.0646787881851196289 1.097588658332824707 1.1538857221603393555 1.4093993902206420898 1.5450694561004638672 1.0551776885986328125 1.3463209867477416992 1.8729581832885742188 1.8708941936492919922 2.6086659431457519531 3.6066904067993164063 4.2861638069152832031 4.0643639564514160156 3.4494516849517822266 4.4240365028381347656 4.640262603759765625 3.3240132331848144531 3.3193612098693847656 3.480510711669921875 3.7616076469421386719 4.5954566001892089844 4.1019425392150878906 4.8146538734436035156 3.5865931510925292969 3.9677875041961669922 3.5467360019683837891 2.2096967697143554688 2.2432301044464111328 2.9487640857696533203 3.1719686985015869141 3.3813595771789550781 2.8742578029632568359 3.4488101005554199219 3.7758941650390625 3.4056060314178466797 3.3074858188629150391 3.5941617488861083984 3.4277765750885009766 3.33425140380859375 3.2804560661315917969 3.7558186054229736328 4.2937531471252441406 4.1254858970642089844 5.8697681427001953125 4.4664635658264160156 3.9446737766265869141 3.3090546131134033203 4.1439805030822753906 3.9349420070648193359 3.9317045211791992188 4.7613463401794433594 3.5924031734466552734 3.8760750293731689453 3.5983245372772216797 3.4546496868133544922 2.72533416748046875 2.4469783306121826172 2.5415883064270019531 2.9469182491302490234 2.4060673713684082031 1.7339951992034912109 1.541606903076171875 1.4086496829986572266 1.6796489953994750977 1.4882296323776245117 1.5652033090591430664 1.5547740459442138672 1.7354106903076171875 1.2757337093353271484 1.044314265251159668 1.0894466638565063477 1.168995976448059082 1.0374721288681030273 1.3752928972244262695 1.4493403434753417969 1.0351024866104125977 1.1096309423446655273 2.4515626430511474609 1.2018388509750366211 1.1711549758911132813 1.0621008872985839844 1.0621008872985839844 1.1245682239532470703 1.0627461671829223633 1.3612657785415649414 1.0404191017150878906 1.1928366422653198242 1.1028864383697509766 1.6868594884872436523 3.2410285472869873047 2.6151242256164550781 1.0378412008285522461 1.0378412008285522461 1.0187373161315917969 1.1488279104232788086 1.2663730382919311523 1.0382274389266967773 1.1374566555023193359 1.2018388509750366211 1.2668840885162353516 1.1080422401428222656 1.0867646932601928711 1.0711750984191894531 1.0496459007263183594 1.8202192783355712891 1.8412128686904907227 1.7923849821090698242 2.5400426387786865234 2.2494778633117675781 2.8685235977172851563 3.5730662345886230469 3.5621368885040283203 2.7197172641754150391 2.9741559028625488281 2.3847064971923828125 1.9857598543167114258 1.947999119758605957 1.9768984317779541016 1.9973937273025512695 2.669445037841796875 3.4754109382629394531 3.9957768917083740234 3.1391255855560302734 2.5523610115051269531 1.7275257110595703125 1.7365926504135131836 2.1614532470703125 2.0356225967407226563 1.910046696662902832 2.4859673976898193359 1.8666183948516845703 2.018390655517578125 
1.2139574289321899414 1.6968418359756469727 1.6205741167068481445 1.5450694561004638672 1.0672566890716552734 1.259593963623046875 1.4764115810394287109 1.684162139892578125 1.996773838996887207 2.27733612060546875 2.5821812152862548828 2.2569549083709716797 2.9074077606201171875 2.6472265720367431641 2.7496526241302490234 2.105182647705078125 2.018390655517578125 1.910046696662902832 2.5651133060455322266 1.9138265848159790039 1.8833678960800170898 2.2418475151062011719 2.3991460800170898438 1.7338654994964599609 1.9533454179763793945 2.3130805492401123047 2.7634637355804443359 2.2329068183898925781 1.8387346267700195313 2.1192755699157714844 1.9111143350601196289 1.5414568185806274414 1.656422734260559082 1.6745007038116455078 1.7752929925918579102 2.0412652492523193359 1.6071105003356933594 2.1670196056365966797 2.2916948795318603516 2.1467132568359375 2.6351735591888427734 2.6329488754272460938 2.2265233993530273438 2.1076433658599853516 1.6868134737014770508 1.6919205188751220703 2.0345456600189208984 1.9264795780181884766 3.0782184600830078125 2.8931348323822021484 2.6419312953948974609 2.5121734142303466797 2.7668938636779785156 2.4481680393218994141 2.3171923160552978516 1.7699517011642456055 1.3536111116409301758 1.0517148971557617188 1.3906348943710327148 1.0646787881851196289 1.2885658740997314453 1.2081786394119262695 1.214518427848815918 1.2235205173492431641 1.1711549758911132813 1.2298604249954223633 1.0030351877212524414 1.3102476596832275391 1.331929326057434082 1.3147664070129394531 1.5297275781631469727 1.2959128618240356445 1.6751600503921508789 1.5667512416839599609 1.6905019283294677734 1.8967738151550292969 2.0617542266845703125 2.6255447864532470703 3.7591397762298583984 3.5014317035675048828 3.7473170757293701172 3.9611980915069580078 3.4201703071594238281 4.0999045372009277344 3.4277698993682861328 3.7924916744232177734 4.0647330284118652344 4.4726586341857910156 4.71559906005859375 4.9008116722106933594 4.5804324150085449219 4.3699541091918945313 4.8070006370544433594 3.6352105140686035156 3.1790595054626464844 2.4952552318572998047 2.4021832942962646484 3.3287844657897949219 3.3928894996643066406 3.3060772418975830078 3.2330200672149658203 2.9634699821472167969 3.1616184711456298828 3.2527873516082763672 3.5657169818878173828 2.6344311237335205078 2.7991547584533691406 3.1800465583801269531 3.6933317184448242188 4.1818256378173828125 4.7316503524780273438 4.1913228034973144531 3.8212835788726806641 3.7126266956329345703 3.0092387199401855469 3.6671168804168701172 3.6825549602508544922 4.5376591682434082031 4.4674973487854003906 4.4631052017211914063 4.1986865997314453125 3.4670014381408691406 3.1637747287750244141 3.1840739250183105469 2.8038411140441894531 2.8582468032836914063 2.4381382465362548828 2.2111461162567138672 1.9687675237655639648 1.7713314294815063477 1.2378696203231811523 1.2390027046203613281 1.6157147884368896484 1.7243778705596923828 1.3877351284027099609 1.513592839241027832 1.4868887662887573242 1.3765388727188110352 1.4937379360198974609 1.8567860126495361328 1.3752928972244262695 1.5889815092086791992 1.2416249513626098633 1.2885658740997314453 1.0406931638717651367 1.9041965007781982422 1.4710749387741088867 1.1801570653915405273 1.1928366422653198242 1.214518427848815918 1.1310622692108154297 1.9041965007781982422 1.15718841552734375 1.2642998695373535156 1.0404191017150878906 1.0844278335571289063 1.0043752193450927734 1.9108177423477172852 1.0378412008285522461 1.0378412008285522461 1.391209721565246582 1.1711549758911132813 1.2362002134323120117 1.1054643392562866211 1.1711549758911132813 1.2298604249954223633 1.3472713232040405273 1.0460247993469238281 1.1295099258422851563 1.2018388509750366211 1.331929326057434082 1.3752928972244262695 1.2317259311676025391 1.7330949306488037109 2.0423161983489990234 2.1489217281341552734 2.2384591102600097656 2.4245774745941162109 3.3673193454742431641 3.9227361679077148438 3.7126634120941162109 2.9051916599273681641 2.7079081535339355469 2.1150639057159423828 2.4923284053802490234 2.7337381839752197266 1.9291331768035888672 1.9104084968566894531 3.4671256542205810547 3.3597328662872314453 2.8525958061218261719 2.4039127826690673828 1.886977076530456543 2.4172999858856201172 2.2381148338317871094 2.1506578922271728516 1.7799562215805053711 1.8142527341842651367 1.7275257110595703125 2.4143054485321044922 
1.331929326057434082 1.4620199203491210938 1.004290461540222168 1.0977938175201416016 1.5730910301208496094 1.6534782648086547852 1.3029574155807495117 1.684162139892578125 2.105182647705078125 2.3490629196166992188 1.910046696662902832 2.0581049919128417969 2.6576604843139648438 2.7989988327026367188 2.2215070724487304688 2.1619424819946289063 2.7122719287872314453 2.0903604030609130859 1.8883001804351806641 1.4764115810394287109 2.0835008621215820313 1.6641292572021484375 1.7185235023498535156 1.7523826360702514648 1.6894602775573730469 2.0469388961791992188 2.10205841064453125 2.0944359302520751953 2.5844562053680419922 2.259220123291015625 2.7970757484436035156 2.3229641914367675781 2.1172068119049072266 1.8864606618881225586 2.5445389747619628906 2.3581249713897705078 2.3720927238464355469 2.0672924518585205078 2.8918282985687255859 2.3127930164337158203 2.2253663539886474609 2.7376985549926757813 2.4263370037078857422 2.4737517833709716797 1.7529489994049072266 2.0055301189422607422 2.1363589763641357422 2.1365411281585693359 2.3499040603637695313 2.2354373931884765625 2.0777406692504882813 2.2978203296661376953 2.3307602405548095703 2.57950592041015625 2.2717785835266113281 2.0488226413726806641 1.7465405464172363281 1.440338134765625 1.9295563697814941406 1.3409315347671508789 1.1314944028854370117 1.0404191017150878906 1.1277914047241210938 1.2578819990158081055 1.2452023029327392578 1.2235205173492431641 1.2362002134323120117 1.2452023029327392578 1.0073043107986450195 1.100464940071105957 1.1425505876541137695 1.3409315347671508789 1.0508012771606445313 1.7402052879333496094 1.6101148128509521484 1.7582744359970092773 2.1268644332885742188 2.6439540386199951172 2.6136786937713623047 2.3653635978698730469 2.6898565292358398438 2.5305390357971191406 2.7337598800659179688 3.8477966785430908203 3.2759976387023925781 4.4915232658386230469 4.8108448982238769531 5.5297269821166992188 5.1139836311340332031 4.4782133102416992188 5.5252594947814941406 4.9948740005493164063 5.4693555831909179688 4.0001311302185058594 3.3056747913360595703 2.9443371295928955078 3.5081014633178710938 3.369541168212890625 2.9746778011322021484 3.5844309329986572266 2.8970983028411865234 2.6064813137054443359 2.7157435417175292969 3.3845534324645996094 3.2096247673034667969 2.4100823402404785156 2.4204242229461669922 2.782489776611328125 3.8477156162261962891 4.3844165802001953125 4.06148529052734375 3.9267652034759521484 4.2374453544616699219 3.6203243732452392578 3.4416801929473876953 3.9425547122955322266 4.0621867179870605469 5.0354290008544921875 5.0944409370422363281 3.8620920181274414063 3.0872237682342529297 3.5584349632263183594 3.1363193988800048828 2.7073500156402587891 3.0143938064575195313 3.1544804573059082031 2.7995080947875976563 2.4674620628356933594 2.2783660888671875 1.6886800527572631836 1.3896375894546508789 1.5222530364990234375 1.7948369979858398438 1.7213388681411743164 1.5735267400741577148 1.6853619813919067383 2.1348788738250732422 1.2452023029327392578 1.3913187980651855469 1.5900501012802124023 1.2939721345901489258 1.6287708282470703125 1.4276585578918457031 1.2975679636001586914 1.1271461248397827148 1.1245682239532470703 1.0115746259689331055 1.1271461248397827148 1.1277914047241210938 1.3536111116409301758 1.0621008872985839844 1.0326956510543823242 1.106109619140625 1.0193825960159301758 1.0303750038146972656 1.301726222038269043 1.0303750038146972656 1.0812047719955444336 1.5592255592346191406 1.1028864383697509766 1.1277914047241210938 1.0621008872985839844 1.331929326057434082 1.1711549758911132813 1.1054643392562866211 1.331929326057434082 1 1.2300459146499633789 1.0016961097717285156 1.2668840885162353516 1.0863605737686157227 1.3626133203506469727 1.2378400564193725586 1.4706053733825683594 2.0411601066589355469 2.2508139610290527344 2.9343929290771484375 2.3735260963439941406 2.3675420284271240234 2.8253126144409179688 3.1015901565551757813 3.848979949951171875 2.6857671737670898438 2.1634464263916015625 1.8756172657012939453 2.3666939735412597656 1.865591883659362793 2.1569037437438964844 2.8196663856506347656 3.049617767333984375 2.818553924560546875 1.5880601406097412109 2.1487567424774169922 1.9056671857833862305 2.2004907131195068359 2.1004967689514160156 2.0474276542663574219 1.8232548236846923828 1.8576163053512573242 2.2352731227874755859 
1.0867646932601928711 1.0559328794479370117 1.0116183757781982422 1.4493403434753417969 1.6011126041412353516 1.6905019283294677734 2.0924541950225830078 1.8792979717254638672 2.0835008621215820313 2.6239283084869384766 2.1051177978515625 1.9317284822463989258 2.5821812152862548828 2.01845550537109375 1.8956316709518432617 1.6932291984558105469 1.9439435005187988281 1.756573796272277832 1.8359345197677612305 1.6277229785919189453 1.5631386041641235352 1.5450694561004638672 1.6534782648086547852 1.6398625373840332031 1.4800242185592651367 1.8489345312118530273 1.8865778446197509766 1.7402052879333496094 1.8081771135330200195 2.4833540916442871094 2.6273331642150878906 2.9729208946228027344 2.0617933273315429688 2.5583388805389404297 2.5112812519073486328 2.1896510124206542969 2.1034312248229980469 2.3055946826934814453 2.2054615020751953125 2.5318672657012939453 2.0711791515350341797 2.4605638980865478516 2.6939017772674560547 2.7251775264739990234 2.0359129905700683594 1.9265531301498413086 2.1017663478851318359 2.2347991466522216797 2.3885414600372314453 2.8462500572204589844 2.6326613426208496094 2.2775280475616455078 2.0891568660736083984 2.5601723194122314453 1.7319837808609008789 2.2524671554565429688 1.7263411283493041992 1.4164830446243286133 1.7303133010864257813 1.3627029657363891602 1.1928366422653198242 1.0535526275634765625 1.0268088579177856445 1 1.1928366422653198242 1.044314265251159668 1.2578819990158081055 1.1080422401428222656 1.2300459146499633789 1.1297240257263183594 1.3626133203506469727 1.231684565544128418 1.0889384746551513672 1.5947728157043457031 1.5577491521835327148 1.5371892452239990234 1.7275257110595703125 1.9380034208297729492 2.4853632450103759766 2.3976645469665527344 2.1267995834350585938 2.1578261852264404297 2.1340224742889404297 2.3870453834533691406 2.2919514179229736328 2.56076812744140625 4.8218874931335449219 4.2670812606811523438 3.5853562355041503906 4.9868588447570800781 5.2213606834411621094 5.6882715225219726563 3.7014479637145996094 3.6867265701293945313 2.8426165580749511719 3.2633457183837890625 3.7564437389373779297 3.0454058647155761719 3.0443012714385986328 3.7624528408050537109 3.2529323101043701172 3.0065064430236816406 3.110736846923828125 3.3830373287200927734 3.4246265888214111328 3.4605288505554199219 2.8374800682067871094 3.6067578792572021484 4.2733907699584960938 3.5518355369567871094 3.3649051189422607422 3.3505129814147949219 3.0439155101776123047 2.781402587890625 3.0818030834197998047 3.8671278953552246094 3.1939339637756347656 4.6499409675598144531 4.61157989501953125 4.7194385528564453125 4.4539713859558105469 4.6228690147399902344 3.9746830463409423828 2.6281821727752685547 3.0108969211578369141 2.5668387413024902344 2.4684610366821289063 2.6724441051483154297 2.2936875820159912109 1.6657339334487915039 1.9041965007781982422 2.0747554302215576172 2.0512671470642089844 2.4813802242279052734 2.2483732700347900391 2.05669403076171875 1.6331396102905273438 1.9758098125457763672 1.9338364601135253906 1.8384228944778442383 1.7855010032653808594 1.7877668142318725586 1.5649918317794799805 1.3752928972244262695 1.2081786394119262695 1.1494731903076171875 1.2957750558853149414 1.1245682239532470703 1.1028864383697509766 1.1054643392562866211 1.2578819990158081055 1.0435590744018554688 1.044114232063293457 1.0690859556198120117 1.6955621242523193359 1.0378412008285522461 1.0007755756378173828 2.4689557552337646484 1.4710749387741088867 1.0309851169586181641 1.1494731903076171875 1.214518427848815918 1.2749919891357421875 1.2262327671051025391 1.3102476596832275391 1.4712044000625610352 1.1801570653915405273 1.2300459146499633789 1.0863605737686157227 1.3969746828079223633 1.0496459007263183594 1.5143855810165405273 1.4933949708938598633 2.0088829994201660156 2.3034870624542236328 1.9795418977737426758 2.5090677738189697266 2.3582479953765869141 2.2575304508209228516 2.2744095325469970703 2.5419797897338867188 2.7193748950958251953 1.9957990646362304688 1.8925269842147827148 2.138568878173828125 2.0160288810729980469 2.4583766460418701172 2.5562694072723388672 2.6257050037384033203 2.4350762367248535156 3.3859150409698486328 2.1565763950347900391 2.0479118824005126953 2.3608732223510742188 2.6607794761657714844 2.3784339427947998047 2.2628247737884521484 1.6611472368240356445 2.1702277660369873047 3.1013185977935791016 
1.0646787881851196289 1.1514058113098144531 1.5297275781631469727 1.1295033693313598633 1.4426459074020385742 1.1947731971740722656 1.9430011510848999023 1.909981846809387207 2.4523704051971435547 2.3469946384429931641 2.3653635978698730469 2.3053367137908935547 2.4304089546203613281 1.9671150445938110352 2.5308971405029296875 2.0618190765380859375 2.4754087924957275391 1.9750920534133911133 1.9009797573089599609 1.4264926910400390625 1.7708891630172729492 1.6751600503921508789 1.6780474185943603516 1.5450694561004638672 1.3300700187683105469 1.7094782590866088867 1.6454606056213378906 1.77472686767578125 2.2652900218963623047 2.3575947284698486328 1.938406825065612793 2.3787076473236083984 2.1485462188720703125 2.1217675209045410156 2.010509490966796875 1.8329221010208129883 1.8512231111526489258 2.2112381458282470703 2.8871846199035644531 2.5620582103729248047 2.4756550788879394531 2.3456542491912841797 2.5192761421203613281 2.3933842182159423828 2.2848453521728515625 2.4791657924652099609 2.3074600696563720703 1.9860782623291015625 2.6721315383911132813 2.4968006610870361328 2.9036712646484375 2.4096672534942626953 2.3470990657806396484 2.3123688697814941406 2.1344089508056640625 1.5334311723709106445 1.6246292591094970703 1.4841840267181396484 1.4122951030731201172 1.2262587547302246094 1.214518427848815918 1.106109619140625 1.0336509943008422852 1.0595229864120483398 1.0812047719955444336 1.1028864383697509766 1.9041965007781982422 1.9041965007781982422 1.1054643392562866211 1.3409774303436279297 1.0498460531234741211 1.2885658740997314453 1.5720384120941162109 1.5143855810165405273 1.2268052101135253906 1.6751600503921508789 1.5233876705169677734 1.6575677394866943359 1.8052506446838378906 1.6281838417053222656 1.9163217544555664063 1.7121837139129638672 1.7582744359970092773 1.7559220790863037109 1.7324490547180175781 2.3114590644836425781 2.9481949806213378906 3.824893951416015625 4.0929341316223144531 4.4363102912902832031 5.1070761680603027344 3.7646906375885009766 3.4494256973266601563 3.3580820560455322266 3.1314854621887207031 3.6438648700714111328 3.6781952381134033203 3.3957378864288330078 3.1289544105529785156 3.8543386459350585938 3.0347399711608886719 3.6212871074676513672 3.9102673530578613281 2.9384658336639404297 3.6797673702239990234 3.0952942371368408203 3.292819976806640625 2.8761830329895019531 3.0594756603240966797 3.0837244987487792969 2.6549041271209716797 3.7862255573272705078 2.6030321121215820313 2.3726851940155029297 3.0221610069274902344 3.3606517314910888672 4.1313509941101074219 3.8254361152648925781 5.2318220138549804688 4.6642246246337890625 4.6620578765869140625 3.6973972320556640625 3.6013331413269042969 3.0757420063018798828 2.655048370361328125 2.6618008613586425781 2.2019352912902832031 2.1018407344818115234 1.9729726314544677734 1.6336342096328735352 1.717831730842590332 2.1304388046264648438 2.4542124271392822266 2.3436281681060791016 2.71399688720703125 2.5543267726898193359 2.424037933349609375 1.986905217170715332 1.6617817878723144531 1.8330550193786621094 2.0276038646697998047 2.0453569889068603516 1.5336356163024902344 1.3583964109420776367 1.3102476596832275391 1.1271461248397827148 1.6955621242523193359 1.0378412008285522461 1.0017797946929931641 1.0268088579177856445 1.4676939249038696289 1.2300459146499633789 1.214518427848815918 1.9041965007781982422 1.1028864383697509766 1.1245682239532470703 1.0378412008285522461 1.0309851169586181641 1.0535526275634765625 1.0844278335571289063 1.2957750558853149414 1.1928366422653198242 1.1494731903076171875 1.1159840822219848633 1.0863605737686157227 1.418656468391418457 1.0646787881851196289 1.1187388896942138672 1.2321436405181884766 1.3906348943710327148 1.3472713232040405273 1.3665926456451416016 2.2021968364715576172 2.0062131881713867188 2.2370843887329101563 2.2861475944519042969 2.2366888523101806641 2.0489275455474853516 2.1543178558349609375 2.4859607219696044922 2.376071929931640625 2.0036907196044921875 1.9966268539428710938 2.0010647773742675781 1.4671046733856201172 2.1425855159759521484 2.8828191757202148438 2.9068205356597900391 2.9853115081787109375 2.5986883640289306641 2.5868504047393798828 2.0821127891540527344 2.1956894397735595703 2.4149043560028076172 2.4515869617462158203 2.018390655517578125 2.2642927169799804688 1.9750272035598754883 2.4870591163635253906 2.4304089546203613281 
1.4710220098495483398 1.3409315347671508789 1.4113662242889404297 1.4980933666229248047 1.4427245855331420898 1.7492074966430664063 1.8754051923751831055 1.8666832447052001953 2.7708570957183837891 1.9821028709411621094 2.1753380298614501953 2.3653635978698730469 2.5542464256286621094 2.6035103797912597656 2.9072222709655761719 2.3808658123016357422 2.9179053306579589844 2.2553281784057617188 2.2174942493438720703 1.8681181669235229492 1.6751600503921508789 1.5637013912200927734 1.4710220098495483398 1.302691340446472168 1.34868621826171875 1.9103528261184692383 1.433338165283203125 1.5553002357482910156 2.7536280155181884766 2.2319655418395996094 2.3301143646240234375 2.0856907367706298828 1.6534782648086547852 1.7275257110595703125 1.8792979717254638672 1.6968418359756469727 1.9120988845825195313 1.7918388843536376953 2.6270442008972167969 2.5418605804443359375 2.5467855930328369141 2.7850725650787353516 2.3647234439849853516 2.2337281703948974609 1.9738676548004150391 2.3357548713684082031 2.0973880290985107422 2.0598149299621582031 2.5077302455902099609 2.1290426254272460938 2.78533935546875 2.2075464725494384766 1.6749085187911987305 1.5994042158126831055 1.2727681398391723633 1.5703003406524658203 1.2659032344818115234 1.2668840885162353516 1.3536111116409301758 1.1271461248397827148 1.4710749387741088867 1.1711549758911132813 1.0424036979675292969 1.0344061851501464844 1.0378412008285522461 1.0378412008285522461 1.6003824472427368164 1.0812047719955444336 1.044114232063293457 1.1559113264083862305 1.3969746828079223633 1.3102476596832275391 1.5577491521835327148 1.6534782648086547852 1.4051382541656494141 1.6101148128509521484 1.0508012771606445313 1.3626133203506469727 1.4927037954330444336 1.6317964792251586914 1.636662602424621582 1.5080457925796508789 1.6297675371170043945 1.6525062322616577148 1.8565558195114135742 1.80655670166015625 1.7708891630172729492 3.4293599128723144531 4.9394216537475585938 3.8095834255218505859 3.6111516952514648438 3.9560637474060058594 3.6401827335357666016 2.9428377151489257813 3.1096968650817871094 3.2402784824371337891 3.3553340435028076172 3.174076080322265625 3.9475345611572265625 3.4616520404815673828 3.5501124858856201172 3.7892315387725830078 3.3918559551239013672 3.14962005615234375 2.8197829723358154297 3.1399121284484863281 3.5862004756927490234 3.4625051021575927734 3.5315480232238769531 2.8232340812683105469 2.5488612651824951172 2.5814814567565917969 2.6143221855163574219 2.2068669795989990234 2.1064910888671875 2.5797803401947021484 4.0711917877197265625 3.5316405296325683594 4.3356428146362304688 4.8893861770629882813 3.7063663005828857422 3.4190652370452880859 3.0007679462432861328 3.7250425815582275391 3.1283707618713378906 2.8679819107055664063 2.1969380378723144531 2.2262647151947021484 1.7187265157699584961 1.9627337455749511719 1.84853363037109375 2.0275056362152099609 2.3698928356170654297 2.2384150028228759766 2.5373318195343017578 2.8393132686614990234 2.5893433094024658203 2.1481938362121582031 2.1572167873382568359 1.8072243928909301758 1.6080312728881835938 1.9283285140991210938 1.8932803869247436523 1.8342708349227905273 1.3689531087875366211 1.2578819990158081055 1.5630494356155395508 1.3183530569076538086 1.0690859556198120117 1.0016961097717285156 1.6600682735443115234 1.0837826728820800781 1.1494731903076171875 1.1054643392562866211 1.6691575050354003906 1.0844278335571289063 2.1344089508056640625 1.0016961097717285156 1.2578819990158081055 1.6955621242523193359 1.1028864383697509766 1.1054643392562866211 1.2885658740997314453 1.0646787881851196289 1.0067185163497924805 1.1712939739227294922 1.440338134765625 1.0365169048309326172 1.418656468391418457 1.2795636653900146484 1.331929326057434082 1.5622106790542602539 1.7472872734069824219 2.0622990131378173828 2.4788160324096679688 2.4450740814208984375 1.8172876834869384766 1.907543182373046875 1.902617335319519043 2.1772754192352294922 2.3022987842559814453 1.9642602205276489258 2.0121731758117675781 2.0581495761871337891 1.401059269905090332 1.4829283952713012695 2.2746019363403320313 2.6618180274963378906 2.7657978534698486328 2.1481883525848388672 2.730808258056640625 2.7531189918518066406 2.7587788105010986328 2.5637912750244140625 2.0617542266845703125 1.909981846809387207 2.3042681217193603516 2.1865625381469726563 2.2220833301544189453 2.8311641216278076172 
1.4493403434753417969 1.8690657615661621094 1.8576163053512573242 1.8666183948516845703 1.9009797573089599609 1.7799562215805053711 2.4568703174591064453 2.6365554332733154297 2.5955789089202880859 2.1485462188720703125 2.0788323879241943359 2.0510344505310058594 2.5753624439239501953 2.6502008438110351563 3.1675887107849121094 3.3193612098693847656 3.4270091056823730469 2.3311939239501953125 2.2135913372039794922 1.8666832447052001953 1.4330480098724365234 1.684162139892578125 1.4726740121841430664 1.0861399173736572266 1.4951384067535400391 1.5794308185577392578 1.4059767723083496094 1.9835878610610961914 2.5430061817169189453 2.2005457878112792969 1.7058439254760742188 1.7618870735168457031 1.792570948600769043 1.6606928110122680664 1.9484548568725585938 1.8128678798675537109 2.0909054279327392578 2.3194499015808105469 2.7172429561614990234 2.6057851314544677734 2.2594935894012451172 1.9650194644927978516 2.2519509792327880859 2.1100966930389404297 1.5761816501617431641 1.6887857913970947266 1.4937328100204467773 1.6003015041351318359 2.2639486789703369141 2.0915076732635498047 2.6392238140106201172 2.1967699527740478516 2.1018819808959960938 1.5652070045471191406 1.5166825056076049805 1.4084585905075073242 1.75469970703125 1.1262996196746826172 1.0711750984191894531 1.1245682239532470703 2.2151329517364501953 1.1245682239532470703 1.1028864383697509766 1.1245682239532470703 1.6955621242523193359 1.0043752193450927734 3.0418324470520019531 1.0595229864120483398 1.1028864383697509766 1.0711750984191894531 1.2235205173492431641 1.1604782342910766602 1.4436979293823242188 1.2162303924560546875 1.6534782648086547852 1.2379121780395507813 1.3842949867248535156 1.3752928972244262695 1.5078794956207275391 1.0002199411392211914 1.0513564348220825195 1.4059767723083496094 1.3981013298034667969 1.5927355289459228516 1.671950221061706543 2.3894281387329101563 2.0222196578979492188 2.9008462429046630859 3.806102752685546875 3.3375222682952880859 2.9936764240264892578 3.4708127975463867188 4.4986257553100585938 3.2497391700744628906 3.0397491455078125 3.0525517463684082031 3.1939558982849121094 3.9440631866455078125 3.7717008590698242188 3.6048669815063476563 3.4215819835662841797 3.4182670116424560547 3.1502223014831542969 3.7615396976470947266 2.9796433448791503906 3.3641936779022216797 3.4668316841125488281 4.2254147529602050781 3.2089047431945800781 2.9283440113067626953 3.0055129528045654297 2.6168432235717773438 3.0094678401947021484 2.5604994297027587891 2.4873964786529541016 3.0044946670532226563 3.3034114837646484375 3.7795383930206298828 4.3194837570190429688 3.9690353870391845703 4.024196624755859375 3.4082624912261962891 2.441616058349609375 2.9177541732788085938 3.0079200267791748047 3.0109536647796630859 1.9990307092666625977 2.0085897445678710938 1.9215400218963623047 2.0418441295623779297 2.0336842536926269531 2.2333056926727294922 2.1698560714721679688 2.5627758502960205078 3.0587310791015625 2.6617550849914550781 2.5237774848937988281 2.2243573665618896484 2.0686409473419189453 1.4765679836273193359 1.5105558633804321289 1.5468921661376953125 1.5390633344650268555 1.5926163196563720703 1.5231620073318481445 1.379033207893371582 1.9041965007781982422 1.0406931638717651367 1.6955621242523193359 1.0050448179244995117 1.1494731903076171875 1.214518427848815918 1.0187373161315917969 1.0350384712219238281 1.1494731903076171875 1.0258535146713256836 1.6600682735443115234 1.9041965007781982422 1.1462500095367431641 1.8689830303192138672 2.2353098392486572266 1.3612657785415649414 1.1494731903076171875 1.2668840885162353516 1.1987824440002441406 1.3969746828079223633 1.4493403434753417969 1.3969746828079223633 1.331929326057434082 1.2668840885162353516 1.3409315347671508789 1.4372143745422363281 1.3805235624313354492 2.0609085559844970703 2.7021427154541015625 1.9143842458724975586 1.8914778232574462891 1.9057650566101074219 2.7631850242614746094 2.3142664432525634766 2.34203338623046875 2.1116061210632324219 1.8465611934661865234 1.8021597862243652344 1.4078958034515380859 1.5431611537933349609 1.9743192195892333984 2.2611076831817626953 2.5434124469757080078 2.198818206787109375 2.2529971599578857422 2.1001977920532226563 2.4948236942291259766 2.7265951633453369141 2.2108738422393798828 1.7793097496032714844 2.3235449790954589844 1.8449366092681884766 1.7275257110595703125 2.4428884983062744141 
1.4839978218078613281 1.7924706935882568359 2.0834360122680664063 1.9317284822463989258 2.1525194644927978516 2.3436820507049560547 2.1337502002716064453 2.4882659912109375 3.0566060543060302734 2.4430370330810546875 2.7205586433410644531 2.2346024513244628906 1.873821258544921875 3.2759976387023925781 3.2109522819519042969 3.14296722412109375 3.9744565486907958984 3.4628455638885498047 2.8857259750366210938 2.0791523456573486328 2.1168096065521240234 2.7354745864868164063 2.1103751659393310547 1.8705176115036010742 1.6275866031646728516 1.8479189872741699219 2.0984749794006347656 1.9766681194305419922 2.058322906494140625 1.6698732376098632813 1.4988003969192504883 1.7680766582489013672 2.1835460662841796875 1.8923286199569702148 2.4526114463806152344 3.0289523601531982422 2.3517217636108398438 2.6905829906463623047 2.4436316490173339844 2.4780039787292480469 1.6167061328887939453 2.2381815910339355469 1.5001628398895263672 1.190892338752746582 1.0599373579025268555 1.0839670896530151367 1.305571436882019043 1.416527867317199707 1.0309851169586181641 1.7221171855926513672 1.8619250059127807617 2.0631909370422363281 2.1071007251739501953 1.4582738876342773438 2.2151329517364501953 1.422673344612121582 1.9041965007781982422 1.1028864383697509766 1.0115746259689331055 1.1219903230667114258 1.7058150768280029297 2.8139696121215820313 1.301726222038269043 1.0303750038146972656 1.0812047719955444336 1.0378412008285522461 1.2955501079559326172 1.0378412008285522461 1.5630494356155395508 1.5902960300445556641 1.1928366422653198242 1.0557328462600708008 1.1534153223037719727 1.6101148128509521484 1.5577491521835327148 1.6011126041412353516 1.2196007966995239258 1.3102476596832275391 1.3536111116409301758 1.331929326057434082 1.0429970026016235352 1.3626133203506469727 1.1945487260818481445 1.5360673666000366211 2.1181731224060058594 2.6910250186920166016 3.0392177104949951172 3.1136715412139892578 3.3031191825866699219 3.3463568687438964844 2.4020705223083496094 2.8407943248748779297 3.2568821907043457031 3.6830010414123535156 4.3578743934631347656 3.1878812313079833984 3.5341248512268066406 3.3439939022064208984 3.0151486396789550781 2.8850955963134765625 2.9013600349426269531 2.6726660728454589844 3.4017043113708496094 3.1896345615386962891 4.1039643287658691406 3.6768014430999755859 3.3467895984649658203 3.1148478984832763672 3.2835366725921630859 3.6616826057434082031 3.5549619197845458984 3.6120944023132324219 3.7490251064300537109 3.8845286369323730469 3.4061141014099121094 3.7320015430450439453 3.7436003684997558594 3.265064239501953125 3.1462068557739257813 3.4405448436737060547 3.5405163764953613281 2.9067742824554443359 2.6755237579345703125 2.5154874324798583984 2.3713355064392089844 2.407947540283203125 1.5680704116821289063 2.1555504798889160156 2.7204768657684326172 2.4161894321441650391 2.2418205738067626953 2.2835206985473632813 2.2001559734344482422 2.5149700641632080078 2.3583810329437255859 2.7377948760986328125 2.7514193058013916016 1.8983185291290283203 1.8782368898391723633 1.370792388916015625 1.0837826728820800781 1.7203239202499389648 1.7961364984512329102 1.4279221296310424805 1.4869055747985839844 1.2362002134323120117 1.1277914047241210938 1.2362002134323120117 1.0426037311553955078 1.1711549758911132813 1.1488279104232788086 1.4477106332778930664 1.4101283550262451172 2.1156768798828125 1.3785030841827392578 1.233286738395690918 1.9041965007781982422 1.0212770700454711914 1.1494731903076171875 2.2233111858367919922 1.0844278335571289063 1.3540925979614257813 1.1054643392562866211 1.418656468391418457 1.4927037954330444336 1.3906348943710327148 1.4676939249038696289 1 1.2516134977340698242 1.1831762790679931641 1.4710220098495483398 1.5494936704635620117 1.2452023029327392578 1.6331266164779663086 1.799403071403503418 1.867367863655090332 2.2121613025665283203 2.2446260452270507813 2.3825733661651611328 2.2209229469299316406 1.9697111845016479492 1.9664260149002075195 1.4218611717224121094 1.4327514171600341797 1.440338134765625 1.7997772693634033203 1.6374332904815673828 1.7644565105438232422 1.9916661977767944336 1.8926466703414916992 2.2544603347778320313 2.0850188732147216797 2.2389156818389892578 2.3461282253265380859 1.7548607587814331055 2.3109083175659179688 2.2606210708618164063 1.7708891630172729492 1.8929910659790039063 2.0556302070617675781 
1.684162139892578125 2.06830596923828125 1.7275257110595703125 2.0845122337341308594 2.0618190765380859375 2.8239111900329589844 2.1919095516204833984 2.7759592533111572266 2.8206806182861328125 2.7556354999542236328 3.1016099452972412109 2.9730877876281738281 2.8827662467956542969 3.2117383480072021484 3.4227750301361083984 4.0856871604919433594 4.1975851058959960938 3.6431612968444824219 3.3276185989379882813 2.3660471439361572266 2.7556354999542236328 2.7953085899353027344 2.0533497333526611328 1.8792979717254638672 2.1870942115783691406 2.3049232959747314453 2.4310030937194824219 2.2842662334442138672 2.5398159027099609375 2.0870218276977539063 1.8170568943023681641 1.8889589309692382813 1.8889474868774414063 2.1807920932769775391 2.1916995048522949219 2.6991314888000488281 2.4071772098541259766 2.3420546054840087891 2.3056759834289550781 1.9748320579528808594 1.3908203840255737305 1.3536111116409301758 1.7054418325424194336 1.1076474189758300781 1.1028864383697509766 1.9041965007781982422 1.0016961097717285156 1.9041965007781982422 1.215729832649230957 1.5453623533248901367 1.7979987859725952148 1.6197950839996337891 1.8295098543167114258 1.1494731903076171875 1.0326956510543823242 1.031940460205078125 1.0812047719955444336 2.4689557552337646484 1.0203218460083007813 1.100308537483215332 2.6049542427062988281 2.2552065849304199219 2.5863945484161376953 2.2016704082489013672 1.3555462360382080078 1.106109619140625 1.0187373161315917969 1.1494731903076171875 1.0016961097717285156 1.0406931638717651367 1.2018388509750366211 1.0435590744018554688 1.1614425182342529297 1.2137609720230102539 1.5667512416839599609 1.4123165607452392578 1.418656468391418457 1.1297240257263183594 1.2651404142379760742 1.0005103349685668945 1.0551776885986328125 1.2045959234237670898 1.6101148128509521484 1.6295553445816040039 1.6011126041412353516 1.9159572124481201172 2.0762879848480224609 2.0676791667938232422 3.01251983642578125 2.6320121288299560547 2.532207489013671875 2.8505308628082275391 3.2314441204071044922 3.5759751796722412109 3.4659683704376220703 3.2995781898498535156 2.5837044715881347656 2.5384132862091064453 2.2160696983337402344 2.3960361480712890625 1.9204051494598388672 3.1928458213806152344 3.2536709308624267578 3.0949866771697998047 3.9279320240020751953 3.7140595912933349609 2.6452233791351318359 3.2079095840454101563 3.3453836441040039063 3.7110979557037353516 4.6700162887573242188 4.975246429443359375 4.1565999984741210938 3.6832876205444335938 3.7190740108489990234 3.7311689853668212891 3.7593033313751220703 3.8073694705963134766 3.3749649524688720703 3.5597558021545410156 2.5299384593963623047 2.8922410011291503906 2.5148491859436035156 2.0134561061859130859 2.2876429557800292969 2.4646272659301757813 1.4927037954330444336 1.9708528518676757813 1.6615563631057739258 1.8593603372573852539 2.3145985603332519531 2.1526336669921875 1.9506905078887939453 2.2105002403259277344 2.1761112213134765625 2.4891424179077148438 2.0591320991516113281 2.1713287830352783203 1.7485094070434570313 1.5440856218338012695 1.3700186014175415039 1.6867656707763671875 1.6721105575561523438 1.7389228343963623047 1.2957750558853149414 1.1520818471908569336 1.3819359540939331055 1.4067641496658325195 1.2885658740997314453 1.044314265251159668 1.1005829572677612305 1.3969746828079223633 1.6334159374237060547 2.2578330039978027344 1.6927590370178222656 1.2882900238037109375 1.4586333036422729492 1.4246008396148681641 1.799733281135559082 1.320117950439453125 1.3561367988586425781 1.2300459146499633789 1.2362002134323120117 1.2300459146499633789 1.0429970026016235352 1.0867646932601928711 1.2298238277435302734 1.4153162240982055664 1.3626133203506469727 1.610409855842590332 1.9576635360717773438 1.5119827985763549805 1.4223426580429077148 1.7691614627838134766 2.0058562755584716797 2.6477799415588378906 2.3536198139190673828 2.3580479621887207031 2.4468257427215576172 2.1565186977386474609 2.0542817115783691406 2.0366723537445068359 1.5315529108047485352 1.2297513484954833984 1.2053140401840209961 1.3717398643493652344 1.418255925178527832 1.7970950603485107422 1.7532622814178466797 2.3464086055755615234 1.8136719465255737305 1.9200676679611206055 2.0587871074676513672 1.4691461324691772461 2.0491499900817871094 2.1679818630218505859 2.1187767982482910156 2.1431696414947509766 1.8179796934127807617 2.6802568435668945313 
1.8659954071044921875 1.6624803543090820313 1.7604236602783203125 2.7396135330200195313 2.0385401248931884766 2.3653635978698730469 3.4391283988952636719 3.6588678359985351563 3.6879510879516601563 3.6265239715576171875 3.2543158531188964844 3.0591800212860107422 2.6612088680267333984 3.6340684890747070313 4.3252348899841308594 4.6302542686462402344 3.1907827854156494141 3.7912793159484863281 3.6822910308837890625 4.3223376274108886719 3.1842119693756103516 3.0011310577392578125 1.9750920534133911133 1.9605211019515991211 2.3621933460235595703 2.0401372909545898438 2.5730824470520019531 1.8008928298950195313 1.8947106599807739258 2.6790652275085449219 2.1981143951416015625 1.8816062211990356445 1.6751600503921508789 1.9750272035598754883 2.6593594551086425781 2.5582559108734130859 2.673976898193359375 2.2590889930725097656 2.5077877044677734375 1.5425339937210083008 1.4136676788330078125 1.1864968538284301758 1.1245682239532470703 1.0309851169586181641 1.2856231927871704102 1.0844278335571289063 1.0813843011856079102 1.4710749387741088867 1.6955621242523193359 1.3555462360382080078 1.8689830303192138672 1.5730751752853393555 1.2160357236862182617 1.0627461671829223633 1.9041965007781982422 1.029074549674987793 2.8139696121215820313 2.2016704082489013672 1.0151902437210083008 1.0203218460083007813 2.8139696121215820313 1.0844278335571289063 2.2151329517364501953 1.0378412008285522461 1.0326956510543823242 1.1928366422653198242 1.6791050434112548828 1.8482869863510131836 1.0141685009002685547 1.2300459146499633789 1.0621008872985839844 1.1159840822219848633 1.0009224414825439453 1.3409315347671508789 1.418656468391418457 1.4123165607452392578 1.2885658740997314453 1.1080422401428222656 1.4620199203491210938 1.1382793188095092773 1.4980933666229248047 1.1295033693313598633 1.7420467138290405273 1.4059767723083496094 1.6678249835968017578 1.0213152170181274414 1.5233876705169677734 1.8839306831359863281 2.1234908103942871094 2.4369180202484130859 2.7516703605651855469 2.4406387805938720703 2.2770001888275146484 2.8351805210113525391 2.5851562023162841797 2.4956438541412353516 2.3632555007934570313 2.5245184898376464844 2.3780562877655029297 1.9189018011093139648 2.6808288097381591797 3.1233460903167724609 3.5377421379089355469 3.4535222053527832031 3.7202029228210449219 4.2138648033142089844 3.6502218246459960938 3.7626593112945556641 4.5925288200378417969 4.1112837791442871094 4.3495278358459472656 3.8156387805938720703 2.9524979591369628906 3.7316823005676269531 3.8122224807739257813 4.2087969779968261719 3.2668237686157226563 2.6816663742065429688 2.8141894340515136719 3.4074928760528564453 3.3584649562835693359 3.297847747802734375 2.7605066299438476563 1.9922709465026855469 1.6889307498931884766 1.933002471923828125 1.8924272060394287109 1.6315659284591674805 1.2370890378952026367 1.5725910663604736328 1.5150301456451416016 1.9702764749526977539 2.3301110267639160156 1.800845026969909668 1.9476408958435058594 2.3889782428741455078 2.3374278545379638672 2.0516130924224853516 1.9474138021469116211 1.9785627126693725586 2.1743948459625244141 2.4668276309967041016 2.2073447704315185547 1.970549464225769043 1.2303422689437866211 1.9289002418518066406 1.7960350513458251953 1.516259312629699707 1.3633575439453125 1.2668840885162353516 1.1080422401428222656 1.5317338705062866211 2.1451361179351806641 2.0056557655334472656 1.8863775730133056641 2.0430109500885009766 1.4779616594314575195 1.4780886173248291016 1.6717766523361206055 1.0970888137817382813 1.3633520603179931641 1.0844278335571289063 1.5902960300445556641 1.2795636653900146484 1.0646787881851196289 1.1357930898666381836 1.7887067794799804688 1.8334983587265014648 1.7894208431243896484 1.7965368032455444336 2.2081823348999023438 2.2470853328704833984 1.8851058483123779297 2.0355322360992431641 2.2071392536163330078 2.4976062774658203125 2.3420455455780029297 2.0362715721130371094 2.6265933513641357422 2.0591590404510498047 2.2527618408203125 1.4875125885009765625 1.5297275781631469727 1 1.0015398263931274414 1.4059767723083496094 1.5017060041427612305 1.7323373556137084961 1.806685328483581543 1.6905019283294677734 2.1162993907928466797 1.7618870735168457031 1.4054386615753173828 1.5947728157043457031 1.6101148128509521484 1.6534782648086547852 1.8402665853500366211 2.5209395885467529297 2.5027451515197753906 2.8694746494293212891 
1.7708891630172729492 2.2117855548858642578 2.4304089546203613281 3.0067005157470703125 3.0939555168151855469 2.6092097759246826172 3.558902740478515625 3.8028216361999511719 4.5674152374267578125 3.7609453201293945313 2.8154263496398925781 3.6540408134460449219 3.9893941879272460938 3.5172035694122314453 5.2245945930480957031 6.0157189369201660156 5.0821628570556640625 4.4513134956359863281 4.4960265159606933594 4.142116546630859375 3.1588571071624755859 2.6255447864532470703 2.4540534019470214844 2.105182647705078125 2.1972832679748535156 2.3277232646942138672 2.6038630008697509766 2.3978164196014404297 2.2627890110015869141 2.0786271095275878906 1.9516733884811401367 1.5668978691101074219 2.1361048221588134766 1.6320456266403198242 2.0544219017028808594 2.106319427490234375 2.6878154277801513672 2.3734736442565917969 1.991398930549621582 1.6768027544021606445 1.5000151395797729492 1.2018388509750366211 1.3012454509735107422 1.0605514049530029297 1.031940460205078125 1.0404191017150878906 1.0844278335571289063 1.0378412008285522461 1.0378412008285522461 1.4008883237838745117 1.1022782325744628906 2.5969169139862060547 1.0212770700454711914 1.0115746259689331055 1.9041965007781982422 1.1028864383697509766 1.0378412008285522461 1.0378412008285522461 1.2955501079559326172 1.0595229864120483398 1.0812047719955444336 1.5199795961380004883 2.1344089508056640625 1.0904649496078491211 1.9041965007781982422 1.0187373161315917969 1.3947731256484985352 2.1344089508056640625 1.106109619140625 1.143071293830871582 1.2452023029327392578 1.2885658740997314453 1.331929326057434082 1.3203812837600708008 1.2896772623062133789 1.2668840885162353516 1.2235205173492431641 1.2081786394119262695 1.0005234479904174805 1.3472713232040405273 1.4710220098495483398 1.5360673666000366211 1.4395717382431030273 1.0863605737686157227 1.4610555171966552734 1.2058713436126708984 1.5308949947357177734 1.6321314573287963867 1.9953230619430541992 2.5098013877868652344 2.3605360984802246094 1.9409699440002441406 2.3356444835662841797 2.4388566017150878906 2.1930713653564453125 2.1158463954925537109 2.2237215042114257813 2.3155014514923095703 3.0002179145812988281 2.8432447910308837891 2.5525672435760498047 3.0041899681091308594 3.1389989852905273438 3.4107341766357421875 3.9262652397155761719 3.6799647808074951172 3.4667592048645019531 4.2123513221740722656 4.0205435752868652344 4.7979583740234375 5.5452160835266113281 4.1327128410339355469 3.013011932373046875 3.7591774463653564453 3.0607297420501708984 2.1881043910980224609 2.3957357406616210938 2.3739595413208007813 2.7526991367340087891 3.0597264766693115234 2.5034067630767822266 2.9812779426574707031 2.0462632179260253906 2.0222609043121337891 1.5502604246139526367 1.8575915098190307617 2.0780341625213623047 1.8470226526260375977 1.7877140045166015625 2.1911797523498535156 1.9483094215393066406 2.7666211128234863281 2.461944580078125 2.480220794677734375 2.1768324375152587891 2.1666088104248046875 1.8780503273010253906 2.0798676013946533203 1.898670196533203125 1.7530835866928100586 2.46199798583984375 2.8042683601379394531 2.5765833854675292969 2.9535343647003173828 2.03879547119140625 1.9689583778381347656 2.1334002017974853516 1.7057393789291381836 1.4063470363616943359 1.3310071229934692383 2.0448918342590332031 2.2688038349151611328 2.5417363643646240234 2.6235566139221191406 1.8306834697723388672 1.8721184730529785156 1.72640228271484375 1.9041965007781982422 1.2008869647979736328 1.1711549758911132813 1.2749919891357421875 1.4710749387741088867 1.002951502799987793 1.2578819990158081055 1.2018388509750366211 1.1787863969802856445 1.3676855564117431641 1.8120554685592651367 2.3291501998901367188 2.0601229667663574219 2.2055947780609130859 1.5978511571884155273 1.7548199892044067383 1.9540705680847167969 1.8377224206924438477 2.3824830055236816406 2.2655591964721679688 2.0335056781768798828 1.6570403575897216797 1.8823637962341308594 1.7932255268096923828 1.6054890155792236328 1.3453521728515625 1.0566881895065307617 1.3969746828079223633 1.2235205173492431641 1.0928168296813964844 1.5567840337753295898 1.601435542106628418 2.0407795906066894531 1.8792651891708374023 1.8743156194686889648 1.5450694561004638672 1.5794308185577392578 1.2658764123916625977 1.6688202619552612305 2.4565680027008056641 2.6015727519989013672 2.6590809822082519531 2.6812620162963867188 
1.5466580390930175781 2.1919095516204833984 2.6090524196624755859 2.5101482868194580078 2.6624236106872558594 2.9074077606201171875 4.01651763916015625 4.1505069732666015625 3.4876105785369873047 3.9257912635803222656 4.0806531906127929688 3.2569720745086669922 3.5368812084197998047 3.9481322765350341797 5.1940355300903320313 6.3564391136169433594 6.8320336341857910156 5.9625744819641113281 4.3788933753967285156 4.2123250961303710938 2.5644216537475585938 2.7127521038055419922 2.7204821109771728516 2.6058201789855957031 2.8937876224517822266 2.5604994297027587891 2.6255447864532470703 2.6115911006927490234 2.4648270606994628906 2.6239602565765380859 1.8079129457473754883 1.9238029718399047852 1.792570948600769043 1.834832310676574707 1.9034863710403442383 2.0643970966339111328 1.8233196735382080078 1.6624803543090820313 1.0863605737686157227 1.0496459007263183594 1.2235205173492431641 1.1054643392562866211 1.2957750558853149414 1.0309851169586181641 1.1076474189758300781 2.4801437854766845703 1.0309851169586181641 1.2955501079559326172 2.2016704082489013672 1.0303750038146972656 1.0007755756378173828 1.0203218460083007813 1.2955501079559326172 1.0212770700454711914 1.0812047719955444336 1.0627461671829223633 1.106109619140625 2.1344089508056640625 1.6955621242523193359 1.2333130836486816406 1.0812047719955444336 1.2578840255737304688 1.510007023811340332 2.7689762115478515625 1.4710749387741088867 1.5630494356155395508 1.0285193920135498047 1.0535526275634765625 1.1245682239532470703 1.1711549758911132813 1.2668840885162353516 1.0646787881851196289 1.1682953834533691406 1.1374566555023193359 1.3752928972244262695 1.0435590744018554688 1.0035594701766967773 1.3088968992233276367 1.2452023029327392578 1.2668840885162353516 1.1728669404983520508 1.1930546760559082031 1.3536111116409301758 1.4927037954330444336 1.5069943666458129883 1.2630683183670043945 1.651251673698425293 1.7185235023498535156 1.6219981908798217773 1.3766388893127441406 1.6155829429626464844 1.9106645584106445313 1.9731217622756958008 2.1016912460327148438 2.2195727825164794922 2.0387089252471923828 2.4435360431671142578 2.0582396984100341797 2.2135913372039794922 2.8873577117919921875 2.6689083576202392578 2.5510537624359130859 2.5570423603057861328 2.9316685199737548828 3.0860168933868408203 3.5742902755737304688 2.8724458217620849609 3.9454123973846435547 4.3853487968444824219 4.6874842643737792969 4.4323482513427734375 3.9370005130767822266 3.4872965812683105469 3.1201837062835693359 2.6469254493713378906 1.8948601484298706055 2.3045620918273925781 2.1819765567779541016 2.8290305137634277344 2.8909299373626708984 2.1540806293487548828 1.9405702352523803711 1.8350472450256347656 1.7620235681533813477 1.3497083187103271484 1.5003118515014648438 1.8282580375671386719 1.3261232376098632813 1.6317964792251586914 2.4484200477600097656 2.7699246406555175781 2.4435741901397705078 2.2012641429901123047 2.2566621303558349609 2.5062935352325439453 2.0472102165222167969 2.0906009674072265625 1.8768600225448608398 2.1982321739196777344 2.0146646499633789063 2.4098203182220458984 2.6525013446807861328 2.8943054676055908203 2.4761354923248291016 2.2006685733795166016 2.0940663814544677734 1.4118759632110595703 1.3646390438079833984 2.1418957710266113281 2.1019608974456787109 2.5268671512603759766 2.3439588546752929688 3.1312458515167236328 2.3842899799346923828 2.2944760322570800781 2.6645061969757080078 1.753851771354675293 1.4676939249038696289 1.4530838727951049805 1.1928366422653198242 1.1151372194290161133 1.0404191017150878906 1.0646787881851196289 1.440338134765625 1.0391826629638671875 1.5143855810165405273 1.6096360683441162109 1.6598045825958251953 1.4517401456832885742 1.7714681625366210938 1.7063126564025878906 1.5464757680892944336 1.0862343311309814453 1.8003842830657958984 1.9592171907424926758 1.8567101955413818359 1.9881491661071777344 1.4830783605575561523 1.5233876705169677734 1.5272184610366821289 1.5624791383743286133 1.3952476978302001953 1.0557191371917724609 1.2578819990158081055 1.0867646932601928711 1.214518427848815918 1.0009224414825439453 1.2038664817810058594 1.1233229637145996094 1.6659654378890991211 1.7187986373901367188 1.6317964792251586914 1.8279355764389038086 1.6011126041412353516 1.3379005193710327148 1.7006453275680541992 2.2810595035552978516 3.2353389263153076172 2.4311497211456298828 2.9231455326080322266 
1.9398870468139648438 2.5602517127990722656 2.4236238002777099609 2.3653635978698730469 2.8218739032745361328 3.1418719291687011719 2.8801770210266113281 3.6217849254608154297 4.0013642311096191406 4.6476984024047851563 4.7523465156555175781 4.3214364051818847656 4.4418554306030273438 5.017475128173828125 6.2590689659118652344 6.0543527603149414063 5.0733723640441894531 5.8038821220397949219 4.6153116226196289063 3.3461592197418212891 2.7122719287872314453 2.5936529636383056641 2.2872347831726074219 2.7510697841644287109 2.7588827610015869141 2.7818644046783447266 2.2697589397430419922 2.3901119232177734375 2.3103725910186767578 2.6096029281616210938 1.909981846809387207 1.8449366092681884766 1.9949167966842651367 1.954906463623046875 1.6360943317413330078 1.60274505615234375 1.6968418359756469727 1.0525118112564086914 1.0867646932601928711 1.2885658740997314453 1.0646787881851196289 1.1380717754364013672 1.1338173151016235352 1.0627461671829223633 1.1245682239532470703 1.9108177423477172852 1.0595229864120483398 1.0378412008285522461 1.0303750038146972656 1.0203218460083007813 1.5903766155242919922 1.100308537483215332 1.0303750038146972656 1.2955501079559326172 1.1028864383697509766 1.9041965007781982422 1.0621008872985839844 1.1338173151016235352 1.0404191017150878906 1.3118997812271118164 1.068104863166809082 1.2567495107650756836 1.3612657785415649414 1.2212175130844116211 1.6600682735443115234 1.596506953239440918 1.1271461248397827148 1.106109619140625 1.1494731903076171875 1.1271461248397827148 1.1271461248397827148 1.2300459146499633789 1.4059767723083496094 1.2147722244262695313 1.2300459146499633789 1.2795636653900146484 1.2235205173492431641 1.0574433803558349609 1.4710220098495483398 1.1159840822219848633 1.5143855810165405273 1.2700076103210449219 1.4493403434753417969 1.4927037954330444336 1.5797138214111328125 1.6218583583831787109 1.8929015398025512695 1.5143855810165405273 1.0508012771606445313 1.4123165607452392578 1.0452696084976196289 1.458342432975769043 1.6317964792251586914 1.792570948600769043 2.08350372314453125 2.1683294773101806641 1.7543532848358154297 1.7095321416854858398 2.0735516548156738281 2.1780321598052978516 2.302703857421875 3.3992521762847900391 3.1131880283355712891 2.7088623046875 3.3711290359497070313 4.2750878334045410156 2.9805445671081542969 4.2575135231018066406 4.1396822929382324219 4.5024933815002441406 4.2507619857788085938 4.0770764350891113281 3.8221046924591064453 3.0404412746429443359 2.64890289306640625 1.7334649562835693359 1.8367981910705566406 2.1293859481811523438 2.4273939132690429688 2.3754727840423583984 2.2552118301391601563 1.7374166250228881836 1.6461902856826782227 2.2469701766967773438 2.2103641033172607422 2.1865127086639404297 1.8370745182037353516 1.3904366493225097656 1.6317964792251586914 2.3508744239807128906 2.37859344482421875 2.7994663715362548828 2.3895227909088134766 2.0601706504821777344 2.1927614212036132813 2.2463576793670654297 1.7464511394500732422 2.380779266357421875 2.2869546413421630859 2.5513911247253417969 2.5736720561981201172 2.7627928256988525391 3.0636577606201171875 2.7061533927917480469 2.60755157470703125 1.8475450277328491211 1.3261418342590332031 1.8039216995239257813 1.7148722410202026367 2.5900514125823974609 2.8181023597717285156 2.8823049068450927734 2.5412549972534179688 2.8024547100067138672 2.2727675437927246094 2.3220949172973632813 2.1691212654113769531 1.7999663352966308594 1.4511600732803344727 1.1801570653915405273 1.5902960300445556641 1.1295099258422851563 1.2140091657638549805 1.3752928972244262695 1.0429970026016235352 1.2298604249954223633 1.1708385944366455078 1.6369103193283081055 2.1393599510192871094 2.0252935886383056641 2.0121486186981201172 1.5233876705169677734 1.6620246171951293945 1.6891601085662841797 1.9601094722747802734 2.3690123558044433594 1.4772126674652099609 1.3431916236877441406 1.4522837400436401367 1.0863605737686157227 1.3969746828079223633 1.2578819990158081055 1.8563123941421508789 1.0837826728820800781 1.0621008872985839844 1 1.331929326057434082 1.6791050434112548828 1.3409315347671508789 1.6766464710235595703 1.5794308185577392578 1.7555472850799560547 2.18244171142578125 1.5665109157562255859 1.8094666004180908203 1.7203251123428344727 2.3430018424987792969 2.8804473876953125 3.2536122798919677734 2.8982026576995849609 
3.1242253780364990234 3.3316717147827148438 3.6078500747680664063 2.9216792583465576172 2.5533275604248046875 2.72186279296875 3.4411892890930175781 4.2608113288879394531 4.0598025321960449219 4.70867919921875 5.4825959205627441406 4.5199842453002929688 5.6277766227722167969 5.2096853256225585938 6.12456512451171875 6.1697263717651367188 5.314083099365234375 5.1045122146606445313 4.2835330963134765625 4.1723361015319824219 2.5887622833251953125 3.4896655082702636719 2.3220002651214599609 2.8946955204010009766 2.4724011421203613281 2.7512385845184326172 2.76373291015625 2.1939902305603027344 2.2585933208465576172 2.1232051849365234375 1.8284267187118530273 1.7275257110595703125 1.4493403434753417969 1.3334887027740478516 1.8335697650909423828 1.5794308185577392578 1.4710220098495483398 1.1959083080291748047 1.2668840885162353516 1.1159840822219848633 1.1695779561996459961 1.0285193920135498047 1.1096309423446655273 1.6955621242523193359 2.4689557552337646484 1.2955501079559326172 1.9122374057769775391 1.0151902437210083008 1.0378412008285522461 1.8997918367385864258 2.8177235126495361328 2.4689557552337646484 1.0029140710830688477 2.2243709564208984375 1.2955501079559326172 1.0595229864120483398 1.0016961097717285156 1.1028864383697509766 1.4710749387741088867 1.0326956510543823242 1.348910212516784668 1.1928366422653198242 1.9041965007781982422 1.2957750558853149414 1.0987325906753540039 1.0837826728820800781 1.2300459146499633789 1.2885658740997314453 1.4059767723083496094 1.3969746828079223633 1.0418485403060913086 1.3102476596832275391 1.0646787881851196289 1.044314265251159668 1.3102476596832275391 1.285994410514831543 1.0837826728820800781 1.0867646932601928711 1.1297240257263183594 1.4081209897994995117 1.0672566890716552734 1.4493403434753417969 1.0238316059112548828 1.4787077903747558594 1.7115806341171264648 2.1879332065582275391 1.1857818365097045898 1.3626133203506469727 1.1054068803787231445 1.3536111116409301758 1 1.4582810401916503906 1.6644247770309448242 1.8822946548461914063 1.8024142980575561523 1.6968418359756469727 1.3547986745834350586 1.3496545553207397461 1.5577491521835327148 1.2050092220306396484 2.0805413722991943359 2.4506289958953857422 2.6067473888397216797 2.2462141513824462891 2.8897492885589599609 4.5861525535583496094 4.1302700042724609375 4.6405787467956542969 4.1887445449829101563 4.106769561767578125 4.6978912353515625 4.3801302909851074219 4.0282425880432128906 3.2967088222503662109 2.4247505664825439453 1.9098404645919799805 1.6042580604553222656 1.9594277143478393555 2.5583958625793457031 2.3860828876495361328 1.5004159212112426758 1.5143855810165405273 1.7002776861190795898 2.3559262752532958984 2.8372561931610107422 2.3713309764862060547 2.1754481792449951172 1.851276397705078125 1.6624803543090820313 2.1480135917663574219 2.2609131336212158203 2.9625978469848632813 2.5259211063385009766 1.6743503808975219727 1.6150785684585571289 1.758234858512878418 1.6684374809265136719 1.9745649099349975586 2.1761937141418457031 2.2529139518737792969 2.9055838584899902344 3.1794846057891845703 3.1450188159942626953 3.2824044227600097656 2.7467658519744873047 2.5410962104797363281 2.7659261226654052734 2.2607529163360595703 2.1499757766723632813 3.0567996501922607422 2.943675994873046875 2.9280376434326171875 2.9608936309814453125 2.4256367683410644531 2.3569276332855224609 1.7326765060424804688 1.6588940620422363281 1.2452023029327392578 1.2663730382919311523 1.214518427848815918 1.0844278335571289063 1.2885658740997314453 1.3626133203506469727 1.0646787881851196289 1.2837561368942260742 1.0547775030136108398 1.2846851348876953125 1.6964610815048217773 2.1692271232604980469 1.8223689794540405273 2.1072156429290771484 1.3842949867248535156 1.5730910301208496094 1.4214863777160644531 2.0123007297515869141 1.6444761753082275391 1.4442213773727416992 1.6751600503921508789 1.6101148128509521484 1.6317964792251586914 1.0382274389266967773 1.0535526275634765625 1.0424036979675292969 1.2957750558853149414 1.9041965007781982422 1.2452023029327392578 1.2018388509750366211 1.331929326057434082 1.3536111116409301758 1.5169659852981567383 1.9200994968414306641 1.7094712257385253906 1.5884330272674560547 1.9758435487747192383 1.9074349403381347656 1.7058439254760742188 2.2838644981384277344 1.9715421199798583984 2.0121824741363525391 2.3782732486724853516 
5.0837092399597167969 4.3959107398986816406 4.2944254875183105469 2.864044189453125 3.1091716289520263672 2.9933273792266845703 4.1550874710083007813 3.5878329277038574219 4.3661170005798339844 4.545040130615234375 5.9098196029663085938 4.7308559417724609375 3.9843616485595703125 4.641948699951171875 6.2690148353576660156 4.6364836692810058594 4.9679741859436035156 4.6168742179870605469 5.3045887947082519531 4.0176320075988769531 3.0735847949981689453 2.9784648418426513672 2.543376922607421875 2.4668047428131103516 2.7842423915863037109 2.3706908226013183594 2.2744603157043457031 2.0515103340148925781 2.2495732307434082031 1.7907449007034301758 1.9591469764709472656 1.6947532892227172852 1.7404154539108276367 1.5143855810165405273 1.6011126041412353516 1.4620199203491210938 1.4927037954330444336 1.0988446474075317383 1.3102476596832275391 1.5630494356155395508 1.0266088247299194336 1.1245682239532470703 1.0378412008285522461 1.1245682239532470703 2.4689557552337646484 2.2016704082489013672 1.9108177423477172852 1.5671200752258300781 1.301726222038269043 1.5903766155242919922 2.5863945484161376953 1.0212770700454711914 1.0378412008285522461 2.3418080806732177734 1.047404170036315918 1.6868594884872436523 1.1028864383697509766 1.0336509943008422852 1.6756902933120727539 1.1277914047241210938 1.8689830303192138672 1.5630494356155395508 1.2298604249954223633 1.2362002134323120117 1.0867646932601928711 1.0200263261795043945 1.0684151649475097656 1.4276585578918457031 1.4213603734970092773 1.3969746828079223633 1.0435590744018554688 1.2235205173492431641 1.5360673666000366211 1 1.2661721706390380859 1.3012454509735107422 1.2362002134323120117 1.331929326057434082 1.215319514274597168 1.1689411401748657227 1.2668840885162353516 1.4676939249038696289 1.2885658740997314453 1.2466386556625366211 1.6748852729797363281 1.5884330272674560547 1.4962478876113891602 1.331929326057434082 1.331929326057434082 1.0867646932601928711 1.274071812629699707 1.3208137750625610352 1.9272751808166503906 1.9821004867553710938 1.6624803543090820313 1.4825584888458251953 1.7560987472534179688 1.5888608694076538086 1.4927037954330444336 1.7926867008209228516 1.9009797573089599609 1.9750272035598754883 2.5683729648590087891 3.2728369235992431641 3.1862740516662597656 4.1968808174133300781 3.2733509540557861328 3.7761056423187255859 3.9131138324737548828 4.3762617111206054688 4.4917445182800292969 3.566844940185546875 2.9561219215393066406 2.6159119606018066406 2.2119660377502441406 1.8531645536422729492 1.958927154541015625 2.3644745349884033203 2.5697476863861083984 2.1510055065155029297 1.5859503746032714844 1.4927037954330444336 2.0299115180969238281 2.0243787765502929688 1.7573556900024414063 2.1982035636901855469 2.0917429924011230469 2.5436978340148925781 1.9233555793762207031 2.3486540317535400391 1.9245228767395019531 2.3438675403594970703 2.2982704639434814453 1.9790966510772705078 1.9463551044464111328 1.6345778703689575195 1.6999945640563964844 1.9922460317611694336 2.0489304065704345703 2.6180319786071777344 2.2542371749877929688 3.1684234142303466797 3.1565492153167724609 3.1314213275909423828 2.7460551261901855469 2.7632761001586914063 2.3651275634765625 2.5176258087158203125 3.0488750934600830078 3.1542143821716308594 3.0051741600036621094 2.3918254375457763672 2.5689122676849365234 2.2998127937316894531 1.9554572105407714844 1.7634793519973754883 1.3102476596832275391 1.0867646932601928711 1.1801570653915405273 1.0837826728820800781 1.2362002134323120117 1.0030351877212524414 1.2452023029327392578 1.4691904783248901367 1.1080422401428222656 1.567698359489440918 1.4437681436538696289 1.7099958658218383789 1.8562701940536499023 1.6822793483734130859 1.4932732582092285156 1.3409315347671508789 1.4493403434753417969 1.4276585578918457031 1.5514092445373535156 1.5558477640151977539 2.1098427772521972656 1.7275257110595703125 1.6785070896148681641 1.6968418359756469727 1.2235205173492431641 1.2578819990158081055 1.0053795576095581055 1.214518427848815918 1.4710749387741088867 1.044314265251159668 1.2885658740997314453 1.0391826629638671875 1.2885658740997314453 1.7455861568450927734 2.0493500232696533203 1.7631268501281738281 1.7138912677764892578 1.5450694561004638672 1.7480875253677368164 1.6317964792251586914 1.7121837139129638672 2.1038184165954589844 2.2111377716064453125 2.2366230487823486328 
5.1291790008544921875 5.2525134086608886719 4.1962790489196777344 3.4957981109619140625 4.1290421485900878906 3.5731289386749267578 3.6012239456176757813 3.4456796646118164063 4.5275502204895019531 6.0021100044250488281 5.321262359619140625 4.5500893592834472656 3.7529964447021484375 4.2592401504516601563 4.8014988899230957031 5.3256669044494628906 4.94641876220703125 4.2366123199462890625 3.8038895130157470703 3.8837039470672607422 3.7793276309967041016 2.8598215579986572266 2.5715544223785400391 3.2015893459320068359 3.210765838623046875 1.9273020029067993164 1.286520838737487793 1.6751600503921508789 1.6456990242004394531 1.8866459131240844727 2.0848398208618164063 1.5577491521835327148 1.418656468391418457 1.3752928972244262695 1.1374566555023193359 1.1315916776657104492 1.331929326057434082 1.0399379730224609375 1.2885658740997314453 1.1054643392562866211 1.1711549758911132813 1.8849902153015136719 1.0378412008285522461 2.3418080806732177734 1.2955501079559326172 1.0595229864120483398 1.0595229864120483398 1.0378412008285522461 1.9108177423477172852 2.4689557552337646484 3.0841305255889892578 2.8139696121215820313 2.1164593696594238281 1.6868594884872436523 1.15718841552734375 1.0378412008285522461 1.0812047719955444336 1.0378412008285522461 1.6955621242523193359 1.1054643392562866211 1.0391826629638671875 1.0867646932601928711 1.4059767723083496094 1.3192497491836547852 1.3626133203506469727 1.3752928972244262695 1.3752928972244262695 1.0429970026016235352 1.3102476596832275391 1.0646787881851196289 1.3842949867248535156 1.0793168544769287109 1.3842949867248535156 1.2885658740997314453 1.4276585578918457031 1.2452023029327392578 1.0867646932601928711 1.2668840885162353516 1.3906348943710327148 1.331929326057434082 1.2235115766525268555 1.1271461248397827148 1.331929326057434082 1.1559113264083862305 1.6168745756149291992 1.0845932960510253906 1.7789386510848999023 1.0429970026016235352 1.0213152170181274414 1.3969746828079223633 1.3050788640975952148 1.4671957492828369141 2.1220672130584716797 2.0154769420623779297 1.792570948600769043 1.9547859430313110352 1.9724243879318237305 1.7121837139129638672 2.0066649913787841797 1.9546874761581420898 2.0752665996551513672 3.0350375175476074219 3.3031017780303955078 2.7996504306793212891 3.1985189914703369141 3.8666470050811767578 3.2385320663452148438 3.0027775764465332031 2.9291062355041503906 3.8928556442260742188 3.3803458213806152344 3.3761191368103027344 2.5425851345062255859 2.5822784900665283203 2.0623993873596191406 1.8793660402297973633 2.3780300617218017578 2.2869958877563476563 2.5425591468811035156 2.4000258445739746094 1.755865931510925293 1.9794144630432128906 1.6173599958419799805 1.7581353187561035156 1.4768087863922119141 1.7490258216857910156 2.2264881134033203125 2.1485078334808349609 1.951800227165222168 2.1952230930328369141 2.3029549121856689453 2.3060965538024902344 1.7843925952911376953 2.0674765110015869141 1.9663180112838745117 1.9993946552276611328 1.6598640680313110352 2.7830176353454589844 2.1606714725494384766 2.4240670204162597656 2.6000757217407226563 3.2362916469573974609 2.8641114234924316406 2.1767165660858154297 2.4359064102172851563 2.9459414482116699219 2.8271121978759765625 2.2715804576873779297 2.7007939815521240234 2.6318492889404296875 2.5566914081573486328 1.8603208065032958984 2.4807214736938476563 2.3200762271881103516 1.5947498083114624023 1.4620255231857299805 1.3690477609634399414 1.0429970026016235352 1.0429970026016235352 1.3425670862197875977 1.4837017059326171875 1.2300459146499633789 1.2578819990158081055 1.3102476596832275391 1.0030351877212524414 1.4486682415008544922 1 1.506605982780456543 1.4605686664581298828 1.5303364992141723633 1.1704934835433959961 1.683034062385559082 1.5450694561004638672 1.4927037954330444336 1.5360673666000366211 1.5667512416839599609 1.6011126041412353516 1.5233876705169677734 1.4338790178298950195 1.5002498626708984375 1.4493403434753417969 1.4493403434753417969 1.2300459146499633789 1.1054643392562866211 1.0187373161315917969 1.1277914047241210938 1.5918291807174682617 1.3605781793594360352 1.4257547855377197266 1.8460279703140258789 1.8696000576019287109 1.9619054794311523438 1.7097673416137695313 2.0704085826873779297 1.7091218233108520508 1.6684846878051757813 2.4667751789093017578 1.5450694561004638672 1.5747600793838500977 2.1071958541870117188 
4.5583286285400390625 3.5200228691101074219 3.4609527587890625 3.5704433917999267578 3.7011191844940185547 3.8659656047821044922 3.5425424575805664063 3.8751132488250732422 4.2153115272521972656 4.0131773948669433594 4.9100842475891113281 4.7149171829223632813 3.9635083675384521484 5.0093855857849121094 5.950252532958984375 5.0178332328796386719 4.7104868888854980469 3.3588781356811523438 4.3131561279296875 3.4488673210144042969 3.2585127353668212891 3.3651714324951171875 3.7562713623046875 2.9789845943450927734 3.0491199493408203125 2.5636110305786132813 2.1390452384948730469 1.605570673942565918 1.8181755542755126953 1.3081367015838623047 1.5577491521835327148 1.4140993356704711914 1.2668840885162353516 1.2885658740997314453 1.1711549758911132813 1.0027004480361938477 1.1161222457885742188 1.2578819990158081055 1.0404191017150878906 1.0627461671829223633 1.0378412008285522461 1.2955501079559326172 2.2552065849304199219 2.5969169139862060547 2.6321852207183837891 1.1028864383697509766 1.0812047719955444336 1.031940460205078125 1.0378412008285522461 3.9627170562744140625 1.1219903230667114258 3.0062968730926513672 2.2552065849304199219 1.0378412008285522461 1.0812047719955444336 2.1164593696594238281 1.9041965007781982422 2.4663248062133789063 1.0621008872985839844 1.331929326057434082 1.3192497491836547852 1.1729587316513061523 1.3626133203506469727 1.0213152170181274414 1.2456986904144287109 1.1801570653915405273 1.0435590744018554688 1.2018388509750366211 1.3549501895904541016 1.4691904783248901367 1.5884330272674560547 1.5514092445373535156 1.3906348943710327148 1.2391492128372192383 1.3969746828079223633 1.4300595521926879883 1.2603366374969482422 1.1054643392562866211 1.0213152170181274414 1.3969746828079223633 1.4059767723083496094 1.1296991109848022461 1.440338134765625 1.7034068107604980469 1.6807644367218017578 1.2668840885162353516 1.1080422401428222656 1.5631345510482788086 1.1539837121963500977 1.5233876705169677734 1.227854609489440918 1.3648096323013305664 1.8960045576095581055 1.7708891630172729492 2.1378872394561767578 1.6968418359756469727 1.7708891630172729492 2.4275009632110595703 1.9009797573089599609 2.8684537410736083984 2.0019724369049072266 1.9352757930755615234 3.0255520343780517578 3.2110886573791503906 2.53252410888671875 3.136333465576171875 3.0806066989898681641 2.8076605796813964844 2.8443386554718017578 2.8445363044738769531 3.3624303340911865234 2.3054356575012207031 2.1768145561218261719 2.078731536865234375 1.7538478374481201172 1.8307764530181884766 2.0213072299957275391 2.2135608196258544922 2.3147165775299072266 1.929656982421875 1.7891744375228881836 1.7185235023498535156 1.5577491521835327148 1.8003543615341186523 1.736296534538269043 1.3749190568923950195 2.3225650787353515625 1.9450542926788330078 2.3754568099975585938 2.3772699832916259766 2.1692652702331542969 1.5884330272674560547 1.5827580690383911133 2.0572953224182128906 1.9610506296157836914 1.6193332672119140625 1.7712180614471435547 2.2138640880584716797 2.379238128662109375 2.7256782054901123047 2.8791234493255615234 3.2185077667236328125 2.7622623443603515625 2.5493540763854980469 2.5214748382568359375 1.9339107275009155273 2.7570645809173583984 2.3968775272369384766 2.4125683307647705078 2.4980139732360839844 2.3038876056671142578 1.913514256477355957 1.7908852100372314453 1.6154699325561523438 1.4483903646469116211 1.3587896823883056641 1.1888729333877563477 1.1297240257263183594 1.2300459146499633789 1.4276585578918457031 1.1123402118682861328 1.2154879570007324219 1.418656468391418457 1.2885658740997314453 1.2235205173492431641 1.0022113323211669922 1.3969746828079223633 1.1679555177688598633 1.4837017059326171875 1.4710220098495483398 1.5577491521835327148 1.6260037422180175781 2.0566802024841308594 1.6648324728012084961 1.1591352224349975586 1.4059767723083496094 1.5514092445373535156 1.5308332443237304688 1.5813472270965576172 1.8608971834182739258 1.5628530979156494141 1.6932330131530761719 1.0844278335571289063 1.2018388509750366211 1.2362002134323120117 1.0474786758422851563 1.5262038707733154297 1.5380749702453613281 1.797917485237121582 1.7722357511520385742 1.4542244672775268555 1.4531546831130981445 1.5847626924514770508 2.0013501644134521484 1.5143855810165405273 1.0382094383239746094 1.4634804725646972656 1.2395267486572265625 1.9269878864288330078 1.7492074966430664063 
3.3130242824554443359 3.2486944198608398438 3.0856692790985107422 2.5649671554565429688 3.5855448246002197266 3.3627245426177978516 4.3428182601928710938 3.5425143241882324219 3.1459071636199951172 4.0807366371154785156 5.0626354217529296875 4.7042479515075683594 5.8469824790954589844 6.4782228469848632813 5.5814142227172851563 4.4994387626647949219 4.7699842453002929688 4.5518383979797363281 4.036380767822265625 3.1700868606567382813 2.9205460548400878906 2.6846349239349365234 3.1084363460540771484 2.8470821380615234375 2.0650997161865234375 2.1717681884765625 1.7402052879333496094 1.5343976020812988281 1.4710220098495483398 1.5143855810165405273 1.4091528654098510742 1.2564328908920288086 1.2668840885162353516 1.3102476596832275391 1.1271461248397827148 1.1222538948059082031 1.2452023029327392578 1.0621008872985839844 1.1028864383697509766 1.0309851169586181641 2.4689557552337646484 1.3023484945297241211 1.0203218460083007813 1.1219903230667114258 2.2552065849304199219 1.0812047719955444336 1.0212770700454711914 1.301726222038269043 2.2016704082489013672 1.1219903230667114258 3.3940508365631103516 2.8139696121215820313 1.0151902437210083008 1.6868594884872436523 1.0595229864120483398 1.0378412008285522461 1.0378412008285522461 1 1.1277914047241210938 1.2795636653900146484 1.331929326057434082 1.418656468391418457 1.2824636697769165039 1.4645154476165771484 1.2668840885162353516 1.1928366422653198242 1.0404191017150878906 1.2795636653900146484 1.1295099258422851563 1.4468617439270019531 1.3906348943710327148 1.3198187351226806641 1.3772178888320922852 1.086398005485534668 1.3409315347671508789 1.1494731903076171875 1.2336676120758056641 1.0132638216018676758 1.2300459146499633789 1.3536111116409301758 1.418656468391418457 1.4458451271057128906 1.427478790283203125 1.3226135969161987305 1.6624193191528320313 1.3851618766784667969 1.5794308185577392578 1.6301757097244262695 1.3842949867248535156 1.5955491065979003906 1.6223485469818115234 1.4014096260070800781 1.5794308185577392578 1.7149469852447509766 2.0361356735229492188 1.9295052289962768555 1.2467737197875976563 2.0062286853790283203 2.5555999279022216797 2.3845572471618652344 2.2921378612518310547 2.1090390682220458984 2.8560340404510498047 2.9656851291656494141 2.5425095558166503906 2.4918713569641113281 3.1718420982360839844 2.408618927001953125 1.8485985994338989258 1.9427914619445800781 2.1402912139892578125 1.7185235023498535156 1.5863150358200073242 2.0783855915069580078 2.0675549507141113281 1.2606110572814941406 1.440338134765625 1.5495970249176025391 1.5360673666000366211 1.3223525285720825195 1.5357248783111572266 1.5730910301208496094 1.4960193634033203125 2.2228715419769287109 2.2380647659301757813 1.5602937936782836914 2.2906215190887451172 2.2339441776275634766 1.986554265022277832 2.4200718402862548828 2.1403684616088867188 2.1112477779388427734 1.7969270944595336914 2.0604791641235351563 1.7849153280258178711 1.6515630483627319336 1.9051469564437866211 1.4693536758422851563 1.8309918642044067383 2.4141223430633544922 3.2903206348419189453 2.9106109142303466797 3.6539897918701171875 2.9926135540008544922 2.2854888439178466797 2.6026666164398193359 2.6760525703430175781 2.1969318389892578125 2.2006790637969970703 1.7966850996017456055 1.9759849309921264648 2.4666929244995117188 2.0407865047454833984 1.5243183374404907227 1.6730411052703857422 1.3876463174819946289 1.5000389814376831055 1.3969746828079223633 1.2018388509750366211 1.3626133203506469727 1.3536111116409301758 1.2885658740997314453 1.0646787881851196289 1.1054643392562866211 1.0621984004974365234 1 1.044314265251159668 1.3407328128814697266 1.4300698041915893555 1.0684095621109008789 1.3969746828079223633 1.5270024538040161133 1.5730910301208496094 1.5929398536682128906 1.6968418359756469727 1.1431679725646972656 1.3750168085098266602 1.3536111116409301758 1.5017060041427612305 1.3582221269607543945 1.3102476596832275391 1.214518427848815918 1.6791050434112548828 1.3969746828079223633 1.2140754461288452148 1.0874992609024047852 1.6113210916519165039 2.2476949691772460938 2.5647974014282226563 2.0781512260437011719 1.4059767723083496094 1.5250494480133056641 1.8634313344955444336 1.3271372318267822266 1.4323934316635131836 1.0937659740447998047 1.044314265251159668 1.1062628030776977539 2.1814017295837402344 1.9819808006286621094 
3.6804544925689697266 3.1183235645294189453 3.1770393848419189453 2.8813958168029785156 3.1950726509094238281 4.5760622024536132813 4.5413250923156738281 2.9292063713073730469 4.1057949066162109375 3.9471414089202880859 4.5081930160522460938 5.3503394126892089844 6.2577991485595703125 6.1341676712036132813 5.972675323486328125 4.7191209793090820313 5.68889617919921875 4.4209389686584472656 3.4195063114166259766 3.6616749763488769531 3.2774512767791748047 2.5722048282623291016 2.5371429920196533203 2.0310697555541992188 2.0158209800720214844 1.6404392719268798828 1.4493403434753417969 1.1532272100448608398 1.2561955451965332031 1.4795769453048706055 1.7732766866683959961 1.1300870180130004883 1.0837826728820800781 1.1801570653915405273 1.1054643392562866211 1.2362002134323120117 1.0837826728820800781 1.2362002134323120117 1.214518427848815918 1.0378412008285522461 1.1245682239532470703 1.0303750038146972656 1.0595229864120483398 1.0595229864120483398 1.9108177423477172852 1.0812047719955444336 1.0303750038146972656 1.9108177423477172852 2.5969169139862060547 1.100308537483215332 1.9122374057769775391 3.9627170562744140625 2.8139696121215820313 1.0378412008285522461 1.1028864383697509766 1.6691575050354003906 1.0378412008285522461 1.0812047719955444336 1.2199838161468505859 1.2957750558853149414 1.1801570653915405273 1.3536111116409301758 1.5143855810165405273 1.3368219137191772461 1.2357407808303833008 1.1494731903076171875 1.0535526275634765625 1.2018388509750366211 1.5325266122817993164 1.610935211181640625 1.0429970026016235352 1.1213637590408325195 1.3752928972244262695 1.5360673666000366211 1.5143855810165405273 1.2668840885162353516 1.4276585578918457031 1.3969746828079223633 1.3752928972244262695 1.4710220098495483398 1.6009086370468139648 1.5297275781631469727 1.340030670166015625 1.3536111116409301758 1.3842949867248535156 1.5013339519500732422 1.5114589929580688477 1.4689615964889526367 1.4047076702117919922 1.4927037954330444336 1.5334585905075073242 1.3842949867248535156 1.2885658740997314453 1.5360673666000366211 1.8646626472473144531 1.8038556575775146484 1.5908124446868896484 1.7618870735168457031 2.1353862285614013672 1.8573461771011352539 1.4904140233993530273 1.8359345197677612305 2.2362399101257324219 2.0231533050537109375 2.1243069171905517578 2.4755916595458984375 2.8155343532562255859 2.7875275611877441406 2.1928436756134033203 1.9855692386627197266 2.0050208568572998047 2.234317779541015625 1.1559113264083862305 1.2980043888092041016 1.1934667825698852539 1.1879217624664306641 1.0382274389266967773 1.2700076103210449219 1.0837826728820800781 1.0621008872985839844 1.7054418325424194336 1.6444761753082275391 1.4003980159759521484 1.7633893489837646484 1.9434632062911987305 1.6827311515808105469 2.1461760997772216797 1.9744247198104858398 1.7373294830322265625 1.9204906225204467773 2.2038547992706298828 1.8144584894180297852 2.2948436737060546875 2.1357748508453369141 1.4861352443695068359 1.9431750774383544922 1.6468176841735839844 1.5564750432968139648 1.6429525613784790039 2.0858979225158691406 2.9372916221618652344 3.0400488376617431641 3.4220693111419677734 2.4500162601470947266 2.7201378345489501953 2.7045788764953613281 2.6458666324615478516 2.6806538105010986328 2.5254437923431396484 2.4963738918304443359 2.2496492862701416016 2.2558841705322265625 2.3522469997406005859 2.2224636077880859375 1.8577234745025634766 1.5365927219390869141 1.3752928972244262695 1.4378442764282226563 1.1928366422653198242 1.2668840885162353516 1.091632843017578125 1.2300459146499633789 1.2235205173492431641 1.1711549758911132813 1.2795636653900146484 1.4745291471481323242 1.2502090930938720703 2.0113041400909423828 1.7198553085327148438 1.2518922090530395508 1.331929326057434082 1.3409315347671508789 1.3409315347671508789 1.8288098573684692383 1.662550806999206543 1.3600889444351196289 1.3102476596832275391 1.0501925945281982422 1.5125696659088134766 1.3969746828079223633 1.1080422401428222656 1.4691904783248901367 1.1751906871795654297 1.562183380126953125 1.7884280681610107422 1.6361945867538452148 1.4697204828262329102 1.801007390022277832 2.2518906593322753906 1.7234271764755249023 1.555988311767578125 1.418656468391418457 1.3249547481536865234 1.3988311290740966797 1.4113775491714477539 1.0418485403060913086 1.3102476596832275391 1.6485704183578491211 2.0854494571685791016 2.2086818218231201172 
2.7655045986175537109 3.0041573047637939453 3.1618196964263916016 3.2144944667816162109 3.70108795166015625 4.6158337593078613281 4.7533721923828125 4.4964852333068847656 4.7823858261108398438 4.8372731208801269531 5.6576862335205078125 4.9848885536193847656 5.3912348747253417969 5.9853997230529785156 5.0084323883056640625 4.4138402938842773438 4.2337765693664550781 3.6757938861846923828 3.5169460773468017578 2.6390216350555419922 2.9619562625885009766 2.6905901432037353516 2.1419641971588134766 1.8792979717254638672 1.6751600503921508789 1.7155834436416625977 1.3752928972244262695 1.3102476596832275391 1.4800242185592651367 1.4047416448593139648 1.4991714954376220703 1.3752928972244262695 1.0437718629837036133 1.1271461248397827148 1.0535526275634765625 1.0837826728820800781 1.2081786394119262695 1.0595229864120483398 1.0605514049530029297 1.4710749387741088867 1.1028864383697509766 1.1494731903076171875 1.0627461671829223633 1.0812047719955444336 1.0378412008285522461 1.0812047719955444336 1.2955501079559326172 2.6321852207183837891 2.2552065849304199219 1.0303750038146972656 1.5671200752258300781 1.0812047719955444336 1.0193825960159301758 1.1245682239532470703 1.1462500095367431641 1.0049611330032348633 1.1277914047241210938 1.6955621242523193359 1.044114232063293457 1.0711750984191894531 1.2081786394119262695 1.1801570653915405273 1.1779804229736328125 1.3752928972244262695 1.2018388509750366211 1.2578819990158081055 1.4034119844436645508 1.4241011142730712891 1.5667512416839599609 1.9903092384338378906 1.3906348943710327148 1.4691904783248901367 1.5169327259063720703 1.0385996103286743164 1.5360673666000366211 1.4927037954330444336 1.7211260795593261719 1.4927037954330444336 1.3626133203506469727 1.5514092445373535156 1.4463839530944824219 1.5450694561004638672 1.5858812332153320313 1.3689531087875366211 1.4493403434753417969 1.3608220815658569336 1.4493403434753417969 1.5577491521835327148 1.8167890310287475586 1.8318830728530883789 2.0788948535919189453 1.844570159912109375 1.6587144136428833008 1.7227295637130737305 2.1393074989318847656 1.8710105419158935547 1.9320665597915649414 1.4927037954330444336 2.0863518714904785156 1.9669823646545410156 1.5143855810165405273 1.6950778961181640625 1.6317964792251586914 2.1529114246368408203 1.8359345197677612305 2.2311956882476806641 2.6008899211883544922 2.5139124393463134766 2.6277315616607666016 1.7594935894012451172 1.8867602348327636719 1.5713222026824951172 1.2452023029327392578 1.517528533935546875 1.2668840885162353516 1.0530669689178466797 1.331929326057434082 1.0646787881851196289 1.2749919891357421875 1.5769153833389282227 1.1271461248397827148 1.0335413217544555664 1.3047710657119750977 1.6965042352676391602 1.5017060041427612305 1.5658975839614868164 1.8075407743453979492 1.9215151071548461914 1.5680507421493530273 1.5325914621353149414 1.7373683452606201172 1.6582463979721069336 2.5743420124053955078 2.3378717899322509766 1.7896087169647216797 1.7335869073867797852 1.6280244588851928711 1.9563424587249755859 2.1584594249725341797 2.3228936195373535156 2.6335606575012207031 3.0806756019592285156 3.1620447635650634766 2.8000123500823974609 2.6021051406860351563 2.8820745944976806641 3.0826811790466308594 2.7043387889862060547 2.8768265247344970703 2.6198482513427734375 2.9281740188598632813 3.0009462833404541016 2.4176709651947021484 2.1673078536987304688 1.9805032014846801758 1.5203133821487426758 1.4186757802963256836 1.5564440488815307617 1.1070309877395629883 1.2668840885162353516 1.0646787881851196289 1.0873225927352905273 1.2578819990158081055 1.1054643392562866211 1.0621008872985839844 1.1928366422653198242 1.3670846223831176758 1.6045686006546020508 1.3237116336822509766 1.3428019285202026367 1.1311715841293334961 1.3626133203506469727 1.4288125038146972656 1.636710047721862793 1.6968418359756469727 1.331929326057434082 1.1271461248397827148 1.2371942996978759766 1.044314265251159668 1.3752928972244262695 1.1080422401428222656 1.4123165607452392578 1.2563551664352416992 1.4245557785034179688 1.5339397192001342773 2.2422602176666259766 1.8119938373565673828 1.5203055143356323242 2.2936196327209472656 2.3457934856414794922 2.0961825847625732422 1.5991266965866088867 1.373547673225402832 1.7127169370651245117 1.9180881977081298828 1.0027004480361938477 1.4380668401718139648 1.6315735578536987305 1.6480518579483032227 1.8587615489959716797 
2.6905901432037353516 3.5301227569580078125 3.2514858245849609375 3.4475703239440917969 4.4496264457702636719 6.0376763343811035156 5.60181427001953125 5.7117137908935546875 6.1291441917419433594 5.2654213905334472656 4.8901357650756835938 4.0050535202026367188 4.623935699462890625 5.0288939476013183594 5.9748063087463378906 5.5567336082458496094 4.5296721458435058594 3.8029959201812744141 3.2944793701171875 2.51522064208984375 2.0401372909545898438 3.1794273853302001953 2.9551022052764892578 2.0592520236968994141 1.637722015380859375 1.5322635173797607422 1.1080422401428222656 1.3536111116409301758 1.7016026973724365234 1.5143855810165405273 1.3651425838470458984 1.3842949867248535156 1.3102476596832275391 1.2638292312622070313 1.1488279104232788086 1.0621008872985839844 1.382954716682434082 1.0535526275634765625 1.1310622692108154297 1.0812047719955444336 1.1028864383697509766 1.0378412008285522461 1.0923851728439331055 1.9122374057769775391 1.9122374057769775391 1.301726222038269043 2.0106759071350097656 2.5863945484161376953 3.6686847209930419922 1.0378412008285522461 1.1245682239532470703 1.1310622692108154297 1 1.214518427848815918 1.1054643392562866211 1.1076474189758300781 1.9041965007781982422 1.506605982780456543 1.1750253438949584961 1.160991668701171875 1.2129132747650146484 1.2018388509750366211 1.0426037311553955078 1.1767964363098144531 1.8472610712051391602 1.0187373161315917969 1.040218353271484375 1.5740076303482055664 1.3223893642425537109 1.7733261585235595703 1.4710220098495483398 1.6315212249755859375 1.4082403182983398438 1.5771622657775878906 1.3352504968643188477 1.5069425106048583984 1.7175856828689575195 1.0663961172103881836 1.53879547119140625 1.4710220098495483398 1.3689531087875366211 1.552767634391784668 1.7593742609024047852 1.3259230852127075195 1.5187869071960449219 1.3686205148696899414 1.3752928972244262695 1.0975567102432250977 1.5143855810165405273 1.615836024284362793 2.4095375537872314453 2.3414442539215087891 2.7356638908386230469 1.7067524194717407227 2.1555509567260742188 1.9061032533645629883 2.2010366916656494141 1.5533978939056396484 2.2149715423583984375 2.0402293205261230469 1.6724345684051513672 1.4927037954330444336 1.6372104883193969727 1.8869385719299316406 1.7185235023498535156 2.1741874217987060547 1.9749920368194580078 2.0931742191314697266 2.0221698284149169922 1.9005490541458129883 1.7223544120788574219 1.3878872394561767578 1.3536111116409301758 1.2362987995147705078 1.2473566532135009766 1.4493403434753417969 1.2885658740997314453 1.2668840885162353516 1.3540925979614257813 1.0711750984191894531 1.3612657785415649414 1.1494731903076171875 1.2885658740997314453 1.2578819990158081055 1.418656468391418457 1.4927037954330444336 1.5667512416839599609 1.9030382633209228516 1.5402044057846069336 1.840075373649597168 1.6599198579788208008 2.6011388301849365234 2.0632529258728027344 2.5430300235748291016 2.1734745502471923828 1.8577455282211303711 1.4177461862564086914 1.7803035974502563477 2.0526034832000732422 2.3991873264312744141 2.5553874969482421875 3.4200346469879150391 3.2907915115356445313 3.2472150325775146484 2.9185719490051269531 2.8833954334259033203 2.7967507839202880859 3.1786956787109375 3.4078004360198974609 3.1719279289245605469 2.939693450927734375 3.1961753368377685547 2.6523516178131103516 2.0890901088714599609 1.7942326068878173828 1.4485638141632080078 1.3698889017105102539 1.4555709362030029297 1.7254186868667602539 1.3012454509735107422 1.3752928972244262695 1.1801570653915405273 1.5629546642303466797 1.2885658740997314453 1.2885658740997314453 1.2326226234436035156 1.4490736722946166992 1.3648627996444702148 1.5722861289978027344 1.4493403434753417969 1.285864710807800293 1.5662729740142822266 1.6715124845504760742 1.6518791913986206055 1.7459596395492553711 1.4710220098495483398 1.4276585578918457031 1.3830838203430175781 1.2779723405838012695 1.4110059738159179688 1.2018388509750366211 1.5590904951095581055 1.6090742349624633789 1.9832254648208618164 2.0385241508483886719 2.1835815906524658203 1.7912322282791137695 2.1281945705413818359 2.1469111442565917969 2.3009486198425292969 2.0083260536193847656 1.4077664613723754883 1.2908380031585693359 2.1156516075134277344 1.8417949676513671875 1.8015161752700805664 1.8563123941421508789 1.1999877691268920898 1.3752928972244262695 1.654850006103515625 
3.3873682022094726563 4.1353840827941894531 3.6664104461669921875 3.4456887245178222656 3.9650232791900634766 4.4085407257080078125 5.6228585243225097656 6.5588393211364746094 5.1395726203918457031 3.9707944393157958984 5.2422037124633789063 5.1800446510314941406 5.6139469146728515625 5.7612557411193847656 5.9551939964294433594 4.7330379486083984375 3.6710686683654785156 3.3949255943298339844 2.8448774814605712891 3.1578993797302246094 2.9462487697601318359 1.9390643835067749023 1.9805710315704345703 1.8038871288299560547 1.784895777702331543 1.6135314702987670898 1.1080422401428222656 1.3033585548400878906 1.3780460357666015625 1.8771014213562011719 1.7742291688919067383 1.5013214349746704102 1.3969746828079223633 1.4676939249038696289 1.1277914047241210938 1.0206209421157836914 1.214518427848815918 1.214518427848815918 1.15718841552734375 1.0378412008285522461 1.4710749387741088867 1.9542856216430664063 1.301726222038269043 2.4689557552337646484 2.8004152774810791016 1.0151902437210083008 2.4689557552337646484 1.6868594884872436523 1.2955501079559326172 1.301726222038269043 1.0595229864120483398 1.0595229864120483398 2.4515626430511474609 1.0621008872985839844 1.2692134380340576172 1.0187373161315917969 1.2202670574188232422 1.2737984657287597656 1.6791050434112548828 1.2081786394119262695 1.4691383838653564453 1.1494731903076171875 1.3102476596832275391 1.2842332124710083008 1.4059767723083496094 1.2885658740997314453 1.3536111116409301758 1.4710220098495483398 2.0733494758605957031 1.7275257110595703125 1.7338654994964599609 1.5143855810165405273 1.0079256296157836914 1.6980767250061035156 1.9307539463043212891 1.9476704597473144531 1.7978129386901855469 1.414496302604675293 1.4310823678970336914 1.4493403434753417969 1.3906443119049072266 1.1073806285858154297 1.3251227140426635742 1.6081551313400268555 1.5233876705169677734 1.7763689756393432617 1.1559113264083862305 1.418656468391418457 1.2004580497741699219 1.6000274419784545898 2.0278055667877197266 2.2582242488861083984 2.173351287841796875 2.2672760486602783203 2.1571724414825439453 1.8902107477188110352 2.5943801403045654297 2.9760560989379882813 1.9124503135681152344 1.9349895715713500977 1.8922111988067626953 1.9585000276565551758 1.9001681804656982422 2.0938305854797363281 2.2209258079528808594 2.526683807373046875 2.1129229068756103516 2.1812152862548828125 2.0389885902404785156 1.7495217323303222656 1.7285257577896118164 1.0587867498397827148 1.2668840885162353516 1.0429970026016235352 1.472746729850769043 1.2548689842224121094 1.1064181327819824219 1.1262996196746826172 1.1501319408416748047 1.9041965007781982422 1.0326956510543823242 1.1245682239532470703 1.1462500095367431641 1.0336509943008422852 1.2462073564529418945 1.4710220098495483398 1.6778701543807983398 1.9490579366683959961 1.4276585578918457031 1.9535658359527587891 2.1672263145446777344 2.4941959381103515625 1.8599296808242797852 2.3793933391571044922 2.1127150058746337891 1.9402825832366943359 1.7126241922378540039 1.7871314287185668945 1.567313075065612793 2.3132417201995849609 2.3418025970458984375 3.2541520595550537109 3.1309907436370849609 3.2092235088348388672 3.1698746681213378906 3.2682857513427734375 2.4584870338439941406 3.0801012516021728516 3.4658567905426025391 2.611751556396484375 2.81456756591796875 2.6847634315490722656 2.7371537685394287109 2.4362998008728027344 1.7935036420822143555 1.3092659711837768555 1.3188306093215942383 1.5253394842147827148 1.184589385986328125 1.331929326057434082 1.3969746828079223633 1.2452023029327392578 1.3536111116409301758 1.2838034629821777344 1.2885658740997314453 1.3969746828079223633 1.4691904783248901367 1.5303280353546142578 1.8632977008819580078 1.1115168333053588867 1.4433089494705200195 1.5988417863845825195 2.1487498283386230469 1.8410065174102783203 1.5648066997528076172 1.9742485284805297852 1.4019554853439331055 1.6041905879974365234 1.5356997251510620117 1.5024927854537963867 1.7494984865188598633 1.5135152339935302734 1.6751148700714111328 2.1578850746154785156 2.0933809280395507813 1.6366572380065917969 2.2887470722198486328 1.9314092397689819336 2.2534375190734863281 2.3994710445404052734 2.1396234035491943359 1.9615459442138671875 1.5894780158996582031 1.639614105224609375 2.1970012187957763672 1.7351523637771606445 1.390385746955871582 1.1801570653915405273 1.429874420166015625 1.8994936943054199219 
4.028766632080078125 3.3983831405639648438 3.8404998779296875 4.1753001213073730469 2.9982771873474121094 3.8811609745025634766 4.4675202369689941406 4.4219923019409179688 4.7712416648864746094 4.6714310646057128906 5.1158385276794433594 7.130596160888671875 5.6553177833557128906 6.2672915458679199219 5.4411602020263671875 5.5863275527954101563 4.1969442367553710938 3.7822043895721435547 2.8382771015167236328 2.9816501140594482422 2.7078144550323486328 2.1911187171936035156 2.2027127742767333984 1.7402052879333496094 1.5297275781631469727 1.1297240257263183594 1.3536111116409301758 1.1192305088043212891 1.4848257303237915039 2.0365502834320068359 1.1080422401428222656 1.0648463964462280273 1.106109619140625 1.1096309423446655273 1.1711549758911132813 1.2300459146499633789 1.1054643392562866211 1.4943218231201171875 1.0346062183380126953 1.0627461671829223633 1.0844278335571289063 1.1245682239532470703 1.301726222038269043 1.9108177423477172852 1.0690859556198120117 1.0087381601333618164 1.1028864383697509766 1.6756902933120727539 1.4710749387741088867 2.4801437854766845703 1.9041965007781982422 1.1028864383697509766 1.0690859556198120117 1.0126478672027587891 1.0424036979675292969 1.2298604249954223633 1.4547107219696044922 1.4081610441207885742 1.5208470821380615234 1.4471160173416137695 1.5608801841735839844 1.295192718505859375 1.2452023029327392578 1.2452023029327392578 1.3102476596832275391 1.1683454513549804688 1.3969746828079223633 1.4557344913482666016 1.5577491521835327148 1.9273568391799926758 1.7891614437103271484 1.6833128929138183594 1.5015010833740234375 2.0788974761962890625 2.3898460865020751953 1.8754682540893554688 1.7185235023498535156 1.5143855810165405273 1.4705910682678222656 1.4927037954330444336 1.6019989252090454102 1.5514092445373535156 1.1297240257263183594 1.0073043107986450195 1.1326472759246826172 1.5577491521835327148 1.5313330888748168945 1.3398886919021606445 1.1388970613479614258 1.7000181674957275391 1.7834455966949462891 1.8276792764663696289 2.1328687667846679688 2.7918913364410400391 2.3455126285552978516 2.7901020050048828125 3.5367593765258789063 3.4279942512512207031 2.7274296283721923828 1.8690477609634399414 2.3795664310455322266 2.1899921894073486328 2.4146184921264648438 2.4964494705200195313 1.880410313606262207 1.9729840755462646484 2.505466461181640625 2.8187096118927001953 2.1289541721343994141 1.4119775295257568359 1.3102476596832275391 1.3192501068115234375 1.002951502799987793 1.0382274389266967773 1.0429970026016235352 1.0874055624008178711 1.331929326057434082 1.2235205173492431641 1.8849902153015136719 1.6691575050354003906 1.1028864383697509766 1.1379150152206420898 1.1494731903076171875 1.2362002134323120117 1.3752928972244262695 1.3159189224243164063 1.5538707971572875977 1.7639660835266113281 1.3429977893829345703 2.3581357002258300781 2.4393091201782226563 2.2859957218170166016 2.1657378673553466797 2.3927807807922363281 1.8799102306365966797 1.8198707103729248047 1.7768801450729370117 1.6661080121994018555 1.5629169940948486328 1.9902431964874267578 2.0579388141632080078 2.4839925765991210938 2.7537078857421875 2.7664763927459716797 2.6623499393463134766 3.1513476371765136719 2.9116418361663818359 2.3825626373291015625 2.4990017414093017578 2.3133347034454345703 2.7370817661285400391 2.7689731121063232422 2.2616090774536132813 1.8320952653884887695 1.9672895669937133789 1.6951440572738647461 1.3906348943710327148 1.3472713232040405273 1.3626133203506469727 1.0646787881851196289 1.6144096851348876953 1.3969746828079223633 1.1278204917907714844 1.3429841995239257813 1.0889136791229248047 1.2506072521209716797 1.3409315347671508789 1.8294510841369628906 1.6039513349533081055 1.7609000205993652344 1.6385701894760131836 1.7487978935241699219 1.9809753894805908203 1.8862150907516479492 2.0435781478881835938 2.0807662010192871094 1.7923189401626586914 1.6045435667037963867 1.7406215667724609375 1.6540454626083374023 1.4110786914825439453 1.7137250900268554688 1.766887664794921875 2.1655240058898925781 2.1118760108947753906 1.9239764213562011719 2.7638926506042480469 2.2912271022796630859 2.3437166213989257813 1.9961344003677368164 2.0831265449523925781 2.421932220458984375 1.6371303796768188477 1.5964487791061401367 1.8453294038772583008 1.7877959012985229492 1.4778118133544921875 1.2576466798782348633 1.2795636653900146484 1.6713291406631469727 
3.6332137584686279297 2.8907523155212402344 3.462757110595703125 3.7159879207611083984 3.6978580951690673828 3.6898312568664550781 4.4940395355224609375 4.4046173095703125 3.9649741649627685547 4.4927005767822265625 4.5621814727783203125 5.1647391319274902344 5.97171783447265625 5.4381470680236816406 4.9907364845275878906 3.9278123378753662109 4.24578857421875 4.7746601104736328125 2.8417792320251464844 2.0885977745056152344 2.3115561008453369141 2.1668720245361328125 2.6680612564086914063 1.6968418359756469727 1.6874902248382568359 1.2483640909194946289 1.5817718505859375 1.1080422401428222656 1.3749783039093017578 1.0435590744018554688 1.3277976512908935547 1.0065511465072631836 1.2795636653900146484 1.1494731903076171875 1.2362002134323120117 1.2300459146499633789 1.214518427848815918 1.2362002134323120117 1.9041965007781982422 1.0595229864120483398 1.0336509943008422852 1.031940460205078125 1.301726222038269043 1.0595229864120483398 1.9041965007781982422 1.1494731903076171875 1.0397378206253051758 1.1076474189758300781 1.1711549758911132813 1.0404191017150878906 1.2856231927871704102 1.2856231927871704102 1.044114232063293457 1.0621008872985839844 1.2795636653900146484 1.2300459146499633789 1.278462529182434082 1.2668840885162353516 1.6641581058502197266 1.584972381591796875 1.2265678644180297852 1.5798453092575073242 1.234665989875793457 1.2018388509750366211 1.3102476596832275391 1.6756184101104736328 1.6309827566146850586 1.7262399196624755859 1.0838147401809692383 1.5271675586700439453 1.9640069007873535156 1.8686891794204711914 1.9021701812744140625 1.5884330272674560547 1.7800780534744262695 1.2192215919494628906 1.4863640069961547852 1.8574776649475097656 1.6375154256820678711 1.6589310169219970703 1.5234029293060302734 1.1875706911087036133 1.3631412982940673828 1.5789719820022583008 1.5297275781631469727 1.5514092445373535156 1.253673553466796875 1.4687826633453369141 1.4564802646636962891 1.92957305908203125 1.5179417133331298828 2.0743556022644042969 2.4069802761077880859 1.9694405794143676758 2.6399903297424316406 2.8729500770568847656 2.8751344680786132813 3.5654489994049072266 2.5379927158355712891 1.7324056625366210938 2.3598527908325195313 2.81687164306640625 2.8313665390014648438 2.7992651462554931641 1.8277031183242797852 2.1664347648620605469 2.4108102321624755859 2.4437851905822753906 1.6949071884155273438 1.4691904783248901367 1.7193176746368408203 1.6144032478332519531 1.3366219997406005859 1.338433384895324707 1.4160482883453369141 1.2900550365447998047 1.0426037311553955078 1.1711549758911132813 1.214518427848815918 1.0844278335571289063 1.1711549758911132813 1.1277914047241210938 1.2578819990158081055 1.2795636653900146484 1.1051384210586547852 1.6011126041412353516 1.3077627420425415039 1.4275099039077758789 1.5237406492233276367 1.79055023193359375 2.1968214511871337891 1.8247699737548828125 1.8256785869598388672 1.812229156494140625 1.665339350700378418 1.3536111116409301758 1.594861149787902832 1.7423954010009765625 1.9620310068130493164 1.8445546627044677734 2.4679000377655029297 2.6062209606170654297 2.7006039619445800781 2.3705050945281982422 2.4680309295654296875 2.5510599613189697266 2.1768536567687988281 2.7504065036773681641 1.9094598293304443359 2.3435719013214111328 2.8107132911682128906 2.5597991943359375 2.3577687740325927734 1.8902134895324707031 1.4929859638214111328 1.3906348943710327148 1.4927037954330444336 1.4537717103958129883 1.5385206937789916992 1.6932330131530761719 1.2165150642395019531 1.3842949867248535156 1.3453931808471679688 1.4880535602569580078 1.5962694883346557617 1.2217439413070678711 1.6420550346374511719 2.0809333324432373047 2.2852871417999267578 1.6945552825927734375 1.8368234634399414063 1.9038004875183105469 2.0588424205780029297 2.2766790390014648438 2.4912836551666259766 2.1567609310150146484 2.1783576011657714844 1.713847041130065918 2.1844475269317626953 1.6534732580184936523 1.6485947370529174805 1.5227117538452148438 1.7814165353775024414 2.1190657615661621094 1.8137444257736206055 1.9550085067749023438 2.2761425971984863281 2.4227404594421386719 2.1370098590850830078 1.9280055761337280273 1.9071959257125854492 2.5129382610321044922 1.9041965007781982422 1.9065988063812255859 1.7737734317779541016 1.959514617919921875 1.6261727809906005859 1.1994041204452514648 1.0346062183380126953 1.2668840885162353516 
3.0168335437774658203 2.8025467395782470703 3.1691656112670898438 4.1060996055603027344 4.1871318817138671875 4.7707304954528808594 4.7185344696044921875 5.997714996337890625 4.5729336738586425781 4.715099334716796875 4.5007987022399902344 4.2759203910827636719 5.2295684814453125 4.1971793174743652344 4.7498221397399902344 4.3215742111206054688 4.8362302780151367188 3.0684733390808105469 3.2079975605010986328 2.4337799549102783203 2.5016720294952392578 1.9621082544326782227 1.9256080389022827148 1.7029266357421875 1.9850951433181762695 1.3626133203506469727 1.2885658740997314453 1.0428037643432617188 1.3626133203506469727 1.3969746828079223633 1.0863605737686157227 1.2235205173492431641 1.0015398263931274414 1.1711549758911132813 1.2018388509750366211 1.0200263261795043945 1.6791050434112548828 1.2452023029327392578 1.0535526275634765625 1.0844278335571289063 1.1711549758911132813 1.2081786394119262695 1.0595229864120483398 1.9041965007781982422 1.0050448179244995117 1.2957750558853149414 1.0424036979675292969 1.0867646932601928711 1.0880582332611083984 1.8563123941421508789 1.1711549758911132813 1.0837826728820800781 1.0621008872985839844 1.2668840885162353516 1.4453969001770019531 1.1450382471084594727 1.1912504434585571289 1.3334786891937255859 1.3413364887237548828 1.5233901739120483398 1.5097075700759887695 1.5968133211135864258 1.3366757631301879883 1.2896292209625244141 1.9327334165573120117 1.7284988164901733398 1.6118100881576538086 1.5122381448745727539 1.6011126041412353516 1.4637699127197265625 1.6431463956832885742 1.2565382719039916992 1.9954466819763183594 2.0097522735595703125 1.8514101505279541016 1.3320956230163574219 1.7139499187469482422 2.0278429985046386719 2.072414398193359375 1.6670690774917602539 1.6922893524169921875 1.9446489810943603516 1.5823363065719604492 2.0143613815307617188 1.6429111957550048828 2.0081050395965576172 1.4842336177825927734 1.2452023029327392578 1.5540920495986938477 1.946992039680480957 2.1848235130310058594 2.1876780986785888672 1.7891092300415039063 2.3829562664031982422 2.6092121601104736328 3.1248257160186767578 3.0906341075897216797 3.3691360950469970703 2.7063610553741455078 2.2302935123443603516 2.3185775279998779297 2.1287019252777099609 2.0375545024871826172 1.9667999744415283203 2.5549423694610595703 2.3172514438629150391 2.9025800228118896484 2.7056119441986083984 1.6397720575332641602 1.5577491521835327148 1.7911206483840942383 1.8056197166442871094 1.3102476596832275391 1.1481137275695800781 1.4380848407745361328 1.331929326057434082 1.2300459146499633789 1.2885658740997314453 1.331929326057434082 1.1494731903076171875 1.0404191017150878906 1.044114232063293457 1.1277914047241210938 1.088481903076171875 1.0867646932601928711 1.2300459146499633789 1.1494731903076171875 1.6955621242523193359 1.214518427848815918 1.273223876953125 1.5550801753997802734 1.9367427825927734375 1.5567231178283691406 1.6862349510192871094 1.3552801609039306641 1.3314360380172729492 1.5805732011795043945 2.2212197780609130859 2.0180654525756835938 1.7862039804458618164 2.3841655254364013672 2.5123653411865234375 2.2610874176025390625 1.7024247646331787109 1.8486264944076538086 2.1954109668731689453 2.0590777397155761719 2.2996916770935058594 1.8635604381561279297 2.0148000717163085938 2.0813231468200683594 1.9644414186477661133 2.3715922832489013672 1.8094230890274047852 1.5514092445373535156 1.4745291471481323242 1.8163342475891113281 1.3928124904632568359 1.5884330272674560547 1.418656468391418457 1.5558030605316162109 1.5656501054763793945 1.5859024524688720703 1.3294183015823364258 1.5547719001770019531 1.3752928972244262695 1.3289343118667602539 1.8461318016052246094 1.7561886310577392578 2.2734060287475585938 2.1679286956787109375 1.8535358905792236328 1.8268916606903076172 2.2970790863037109375 2.9261386394500732422 2.42754364013671875 2.7889578342437744141 2.0799665451049804688 2.3388924598693847656 1.8356548547744750977 1.6803476810455322266 1.5357756614685058594 1.786098480224609375 1.5843834877014160156 2.2119147777557373047 2.1314136981964111328 2.3443319797515869141 2.3499352931976318359 2.1575286388397216797 2.1215183734893798828 2.1938138008117675781 2.1471779346466064453 1.7842925786972045898 1.8639137744903564453 2.0190546512603759766 1.6944103240966796875 1.2414307594299316406 1.2298604249954223633 1.0268088579177856445 1.5630494356155395508 
3.0228352546691894531 3.3021783828735351563 3.6894080638885498047 3.7807385921478271484 3.3727135658264160156 4.9495081901550292969 4.9654030799865722656 5.1157560348510742188 5.0911612510681152344 4.6345515251159667969 4.1932291984558105469 3.7317597866058349609 4.087703704833984375 3.4958178997039794922 5.2016711235046386719 4.6289987564086914063 4.1851253509521484375 3.1931664943695068359 2.8870320320129394531 2.553134918212890625 2.3921034336090087891 2.0609025955200195313 2.3075475692749023438 2.0758674144744873047 1.8102996349334716797 1.3948765993118286133 1.3969746828079223633 1.2468723058700561523 1.2914984226226806641 1.1541585922241210938 1.1351225376129150391 1.0067185163497924805 1.2018388509750366211 1.1494731903076171875 1.0837826728820800781 1.3969746828079223633 1.1271461248397827148 1.1054643392562866211 1.0844278335571289063 1.0406931638717651367 1.0621008872985839844 1.106109619140625 1.1076474189758300781 1.1494731903076171875 1.2749919891357421875 1.3549501895904541016 1.0027004480361938477 1.0452696084976196289 1.1711549758911132813 1.0621008872985839844 1.214518427848815918 1.3074698448181152344 1.3752928972244262695 1.5178301334381103516 1.4845980405807495117 1.4745291471481323242 1 1.3979870080947875977 1.0867646932601928711 1.4511554241180419922 1.331929326057434082 1.71856689453125 1.3793565034866333008 1.2578819990158081055 1.1801570653915405273 1.2515420913696289063 1.5161859989166259766 1.5826238393783569336 1.0646787881851196289 1.3369160890579223633 1.5794308185577392578 2.2887895107269287109 2.4401392936706542969 1.9876682758331298828 1.8196610212326049805 1.7999072074890136719 1.5351585149765014648 1.7071362733840942383 1.5741235017776489258 1.3846890926361083984 1.0867646932601928711 1.4493403434753417969 1.3845031261444091797 1.4063992500305175781 1.6832762956619262695 2.0097899436950683594 1.7559175491333007813 1.4300522804260253906 1.6146677732467651367 1.8832581043243408203 2.6184763908386230469 2.2314374446868896484 2.6361112594604492188 2.4098296165466308594 2.2704377174377441406 2.5690407752990722656 2.5526664257049560547 3.6499605178833007813 2.8994450569152832031 2.400127410888671875 2.6475253105163574219 2.0465104579925537109 1.5143855810165405273 1.9883947372436523438 1.798018336296081543 2.021327972412109375 2.1187269687652587891 3.0999250411987304688 2.7916271686553955078 2.0482358932495117188 2.2744956016540527344 2.2090141773223876953 1.5360673666000366211 1.3536111116409301758 1.331929326057434082 1.6585686206817626953 1.1271461248397827148 1.0837826728820800781 1.214518427848815918 1.1494731903076171875 1.0187373161315917969 1.1993315219879150391 1.106109619140625 1.2018388509750366211 1.1054643392562866211 1.3220698833465576172 1.2746008634567260742 1.1801570653915405273 1.2018388509750366211 1.0400478839874267578 1.0919259786605834961 1.0503791570663452148 1.5465925931930541992 1.3259927034378051758 1.4312148094177246094 1.1883474588394165039 1.7246278524398803711 1.530804753303527832 1.7202154397964477539 2.1222155094146728516 2.5075247287750244141 2.2776057720184326172 1.6973662376403808594 1.824780583381652832 1.4178495407104492188 1.5336084365844726563 1.6990487575531005859 1.8433670997619628906 1.8988529443740844727 2.5624153614044189453 2.1912255287170410156 1.4576624631881713867 1.7850909233093261719 2.0447914600372314453 1.3689531087875366211 1.61810302734375 1.8857494592666625977 1.9243195056915283203 1.8563044071197509766 1.1959164142608642578 1.6783128976821899414 1.8694782257080078125 1.5942554473876953125 1.704180598258972168 1.1710573434829711914 1.1865334510803222656 1.3280558586120605469 1.7410920858383178711 1.7055890560150146484 2.7825367450714111328 2.3112425804138183594 2.1000521183013916016 2.4733476638793945313 2.9406614303588867188 2.6453847885131835938 2.2095272541046142578 2.7311305999755859375 2.303314208984375 2.0465335845947265625 1.9810090065002441406 1.8190385103225708008 1.7575718164443969727 1.7054418325424194336 2.1139302253723144531 2.7031886577606201172 2.4845273494720458984 2.6370515823364257813 2.6912682056427001953 2.0119664669036865234 2.0847673416137695313 2.1448204517364501953 1.9975713491439819336 1.5985584259033203125 1.6691575050354003906 1.3377686738967895508 1.3796083927154541016 1.2298604249954223633 1.214518427848815918 1.0399379730224609375 1.3012433052062988281 
2.4700875282287597656 3.6086623668670654297 3.7941586971282958984 3.7040412425994873047 4.1891469955444335938 5.1826715469360351563 5.0421419143676757813 4.6846094131469726563 5.6194710731506347656 4.3291072845458984375 4.6147356033325195313 3.5690233707427978516 3.7057712078094482422 4.0681743621826171875 4.6589455604553222656 4.4971814155578613281 3.1645147800445556641 3.1491875648498535156 3.0870535373687744141 2.2188227176666259766 2.8823933601379394531 2.2278869152069091797 2.0894238948822021484 1.8183794021606445313 1.0947049856185913086 1.4970096349716186523 1.6093524694442749023 1.5772644281387329102 1.4442493915557861328 1.2235205173492431641 1.7691881656646728516 1.5462049245834350586 1.1054643392562866211 1.1494731903076171875 1.2578819990158081055 1.6767637729644775391 1.2452023029327392578 1.2885658740997314453 1.3969746828079223633 1.3192497491836547852 1.3969746828079223633 1.0856827497482299805 1.3308683633804321289 1.1494731903076171875 1.1494731903076171875 1.2666809558868408203 1.0435546636581420898 1.2452023029327392578 1.2668840885162353516 1.080928802490234375 1.1245682239532470703 1.4676939249038696289 1.3255895376205444336 1.1493854522705078125 1.3969746828079223633 1.0867646932601928711 1.3554899692535400391 1.2177000045776367188 1.331929326057434082 1.2206243276596069336 1.4927037954330444336 1.3871158361434936523 1.1997671127319335938 1.2515420913696289063 1.2362002134323120117 1.2795636653900146484 1.2058765888214111328 1.5902960300445556641 1.1832720041275024414 1.4059767723083496094 1.418656468391418457 2.2538769245147705078 1.9238073825836181641 2.3369424343109130859 1.4276585578918457031 1.2792584896087646484 1.5517638921737670898 1.3192497491836547852 1.3019491434097290039 1.6357243061065673828 1.6438286304473876953 1.2888964414596557617 1.4123165607452392578 1.713273167610168457 1.5574015378952026367 2.2865517139434814453 1.907372593879699707 1.8673113584518432617 1.9543985128402709961 2.5651607513427734375 2.7152690887451171875 2.9480955600738525391 2.319522857666015625 2.4251873493194580078 2.5634763240814208984 3.4155745506286621094 3.8120145797729492188 3.3603148460388183594 2.1403436660766601563 2.1376473903656005859 2.1312110424041748047 2.1156752109527587891 2.1778404712677001953 1.9122563600540161133 1.9737168550491333008 2.1206667423248291016 2.0396294593811035156 2.4316205978393554688 2.7928693294525146484 2.9204425811767578125 2.6635060310363769531 1.7967412471771240234 1.8245989084243774414 1.7223327159881591797 1.2452023029327392578 1.0837826728820800781 1.2957750558853149414 1.3540925979614257813 1.6691575050354003906 1.0285193920135498047 1.1864968538284301758 1 1.2578819990158081055 1.4053022861480712891 1.4931850433349609375 1.6024564504623413086 1.3979526758193969727 1.3574168682098388672 1.356016993522644043 1.2885658740997314453 1.6823149919509887695 1.3752928972244262695 1.4233258962631225586 1.9832630157470703125 1.436392664909362793 1.2869961261749267578 1.5735642910003662109 1.6283053159713745117 1.8474730253219604492 1.8386172056198120117 1.6523761749267578125 1.4339983463287353516 1.8802665472030639648 1.7683655023574829102 1.5065059661865234375 1.5186488628387451172 1.2518318891525268555 1.7368762493133544922 2.3548271656036376953 2.5817589759826660156 2.0549461841583251953 1.483445286750793457 1.4799689054489135742 1.4832004308700561523 1.6039116382598876953 1.7207666635513305664 2.1846971511840820313 1.8176079988479614258 1.8729300498962402344 2.1601228713989257813 1.8059358596801757813 1.8409887552261352539 1.8630290031433105469 1.6134214401245117188 1.0460247993469238281 1.2300459146499633789 1.623404383659362793 1.9277189970016479492 1.8780063390731811523 2.4604957103729248047 2.0545506477355957031 2.0749628543853759766 2.8862504959106445313 2.1857042312622070313 2.0240540504455566406 2.2549207210540771484 2.2994818687438964844 2.1866333484649658203 2.3158991336822509766 1.8211749792098999023 1.9582389593124389648 2.0276732444763183594 2.0214664936065673828 2.9056074619293212891 2.7047681808471679688 2.8231878280639648438 3.1717443466186523438 2.7724552154541015625 2.3039929866790771484 2.4032602310180664063 2.1252932548522949219 2.2660186290740966797 1.5707889795303344727 1.4065433740615844727 1.5268967151641845703 1.1608437299728393555 1.1928366422653198242 1.2749919891357421875 1.1801570653915405273 1.1339757442474365234 
2.5481564998626708984 2.7955274581909179688 3.8967297077178955078 3.1436140537261962891 3.6769249439239501953 4.7504892349243164063 4.5784559249877929688 4.6136641502380371094 4.1400465965270996094 4.9750971794128417969 3.8701293468475341797 4.0069336891174316406 4.2446136474609375 4.3492474555969238281 3.7469854354858398438 3.4999425411224365234 2.8952584266662597656 3.0379617214202880859 2.6625518798828125 2.8363537788391113281 2.1118879318237304688 2.7353990077972412109 2.1221065521240234375 1.6851639747619628906 1.4927037954330444336 1.3536111116409301758 1.54550933837890625 1.4030300378799438477 1.4359720945358276367 1.5177419185638427734 1.5710791349411010742 1.5610636472702026367 1.4675673246383666992 1.345002293586730957 1.1159840822219848633 1.0794119834899902344 1.5577491521835327148 1.9955391883850097656 1.72965240478515625 1.8254317045211791992 1.4735566377639770508 1.2261140346527099609 1.2668840885162353516 1.1054643392562866211 1.2885658740997314453 1.1413483619689941406 1.2452023029327392578 1.0837826728820800781 1.0027004480361938477 1.2235205173492431641 1.2018388509750366211 1.2668840885162353516 1.1730875968933105469 1.2440720796585083008 1.0610810518264770508 1.4338196516036987305 1.1357396841049194336 1.1488279104232788086 1.2668840885162353516 1.1382945775985717773 1.235141754150390625 1.3934158086776733398 1.3287835121154785156 1.214518427848815918 1.1801570653915405273 1.4356830120086669922 1.69773101806640625 1.4445972442626953125 1.331929326057434082 1.3467643260955810547 1.7054418325424194336 1.6616452932357788086 1.9216191768646240234 1.7775242328643798828 1.6703826189041137695 1.5143855810165405273 1.6351205110549926758 1.4725692272186279297 1.6821461915969848633 1.6341520547866821289 1.5297275781631469727 1.900836944580078125 1.3295572996139526367 1.2452023029327392578 1.3969746828079223633 1.5730910301208496094 1.7147604227066040039 1.930884242057800293 1.9487425088882446289 2.3595168590545654297 2.7054400444030761719 2.7591774463653564453 2.6321036815643310547 2.9363765716552734375 3.344669342041015625 3.4922626018524169922 3.2762699127197265625 2.9815256595611572266 2.4896979331970214844 2.2033584117889404297 2.9607796669006347656 2.3386809825897216797 2.7196600437164306641 2.0529346466064453125 2.0826461315155029297 1.9453780651092529297 1.8879593610763549805 2.2653281688690185547 2.4091353416442871094 2.4486567974090576172 2.4313037395477294922 2.2525196075439453125 1.6070113182067871094 1.2977950572967529297 1.3088968992233276367 1.0326956510543823242 2.2233111858367919922 1.6600682735443115234 1.106109619140625 1.0535526275634765625 1.0621008872985839844 1.2018388509750366211 1.3471202850341796875 1.7467378377914428711 1.2757695913314819336 1.193157196044921875 1.3969746828079223633 1.331929326057434082 1.1928366422653198242 1.0844278335571289063 1.1971174478530883789 1.5040313005447387695 1.551722407341003418 1.6427611112594604492 1.0844278335571289063 1.0515598058700561523 1.1295099258422851563 1.1245682239532470703 1.4679867029190063477 1.8764770030975341797 1.7791389226913452148 1.5275386571884155273 1.4674063920974731445 1.7210171222686767578 1.6791050434112548828 1.5857535600662231445 2.0305612087249755859 2.1087789535522460938 1.8875787258148193359 2.4664196968078613281 2.3904716968536376953 1.690436244010925293 1.6791050434112548828 1.4151248931884765625 1.6000183820724487305 1.8313601016998291016 2.1763906478881835938 1.8314778804779052734 2.2895548343658447266 2.1151511669158935547 2.1739282608032226563 2.3911809921264648438 1.7306439876556396484 1.4063233137130737305 1.2630058526992797852 1.2378792762756347656 1.2534040212631225586 2.0103991031646728516 2.2491891384124755859 2.1773748397827148438 1.9428657293319702148 1.8324261903762817383 2.1722533702850341797 2.3744971752166748047 2.4142987728118896484 2.4344105720520019531 2.9549124240875244141 2.3315024375915527344 2.0118458271026611328 1.922732234001159668 1.7023485898971557617 2.1343004703521728516 2.8286309242248535156 2.7969110012054443359 3.1467473506927490234 2.5137994289398193359 2.3777267932891845703 2.6528246402740478516 2.5431606769561767578 2.246326446533203125 1.7343020439147949219 1.8429353237152099609 1.5477800369262695313 1.3232393264770507813 1.6178199052810668945 1.5141966342926025391 1.2578819990158081055 1.2957750558853149414 1.0258535146713256836 1.1499809026718139648 
3.381549835205078125 2.7571797370910644531 3.4658715724945068359 3.5105302333831787109 3.2483396530151367188 4.2599635124206542969 4.2685084342956542969 4.9324526786804199219 5.0097756385803222656 4.0752124786376953125 4.1234641075134277344 4.0389981269836425781 3.2696805000305175781 3.7194199562072753906 3.0262923240661621094 2.1299684047698974609 2.6422636508941650391 3.12839508056640625 2.5719225406646728516 2.0588636398315429688 1.8729581832885742188 2.8002367019653320313 1.8677432537078857422 1.8270614147186279297 1.5080457925796508789 1.3536111116409301758 1.7933326959609985352 1.8071085214614868164 1.5912743806838989258 1.6338784694671630859 1.6114528179168701172 1.5970855951309204102 2.0304639339447021484 1.6317964792251586914 1.6669716835021972656 1.5667512416839599609 1.9249758720397949219 1.4836632013320922852 1.6943460702896118164 1.8925024271011352539 1.5421506166458129883 1.736647486686706543 1.4062795639038085938 1.2740018367767333984 1.2405112981796264648 1.331929326057434082 1.2300459146499633789 1.2665314674377441406 1.3102476596832275391 1.2018388509750366211 1.2668840885162353516 1.5181927680969238281 1.4188257455825805664 1.721195220947265625 1.4927037954330444336 1.3842949867248535156 1.5486191511154174805 1.1730962991714477539 1.1212924718856811523 1.2300459146499633789 1.3536111116409301758 1.2014108896255493164 1.0621008872985839844 1.4710749387741088867 1.9041965007781982422 1.0627461671829223633 1.0428010225296020508 1.1928366422653198242 1.2362002134323120117 1.0627461671829223633 1.214518427848815918 1.7054418325424194336 1.5143855810165405273 1.5173383951187133789 1.2668840885162353516 1.3087967634201049805 1.2865231037139892578 1.5743932723999023438 2.3154506683349609375 1.8105691671371459961 1.9341022968292236328 2.0526292324066162109 1.7919220924377441406 1.3102476596832275391 1.3752928972244262695 1.418656468391418457 1.5667512416839599609 1.9795944690704345703 2.1762797832489013672 2.4497087001800537109 2.7957909107208251953 2.7132511138916015625 2.7039964199066162109 2.8191564083099365234 2.5724451541900634766 3.1954743862152099609 3.9664661884307861328 3.0333721637725830078 2.4936575889587402344 2.5088396072387695313 2.7924790382385253906 2.5708467960357666016 2.9264566898345947266 2.1916348934173583984 2.2264318466186523438 1.701480865478515625 2.0034728050231933594 2.2685735225677490234 2.5225291252136230469 1.7402052879333496094 1.7841237783432006836 1.9600051641464233398 1.2428495883941650391 1.4339983463287353516 1.2795636653900146484 1.1711549758911132813 1.1028864383697509766 1.301726222038269043 1.0595229864120483398 1.0690859556198120117 1.1711549758911132813 1.2300459146499633789 1.2709127664566040039 1.2776659727096557617 1.4071830511093139648 1.0035594701766967773 1.2578819990158081055 1.1928366422653198242 1.0844278335571289063 1.5630494356155395508 1 1.4542905092239379883 1.5164668560028076172 1.2651766538619995117 1.8563123941421508789 1.0844278335571289063 2.1344089508056640625 1.391209721565246582 1.2792251110076904297 1.7877620458602905273 1.4389616250991821289 1.7054418325424194336 1.6684374809265136719 1.5738450288772583008 1.5505387783050537109 1.8445024490356445313 1.9017640352249145508 1.8663563728332519531 1.9187459945678710938 2.2973153591156005859 1.815326690673828125 1.5012674331665039063 1.2603366374969482422 1.4594794511795043945 1.7376832962036132813 1.0574746131896972656 1.3830838203430175781 1.6289644241333007813 1.5779062509536743164 2.4158804416656494141 2.4029734134674072266 2.0727257728576660156 1.5645625591278076172 1.3624529838562011719 1.4323393106460571289 1.3472713232040405273 1.6665834188461303711 2.0003712177276611328 2.3064157962799072266 2.0555460453033447266 1.9660876989364624023 1.6899240016937255859 1.851513981819152832 2.1605265140533447266 2.541034698486328125 3.1737060546875 2.2160170078277587891 2.2593367099761962891 1.7459559440612792969 2.2310647964477539063 2.5233678817749023438 2.5611548423767089844 2.7490434646606445313 2.6961829662322998047 2.8873989582061767578 2.9657623767852783203 2.4582686424255371094 2.3118557929992675781 2.1726298332214355469 2.3830289840698242188 2.0323641300201416016 2.3536589145660400391 2.0372409820556640625 1.9984951019287109375 1.5740556716918945313 1.4114688634872436523 1.3831247091293334961 1.4309693574905395508 1.2883324623107910156 1.3624892234802246094 
3.2767210006713867188 3.04303741455078125 3.1015453338623046875 4.0297861099243164063 3.5507991313934326172 3.58457183837890625 4.7144231796264648438 5.2862257957458496094 4.5860567092895507813 3.6006054878234863281 4.1104831695556640625 3.3569607734680175781 3.0856292247772216797 2.5157048702239990234 1.7058439254760742188 2.1388080120086669922 2.6287758350372314453 3.2423338890075683594 2.2592182159423828125 2.6271998882293701172 2.7311980724334716797 2.1058855056762695313 2.3681499958038330078 1.7664829492568969727 1.779223322868347168 1.5577491521835327148 1.5297275781631469727 1.7275257110595703125 1.7697335481643676758 1.8831205368041992188 2.2199029922485351563 2.7039043903350830078 2.1348598003387451172 2.5320429801940917969 1.8305428028106689453 2.3979201316833496094 2.4091176986694335938 1.8142527341842651367 2.2466580867767333984 2.1969010829925537109 2.3514254093170166016 1.7179983854293823242 1.9905413389205932617 1.1201180219650268555 1.3842949867248535156 1.2506439685821533203 1.0646787881851196289 1.5266305208206176758 1.3295142650604248047 1.3752928972244262695 1.55640411376953125 1.7772336006164550781 1.8903586864471435547 1.9831880331039428711 1.5906633138656616211 1.5171586275100708008 1.9088919162750244141 1.6214786767959594727 1.4152215719223022461 1.5544152259826660156 1.941375732421875 1.2578819990158081055 1.0258535146713256836 1.047404170036315918 1.0812047719955444336 1.0844278335571289063 1.214518427848815918 1.6691575050354003906 1.106109619140625 1.1245682239532470703 1.1271461248397827148 1.1277914047241210938 1.2018388509750366211 1.3969746828079223633 1.2795636653900146484 1.3045357465744018555 1.6791050434112548828 1.4748841524124145508 1.418656468391418457 1.912087559700012207 1.5632926225662231445 2.0431361198425292969 1.6566666364669799805 1.0418485403060913086 1.0621008872985839844 1.5892065763473510742 1.4276585578918457031 1.3102476596832275391 1.5858006477355957031 1.9886204004287719727 2.3750119209289550781 2.8762562274932861328 2.7722172737121582031 2.7782042026519775391 2.6445977687835693359 3.3471410274505615234 3.0564794540405273438 2.9798176288604736328 3.0183608531951904297 3.0275857448577880859 3.0083456039428710938 2.9985539913177490234 2.9412426948547363281 2.5878243446350097656 1.6340242624282836914 2.0715019702911376953 1.8142836093902587891 1.7552385330200195313 1.9142214059829711914 1.310553431510925293 1.6038351058959960938 1.6479713916778564453 2.043209075927734375 1.1459702253341674805 1.2452023029327392578 1.2578819990158081055 1.1245682239532470703 1.9041965007781982422 1.0535526275634765625 1.1028864383697509766 1.1028864383697509766 1.0449540615081787109 1.2018388509750366211 1.2578819990158081055 1.1054643392562866211 1.1076474189758300781 1.1991517543792724609 1.0627461671829223633 1.391209721565246582 2.2353098392486572266 1.0187373161315917969 1.9041965007781982422 1.2345002889633178711 1.9210797548294067383 1.3286378383636474609 1.1277914047241210938 1.1076474189758300781 1.3527373075485229492 1.747271418571472168 1.2235205173492431641 1.5246894359588623047 1.3102476596832275391 1.3688671588897705078 1.3842949867248535156 1.7703605890274047852 1.7286710739135742188 1.2882944345474243164 1.5413247346878051758 2.0374553203582763672 1.8119318485260009766 1.3258749246597290039 1.9041965007781982422 1.2880312204360961914 1.6160142421722412109 1.7031422853469848633 1.0200263261795043945 1.2161571979522705078 1.214518427848815918 1.6213190555572509766 1.5450729131698608398 2.1617541313171386719 1.8890513181686401367 1.1151102781295776367 1.1271461248397827148 1.2723710536956787109 1.9437514543533325195 1.7535879611968994141 1.6154283285140991211 1.989794611930847168 1.6474969387054443359 1.4837017059326171875 1.3396805524826049805 1.6835769414901733398 1.8202353715896606445 2.2363836765289306641 2.8229734897613525391 2.6047530174255371094 2.5599503517150878906 2.7196631431579589844 2.0576984882354736328 2.76493072509765625 2.8734652996063232422 3.7356398105621337891 3.3565115928649902344 3.0280659198760986328 2.6744863986968994141 2.5377368927001953125 2.3449380397796630859 2.5311017036437988281 2.1745324134826660156 2.2118256092071533203 2.009914398193359375 2.0508282184600830078 1.8667224645614624023 1.6132172346115112305 1.3906984329223632813 1.5634475946426391602 1.5087286233901977539 1.9041965007781982422 1.8392069339752197266 
3.1886663436889648438 2.9338748455047607422 2.8406744003295898438 3.606586456298828125 3.5385158061981201172 4.4314446449279785156 4.9836421012878417969 4.16216278076171875 4.4222979545593261719 3.3076605796813964844 4.0597639083862304688 3.2538585662841796875 2.80010986328125 2.3928325176239013672 1.9061963558197021484 1.2515270709991455078 2.5771803855895996094 2.6323783397674560547 3.3229858875274658203 2.4496049880981445313 2.4934077262878417969 2.3784236907958984375 2.5272438526153564453 1.5807166099548339844 1.7578462362289428711 2.0940678119659423828 1.6311953067779541016 1.7187824249267578125 1.7124086618423461914 2.4751353263854980469 2.7039723396301269531 2.6168258190155029297 2.6102457046508789063 2.7340972423553466797 2.3390128612518310547 2.5909163951873779297 2.8751080036163330078 2.8273293972015380859 2.2362689971923828125 2.5171635150909423828 2.3838918209075927734 2.3400163650512695313 2.4106357097625732422 1.9865708351135253906 1.835026860237121582 1.7722249031066894531 1.7538468837738037109 1.8869000673294067383 1.967154383659362793 1.5577491521835327148 1.8171477317810058594 2.1844911575317382813 1.7163683176040649414 1.3409315347671508789 1.2586034536361694336 1.619549870491027832 1.3955442905426025391 1.5640696287155151367 1.4765522480010986328 1.3102476596832275391 1.6042952537536621094 1.2668840885162353516 1.1271461248397827148 1.1277914047241210938 1.1494731903076171875 1.0535526275634765625 1.1076474189758300781 2.4515626430511474609 1.1028864383697509766 1.047404170036315918 1.0595229864120483398 1.0812047719955444336 1.0844278335571289063 1.1750171184539794922 1.0027004480361938477 1.5323894023895263672 1.5024126768112182617 1.2018388509750366211 1.3969746828079223633 1.0226042270660400391 1.4029074907302856445 1.7408851385116577148 1.6011126041412353516 1.4816291332244873047 1.3638023138046264648 1.0867646932601928711 1.2885658740997314453 1.5669602155685424805 1.1801570653915405273 1.8447507619857788086 2.0055673122406005859 2.6986734867095947266 2.4483199119567871094 2.4675412178039550781 2.8719027042388916016 2.7316431999206542969 2.7275798320770263672 2.9316625595092773438 2.9396643638610839844 2.9619193077087402344 2.4032208919525146484 2.9628503322601318359 2.8269479274749755859 2.9233095645904541016 2.3124191761016845703 1.9522746801376342773 1.4295085668563842773 1.8204135894775390625 1.7688937187194824219 1.5217367410659790039 1.9399271011352539063 1.6372700929641723633 1.5158443450927734375 1.5382442474365234375 1.3186755180358886719 1.106109619140625 1.6868594884872436523 1.0378412008285522461 1.0267839431762695313 1.1928366422653198242 1.3806301355361938477 1.0030351877212524414 1.3113582134246826172 1.2452023029327392578 1.0844278335571289063 1.0627461671829223633 1.3319919109344482422 1.0035790205001831055 1.0595229864120483398 1.047404170036315918 1.1028864383697509766 1.0844278335571289063 1.8134722709655761719 1.5426465272903442383 1.6401140689849853516 1.2431817054748535156 1.1101942062377929688 1.7149913311004638672 1.6356492042541503906 1.2149343490600585938 1.4874602556228637695 1.2452023029327392578 1.2300459146499633789 1.0015398263931274414 1.2081786394119262695 1.1269130706787109375 1.1132063865661621094 1.4745291471481323242 1.7170948982238769531 1.882825016975402832 2.1344089508056640625 1.1245682239532470703 1.104735255241394043 1.3739609718322753906 1.6330473423004150391 1.2827570438385009766 1.5734229087829589844 1.214518427848815918 1.3906348943710327148 1.3761045932769775391 1.656293034553527832 1.1182839870452880859 1.0894843339920043945 1.2018388509750366211 1.4179004430770874023 1.8148977756500244141 1.9597327709197998047 2.0122594833374023438 1.4059767723083496094 1.3906348943710327148 1.4620199203491210938 1.3965874910354614258 1.2018388509750366211 1.771961212158203125 2.21759796142578125 2.6165385246276855469 2.8048205375671386719 2.6306107044219970703 2.5062386989593505859 2.8631918430328369141 3.2176842689514160156 3.6811733245849609375 4.0424666404724121094 3.6488871574401855469 3.2194273471832275391 2.5578272342681884766 3.1096327304840087891 3.0142009258270263672 2.7651679515838623047 3.11626434326171875 2.7873263359069824219 2.4791951179504394531 2.5276710987091064453 2.0908632278442382813 2.3296685218811035156 1.5805494785308837891 1.7267687320709228516 1.8888915777206420898 1.6988923549652099609 1.6978114843368530273 
3.1474006175994873047 2.6559071540832519531 2.864044189453125 2.6435248851776123047 3.6695935726165771484 3.3603250980377197266 4.0096988677978515625 4.3137769699096679688 4.1113896369934082031 3.6177866458892822266 3.0025298595428466797 3.4755504131317138672 2.9397394657135009766 2.4613463878631591797 1.8907053470611572266 2.1795167922973632813 2.8831319808959960938 3.3509151935577392578 2.3389666080474853516 3.7912900447845458984 3.0401377677917480469 2.2516713142395019531 2.4758489131927490234 1.5233876705169677734 2.4154098033905029297 2.0455729961395263672 2.0953803062438964844 2.6588747501373291016 2.1390335559844970703 2.9315316677093505859 3.4074611663818359375 2.5792467594146728516 2.5121545791625976563 3.5058887004852294922 3.7474868297576904297 2.67138671875 3.0784769058227539063 3.4958479404449462891 3.1359145641326904297 3.3711063861846923828 2.6221888065338134766 2.5356335639953613281 2.8576357364654541016 3.1528387069702148438 2.2795567512512207031 2.0871794223785400391 2.0237722396850585938 2.2602105140686035156 2.1170289516448974609 1.7153528928756713867 1.9706000089645385742 2.4158275127410888672 2.2844555377960205078 1.6807124614715576172 1.716869354248046875 1.7754055261611938477 1.5597488880157470703 1.6824779510498046875 1.5584821701049804688 1.6354079246520996094 1.3917987346649169922 1.2682030200958251953 1.316801905632019043 1.272465825080871582 1.4620199203491210938 1.8689830303192138672 1.0595229864120483398 2.4689557552337646484 2.1344089508056640625 2.0106759071350097656 1.0595229864120483398 1.0029140710830688477 1.0595229864120483398 1.0397378206253051758 1.0681700706481933594 1.0837826728820800781 1.2362002134323120117 1.1864968538284301758 1.2452023029327392578 1.331929326057434082 1.4559550285339355469 1.5143855810165405273 1.5957349538803100586 1.1679005622863769531 1.1528402566909790039 1.3663182258605957031 1.440338134765625 1.4299199581146240234 1.1784191131591796875 1.5231125354766845703 2.1536180973052978516 2.3483979701995849609 2.3004918098449707031 2.4842829704284667969 2.3278186321258544922 2.4880452156066894531 3.0549037456512451172 2.8899056911468505859 2.7179422378540039063 2.9920275211334228516 2.4239068031311035156 2.4195408821105957031 2.4114584922790527344 2.4246015548706054688 2.229305267333984375 2.2149128913879394531 2.0302743911743164063 2.2060043811798095703 1.9071391820907592773 1.5674051046371459961 1.8639936447143554688 1.9545466899871826172 1.2364788055419921875 1.1744667291641235352 1.3296329975128173828 1.0212770700454711914 1.0079749822616577148 1.5671200752258300781 1.0336509943008422852 1.0404191017150878906 1.4208176136016845703 1.2300459146499633789 1.0258535146713256836 1.5902960300445556641 1.2795636653900146484 1.0050448179244995117 1.1028864383697509766 1.1245682239532470703 1.0378412008285522461 1.0595229864120483398 1.0595229864120483398 1.044114232063293457 1.0837826728820800781 1.5583897829055786133 1.4214392900466918945 1.3976267576217651367 1.1096309423446655273 1.2017993927001953125 1.584719538688659668 1.3201580047607421875 1.2235205173492431641 1.331929326057434082 1.3536111116409301758 1.4808092117309570313 1.3752928972244262695 1.3244055509567260742 1.2548882961273193359 1.161145329475402832 1.2835988998413085938 1.031940460205078125 1.1870827674865722656 1.0907677412033081055 1.187746882438659668 1.1618202924728393555 1.1196324825286865234 1.0017797946929931641 1.0837826728820800781 1.6791050434112548828 1.3752928972244262695 1.1459362506866455078 1.3431273698806762695 1.2152467966079711914 1.3969746828079223633 1.3536111116409301758 1.454192042350769043 1.6852914094924926758 1.9810357093811035156 1.669568181037902832 1.4614402055740356445 1.4289026260375976563 1.6638836860656738281 1.3734686374664306641 1.3567088842391967773 1.8233332633972167969 2.4837708473205566406 2.1412644386291503906 2.5246150493621826172 2.8056280612945556641 3.0410933494567871094 3.2547025680541992188 3.3853623867034912109 4.2953515052795410156 4.3948078155517578125 3.6802165508270263672 3.4674806594848632813 3.13097381591796875 3.3015778064727783203 3.252529144287109375 3.1465666294097900391 3.2430553436279296875 2.9096493721008300781 2.4742872714996337891 2.3515050411224365234 2.5740151405334472656 2.5245647430419921875 2.3296961784362792969 2.1438202857971191406 2.0376901626586914063 2.0177371501922607422 1.9171503782272338867 
2.5092935562133789063 3.6739685535430908203 2.9677436351776123047 2.8024015426635742188 2.9747607707977294922 3.2939369678497314453 3.5378310680389404297 3.59893035888671875 3.4035565853118896484 3.2903158664703369141 3.1619195938110351563 3.2828214168548583984 3.0995261669158935547 2.7775974273681640625 2.7384703159332275391 1.7353534698486328125 2.4580161571502685547 3.0319790840148925781 3.1608448028564453125 3.2190673351287841797 2.4103853702545166016 2.5888719558715820313 2.9612581729888916016 2.1995170116424560547 2.2506771087646484375 2.8879704475402832031 2.2199656963348388672 2.2414505481719970703 2.2103610038757324219 2.4653966426849365234 2.9378495216369628906 2.8240945339202880859 3.0825834274291992188 3.2250804901123046875 3.9631443023681640625 3.6940779685974121094 3.6079375743865966797 3.7629592418670654297 3.7150142192840576172 3.6255280971527099609 2.9492406845092773438 2.2574825286865234375 2.8007328510284423828 2.3575618267059326172 2.0345520973205566406 2.3900597095489501953 2.0357611179351806641 2.6126909255981445313 2.9987998008728027344 2.1373815536499023438 2.4022278785705566406 2.4568626880645751953 2.0807349681854248047 1.8122639656066894531 1.4746072292327880859 1.540452122688293457 1.6631759405136108398 1.6075410842895507813 1.776507258415222168 1.5078794956207275391 1.2562353610992431641 1.0867646932601928711 1.3430190086364746094 1.4740607738494873047 1.2668840885162353516 1.1028864383697509766 1.1028864383697509766 1.7058150768280029297 1.031940460205078125 1.9108177423477172852 3.6311545372009277344 1.4710749387741088867 2.7689762115478515625 2.1344089508056640625 1.106109619140625 1.214518427848815918 1.0837826728820800781 1.0193825960159301758 1.0621008872985839844 1.0837826728820800781 1.3608069419860839844 1.2668840885162353516 1.2452023029327392578 1.1530576944351196289 1.3350129127502441406 1.5297958850860595703 1.829375147819519043 1.4780702590942382813 1.4055278301239013672 1.5464988946914672852 1.9942249059677124023 2.1481771469116210938 1.8060678243637084961 1.9666422605514526367 1.7880368232727050781 2.2933907508850097656 2.8918473720550537109 3.2290785312652587891 2.9045310020446777344 2.9504835605621337891 2.6347987651824951172 1.6198791265487670898 2.1167948246002197266 1.7469640970230102539 2.4827072620391845703 1.7095886468887329102 2.0779006481170654297 1.7985955476760864258 2.0680472850799560547 1.7001338005065917969 1.7978205680847167969 2.0364894866943359375 1.7684190273284912109 1.3012454509735107422 1.1928366422653198242 1.6955621242523193359 1.0595229864120483398 1.0595229864120483398 1.047404170036315918 1.1245682239532470703 1.1338173151016235352 1.2362002134323120117 1.1241196393966674805 1.0535526275634765625 1.1076474189758300781 1.4710749387741088867 2.1164593696594238281 1.0378412008285522461 3.9627170562744140625 2.4689557552337646484 1.9108177423477172852 1.9122374057769775391 1.1462500095367431641 1.1468665599822998047 1.156513214111328125 1.6600682735443115234 1.1914397478103637695 1.0945109128952026367 1.2018388509750366211 1.239461064338684082 1.0898315906524658203 1.4412064552307128906 1.5961464643478393555 1.4522385597229003906 1.7054418325424194336 1.5724380016326904297 1.5177885293960571289 1.2362002134323120117 1.047404170036315918 2.1344089508056640625 1.9041965007781982422 1.0812047719955444336 1.4710749387741088867 1.5902960300445556641 1.3549501895904541016 1.5630494356155395508 1.0837826728820800781 1.108626246452331543 1.2885658740997314453 1.2018388509750366211 1.3785314559936523438 1.5684444904327392578 1.2054085731506347656 1.418656468391418457 1.493775486946105957 1.7550847530364990234 2.0244946479797363281 1.7261931896209716797 1.7121343612670898438 1.3536111116409301758 1.6208952665328979492 1.6674152612686157227 1.6375889778137207031 1.8638257980346679688 1.8476601839065551758 1.9702501296997070313 2.2336924076080322266 2.5484859943389892578 3.0623896121978759766 3.6558339595794677734 4.3760290145874023438 4.5475287437438964844 4.2275948524475097656 3.8340358734130859375 4.2239031791687011719 3.8241448402404785156 3.8846707344055175781 3.427028656005859375 3.9508931636810302734 3.5904552936553955078 3.5006468296051025391 3.5114960670471191406 2.7097280025482177734 2.3002018928527832031 2.4874165058135986328 2.1511180400848388672 2.2062442302703857422 2.06076812744140625 2.1153814792633056641 2.0148367881774902344 
2.7529284954071044922 2.6665480136871337891 3.4516623020172119141 2.5817365646362304688 2.7072405815124511719 2.8106286525726318359 3.2753317356109619141 3.4928507804870605469 3.2605111598968505859 3.0342078208923339844 2.6122508049011230469 3.2288796901702880859 2.2151012420654296875 2.1790359020233154297 2.5584554672241210938 2.6698720455169677734 2.9910445213317871094 2.7763688564300537109 3.6616666316986083984 2.9593939781188964844 2.7052280902862548828 2.6554710865020751953 2.5986211299896240234 2.3830189704895019531 2.8126239776611328125 2.1536173820495605469 2.284923553466796875 1.9327266216278076172 2.4469695091247558594 2.6834564208984375 3.4760408401489257813 2.9463353157043457031 2.5082409381866455078 3.7662670612335205078 3.8693134784698486328 3.81937408447265625 3.2929852008819580078 3.3455607891082763672 3.0991251468658447266 3.3293981552124023438 2.8845372200012207031 3.0286729335784912109 2.1031048297882080078 2.4262840747833251953 2.4305713176727294922 2.7825505733489990234 3.6496484279632568359 2.5152850151062011719 2.9845583438873291016 2.7270047664642333984 2.5912394523620605469 2.7048547267913818359 2.5595595836639404297 2.0154409408569335938 1.630762934684753418 1.3924843072891235352 1.4899804592132568359 1.5127736330032348633 1.5262447595596313477 1.6720777750015258789 1.3626133203506469727 1.1175019741058349609 1.2733926773071289063 1.1893826723098754883 1.0503374338150024414 1.1928366422653198242 1.2959495782852172852 1.1207354068756103516 1.0535526275634765625 1.0266088247299194336 1.9041965007781982422 1.0193825960159301758 1.1245682239532470703 1.0536428689956665039 1.5068368911743164063 1.0627461671829223633 1.391209721565246582 1.0187373161315917969 1 1.2957750558853149414 1.1711549758911132813 1.1610141992568969727 1.2298604249954223633 1 1.3536111116409301758 1.331929326057434082 1.6835260391235351563 1.5657387971878051758 1.2795636653900146484 1.3525825738906860352 1.2287536859512329102 1.441638946533203125 1.5258408784866333008 1.9506373405456542969 1.6782276630401611328 2.3232870101928710938 2.4613749980926513672 2.7197735309600830078 2.8896772861480712891 2.5197541713714599609 2.6229355335235595703 2.4524636268615722656 1.616886138916015625 1.8516105413436889648 1.9836113452911376953 1.7210046052932739258 1.7671935558319091797 1.7066962718963623047 1.3752928972244262695 1.4057739973068237305 1.7695832252502441406 1.6791050434112548828 1.5020000934600830078 1.2603366374969482422 1.1054643392562866211 1.0844278335571289063 1.1245682239532470703 1.2957750558853149414 1.0711750984191894531 1.0193825960159301758 1.0711750984191894531 1.0939075946807861328 1.9041965007781982422 1.0050448179244995117 1.1028864383697509766 1.0378412008285522461 1.1779880523681640625 3.9627170562744140625 1.0786268711090087891 3.9627170562744140625 1.0151902437210083008 1.0087381601333618164 1.2955501079559326172 1.0007755756378173828 1.0017797946929931641 1.2122685909271240234 1.2362002134323120117 1.0933915376663208008 1.6547082662582397461 1.162257075309753418 1.5796047449111938477 1.6217857599258422852 1.5715548992156982422 1.6230965852737426758 1.755023956298828125 1.1799057722091674805 1.1503466367721557617 1.2294579744338989258 1.2949018478393554688 1.1245682239532470703 1.301726222038269043 1.1245682239532470703 1.1277914047241210938 1.9041965007781982422 1.3070124387741088867 1.1494731903076171875 1.9041965007781982422 1.0844278335571289063 1.1056212186813354492 1.0016961097717285156 1.2578819990158081055 1.4059767723083496094 1.8572777509689331055 1.4129561185836791992 1.816439509391784668 1.7659851312637329102 1.8887603282928466797 1.9025367498397827148 1.5726187229156494141 1.4711134433746337891 1.7922742366790771484 1.7507333755493164063 1.8366489410400390625 1.9695338010787963867 2.0047667026519775391 1.9060416221618652344 2.4512743949890136719 2.7243094444274902344 3.3797147274017333984 3.9273600578308105469 4.2940526008605957031 4.299472808837890625 4.7463808059692382813 4.8088650703430175781 4.0304412841796875 4.17801666259765625 3.894012451171875 3.8272645473480224609 4.1728143692016601563 3.9092204570770263672 3.2668490409851074219 4.0844311714172363281 3.13877105712890625 3.2786808013916015625 2.8052909374237060547 2.7755796909332275391 2.5058698654174804688 2.36174774169921875 1.9328942298889160156 2.0549342632293701172 
2.7135472297668457031 2.6042227745056152344 2.7191348075866699219 2.3732955455780029297 3.3163549900054931641 3.2816190719604492188 2.862743377685546875 3.0776662826538085938 2.8744153976440429688 3.1146678924560546875 2.311092376708984375 2.8886826038360595703 2.4373657703399658203 2.7897500991821289063 3.2019772529602050781 2.5349156856536865234 2.9794092178344726563 3.3267662525177001953 2.8096394538879394531 2.3686835765838623047 2.4421131610870361328 2.8969521522521972656 2.7125210762023925781 2.4846901893615722656 2.3998212814331054688 2.2785692214965820313 2.6904063224792480469 2.6616823673248291016 3.5238890647888183594 3.39669036865234375 3.6517560482025146484 3.7291045188903808594 3.5543212890625 4.7241606712341308594 3.4497742652893066406 3.8535315990447998047 3.9152941703796386719 3.3988699913024902344 3.2347166538238525391 3.0264837741851806641 2.8268959522247314453 2.2557661533355712891 2.1024413108825683594 2.4144392013549804688 3.1785452365875244141 3.5234963893890380859 3.3185379505157470703 2.7722728252410888672 2.6223306655883789063 2.6588129997253417969 2.7071511745452880859 2.2043602466583251953 1.8023625612258911133 2.1697211265563964844 2.09765625 1.9834994077682495117 1.9756486415863037109 1.5515662431716918945 1.5344930887222290039 1.3102476596832275391 1.7772220373153686523 1.5360673666000366211 1.2668840885162353516 1.2668840885162353516 1.0837826728820800781 1.1350263357162475586 1.1711549758911132813 1.6791050434112548828 1.2537592649459838867 1 1.6401140689849853516 1.1028864383697509766 2.2016704082489013672 1.0378412008285522461 1.0736905336380004883 1.1245682239532470703 1.0302299261093139648 1.4713634252548217773 1.0837826728820800781 1.6791050434112548828 1.2578819990158081055 1.1054643392562866211 1.331929326057434082 1.2318968772888183594 1.4833048582077026367 1.8419550657272338867 1.6573272943496704102 1.440338134765625 1.7264019250869750977 1.2298604249954223633 1.3550761938095092773 1.2362002134323120117 1.2749919891357421875 1.3324455022811889648 1.9735891819000244141 2.5170729160308837891 2.4167666435241699219 2.8246262073516845703 2.3037295341491699219 2.3725163936614990234 2.3848326206207275391 2.2815358638763427734 2.0617513656616210938 2.1877453327178955078 2.2893092632293701172 1.9130411148071289063 1.4034754037857055664 1.3048679828643798828 1.2852168083190917969 1.4492275714874267578 1.5262994766235351563 1.7865959405899047852 1.4023469686508178711 1.0837826728820800781 1.5201740264892578125 1.1494731903076171875 1.1054643392562866211 1.0909646749496459961 1.0934197902679443359 1.4745291471481323242 1.1863929033279418945 1.2090332508087158203 1.0812047719955444336 1.1494731903076171875 1.1310622692108154297 1.0378412008285522461 2.2016704082489013672 1.029074549674987793 1.100308537483215332 2.5863945484161376953 2.2552065849304199219 2.5969169139862060547 2.2552065849304199219 1.301726222038269043 1.0336509943008422852 1.1969568729400634766 1.5037750005722045898 1.4493403434753417969 1.4920526742935180664 1.4212756156921386719 1.3949170112609863281 1.7371680736541748047 1.1415163278579711914 1.59903717041015625 1.6410052776336669922 1.4241106510162353516 1.7814708948135375977 1.5643559694290161133 1.2452023029327392578 1.2578819990158081055 1.1028864383697509766 1.2957750558853149414 1.1262996196746826172 1.069109797477722168 1.1525149345397949219 1.1076474189758300781 1.0378412008285522461 1.2804682254791259766 1.2372629642486572266 1.2560200691223144531 1.0621008872985839844 1.0429970026016235352 1.3599696159362792969 1.1276475191116333008 1.7094854116439819336 1.8491605520248413086 1.6011126041412353516 1.6127282381057739258 1.6185158491134643555 1.5992561578750610352 1.7291584014892578125 1.8938080072402954102 1.8372887372970581055 2.0007548332214355469 2.0919756889343261719 2.2151572704315185547 2.4361078739166259766 2.8518755435943603516 3.6791436672210693359 3.8170695304870605469 3.9569284915924072266 3.7371280193328857422 4.2450113296508789063 4.6375408172607421875 4.5481786727905273438 3.7533590793609619141 3.633663177490234375 3.6232202053070068359 3.8126380443572998047 3.8537209033966064453 4.0044355392456054688 4.427272796630859375 3.7219593524932861328 3.5140383243560791016 3.0604746341705322266 2.7131989002227783203 3.0027821063995361328 2.0185828208923339844 1.9009011983871459961 1.7917007207870483398 
2.0955102443695068359 2.3646569252014160156 3.0496985912322998047 3.0864338874816894531 2.5408437252044677734 2.4007923603057861328 2.53009796142578125 2.7894334793090820313 2.6578888893127441406 2.7766931056976318359 2.3208730220794677734 2.22119140625 2.4723544120788574219 3.1375098228454589844 2.6218411922454833984 3.1888024806976318359 3.5837953090667724609 3.3499858379364013672 3.6364729404449462891 2.4343771934509277344 3.4886164665222167969 2.8555436134338378906 2.8635170459747314453 2.3962140083312988281 2.2748801708221435547 2.0801122188568115234 2.5383479595184326172 2.7819590568542480469 2.4069659709930419922 3.0924732685089111328 4.2853751182556152344 4.2221460342407226563 4.2112913131713867188 4.3962969779968261719 3.5207359790802001953 4.0154128074645996094 3.9949557781219482422 3.3709404468536376953 3.5354900360107421875 3.0985014438629150391 2.7938563823699951172 3.3539669513702392578 2.7286250591278076172 2.5745229721069335938 2.1210236549377441406 2.6259126663208007813 2.5423285961151123047 3.2541174888610839844 3.3146512508392333984 2.7822949886322021484 2.5580766201019287109 1.8733180761337280273 1.7602475881576538086 2.2957708835601806641 1.6155707836151123047 1.5201042890548706055 1.5408289432525634766 1.4917063713073730469 1.341938018798828125 1.4521356821060180664 1.6957843303680419922 1.5245041847229003906 1.3993802070617675781 1.7658755779266357422 1.1928366422653198242 1.0867646932601928711 1.2800035476684570313 1.214518427848815918 1.2018388509750366211 1.2578819990158081055 1.0382274389266967773 1.1252900362014770508 1.301726222038269043 1.0378412008285522461 1.0151902437210083008 1.5889005661010742188 1.5734229087829589844 1.1096309423446655273 1.106109619140625 1 1.2870632410049438477 1.214518427848815918 1.1076474189758300781 1.0096486806869506836 1.331929326057434082 1.3626133203506469727 1.9943456649780273438 1.8049497604370117188 1.8669502735137939453 1.9734528064727783203 1.8538244962692260742 1.2628875970840454102 1.3409967422485351563 1.6253169775009155273 1.9524749517440795898 1.9852719306945800781 2.6572740077972412109 3.3549513816833496094 2.6769196987152099609 2.6071336269378662109 2.3704559803009033203 2.5643267631530761719 2.4513394832611083984 2.1428105831146240234 1.8757925033569335938 1.7713998556137084961 1.4249831438064575195 1.1318188905715942383 1.1494731903076171875 1.3306090831756591797 1.2819025516510009766 1.4107851982116699219 1.1801570653915405273 1.0837826728820800781 1.5730751752853393555 1.5254709720611572266 1.2059140205383300781 1.3989332914352416992 1.6831744909286499023 1.5789265632629394531 1.633050084114074707 1.1811108589172363281 1.1521145105361938477 1.2388963699340820313 1.4710749387741088867 2.4689557552337646484 1.0352632999420166016 1.100308537483215332 1.1419925689697265625 2.2016704082489013672 2.4689557552337646484 2.2243709564208984375 1.2955501079559326172 3.6311545372009277344 1.2614274024963378906 1.1277914047241210938 1.0346062183380126953 1.3781925439834594727 1.6943641901016235352 1.6009477376937866211 1.454974055290222168 1.6421439647674560547 1.3084524869918823242 1.7410050630569458008 1.9025075435638427734 1.4589991569519042969 1.3166981935501098633 1.6459623575210571289 1.2235205173492431641 1.0621008872985839844 1.2218186855316162109 1.2298604249954223633 1.2405472993850708008 1.3211541175842285156 1.0187373161315917969 1.0378412008285522461 2.4689557552337646484 1.3540925979614257813 1.2458211183547973633 1.0932260751724243164 1.250771641731262207 1.3969746828079223633 1.331929326057434082 1.5416790246963500977 1.8720059394836425781 2.0814940929412841797 2.0674695968627929688 1.8627198934555053711 1.7149164676666259766 1.9110203981399536133 2.1749227046966552734 2.2202970981597900391 1.9263257980346679688 1.9568915367126464844 1.7875245809555053711 2.5175433158874511719 2.4236366748809814453 2.8142228126525878906 3.2787406444549560547 3.0613813400268554688 3.3941943645477294922 3.6389763355255126953 3.4670264720916748047 3.8084049224853515625 3.6459727287292480469 3.7993011474609375 4.1119489669799804688 4.6179451942443847656 3.9428086280822753906 4.0709404945373535156 3.9008729457855224609 4.9326291084289550781 3.7341182231903076172 3.6121182441711425781 3.1495993137359619141 2.8597371578216552734 2.7287919521331787109 2.4428782463073730469 2.2275521755218505859 1.9009076356887817383 
1.9360225200653076172 2.3674526214599609375 2.30297088623046875 2.1043932437896728516 2.4862895011901855469 2.2222514152526855469 2.5542378425598144531 2.6065938472747802734 3.3233435153961181641 2.2143964767456054688 1.7901859283447265625 2.2487523555755615234 2.4483342170715332031 2.4810101985931396484 2.451282501220703125 3.2693505287170410156 2.571933746337890625 3.4571602344512939453 2.8750977516174316406 2.4646351337432861328 2.9813635349273681641 2.3251564502716064453 2.1952776908874511719 2.1750674247741699219 2.0838379859924316406 1.8858603239059448242 1.6115092039108276367 1.5711219310760498047 1.8651288747787475586 2.8118658065795898438 2.3343186378479003906 4.3098645210266113281 4.3872456550598144531 4.3451251983642578125 3.6058132648468017578 3.5570585727691650391 3.6196208000183105469 3.4165956974029541016 3.8727667331695556641 3.9825229644775390625 3.8553214073181152344 2.9101011753082275391 2.8791399002075195313 3.4235169887542724609 2.3284487724304199219 2.7445056438446044922 3.1958494186401367188 3.4181804656982421875 3.3878662586212158203 2.8500504493713378906 2.8662590980529785156 2.3452165126800537109 1.6057955026626586914 1.9063853025436401367 1.6302328109741210938 1.720498204231262207 1.7498785257339477539 2.1296474933624267578 2.1815707683563232422 1.909727931022644043 2.2704164981842041016 1.7148531675338745117 1.5507675409317016602 1.7977575063705444336 1.5868209600448608398 1.2303607463836669922 1.2603366374969482422 1.2603366374969482422 1.4611693620681762695 1.1167732477188110352 1.214518427848815918 1.6600682735443115234 1.2037557363510131836 1.0595229864120483398 1.1320929527282714844 1.1110842227935791016 1.9041965007781982422 1.6600682735443115234 1.1245682239532470703 1.1076474189758300781 1.3183530569076538086 1.0844278335571289063 1.3095221519470214844 1.1801570653915405273 1.3536111116409301758 1.3892313241958618164 1.4535559415817260742 1.6202099323272705078 1.418656468391418457 1.7105464935302734375 1.6296936273574829102 1.8130408525466918945 1.5211520195007324219 1.3540786504745483398 1.9965811967849731445 1.9013229608535766602 1.7987486124038696289 2.8978190422058105469 2.4715480804443359375 3.04151153564453125 2.6374690532684326172 2.5776498317718505859 2.5575444698333740234 2.7418234348297119141 2.1281259059906005859 1.6265665292739868164 1.8636758327484130859 1.6728235483169555664 1.3054994344711303711 1.9016869068145751953 1.518469691276550293 1.3868864774703979492 1.5540812015533447266 1.2362002134323120117 1.4008485078811645508 1.0621008872985839844 1.4456101655960083008 1.7966977357864379883 1.5143855810165405273 1.4694408178329467773 1.2300459146499633789 1.1271461248397827148 1.1711549758911132813 1.15718841552734375 1.0812047719955444336 1.1219903230667114258 1.1219903230667114258 1.0352632999420166016 1.3161882162094116211 1.0203218460083007813 1.0378412008285522461 1.0303750038146972656 1.301726222038269043 1.301726222038269043 1.0844278335571289063 1.1928366422653198242 1.1271461248397827148 1.7416563034057617188 1.9014081954956054688 1.5450694561004638672 1.4927037954330444336 1.4022132158279418945 1.0391826629638671875 1.5246808528900146484 1.8585112094879150391 2.1209888458251953125 1.7110261917114257813 1.1663657426834106445 1.540522456169128418 1.3688905239105224609 1.7820012569427490234 1.6100355386734008789 1.3088968992233276367 1.2515420913696289063 1.002951502799987793 1.044114232063293457 1.9041965007781982422 1.627751469612121582 1.6048806905746459961 1.6115776300430297852 1.3409315347671508789 1.4100120067596435547 1.304484248161315918 1.5744565725326538086 1.5993117094039916992 2.1169519424438476563 2.283000946044921875 1.5916728973388671875 1.3968453407287597656 1.5750213861465454102 1.7001798152923583984 2.0435311794281005859 1.8100239038467407227 2.1612749099731445313 2.2649621963500976563 2.5270516872406005859 2.3534955978393554688 2.6918826103210449219 3.0276429653167724609 3.1978375911712646484 3.9934518337249755859 3.6038863658905029297 3.6027300357818603516 3.6531403064727783203 4.2013769149780273438 4.4332165718078613281 4.8244471549987792969 4.7428488731384277344 4.9396677017211914063 5.1825761795043945313 4.6953477859497070313 4.1571822166442871094 3.5536587238311767578 3.1583683490753173828 3.0243139266967773438 3.1438584327697753906 2.7724347114562988281 2.7494108676910400391 2.5648007392883300781 1.9678664207458496094 
2.1500637531280517578 1.7185235023498535156 1.8928188085556030273 1.4571096897125244141 1.8488751649856567383 1.9611496925354003906 2.3679373264312744141 2.5998175144195556641 2.3830873966217041016 1.9425538778305053711 1.6381363868713378906 1.5159817934036254883 2.5410223007202148438 1.8015398979187011719 2.1310482025146484375 2.3760480880737304688 2.615848541259765625 2.4779086112976074219 2.8103330135345458984 2.7891399860382080078 2.8002166748046875 2.3020536899566650391 2.0252108573913574219 1.0721087455749511719 1.5577491521835327148 1.4493403434753417969 1.1622014045715332031 1.669976353645324707 2.00330352783203125 2.3879134654998779297 2.7020642757415771484 4.1079907417297363281 3.8692300319671630859 3.1984760761260986328 3.1285533905029296875 3.7549271583557128906 3.8587589263916015625 4.084529876708984375 4.0243358612060546875 3.5396337509155273438 3.8231310844421386719 3.3667414188385009766 3.0003778934478759766 2.5666003227233886719 2.4372370243072509766 3.0068464279174804688 3.1636643409729003906 3.6271026134490966797 3.3537950515747070313 3.5593886375427246094 2.9274439811706542969 2.6416823863983154297 2.84003448486328125 2.5699155330657958984 2.6816034317016601563 2.3836319446563720703 2.0114965438842773438 2.3774397373199462891 3.3123116493225097656 2.9060394763946533203 3.0669498443603515625 2.7745244503021240234 2.6059038639068603516 2.5359935760498046875 1.6396050453186035156 1.2490510940551757813 1.4483332633972167969 1.2557617425918579102 1.3514314889907836914 1.9041965007781982422 1.1640291213989257813 1.3511040210723876953 1.47106170654296875 1.2578819990158081055 1.0595229864120483398 1.0203218460083007813 1.1792548894882202148 1.0326956510543823242 1.2872115373611450195 1.0309851169586181641 1 1.0605514049530029297 1.0017797946929931641 1.1567208766937255859 1.2422057390213012695 1.6791050434112548828 1.3756543397903442383 1.2425665855407714844 1.4561303853988647461 1.9032167196273803711 1.8381483554840087891 1.8108463287353515625 1.7318395376205444336 1.7021667957305908203 1.8351541757583618164 2.0084121227264404297 2.1010518074035644531 2.1085839271545410156 2.2070848941802978516 2.3780679702758789063 2.6664440631866455078 2.5667581558227539063 2.7248940467834472656 2.8460037708282470703 2.5103738307952880859 2.4590766429901123047 2.1339232921600341797 2.2509851455688476563 2.0319302082061767578 1.7020553350448608398 1.8597524166107177734 1.4947094917297363281 1.2334816455841064453 1.1494731903076171875 1.5405092239379882813 1.2795636653900146484 1.5229727029800415039 1.8255488872528076172 1.2700076103210449219 1.6418983936309814453 1.4676939249038696289 1.0844278335571289063 1.0595229864120483398 1.6868594884872436523 1.9122374057769775391 2.5969169139862060547 1.1419925689697265625 2.0501871109008789063 2.6653759479522705078 2.2243709564208984375 2.5863945484161376953 2.2552065849304199219 1.2955501079559326172 1.047404170036315918 1.4710749387741088867 1.2858676910400390625 1.2452023029327392578 1.5615013837814331055 1.4333560466766357422 1.4851510524749755859 1.6320852041244506836 1.8965022563934326172 1.6901611089706420898 1.7685005664825439453 1.6144441366195678711 1.6178960800170898438 1.5297275781631469727 1.5002498626708984375 1.5887823104858398438 1.1278861761093139648 1.5920737981796264648 1.0867646932601928711 1.7897369861602783203 1.4570472240447998047 1.4434632062911987305 1.617671966552734375 1.0416485071182250977 1.0688358545303344727 1.2668840885162353516 1.2885658740997314453 1.4560768604278564453 1.308277130126953125 1.835850834846496582 1.2430951595306396484 1.5468580722808837891 2.1118860244750976563 1.9693021774291992188 1.5238131284713745117 1.5326806306838989258 1.4662040472030639648 1.9160504341125488281 1.897814631462097168 2.02007293701171875 2.2601065635681152344 2.4863760471343994141 2.3575034141540527344 2.5101892948150634766 2.6255617141723632813 3.1019725799560546875 3.9338054656982421875 3.7182104587554931641 3.81937408447265625 3.5030162334442138672 3.8684446811676025391 3.9284772872924804688 4.8440485000610351563 5.2042369842529296875 5.3327474594116210938 5.2699103355407714844 4.8222041130065917969 4.7354116439819335938 4.3988814353942871094 4.0748105049133300781 3.4925248622894287109 3.3584909439086914063 3.6280329227447509766 3.1138675212860107422 3.0357582569122314453 2.7218801975250244141 2.4005351066589355469 
1.644295811653137207 1.604519963264465332 2.0376646518707275391 2.1181962490081787109 2.1492242813110351563 2.4135639667510986328 1.6334947347640991211 1.7751410007476806641 1.9061360359191894531 1.9302784204483032227 1.7093333005905151367 1.2321963310241699219 1.3626133203506469727 1.8645342588424682617 2.1923263072967529297 1.962492823600769043 2.5026543140411376953 3.3288748264312744141 3.0277013778686523438 2.7762382030487060547 2.6974806785583496094 1.9406876564025878906 1.9686179161071777344 1.7765346765518188477 1.2910889387130737305 1.569248199462890625 1.8617658615112304688 1.6398909091949462891 2.1197445392608642578 1.6856110095977783203 2.8279476165771484375 3.4642498493194580078 3.374553680419921875 3.6349565982818603516 3.2691845893859863281 4.1029210090637207031 4.0163311958312988281 4.3091421127319335938 4.1745543479919433594 3.8525238037109375 3.3403651714324951172 3.4927034378051757813 3.7352006435394287109 3.2616326808929443359 2.7049808502197265625 2.6090505123138427734 2.3634772300720214844 2.8613858222961425781 2.7213592529296875 3.2839376926422119141 3.3463468551635742188 2.6551949977874755859 2.7081470489501953125 2.8480570316314697266 3.0984556674957275391 3.109344482421875 2.7739646434783935547 3.1300051212310791016 3.1377482414245605469 3.3053667545318603516 3.0435678958892822266 3.1541950702667236328 2.8356213569641113281 2.5517172813415527344 2.2490482330322265625 2.6548619270324707031 1.5960941314697265625 1.3225505352020263672 1.4868731498718261719 1.490706324577331543 1.6132657527923583984 1.7064048051834106445 1.2302728891372680664 1.1981441974639892578 1.2677021026611328125 1.6691575050354003906 1.4710749387741088867 1.0126478672027587891 1.1854379177093505859 1.1245682239532470703 1.047404170036315918 1.6003824472427368164 1.9108177423477172852 1.6600682735443115234 1.206273198127746582 1.3923643827438354492 1.1711549758911132813 1.0605514049530029297 1.396411895751953125 1.1752375364303588867 2.1225924491882324219 2.1225328445434570313 2.0918886661529541016 2.0806291103363037109 1.3749421834945678711 1.8192398548126220703 1.9788496494293212891 2.0163233280181884766 2.0045073032379150391 2.5512931346893310547 2.7398321628570556641 2.781726837158203125 2.5334470272064208984 2.4479968547821044922 2.3767073154449462891 2.0622456073760986328 1.6933996677398681641 1.9041965007781982422 1.3455438613891601563 1.8813091516494750977 1.5300176143646240234 1.6070230007171630859 1.3041242361068725586 1.1462500095367431641 1.0285193920135498047 1.1524045467376708984 1.5945801734924316406 1.4722281694412231445 1.6037871837615966797 1.3474979400634765625 1.0621008872985839844 1.1028864383697509766 1.9122374057769775391 1.2832947969436645508 3.5349488258361816406 2.8177235126495361328 1.3161882162094116211 2.8177235126495361328 2.5969169139862060547 1.9793697595596313477 2.3418080806732177734 1.0203218460083007813 1.0087381601333618164 1.0303750038146972656 1.0535526275634765625 1.0266088247299194336 1.2452023029327392578 1.5292212963104248047 1.0977976322174072266 1.9150432348251342773 1.4887565374374389648 1.4938009977340698242 1.8189790248870849609 1.5329608917236328125 1.6171959638595581055 1.5024251937866210938 1.688107609748840332 1.5464245080947875977 1.3930704593658447266 1.3906348943710327148 1.6832942962646484375 1.612565159797668457 1.622127532958984375 2.0972831249237060547 1.9465504884719848633 1.3969746828079223633 1.303469538688659668 1.3336430788040161133 1.2362002134323120117 1.2375438213348388672 1.2578819990158081055 1.1928366422653198242 1.4524147510528564453 1.6422915458679199219 1.7316107749938964844 1.7986750602722167969 2.0353665351867675781 1.5783700942993164063 1.8169956207275390625 2.2046163082122802734 2.3407843112945556641 2.1281011104583740234 2.5044968128204345703 3.1337385177612304688 3.2174918651580810547 2.6646962165832519531 2.598033905029296875 3.0707874298095703125 3.6108305454254150391 4.2669878005981445313 3.9530642032623291016 4.0678572654724121094 4.1626706123352050781 3.7737975120544433594 4.6444048881530761719 4.4245610237121582031 5.2487459182739257813 5.1477694511413574219 4.6611628532409667969 4.3023519515991210938 4.3125791549682617188 4.28536224365234375 4.1615691184997558594 3.4088044166564941406 3.2393445968627929688 3.4377906322479248047 3.6403982639312744141 3.6222651004791259766 3.0041840076446533203 2.8180992603302001953 
1.6524763107299804688 2.0272266864776611328 1.7870944738388061523 2.0034832954406738281 2.2682285308837890625 1.6811679601669311523 2.1589350700378417969 1.942532658576965332 1.49263763427734375 1.7273550033569335938 1.225619196891784668 1.2663730382919311523 1.418656468391418457 1.7415785789489746094 2.2198505401611328125 2.5559670925140380859 2.3466644287109375 3.1622509956359863281 3.158580780029296875 2.9401509761810302734 2.4475638866424560547 2.4554991722106933594 1.7278690338134765625 1.5539882183074951172 1.2763334512710571289 2.1553564071655273438 1.9666799306869506836 1.4695031642913818359 1.8292448520660400391 2.7001619338989257813 2.3515374660491943359 3.3862020969390869141 4.2501635551452636719 4.1113367080688476563 3.4452183246612548828 3.3851277828216552734 4.1795978546142578125 3.51387786865234375 3.8092660903930664063 3.5426695346832275391 5.0556745529174804688 4.2409977912902832031 4.0372676849365234375 3.6367509365081787109 2.8160405158996582031 2.9826195240020751953 2.7222478389739990234 2.8358323574066162109 3.4818968772888183594 3.205158233642578125 2.8940401077270507813 3.1020174026489257813 2.4582419395446777344 2.4452903270721435547 2.6533358097076416016 2.8130993843078613281 2.747318267822265625 3.0568482875823974609 3.2568695545196533203 3.1224000453948974609 2.8109412193298339844 2.4802782535552978516 2.4861254692077636719 3.046680450439453125 3.0470535755157470703 2.6021389961242675781 1.9093900918960571289 1.7188805341720581055 1.2578819990158081055 1.1099768877029418945 1.6096768379211425781 2.1270048618316650391 1.9553283452987670898 1.8969093561172485352 1.7369788885116577148 1.356562495231628418 1.4970183372497558594 1.2560479640960693359 1.4595094919204711914 1.6691575050354003906 2.1344089508056640625 1.1028864383697509766 1.9108177423477172852 1.2617564201354980469 1.7636110782623291016 1.6250278949737548828 1.2687625885009765625 1.5890746116638183594 1.9013885259628295898 1.5011354684829711914 2.0808942317962646484 2.2351403236389160156 1.5595333576202392578 1.7767211198806762695 1.9041965007781982422 1.9134773015975952148 1.9202989339828491211 2.1736626625061035156 2.1662123203277587891 2.5514709949493408203 2.7380900382995605469 2.8319697380065917969 2.6376514434814453125 2.6808488368988037109 2.1300036907196044922 1.9836546182632446289 1.501359105110168457 1.301726222038269043 2.1077065467834472656 1.2811487913131713867 1.389912724494934082 1.234149932861328125 1.8849902153015136719 1.1028864383697509766 1.0378412008285522461 1.9108177423477172852 1.0879269838333129883 1.214518427848815918 1.5556926727294921875 1.7054418325424194336 1.391209721565246582 1.2468392848968505859 3.14661407470703125 2.5969169139862060547 1.100308537483215332 1.0352632999420166016 1.2621108293533325195 2.2016704082489013672 1.1366013288497924805 2.2552065849304199219 1.0812047719955444336 2.4689557552337646484 1.0087381601333618164 1.0378412008285522461 1.6955621242523193359 1.9041965007781982422 1.0404191017150878906 1.3752928972244262695 1.2990082502365112305 1.2839146852493286133 1.2699133157730102539 1.3102476596832275391 2.0097589492797851563 1.7523962259292602539 1.6653122901916503906 1.6197265386581420898 1.6539320945739746094 1.7131377458572387695 1.250992894172668457 1.3969746828079223633 1.9542223215103149414 1.1821998357772827148 1.9010503292083740234 2.0571806430816650391 2.0901646614074707031 1.2638999223709106445 1.3012454509735107422 1.2569292783737182617 1.2362002134323120117 1.2018388509750366211 1.3549656867980957031 1.3100305795669555664 1.2548620700836181641 1.2850751876831054688 1.4052488803863525391 2.1079840660095214844 1.9638972282409667969 1.9705301523208618164 2.185527801513671875 3.3173282146453857422 3.0778453350067138672 2.8718328475952148438 2.7987213134765625 2.9383795261383056641 2.8136453628540039063 3.0151860713958740234 3.3964161872863769531 2.9786171913146972656 3.7100064754486083984 4.1064548492431640625 4.2094621658325195313 4.4261407852172851563 4.5705232620239257813 4.4035048484802246094 4.3161163330078125 4.7084722518920898438 4.7465810775756835938 4.5824389457702636719 4.3091039657592773438 4.399139404296875 4.551692962646484375 3.9608786106109619141 3.7999312877655029297 3.4203364849090576172 3.340663909912109375 3.3793375492095947266 3.5208640098571777344 3.74092864990234375 3.3176691532135009766 3.32595062255859375 
1.0646787881851196289 1.4014829397201538086 1.6756653785705566406 1.3969746828079223633 1.7589819431304931641 1.9307093620300292969 1.7708313465118408203 1.4577721357345581055 1.3639425039291381836 1.4676939249038696289 1.6186156272888183594 1.2885658740997314453 1.496227264404296875 1.5112868547439575195 1.9138265848159790039 2.2800819873809814453 1.7930190563201904297 2.6190960407257080078 3.0295374393463134766 3.0966894626617431641 2.3385674953460693359 2.3244318962097167969 2.2265179157257080078 1.5875422954559326172 1.6885269880294799805 1.6873601675033569336 1.9589743614196777344 2.3050246238708496094 2.7000632286071777344 2.1206176280975341797 2.6015679836273193359 3.1932244300842285156 3.4642121791839599609 4.1920447349548339844 3.7321367263793945313 3.475910186767578125 3.9673597812652587891 4.6421756744384765625 5.776214599609375 4.2670965194702148438 4.2748341560363769531 5.0303659439086914063 3.6398122310638427734 3.2181119918823242188 3.5380222797393798828 3.1030068397521972656 2.4479746818542480469 2.7473444938659667969 2.994659423828125 2.9902255535125732422 3.6033327579498291016 3.0205619335174560547 2.219242095947265625 2.9324104785919189453 2.6016452312469482422 2.7115938663482666016 2.6127703189849853516 2.7275896072387695313 3.6773054599761962891 2.7373795509338378906 2.8445911407470703125 2.659820556640625 2.8203027248382568359 2.7734370231628417969 3.1146585941314697266 3.2967047691345214844 2.6817822456359863281 1.9722160100936889648 2.1122248172760009766 1.4915068149566650391 2.1464912891387939453 2.02254486083984375 2.0311772823333740234 1.7797656059265136719 2.2365489006042480469 2.0539469718933105469 2.0021049976348876953 1.7983872890472412109 1.4020962715148925781 1.2429872751235961914 1.039130091667175293 1.0326956510543823242 1.106109619140625 1.136837005615234375 1.9041965007781982422 1.6653989553451538086 2.1344089508056640625 1.7214432954788208008 1.9570022821426391602 1.9419190883636474609 1.4315495491027832031 1.6228901147842407227 1.4644269943237304688 1.6935532093048095703 2.1523725986480712891 2.2076597213745117188 2.5176465511322021484 2.2960813045501708984 2.3718571662902832031 2.1954922676086425781 2.2619955539703369141 2.4008240699768066406 2.4263677597045898438 2.5655100345611572266 2.3277628421783447266 2.034515380859375 1.5671200752258300781 1.3975498676300048828 1.1754688024520874023 1.2883424758911132813 1.5125597715377807617 1.1604164838790893555 1.6600682735443115234 1.9108177423477172852 2.2552065849304199219 2.2243709564208984375 1.0115746259689331055 1.9041965007781982422 1.2957750558853149414 1.0711750984191894531 1.301726222038269043 1.0029140710830688477 3.9627170562744140625 3.0841305255889892578 1.2621108293533325195 1.2621108293533325195 1.8997918367385864258 2.5969169139862060547 2.4689557552337646484 1.6600682735443115234 1.2730336189270019531 2.2552065849304199219 1.0595229864120483398 1.0595229864120483398 1.0378412008285522461 1.2931802272796630859 1.3545072078704833984 1.3536111116409301758 1.6659924983978271484 1.6456779241561889648 1.2885658740997314453 1.3752928972244262695 1.3633239269256591797 1.5236819982528686523 1.4145948886871337891 1.3752928972244262695 1.4044371843338012695 1.3102476596832275391 1.3106330633163452148 1.8786301612854003906 1.9808508157730102539 1.86333465576171875 1.6889389753341674805 1.4710220098495483398 1.5401587486267089844 1.5285429954528808594 1.4701207876205444336 1.331929326057434082 1.1494731903076171875 1.3290117979049682617 1.7054418325424194336 1.1928366422653198242 1.2726455926895141602 1.3811054229736328125 1.6486670970916748047 1.9189351797103881836 2.1088387966156005859 2.2039101123809814453 2.8622531890869140625 2.9978575706481933594 3.3390469551086425781 3.3746407032012939453 3.4303030967712402344 3.4736859798431396484 3.3096992969512939453 3.3354537487030029297 3.5857183933258056641 3.2299568653106689453 3.3265249729156494141 4.1151680946350097656 5.01740264892578125 4.5375657081604003906 4.3651914596557617188 4.7655210494995117188 4.9926457405090332031 4.6537933349609375 4.4997658729553222656 4.4633526802062988281 4.1295218467712402344 4.4172992706298828125 3.9258172512054443359 4.073223114013671875 3.5239529609680175781 3.5236220359802246094 3.4322860240936279297 3.5549190044403076172 3.8074665069580078125 3.6184916496276855469 3.5633831024169921875 3.0913741588592529297 
1.1494731903076171875 1.2795636653900146484 1.1025773286819458008 1.331929326057434082 1.3067462444305419922 1.4710220098495483398 1.6226183176040649414 1.423009037971496582 1.1801570653915405273 1.2789510488510131836 1.2245867252349853516 1.418656468391418457 1.2018388509750366211 1.2018388509750366211 1.7048628330230712891 1.8158786296844482422 2.0836508274078369141 2.0681345462799072266 2.3836419582366943359 3.1125099658966064453 2.3360712528228759766 1.7379921674728393555 1.8664057254791259766 1.5597945451736450195 1.5644706487655639648 1.7316708564758300781 1.6530920267105102539 1.6197313070297241211 2.2409017086029052734 2.374973297119140625 3.1165697574615478516 3.1118526458740234375 2.8872861862182617188 3.4220812320709228516 3.3588364124298095703 3.9657981395721435547 3.8247873783111572266 4.2805285453796386719 6.0270695686340332031 4.0471620559692382813 4.3006978034973144531 4.0872316360473632813 4.1671962738037109375 3.7254922389984130859 3.8489787578582763672 3.9092118740081787109 3.1926054954528808594 3.3719255924224853516 3.5612189769744873047 3.6169114112854003906 2.8382120132446289063 2.9090132713317871094 2.5799524784088134766 2.4629738330841064453 2.8738706111907958984 2.5193088054656982422 2.3697512149810791016 2.7406713962554931641 3.9736471176147460938 3.3481588363647460938 3.4121501445770263672 3.5866217613220214844 2.9854857921600341797 2.8470575809478759766 3.1314818859100341797 3.5705969333648681641 2.9547901153564453125 2.4423978328704833984 1.9540791511535644531 2.0765073299407958984 2.0676476955413818359 2.1531436443328857422 2.3758983612060546875 2.7615337371826171875 2.4531383514404296875 2.7079763412475585938 2.3112287521362304688 2.1939051151275634766 1.7086232900619506836 1.6220486164093017578 2.2353098392486572266 1.2487990856170654297 1.2957750558853149414 1.4050257205963134766 1.278969883918762207 1.5339297056198120117 1.7988159656524658203 2.1255340576171875 1.8257677555084228516 1.8759008646011352539 1.8303241729736328125 1.3797260522842407227 1.5525126457214355469 1.9467643499374389648 2.10968017578125 2.0632276535034179688 2.0508739948272705078 2.2354326248168945313 2.4527230262756347656 2.6895518302917480469 2.2312488555908203125 2.2066643238067626953 2.8550803661346435547 2.4084823131561279297 2.3528683185577392578 2.4117465019226074219 2.4689557552337646484 2.4689557552337646484 1.1262313127517700195 1.4050686359405517578 1.4324574470520019531 1.4710749387741088867 1.0049611330032348633 1.0595229864120483398 2.2552065849304199219 3.0062968730926513672 1.7058150768280029297 1.0115746259689331055 1.15718841552734375 1.9122374057769775391 2.4689557552337646484 2.4689557552337646484 2.5969169139862060547 2.8177235126495361328 1.0087381601333618164 3.0989103317260742188 1.3560349941253662109 1.301726222038269043 2.2016704082489013672 1.1028864383697509766 1.1028864383697509766 1.0595229864120483398 1.6868594884872436523 1.9108177423477172852 1.9062337875366210938 1.1821652650833129883 1.1801570653915405273 1.4454278945922851563 1.3288329839706420898 1.472262263298034668 1.8395160436630249023 1.3969746828079223633 1.7948628664016723633 1.7192521095275878906 1.3703116178512573242 1.4076050519943237305 1.2749919891357421875 1.7848206758499145508 1.4882104396820068359 1.4812421798706054688 1.4411118030548095703 1.28985595703125 1.3102476596832275391 1.2452023029327392578 1.6997790336608886719 1.5172008275985717773 1.1954884529113769531 1.4085659980773925781 1.214518427848815918 1.0844278335571289063 1.3571381568908691406 1.9041965007781982422 1.3441965579986572266 2.1344089508056640625 1.5708439350128173828 1.6941354274749755859 1.801949620246887207 2.3758921623229980469 2.5300486087799072266 3.3546900749206542969 3.5809497833251953125 3.2064361572265625 3.5886290073394775391 4.0620441436767578125 3.4323298931121826172 3.9701929092407226563 3.7288494110107421875 4.3204874992370605469 4.0802106857299804688 4.2197275161743164063 4.9226078987121582031 4.9749922752380371094 5.2869009971618652344 5.2381415367126464844 5.2522501945495605469 4.8022584915161132813 4.750232696533203125 4.8555178642272949219 4.5110144615173339844 4.2509927749633789063 4.0306367874145507813 4.1888861656188964844 4.0202045440673828125 3.8606483936309814453 3.4927268028259277344 3.8909957408905029297 4.4372773170471191406 4.6212458610534667969 3.5126481056213378906 3.0020823478698730469 
1.106109619140625 1.2152014970779418945 1.1577934026718139648 1.1054643392562866211 1.0406556129455566406 1.4499311447143554688 1.5360673666000366211 1.580511927604675293 1.0605514049530029297 1.3209916353225708008 1.1711549758911132813 1.3677365779876708984 1.0536962747573852539 1.2235205173492431641 1.4956545829772949219 1.3039455413818359375 1.5068974494934082031 1.6882779598236083984 1.9020961523056030273 2.3961305618286132813 2.3906443119049072266 2.1156537532806396484 2.0050346851348876953 1.2190644741058349609 1.5546492338180541992 1.4636453390121459961 1.2796535491943359375 1.3906348943710327148 1.7809007167816162109 2.049282073974609375 2.7238900661468505859 2.5781085491180419922 2.2425329685211181641 3.2485795021057128906 3.0746746063232421875 3.7979471683502197266 4.4892139434814453125 4.6915860176086425781 4.69677734375 3.9377655982971191406 3.9530084133148193359 3.5935876369476318359 4.4723119735717773438 4.3034930229187011719 4.3737006187438964844 4.6865863800048828125 4.0450005531311035156 3.9413475990295410156 4.0644021034240722656 3.5568342208862304688 2.9089324474334716797 2.3373811244964599609 3.0421926975250244141 2.6522235870361328125 2.5519349575042724609 2.4364819526672363281 2.1962351799011230469 2.3021912574768066406 3.3164079189300537109 3.3609969615936279297 3.3485186100006103516 4.1314144134521484375 3.0424671173095703125 3.4471111297607421875 3.456470489501953125 3.0173528194427490234 3.0145916938781738281 2.5604534149169921875 2.3186979293823242188 2.1078257560729980469 2.2986414432525634766 2.6122059822082519531 2.5687544345855712891 2.3562591075897216797 2.7375500202178955078 2.5568315982818603516 2.4869556427001953125 1.9644055366516113281 1.7839030027389526367 1.8045184612274169922 1.488943934440612793 1.6955621242523193359 1.3220045566558837891 1.5636546611785888672 1.8498890399932861328 1.7619241476058959961 1.9227317571640014648 1.7565875053405761719 1.9850940704345703125 1.7241785526275634766 2.1004915237426757813 1.7017382383346557617 1.5176491737365722656 1.3054232597351074219 1.8259519338607788086 2.1109969615936279297 2.1737949848175048828 2.7503807544708251953 2.96497344970703125 2.7602260112762451172 2.6728115081787109375 3.0357148647308349609 2.8851878643035888672 2.8755521774291992188 2.2913901805877685547 2.2637989521026611328 1.9454152584075927734 2.4689557552337646484 1.4544969797134399414 2.2552065849304199219 1.4256724119186401367 2.8139696121215820313 1.3133045434951782227 1.0378412008285522461 1.0087381601333618164 2.4689557552337646484 2.4689557552337646484 1.301726222038269043 1.6955621242523193359 1.0103963613510131836 2.3189318180084228516 1.0203218460083007813 2.8139696121215820313 2.8177235126495361328 2.5969169139862060547 2.2552065849304199219 1.3666899204254150391 1.0212770700454711914 2.5863945484161376953 1.0378412008285522461 1.490319371223449707 1.0115746259689331055 1.0043752193450927734 1.1245682239532470703 1.0050448179244995117 1.2362002134323120117 1.4075183868408203125 1.4090960025787353516 2.1018135547637939453 1.7515497207641601563 1.2468878030776977539 1.5486160516738891602 1.8925228118896484375 1.5002270936965942383 1.5630494356155395508 1.2888050079345703125 1.0789569616317749023 1.3496947288513183594 1.1608775854110717773 1.4760417938232421875 1.1028864383697509766 1.0285193920135498047 1.5441572666168212891 1.2452023029327392578 1.3553525209426879883 1.3947716951370239258 1.4071506261825561523 1.5961802005767822266 1.2749919891357421875 1.3999457359313964844 1.2209933996200561523 1.2578819990158081055 1.6691575050354003906 1.3409024477005004883 1.4780086278915405273 1.3619303703308105469 2.1984503269195556641 2.4782302379608154297 2.696193695068359375 2.5647997856140136719 3.155487060546875 3.0888497829437255859 3.5030236244201660156 3.9388589859008789063 4.0808043479919433594 4.3107590675354003906 3.7019176483154296875 3.6906652450561523438 3.8064126968383789063 4.319255828857421875 4.9011301994323730469 5.5087347030639648438 5.5572357177734375 5.2329759597778320313 5.4106450080871582031 4.9038891792297363281 5.0326895713806152344 5.2761511802673339844 5.1677508354187011719 4.0654082298278808594 4.0017800331115722656 4.0438289642333984375 3.9299371242523193359 3.40174102783203125 4.0540742874145507813 3.9774508476257324219 4.3231287002563476563 4.0301041603088378906 3.5815045833587646484 3.4775550365447998047 
1.2187823057174682617 1.0977133512496948242 1.0050448179244995117 1.1288340091705322266 1.2298604249954223633 1.2519419193267822266 1.4136226177215576172 1.7054418325424194336 1.2372865676879882813 1.1717013120651245117 1.3469901084899902344 1.2668840885162353516 1.2211308479309082031 1.2362002134323120117 1.1054643392562866211 1.3819558620452880859 1.1935416460037231445 1.1555297374725341797 1.5304924249649047852 2.4482696056365966797 2.0792067050933837891 2.2978110313415527344 1.3466125726699829102 1.3319919109344482422 1.5132496356964111328 1.1494731903076171875 1.5085662603378295898 1.6878196001052856445 1.6750351190567016602 1.9042593240737915039 1.8165856599807739258 2.2608857154846191406 2.3840906620025634766 3.4532530307769775391 2.6771519184112548828 3.0938477516174316406 3.3380405902862548828 3.6618988513946533203 3.503948211669921875 2.9409534931182861328 3.2608954906463623047 3.159671783447265625 3.9808955192565917969 4.2403750419616699219 4.9006829261779785156 5.3802733421325683594 4.5122752189636230469 5.0263738632202148438 4.6858429908752441406 3.9942378997802734375 3.5325183868408203125 3.1407361030578613281 3.1231114864349365234 2.9544684886932373047 2.0505189895629882813 2.460857391357421875 3.0467307567596435547 3.0535941123962402344 3.4479801654815673828 4.2576518058776855469 3.8459293842315673828 3.2521686553955078125 3.5537381172180175781 3.99828338623046875 3.8752381801605224609 3.3071157932281494141 3.1267664432525634766 2.8895461559295654297 2.8141236305236816406 2.9255700111389160156 2.7972216606140136719 2.7016527652740478516 2.7220256328582763672 2.3885407447814941406 2.7188482284545898438 2.7758238315582275391 2.8273155689239501953 2.3096387386322021484 1.8599233627319335938 1.5961267948150634766 2.2983632087707519531 1.6735560894012451172 2.1344089508056640625 1.4095141887664794922 1.4253485202789306641 1.5487271547317504883 2.0033597946166992188 1.8591620922088623047 2.0332593917846679688 1.5972554683685302734 1.4960471391677856445 1.6811983585357666016 1.5562260150909423828 1.714626312255859375 1.9797796010971069336 2.0624935626983642578 2.4679739475250244141 2.2727060317993164063 2.8841166496276855469 2.459018707275390625 2.6107010841369628906 2.9304490089416503906 2.5253698825836181641 2.8421888351440429688 2.8040130138397216797 2.2498788833618164063 2.3274488449096679688 1.8260256052017211914 1.9956805706024169922 1.5722330808639526367 1.4213325977325439453 1.4008883237838745117 1.2728294134140014648 1.9108177423477172852 1.0378412008285522461 2.4689557552337646484 1.6003824472427368164 1.1433149576187133789 1.2306470870971679688 1.0484545230865478516 1.0025691986083984375 1.4001885652542114258 1.2955501079559326172 1.6868594884872436523 2.0106759071350097656 1.9108177423477172852 1.0595229864120483398 1.301726222038269043 1.2600537538528442383 1.5569918155670166016 1.2856651544570922852 1.1028864383697509766 1.9108177423477172852 1.0025691986083984375 1.1245682239532470703 1.1028864383697509766 1.4155790805816650391 1.4619207382202148438 1.8912105560302734375 1.4710220098495483398 1.6696740388870239258 1.4473575353622436523 1.2546184062957763672 1.2895499467849731445 1.342738032341003418 1.0690859556198120117 1.1270171403884887695 1.2668840885162353516 1.1494731903076171875 1.1544973850250244141 1 1.2031954526901245117 1.4012103080749511719 1.2235205173492431641 1.5168631076812744141 1.3529311418533325195 1.2018388509750366211 1.5081968307495117188 1.397701263427734375 1.4247773885726928711 1.3319919109344482422 1.0662730932235717773 1.4643975496292114258 1.9041965007781982422 1.6320579051971435547 1.9389539957046508789 2.2100813388824462891 2.582118988037109375 2.8297474384307861328 3.6215677261352539063 2.974700927734375 2.8101594448089599609 3.6051135063171386719 3.894317626953125 3.8398735523223876953 4.1532649993896484375 3.6756815910339355469 3.9571802616119384766 4.2355451583862304688 4.36287689208984375 4.1026325225830078125 4.6202998161315917969 4.84986114501953125 4.5587887763977050781 4.8824601173400878906 4.9879202842712402344 4.9371304512023925781 4.2856693267822265625 4.5281796455383300781 4.8179888725280761719 4.4483962059020996094 4.5847830772399902344 4.9731431007385253906 3.9569056034088134766 4.3639893531799316406 4.5348505973815917969 4.1826529502868652344 4.1614413261413574219 4.0996947288513183594 4.0712008476257324219 
1.1028864383697509766 1.6955621242523193359 1.1028864383697509766 1.0934060811996459961 1.1262996196746826172 1.2799365520477294922 1.0404191017150878906 1.2578819990158081055 1.1928366422653198242 1.1076474189758300781 1.0627461671829223633 1.3574960231781005859 1.2081786394119262695 1.3514944314956665039 1.3536111116409301758 1.7363551855087280273 1.4587368965148925781 1.3880640268325805664 1.4710220098495483398 2.0018353462219238281 2.2381699085235595703 1.8556749820709228516 1.5629104375839233398 1.214518427848815918 1.1876928806304931641 1.1028864383697509766 1.2957750558853149414 1.7761169672012329102 1.7379993200302124023 1.3626133203506469727 1.6908774375915527344 2.5911250114440917969 2.3665969371795654297 2.6390323638916015625 2.1432681083679199219 2.6337347030639648438 2.5547833442687988281 2.6130902767181396484 2.7008855342864990234 3.0024256706237792969 2.9345476627349853516 3.2742404937744140625 4.4830584526062011719 4.96002960205078125 5.5909700393676757813 3.7655510902404785156 4.9998941421508789063 4.3839612007141113281 4.5380396842956542969 3.8220913410186767578 3.17108917236328125 2.3309094905853271484 2.8143417835235595703 2.4527029991149902344 2.4396593570709228516 3.0232367515563964844 2.8036949634552001953 3.4449636936187744141 3.38458251953125 3.8126704692840576172 4.2894110679626464844 3.4374086856842041016 3.5252506732940673828 3.9837777614593505859 3.2967979907989501953 3.1176974773406982422 3.2822744846343994141 2.8473734855651855469 3.7129116058349609375 3.5118882656097412109 3.2974288463592529297 3.1618530750274658203 2.7720584869384765625 3.2514185905456542969 3.1143083572387695313 3.1978695392608642578 2.9776699542999267578 3.1105964183807373047 1.9755277633666992188 1.8004094362258911133 1.8759684562683105469 1.9108177423477172852 1.9185056686401367188 2.3019168376922607422 1.9012438058853149414 1.9018837213516235352 2.2941648960113525391 1.6929677724838256836 1.9474005699157714844 1.7566286325454711914 1.5542507171630859375 1.6259338855743408203 2.0241436958312988281 2.5359423160552978516 2.1056146621704101563 2.2643158435821533203 2.38108062744140625 2.5025126934051513672 2.8316895961761474609 2.35257720947265625 2.5543859004974365234 2.8009059429168701172 2.8097052574157714844 3.1288545131683349609 2.3891007900238037109 2.3332338333129882813 2.0070922374725341797 1.5959045886993408203 1.7053052186965942383 2.4689557552337646484 1.3059136867523193359 1.4025294780731201172 1.154877781867980957 1.3499237298965454102 1.2955501079559326172 1.3769942522048950195 2.1344089508056640625 1.1245682239532470703 1.5419542789459228516 1.2057427167892456055 1.5630494356155395508 1.3084976673126220703 1.4710749387741088867 2.4689557552337646484 3.9627170562744140625 3.9627170562744140625 1.0595229864120483398 1.0595229864120483398 1.1038808822631835938 1.5878030061721801758 1.2642998695373535156 1.1245682239532470703 1.0812047719955444336 1.4843630790710449219 1.0428925752639770508 1.2642998695373535156 1.3441436290740966797 1.6566450595855712891 1.5775249004364013672 1.1494731903076171875 1.483359217643737793 1.3836106061935424805 1.2923073768615722656 1.3532454967498779297 1.572316288948059082 1.2854027748107910156 1.4728612899780273438 1.0404191017150878906 1.2362002134323120117 1.3801906108856201172 1.5474941730499267578 2.0929465293884277344 1.8263654708862304688 1.5134265422821044922 1.7075886726379394531 1.7687242031097412109 1.2873210906982421875 1.1301512718200683594 1.3569279909133911133 1.4208276271820068359 1.5630494356155395508 1.2081786394119262695 1.0535526275634765625 1.4775489568710327148 1.5406273603439331055 1.4885994195938110352 1.6838476657867431641 2.2388637065887451172 2.2971811294555664063 2.5891551971435546875 3.2129311561584472656 3.1802768707275390625 3.3107829093933105469 3.5620653629302978516 4.4659833908081054688 4.2656316757202148438 4.1271290779113769531 4.4652028083801269531 4.5354213714599609375 4.0183200836181640625 4.1731915473937988281 4.6531553268432617188 4.6857614517211914063 4.5531492233276367188 4.5375609397888183594 4.5612020492553710938 4.4804086685180664063 4.5633893013000488281 4.0915369987487792969 4.0249361991882324219 3.6246340274810791016 3.8123605251312255859 4.1833105087280273438 3.8879048824310302734 4.0116267204284667969 4.3651890754699707031 3.8782682418823242188 4.3259902000427246094 4.1497325897216796875 4.405925750732421875 
1.1430677175521850586 1.0812047719955444336 1.0812047719955444336 1.0605514049530029297 1.0016961097717285156 1.1711549758911132813 1.1500779390335083008 1.4482229948043823242 2.1344089508056640625 1.0535526275634765625 1.0378412008285522461 1.1711549758911132813 1.8108984231948852539 1.3102476596832275391 1.1325991153717041016 1.8538640737533569336 1.0844278335571289063 1.4042259454727172852 1.6121746301651000977 1.9393309354782104492 1.6719788312911987305 1.4603848457336425781 1.2795636653900146484 1.4258825778961181641 1.2284904718399047852 1.6600682735443115234 1.0535526275634765625 1.1928366422653198242 1.7941402196884155273 1.6111840009689331055 1.890186309814453125 1.8159219026565551758 2.1939475536346435547 2.4355282783508300781 2.3232009410858154297 2.3894898891448974609 2.3073396682739257813 2.2459394931793212891 2.6724958419799804688 2.3511903285980224609 2.9244189262390136719 3.5179250240325927734 4.3733625411987304688 4.9893555641174316406 3.9610941410064697266 4.6206731796264648438 4.8818721771240234375 4.1095118522644042969 4.6991906166076660156 3.3722417354583740234 2.8689508438110351563 3.0138134956359863281 3.3309371471405029297 2.929012298583984375 3.100605010986328125 3.0350940227508544922 3.0548501014709472656 3.6048333644866943359 3.4035360813140869141 3.6250910758972167969 3.6933872699737548828 3.3692858219146728516 3.4109055995941162109 3.1650633811950683594 3.6873881816864013672 3.1776356697082519531 3.7653746604919433594 3.6235473155975341797 3.3430249691009521484 3.1962532997131347656 3.0740020275115966797 3.1128780841827392578 3.4494411945343017578 3.2407555580139160156 2.8589823246002197266 2.8173673152923583984 2.9364690780639648438 2.7986378669738769531 2.5015511512756347656 2.2428791522979736328 1.9851167201995849609 1.8497674465179443359 1.9509623050689697266 2.3557119369506835938 2.4144127368927001953 2.0659337043762207031 2.2566685676574707031 1.7819445133209228516 1.8588830232620239258 1.5546309947967529297 1.7668694257736206055 2.0228509902954101563 2.1547658443450927734 2.70447540283203125 2.3341062068939208984 2.7111098766326904297 2.531154632568359375 2.5475111007690429688 2.4737689495086669922 2.6602275371551513672 2.2102324962615966797 2.8360860347747802734 2.4956836700439453125 2.5554401874542236328 2.4124007225036621094 2.3828117847442626953 2.3746612071990966797 2.0619766712188720703 2.0160682201385498047 1.6441956758499145508 1.301726222038269043 1.301726222038269043 1.6874817609786987305 2.0089404582977294922 1.9414010047912597656 1.6791050434112548828 1.5377134084701538086 1.7339267730712890625 1.2491687536239624023 1.3378607034683227539 1.2738177776336669922 1.5005249977111816406 1.1711549758911132813 1.0151902437210083008 1.0029140710830688477 1.0595229864120483398 1.9041965007781982422 1.9041965007781982422 1.1462500095367431641 1.0595229864120483398 1.1164393424987792969 1.2726726531982421875 1.2163349390029907227 1.4710749387741088867 1.301726222038269043 1.0595229864120483398 1 1.2578819990158081055 1.1310622692108154297 1.3422954082489013672 1.4303002357482910156 1.3563556671142578125 1.2465643882751464844 1.4964598417282104492 1.3319919109344482422 1.0535526275634765625 1.2578819990158081055 1.1538366079330444336 1.6791050434112548828 1.143939971923828125 1.8811157941818237305 1.6751140356063842773 1.6182678937911987305 1.6197265386581420898 1.5326837301254272461 1.3820135593414306641 1.2095850706100463867 1.1652501821517944336 1.5472611188888549805 1.3571149110794067383 1.2018388509750366211 1.4760677814483642578 1.4015392065048217773 1.1402579545974731445 1.8293546438217163086 1.5242421627044677734 1.2668840885162353516 2.1159558296203613281 1.9776357412338256836 2.1579148769378662109 2.4036166667938232422 2.2430765628814697266 3.6587049961090087891 3.6514432430267333984 3.8412187099456787109 3.8216879367828369141 4.0755748748779296875 4.489284515380859375 4.5016012191772460938 3.8660304546356201172 4.3408341407775878906 4.7400870323181152344 4.7806954383850097656 4.2878165245056152344 3.8891839981079101563 4.175937652587890625 3.9245874881744384766 3.5104403495788574219 3.8118357658386230469 3.6988763809204101563 3.5388514995574951172 3.1495034694671630859 3.398792266845703125 3.1962807178497314453 3.5536785125732421875 3.7047498226165771484 4.0365533828735351563 4.0886921882629394531 4.0713067054748535156 4.3131084442138671875 
1.301726222038269043 1.301726222038269043 1.0115746259689331055 1.391209721565246582 1.4825595617294311523 1.2616966962814331055 1.4559417963027954102 2.1344089508056640625 1.1028864383697509766 1.1245682239532470703 1.1277914047241210938 1.1064481735229492188 1.439215540885925293 1.6318230628967285156 1.4852762222290039063 1.2603366374969482422 1.4031516313552856445 1.4676939249038696289 1.3342299461364746094 1.5453972816467285156 1.3793929815292358398 1.7054418325424194336 1.2578819990158081055 1.3607785701751708984 1.0844278335571289063 1.0595229864120483398 1.1277914047241210938 1.3975223302841186523 1.6790280342102050781 1.5451894998550415039 1.4296251535415649414 1.7810528278350830078 1.9960917234420776367 2.7271294593811035156 2.4466352462768554688 2.5222942829132080078 2.6898503303527832031 2.475860595703125 2.5023264884948730469 2.2793679237365722656 2.7576928138732910156 3.4381244182586669922 3.4467360973358154297 4.1344647407531738281 5.2136092185974121094 4.5433840751647949219 5.0046658515930175781 4.271587371826171875 4.1658430099487304688 3.9088635444641113281 4.1855916976928710938 3.3892168998718261719 3.8996756076812744141 3.8754341602325439453 3.9880948066711425781 3.365200042724609375 3.7631750106811523438 3.7868137359619140625 3.232173919677734375 3.7096042633056640625 3.367206573486328125 3.5411667823791503906 3.9371514320373535156 3.9492170810699462891 3.7251746654510498047 3.6032719612121582031 4.0219573974609375 3.7238371372222900391 3.2635579109191894531 2.4684453010559082031 2.9820880889892578125 3.4877264499664306641 3.0399348735809326172 3.1244971752166748047 2.7812397480010986328 3.0554563999176025391 2.8769345283508300781 2.3255565166473388672 2.1282012462615966797 2.0777454376220703125 1.9754034280776977539 1.8471034765243530273 2.0073428153991699219 2.4231672286987304688 3.0152182579040527344 2.7592713832855224609 2.6044297218322753906 2.5260713100433349609 2.0878911018371582031 1.7691887617111206055 1.9629465341567993164 2.4515626430511474609 1.8935500383377075195 2.3968229293823242188 2.8656561374664306641 2.04045867919921875 2.0005040168762207031 2.225982666015625 2.3830406665802001953 2.4806127548217773438 2.4492576122283935547 2.5193891525268554688 2.5366129875183105469 2.3592884540557861328 2.7893469333648681641 2.5695090293884277344 2.8421230316162109375 2.3096408843994140625 1.7449090480804443359 1.5230743885040283203 2.0106759071350097656 1.4385807514190673828 1.7600317001342773438 1.9041965007781982422 1.6700260639190673828 1.6742756366729736328 1.9362370967864990234 1.561219334602355957 1.3067067861557006836 1.4950302839279174805 1.6060057878494262695 1.2126785516738891602 1.3732534646987915039 1.0595229864120483398 1.0378412008285522461 1.2955501079559326172 1.2325327396392822266 1.3320589065551757813 1.0690859556198120117 1.6600682735443115234 1.1028864383697509766 1.2369511127471923828 1.3356616497039794922 1.2795636653900146484 1.0812047719955444336 2.1344089508056640625 1.0812047719955444336 1.3093258142471313477 1.2236547470092773438 1.8040370941162109375 1.6932330131530761719 1.6791050434112548828 1.4950302839279174805 1.5924265384674072266 1.4710749387741088867 1.2987616062164306641 1.3319919109344482422 1.2374677658081054688 1.214518427848815918 1.838736414909362793 1.5371195077896118164 1.5596884489059448242 2.1797034740447998047 1.612445831298828125 1.7054418325424194336 1.6791050434112548828 1.8849902153015136719 1.1224588155746459961 1.4368360042572021484 1.4417383670806884766 1.4293935298919677734 1.367163538932800293 1.2953515052795410156 1.2362002134323120117 1.2393127679824829102 1.3653490543365478516 1.4647730588912963867 1.4317538738250732422 1.9777230024337768555 2.2373063564300537109 2.4812681674957275391 2.2187299728393554688 3.0995643138885498047 3.7486770153045654297 3.8284296989440917969 2.9730000495910644531 3.2787568569183349609 3.8049409389495849609 3.1956865787506103516 2.7928061485290527344 3.2869527339935302734 3.7069611549377441406 3.5851261615753173828 3.8634269237518310547 3.3321311473846435547 3.3133237361907958984 3.4161748886108398438 3.8468804359436035156 3.9315083026885986328 3.7249181270599365234 3.2300496101379394531 2.9046659469604492188 3.1758425235748291016 3.14075469970703125 3.1318700313568115234 3.4605255126953125 4.4670925140380859375 4.1766767501831054688 4.0954065322875976563 4.863925933837890625 
1.0203218460083007813 1.0029140710830688477 1.2955501079559326172 1.0017797946929931641 1.2298604249954223633 1.1245682239532470703 1.0264575481414794922 1.0050448179244995117 1.9292426109313964844 1.0812047719955444336 1.6401140689849853516 1.3356826305389404297 1.0627461671829223633 1.5075280666351318359 1.214518427848815918 1.3301372528076171875 1.2929406166076660156 1.2018388509750366211 1.2795636653900146484 1.4516512155532836914 1.2140547037124633789 1.1494731903076171875 1.8902859687805175781 1.3843975067138671875 1.0049611330032348633 1.0378412008285522461 1.1245682239532470703 1.1928366422653198242 1.8722718954086303711 1.7745525836944580078 1.7235367298126220703 1.7769446372985839844 1.9905221462249755859 2.4517569541931152344 2.0897183418273925781 2.0072093009948730469 2.1175220012664794922 2.5465128421783447266 2.0533876419067382813 1.8946881294250488281 2.6518950462341308594 2.9594211578369140625 3.7506742477416992188 3.9126915931701660156 4.0056443214416503906 4.6284928321838378906 4.8290572166442871094 4.5568232536315917969 4.8239355087280273438 4.1877889633178710938 3.8397519588470458984 3.7390739917755126953 3.4744310379028320313 3.4763388633728027344 3.4810991287231445313 3.0299477577209472656 3.2159028053283691406 3.2772033214569091797 3.7822053432464599609 4.1756958961486816406 3.6893117427825927734 4.1244354248046875 3.6635897159576416016 3.7294406890869140625 3.9307849407196044922 3.5780885219573974609 4.1150875091552734375 3.5735578536987304688 2.8470554351806640625 3.2876367568969726563 2.8377923965454101563 2.8586935997009277344 3.2238204479217529297 3.4056537151336669922 2.6564569473266601563 2.5276813507080078125 2.5792682170867919922 2.4484424591064453125 2.0708160400390625 1.7638351917266845703 1.8649973869323730469 1.67458343505859375 2.0112774372100830078 2.3800308704376220703 2.6657526493072509766 3.2580027580261230469 2.7402520179748535156 2.2432553768157958984 2.4344356060028076172 2.3094687461853027344 1.5598577260971069336 2.0636301040649414063 1.3173354864120483398 1.7978273630142211914 2.1836974620819091797 2.1937847137451171875 1.7937330007553100586 1.9821249246597290039 2.8153738975524902344 2.99994659423828125 2.4066081047058105469 2.4098072052001953125 2.3244812488555908203 2.3034448623657226563 2.2353098392486572266 2.0817348957061767578 2.3314936161041259766 2.2422728538513183594 1.6291134357452392578 1.2414861917495727539 2.4689557552337646484 1.8417997360229492188 1.945026397705078125 2.1039280891418457031 1.5902960300445556641 1.8279083967208862305 1.6523519754409790039 1.4775396585464477539 1.3839725255966186523 2.1420428752899169922 1.472878575325012207 1.9307734966278076172 1.1736074686050415039 2.4689557552337646484 1.3518837690353393555 2.8139696121215820313 1 1.3540925979614257813 1.6955621242523193359 1.0711750984191894531 1.9041965007781982422 1.6791050434112548828 1.9307734966278076172 1.1813669204711914063 1.2264564037322998047 1.3720612525939941406 1.4020550251007080078 1.5734229087829589844 1.2492845058441162109 1.1054643392562866211 1.2214963436126708984 1.4326660633087158203 1.106109619140625 1.2209448814392089844 1.5370724201202392578 1.047098994255065918 1.0309851169586181641 1.3531243801116943359 1.5169261693954467773 1.5410583019256591797 1.327456355094909668 1.8919123411178588867 1.6464023590087890625 1.7266632318496704102 1.8847110271453857422 1.2487227916717529297 1.4566100835800170898 1.6555848121643066406 1.2420574426651000977 1.2231065034866333008 1.0690859556198120117 1.9108177423477172852 1.0378412008285522461 1.0608385801315307617 1.2930754423141479492 1.8849902153015136719 1.4581370353698730469 1.5549650192260742188 1.7834354639053344727 2.4441940784454345703 2.6535174846649169922 2.2789032459259033203 2.5859222412109375 2.5448260307312011719 2.7147541046142578125 2.6132967472076416016 3.1679973602294921875 3.0198609828948974609 2.9150083065032958984 3.0263130664825439453 3.3423342704772949219 3.6806151866912841797 3.3573024272918701172 3.3925096988677978516 2.8935983180999755859 2.8969385623931884766 3.2493052482604980469 3.5881621837615966797 3.8027632236480712891 3.6713716983795166016 4.0901269912719726563 3.4030106067657470703 3.5179390907287597656 4.0468435287475585938 3.3655900955200195313 3.5174012184143066406 4.0956783294677734375 3.4760725498199462891 3.5972530841827392578 3.8034968376159667969 
1.9108177423477172852 1.121683955192565918 1.1152931451797485352 1.9041965007781982422 1.3669306039810180664 1.3540925979614257813 1.0812047719955444336 1.9108177423477172852 1.9108177423477172852 1.6003824472427368164 1.0923851728439331055 1.0690859556198120117 1.1028864383697509766 1.106109619140625 1.3353058099746704102 1.0258535146713256836 1.1277914047241210938 1.8689830303192138672 1.1494731903076171875 1.4003629684448242188 1.0378412008285522461 1.0303750038146972656 2.3189318180084228516 1.2425689697265625 1.1028864383697509766 1.204944610595703125 1.0035790205001831055 1.3017318248748779297 1.2885658740997314453 1.7381042242050170898 1.9418308734893798828 1.8594646453857421875 1.6955169439315795898 1.7970321178436279297 2.1753737926483154297 2.0995516777038574219 2.6847460269927978516 2.6386387348175048828 2.4098184108734130859 2.4831914901733398438 2.68752288818359375 3.1324462890625 4.3985395431518554688 4.270870208740234375 4.7292933464050292969 4.8815402984619140625 5.1903829574584960938 4.8061861991882324219 5.2407059669494628906 3.8099026679992675781 3.6856257915496826172 3.5978920459747314453 3.6111078262329101563 2.9470868110656738281 3.0640263557434082031 2.9896805286407470703 3.4271197319030761719 3.2694199085235595703 3.9955296516418457031 4.9824056625366210938 4.4409565925598144531 4.3034234046936035156 3.8408052921295166016 3.6493122577667236328 4.0963354110717773438 4.0535058975219726563 4.437042236328125 3.7191715240478515625 3.1522564888000488281 2.5253529548645019531 2.916774749755859375 3.2473065853118896484 3.3951637744903564453 3.3796918392181396484 2.7927906513214111328 2.4527175426483154297 2.5145955085754394531 2.7987120151519775391 2.1637411117553710938 1.6544440984725952148 1.9649254083633422852 1.5142817497253417969 2.2593336105346679688 2.6380872726440429688 2.3819396495819091797 2.5422649383544921875 2.5974397659301757813 2.4029133319854736328 2.6402533054351806641 2.7204442024230957031 2.1209237575531005859 2.0795969963073730469 1.9587876796722412109 1.8717061281204223633 2.2078435420989990234 2.1683664321899414063 1.7748577594757080078 2.098812103271484375 2.3208770751953125 2.1573557853698730469 2.9096567630767822266 2.6844067573547363281 2.7785341739654541016 2.5458014011383056641 2.1353878974914550781 2.1567811965942382813 2.6926550865173339844 2.1909756660461425781 2.2824556827545166016 1.8677613735198974609 1.6950722932815551758 1.9291555881500244141 1.7899229526519775391 1.64499664306640625 1.3494694232940673828 1.6223602294921875 1.2516480684280395508 1.3334647417068481445 1.4933060407638549805 1.7765672206878662109 1.4609081745147705078 1.4462660551071166992 1.0378412008285522461 2.1811678409576416016 1.0087381601333618164 1.9122374057769775391 1.1462500095367431641 1.5734229087829589844 1.0268088579177856445 1.2905912399291992188 1.8849902153015136719 1.1028864383697509766 1.214518427848815918 1.5630494356155395508 1.0711750984191894531 2.0311861038208007813 2.1344089508056640625 1.2475550174713134766 1.9041965007781982422 1.1928366422653198242 1.1928366422653198242 1.1796810626983642578 1.3514686822891235352 1.2083414793014526367 1.1494731903076171875 1.0844278335571289063 1.0621008872985839844 1.1938117742538452148 1.0621008872985839844 1.4343675374984741211 1.1928366422653198242 1.6739298105239868164 2.2527871131896972656 1.9797432422637939453 1.9696314334869384766 1.214518427848815918 1.3888105154037475586 1.2197624444961547852 1.6791050434112548828 1.031940460205078125 1.0711750984191894531 1.1664305925369262695 1.029074549674987793 1.4190771579742431641 1.5043530464172363281 1.4397603273391723633 1.3978455066680908203 1.4802334308624267578 2.1696839332580566406 1.8271033763885498047 2.6207375526428222656 3.0514962673187255859 2.5074350833892822266 2.1112654209136962891 2.3921027183532714844 2.6953122615814208984 2.8933000564575195313 2.7737438678741455078 2.8499138355255126953 2.9053936004638671875 2.9075610637664794922 3.2257955074310302734 3.3571755886077880859 3.0531468391418457031 3.1441750526428222656 3.1231715679168701172 3.7476935386657714844 3.5562868118286132813 3.5164062976837158203 3.4025998115539550781 3.6763107776641845703 4.0084538459777832031 4.2139024734497070313 3.6315751075744628906 3.7613081932067871094 4.3601016998291015625 3.915096282958984375 3.6754343509674072266 3.44101715087890625 3.6053953170776367188 
1.0378412008285522461 1.1123201847076416016 1.0303750038146972656 1.1530817747116088867 1.0535526275634765625 1.1785857677459716797 1.3138761520385742188 1.301726222038269043 1.4710749387741088867 1.0812047719955444336 1.3385521173477172852 1.7892693281173706055 1.0595229864120483398 2.4689557552337646484 1.0378412008285522461 1.9041965007781982422 1.2331001758575439453 2.4689557552337646484 1.3412746191024780273 1.1028864383697509766 1.3156942129135131836 1.0079749822616577148 1.0387754440307617188 1.047404170036315918 1.0168877840042114258 1.1502945423126220703 2.1344089508056640625 1.0709253549575805664 1.4345345497131347656 1.7953505516052246094 1.2885658740997314453 1.6065157651901245117 1.7044235467910766602 1.3946410417556762695 1.7598029375076293945 1.7899234294891357422 2.4541246891021728516 2.0792558193206787109 2.2957949638366699219 2.6512646675109863281 3.1977803707122802734 3.2931351661682128906 3.5993440151214599609 4.7108263969421386719 4.7603640556335449219 6.1634311676025390625 5.1483454704284667969 4.1207866668701171875 4.152873992919921875 3.9624104499816894531 3.4944465160369873047 3.1728940010070800781 2.5517957210540771484 2.8457784652709960938 2.7728657722473144531 3.8173298835754394531 3.6853437423706054688 3.9042465686798095703 3.9367132186889648438 4.7461719512939453125 5.0832886695861816406 3.6027083396911621094 3.3881616592407226563 3.4653272628784179688 3.6926488876342773438 3.7651264667510986328 3.9458012580871582031 3.3653132915496826172 3.0585396289825439453 2.8482646942138671875 2.7029635906219482422 3.0898048877716064453 3.6150119304656982422 3.2467150688171386719 3.1628625392913818359 3.1812672615051269531 2.6696913242340087891 2.6006555557250976563 1.9917216300964355469 1.8761473894119262695 1.8778591156005859375 2.0370352268218994141 2.8451061248779296875 2.556529998779296875 2.6433289051055908203 2.8006343841552734375 2.6751041412353515625 2.8388063907623291016 2.6624567508697509766 2.5374937057495117188 2.1587929725646972656 2.0047667026519775391 2.1547644138336181641 2.4801437854766845703 1.9560682773590087891 2.2871205806732177734 2.3203535079956054688 2.2037041187286376953 1.8498724699020385742 2.2895734310150146484 2.4611194133758544922 2.8797025680541992188 3.1033184528350830078 2.5922250747680664063 2.3236513137817382813 2.0208630561828613281 2.2091755867004394531 2.5900361537933349609 2.2708165645599365234 1.9226410388946533203 1.9030660390853881836 2.1053228378295898438 1.9511196613311767578 1.4833844900131225586 1.3837753534317016602 1.4638354778289794922 1.5571136474609375 1.5630494356155395508 1.324593663215637207 1.373967289924621582 1.5391031503677368164 1.1182012557983398438 1.1193195581436157227 1.2955501079559326172 3.5383107662200927734 1.0378412008285522461 1.1028864383697509766 1.9041965007781982422 1.2578819990158081055 1.6150652170181274414 1.1271461248397827148 1.4224153757095336914 1.0867646932601928711 1.0731846094131469727 1.1294684410095214844 1.214518427848815918 1.2839610576629638672 1.1028864383697509766 1.9041965007781982422 1.0844278335571289063 1.1494731903076171875 1.0837826728820800781 1.1669977903366088867 1.0326956510543823242 1.9041965007781982422 1.3710995912551879883 1.1711549758911132813 1.1770846843719482422 1.1711549758911132813 1.0187373161315917969 1.0837826728820800781 1.7139651775360107422 1.7273318767547607422 2.0751626491546630859 1.6284384727478027344 1.214518427848815918 1.2437758445739746094 1.6284049749374389648 1.335267186164855957 1.2957750558853149414 1.9041965007781982422 1.9041965007781982422 1.9041965007781982422 1.133885502815246582 1.2674294710159301758 1.3127351999282836914 1.3370935916900634766 1.5379282236099243164 2.2547440528869628906 2.1236815452575683594 2.620059967041015625 2.8091006278991699219 2.5623543262481689453 2.3608956336975097656 2.6698527336120605469 2.9238288402557373047 2.5838015079498291016 3.0475051403045654297 2.9091775417327880859 2.1389875411987304688 2.8144559860229492188 3.0453219413757324219 3.3567273616790771484 3.097156524658203125 3.2035589218139648438 3.6384217739105224609 3.6516785621643066406 3.5312044620513916016 3.1295831203460693359 3.5468173027038574219 3.6392612457275390625 4.0045390129089355469 3.7258388996124267578 4.0205025672912597656 3.6487717628479003906 3.3397405147552490234 3.1700799465179443359 3.3904480934143066406 3.6757948398590087891 3.6793456077575683594 
1.0378412008285522461 1.3365852832794189453 1.029074549674987793 1.2411421537399291992 1.0650787353515625 1.4843474626541137695 1.9041965007781982422 1.1028864383697509766 1.6003824472427368164 2.2016704082489013672 3.6311545372009277344 1.1790221929550170898 1.1245682239532470703 1.3560349941253662109 1.0151902437210083008 1.1861573457717895508 1.6955621242523193359 1.0203218460083007813 1.4008883237838745117 1.5705308914184570313 1.9108177423477172852 1.3009523153305053711 1.3059138059616088867 1.0812047719955444336 1.9122374057769775391 1.1462500095367431641 1.0812047719955444336 1.2680457830429077148 1.3203150033950805664 1.5250400304794311523 1.5166240930557250977 1.8000072240829467773 1.9924924373626708984 1.512723088264465332 1.7054418325424194336 1.6272253990173339844 1.9945116043090820313 2.4064123630523681641 2.4825823307037353516 2.5943367481231689453 2.6666262149810791016 2.7650094032287597656 3.7316799163818359375 4.5794587135314941406 5.4412503242492675781 5.56793212890625 4.8392052650451660156 4.2754292488098144531 3.732234954833984375 3.5980682373046875 3.2819395065307617188 2.8141548633575439453 2.9786276817321777344 2.5639429092407226563 2.7988307476043701172 3.3863918781280517578 3.6896536350250244141 3.8178191184997558594 3.6252245903015136719 3.7531142234802246094 4.7724928855895996094 4.5592513084411621094 3.7649872303009033203 3.6982657909393310547 3.9266450405120849609 3.2721347808837890625 3.7045524120330810547 3.4497134685516357422 2.9150166511535644531 3.3625385761260986328 2.8699119091033935547 3.2352697849273681641 3.2841486930847167969 3.5500397682189941406 3.5407400131225585938 3.1162431240081787109 3.1446177959442138672 2.6778502464294433594 1.9128350019454956055 2.3043396472930908203 1.7529870271682739258 2.5379886627197265625 2.6042160987854003906 2.7924675941467285156 3.0492801666259765625 3.0335183143615722656 3.0814633369445800781 2.9656221866607666016 3.0677039623260498047 2.7689716815948486328 2.2621479034423828125 2.011142730712890625 1.9664371013641357422 1.9108177423477172852 1.7383649349212646484 2.21435546875 2.1316740512847900391 2.4473607540130615234 2.0209865570068359375 2.0590305328369140625 2.2513051033020019531 2.0311861038208007813 2.1383588314056396484 2.1764750480651855469 2.1554584503173828125 2.134197235107421875 2.1558918952941894531 2.5132405757904052734 2.5026772022247314453 2.5995223522186279297 2.2187237739562988281 2.51419830322265625 1.9897838830947875977 2.1897571086883544922 1.5271527767181396484 1.4513838291168212891 1.1936162710189819336 1.2578819990158081055 1.0404191017150878906 1.2641005516052246094 1.6791050434112548828 1.2337603569030761719 2.3418080806732177734 1.9108177423477172852 1.9108177423477172852 1.1729494333267211914 1.0923851728439331055 1.4725109338760375977 1.3012158870697021484 1.2920975685119628906 1.1424604654312133789 1.3685871362686157227 1.405888676643371582 1.2018388509750366211 1.0844278335571289063 1.6922385692596435547 1.500858306884765625 1.2957750558853149414 1.2218886613845825195 1.3493112325668334961 1.2425304651260375977 1.1277914047241210938 1.2744495868682861328 1.1738705635070800781 1.429401397705078125 1.1603021621704101563 1.3343477249145507813 1.4270064830780029297 1.1277914047241210938 1.21709442138671875 1.2795636653900146484 1.444662928581237793 1.8145864009857177734 1.602217555046081543 1.2300459146499633789 1.5630494356155395508 1.5006107091903686523 1.0621008872985839844 1.6791050434112548828 1.4276927709579467773 1.2138817310333251953 1.5515753030776977539 1.3612657785415649414 1.6756902933120727539 1.271914362907409668 1.2957750558853149414 1.1928366422653198242 1.8080605268478393555 1.7883402109146118164 2.6994717121124267578 2.5563452243804931641 2.6988072395324707031 2.5066893100738525391 2.3954248428344726563 2.6281824111938476563 3.0528862476348876953 2.7376804351806640625 3.0275545120239257813 3.0864896774291992188 2.6861586570739746094 2.8206808567047119141 2.6799068450927734375 3.2129580974578857422 2.9108510017395019531 2.9009959697723388672 3.3183996677398681641 3.3400568962097167969 3.4174091815948486328 3.2182865142822265625 3.0844271183013916016 4.0974659919738769531 3.8710472583770751953 3.7101926803588867188 4.0170512199401855469 3.4331693649291992188 3.3055036067962646484 2.9287867546081542969 3.2919762134552001953 3.6498048305511474609 3.4509844779968261719 
2.4689557552337646484 1.0812047719955444336 1.1091706752777099609 1.9041965007781982422 1.9041965007781982422 2.1344089508056640625 1.1095163822174072266 1.6003824472427368164 1.6558682918548583984 1.100308537483215332 3.9627170562744140625 1.9122374057769775391 2.5863945484161376953 3.9627170562744140625 1.1028864383697509766 2.3019168376922607422 1.9292426109313964844 1.0115746259689331055 1.301726222038269043 2.2552065849304199219 2.8139696121215820313 1.6868594884872436523 1.0378412008285522461 1.2872062921524047852 1.5671200752258300781 1.0812047719955444336 1.0595229864120483398 1.2957750558853149414 1.4760372638702392578 1.6579471826553344727 1.919674992561340332 1.7905859947204589844 1.8766534328460693359 1.3551459312438964844 1.7493166923522949219 1.9731166362762451172 1.6965558528900146484 1.8907057046890258789 3.0036737918853759766 2.2921259403228759766 3.1148021221160888672 3.3385248184204101563 3.8525643348693847656 5.0196213722229003906 5.4762907028198242188 4.5787997245788574219 4.4774188995361328125 4.0984668731689453125 3.2871124744415283203 3.1782615184783935547 3.3238494396209716797 2.9232227802276611328 2.8049831390380859375 2.9346501827239990234 2.9034960269927978516 4.1824183464050292969 3.9346218109130859375 4.382770538330078125 4.2031960487365722656 4.3274126052856445313 4.6241583824157714844 4.5575046539306640625 4.7829389572143554688 5.0727210044860839844 4.8813066482543945313 4.996273040771484375 4.0886454582214355469 3.5491731166839599609 3.2170870304107666016 3.5328056812286376953 3.5232384204864501953 3.278766632080078125 3.1970922946929931641 3.4292476177215576172 3.4674794673919677734 3.193328857421875 3.2758343219757080078 2.9853456020355224609 2.7600762844085693359 1.8770822286605834961 1.8749717473983764648 2.4981877803802490234 2.8432819843292236328 2.4443981647491455078 2.8865694999694824219 3.1010649204254150391 3.1645231246948242188 2.7819118499755859375 2.3957149982452392578 2.2948648929595947266 2.0525503158569335938 1.7321738004684448242 1.4588518142700195313 1.6956565380096435547 1.6789958477020263672 1.59708404541015625 2.0735247135162353516 2.0457632541656494141 2.1877999305725097656 2.1569664478302001953 1.8348774909973144531 1.9108177423477172852 2.1292412281036376953 1.8461580276489257813 2.1666860580444335938 2.7573790550231933594 2.5628783702850341797 3.0910222530364990234 3.1066966056823730469 2.41498565673828125 2.4928264617919921875 2.3373098373413085938 1.9842982292175292969 2.1685636043548583984 1.8768362998962402344 1.7287591695785522461 1.4054639339447021484 1.9204623699188232422 1.3153765201568603516 1.3577708005905151367 2.1344089508056640625 1.15718841552734375 1.2955501079559326172 1.9108177423477172852 1.0378412008285522461 1.4710749387741088867 1.301726222038269043 1.9041965007781982422 1.3198406696319580078 1.158396601676940918 1.214518427848815918 1.4774161577224731445 1.3738361597061157227 1.2362002134323120117 1.2796580791473388672 1.214518427848815918 1.3161799907684326172 1.6401140689849853516 1.0711750984191894531 1.1489957571029663086 2.1344089508056640625 1.113795161247253418 1.1616232395172119141 1.4931595325469970703 1.4373009204864501953 1.241846919059753418 1.1076474189758300781 1.3658761978149414063 1.1011158227920532227 1.6401140689849853516 1.1277914047241210938 1.8689830303192138672 1.9195430278778076172 1.7472549676895141602 1.9250560998916625977 1.5725026130676269531 1.6599013805389404297 1.8508558273315429688 1.4037827253341674805 1.5295605659484863281 1.6156952381134033203 1.1680028438568115234 1.4300595521926879883 1.0711750984191894531 1.2221959829330444336 1.2857885360717773438 1.7468357086181640625 1.8251589536666870117 1.6607344150543212891 2.3923766613006591797 3.1149053573608398438 2.9047191143035888672 2.5944349765777587891 2.1291141510009765625 2.2874512672424316406 2.4952845573425292969 2.9154133796691894531 2.6558430194854736328 2.7313756942749023438 2.7103290557861328125 2.8972218036651611328 2.7631945610046386719 3.6036252975463867188 3.51078033447265625 3.3196218013763427734 3.2086000442504882813 3.0606260299682617188 3.3797388076782226563 3.3692989349365234375 3.7558572292327880859 4.0197901725769042969 3.5577845573425292969 3.9529411792755126953 3.8428657054901123047 3.8193681240081787109 3.5172374248504638672 3.2518427371978759766 3.3660800457000732422 3.4350428581237792969 3.7132768630981445313 
2.6321852207183837891 2.4689557552337646484 1.0378412008285522461 1.3035216331481933594 1.0309851169586181641 1.3134565353393554688 2.1344089508056640625 1.3381913900375366211 1.3161882162094116211 2.5969169139862060547 1.9122374057769775391 1.100308537483215332 2.2243709564208984375 1.0303750038146972656 1.0950330495834350586 1.0378412008285522461 1.4085233211517333984 2.8004152774810791016 2.2552065849304199219 1.100308537483215332 3.9627170562744140625 3.0062968730926513672 2.8139696121215820313 1.0275945663452148438 1.301726222038269043 1.9041965007781982422 1.2360804080963134766 1.1928366422653198242 1.2223746776580810547 1.1076474189758300781 1.3791652917861938477 2.0242226123809814453 1.8696618080139160156 1.706519007682800293 1.6820075511932373047 1.9177477359771728516 1.8546973466873168945 1.8446733951568603516 2.5718729496002197266 3.4113721847534179688 3.4106507301330566406 3.5928335189819335938 3.7877871990203857422 4.8466405868530273438 5.1121368408203125 4.267307281494140625 4.7373270988464355469 3.7058231830596923828 3.1983656883239746094 3.2030682563781738281 3.2827951908111572266 3.1536228656768798828 3.3964669704437255859 3.6159231662750244141 3.0762495994567871094 3.5628554821014404297 3.7404034137725830078 4.287700653076171875 5.2794327735900878906 5.1326313018798828125 4.5654149055480957031 4.6243734359741210938 4.9884505271911621094 5.7723870277404785156 5.5098199844360351563 5.5722737312316894531 4.6804032325744628906 4.273807525634765625 3.8372817039489746094 3.5627930164337158203 3.8042709827423095703 3.7519087791442871094 3.2104549407958984375 3.4557225704193115234 3.6215734481811523438 3.1110672950744628906 3.2622764110565185547 2.7669744491577148438 2.6519343852996826172 2.1071681976318359375 2.0010750293731689453 2.4914612770080566406 2.9690575599670410156 2.465030670166015625 2.9067924022674560547 2.9275386333465576172 2.4685437679290771484 2.4538187980651855469 2.150218963623046875 2.1265246868133544922 2.1415770053863525391 1.9754745960235595703 1.6558682918548583984 1.3270949125289916992 1.6811108589172363281 1.63706207275390625 2.0557963848114013672 2.2297618389129638672 2.1882920265197753906 2.3523454666137695313 2.3638930320739746094 2.2621047496795654297 2.2079195976257324219 1.9984835386276245117 2.4190783500671386719 2.7238223552703857422 2.7547178268432617188 2.4212386608123779297 2.1445944309234619141 2.4753885269165039063 2.4622464179992675781 2.8339419364929199219 2.4203305244445800781 2.3286063671112060547 1.7632844448089599609 1.762951970100402832 1.6004081964492797852 1.3366013765335083008 1.2578819990158081055 1.0836337804794311523 1.9041965007781982422 1.1028864383697509766 1.4008883237838745117 1.391209721565246582 1.6955621242523193359 1.1028864383697509766 1.1028864383697509766 1.2834589481353759766 1.9041965007781982422 1.3842540979385375977 1.3888009786605834961 1.1277914047241210938 1.0023075342178344727 1.2488330602645874023 1.5244288444519042969 1.4038885831832885742 1.3540925979614257813 1.1758073568344116211 1.9041965007781982422 1.9041965007781982422 2.4979000091552734375 1.0690859556198120117 1.4690234661102294922 1.2462660074234008789 1.0844278335571289063 1.4667749404907226563 1.4828319549560546875 1.7693259716033935547 1.2593755722045898438 1.2041782140731811523 1.9041965007781982422 1.1892693042755126953 1.6522654294967651367 1.5402046442031860352 1.8587994575500488281 1.8922599554061889648 1.4483067989349365234 1.4583375453948974609 1.305910944938659668 1.3075662851333618164 1.7207492589950561523 1.7435315847396850586 1.6484234333038330078 1.2076989412307739258 2.4263837337493896484 1.1711549758911132813 1.3670086860656738281 1.6823916435241699219 2.0755050182342529297 2.4181027412414550781 2.6571931838989257813 2.8250396251678466797 2.3139145374298095703 1.7053341865539550781 2.0157065391540527344 2.4379749298095703125 2.8061463832855224609 2.5774533748626708984 3.2542707920074462891 3.7137682437896728516 3.3105759620666503906 3.77124786376953125 3.6921410560607910156 3.1130616664886474609 3.2113697528839111328 3.050891876220703125 3.4379110336303710938 3.5834033489227294922 3.6757619380950927734 3.5808324813842773438 4.0918660163879394531 3.4296052455902099609 3.5557312965393066406 3.7062544822692871094 3.6070890426635742188 3.8053178787231445313 3.4303536415100097656 3.6353271007537841797 3.7570397853851318359 3.9101037979125976563 
2.2243709564208984375 1.0203218460083007813 1.0029140710830688477 1.6955621242523193359 1.0812047719955444336 1.029074549674987793 1.2955501079559326172 1.8997918367385864258 1.0352632999420166016 1.0786268711090087891 3.9627170562744140625 1.8997918367385864258 1.100308537483215332 2.0106759071350097656 2.6321852207183837891 3.0476539134979248047 1.100308537483215332 3.9627170562744140625 1.8997918367385864258 1.100308537483215332 2.4689557552337646484 2.2552065849304199219 2.5969169139862060547 2.4689557552337646484 1.1245682239532470703 1.3134988546371459961 1.0268088579177856445 1.35382843017578125 1.7994334697723388672 1.8654226064682006836 2.1283180713653564453 2.0462241172790527344 2.4077658653259277344 1.8341736793518066406 1.9326406717300415039 1.6899904012680053711 2.1759042739868164063 2.3266813755035400391 2.5657153129577636719 3.3915014266967773438 3.1876463890075683594 3.3842971324920654297 4.05565643310546875 4.7245373725891113281 5.6084218025207519531 4.6386365890502929688 4.1247472763061523438 3.009540557861328125 2.5461759567260742188 2.8364536762237548828 3.3078267574310302734 3.1403934955596923828 3.4431486129760742188 3.9265062808990478516 3.81139373779296875 2.8211579322814941406 3.7050576210021972656 4.5827832221984863281 5.4726147651672363281 5.2957162857055664063 4.5202450752258300781 4.7474560737609863281 5.7032809257507324219 5.7520093917846679688 6.2984800338745117188 5.2230539321899414063 4.9548249244689941406 5.0158519744873046875 4.0363755226135253906 4.1824293136596679688 4.8846755027770996094 3.8046901226043701172 4.0003581047058105469 3.4506056308746337891 3.4977200031280517578 3.6327576637268066406 3.2287290096282958984 3.1995673179626464844 3.3029074668884277344 2.4404621124267578125 2.2354283332824707031 2.2166535854339599609 2.3791701793670654297 2.4083726406097412109 2.3544523715972900391 2.5778319835662841797 2.5665326118469238281 2.3696966171264648438 2.3099083900451660156 2.5903341770172119141 1.9583561420440673828 2.0464777946472167969 1.7263424396514892578 1.4132845401763916016 1.6756902933120727539 1.7463927268981933594 3.0062968730926513672 2.1164593696594238281 2.0049321651458740234 2.7842226028442382813 2.3566253185272216797 2.0591406822204589844 2.4144892692565917969 2.2289228439331054688 2.8367991447448730469 2.8430802822113037109 2.8407387733459472656 2.8074028491973876953 2.5667705535888671875 2.0363090038299560547 2.4140181541442871094 2.0450522899627685547 2.3939328193664550781 1.9283059835433959961 1.8979058265686035156 1.7041840553283691406 1.5086463689804077148 1.5179103612899780273 1.4213300943374633789 1.1494731903076171875 1.0844278335571289063 1.9041965007781982422 1.0812047719955444336 1.6600682735443115234 1.0595229864120483398 1.2212299108505249023 1.0595229864120483398 1.1462500095367431641 2.7452986240386962891 1.1269034147262573242 1.5279570817947387695 1.1245682239532470703 1.0812047719955444336 1.1711549758911132813 1.4860047101974487305 1.3026111125946044922 1.5630494356155395508 1.313021540641784668 1.0595229864120483398 1.301726222038269043 1.1033452749252319336 1.15718841552734375 1.301726222038269043 1.8689830303192138672 1.301327824592590332 1.6142373085021972656 1.7579721212387084961 1.8329660892486572266 1.3776874542236328125 1.5020684003829956055 1.374568939208984375 1.4651827812194824219 1.5169888734817504883 2.195209503173828125 1.9985405206680297852 2.1070165634155273438 1.8568078279495239258 1.4297680854797363281 1.6023643016815185547 1.6711503267288208008 1.4553445577621459961 1.7111845016479492188 1.5300533771514892578 1.2578819990158081055 1.266362309455871582 1.8055466413497924805 1.6029657125473022461 1.8371139764785766602 1.6879732608795166016 1.6954234838485717773 1.8928244113922119141 1.9350467920303344727 2.2927622795104980469 2.3444380760192871094 2.1541750431060791016 2.4561922550201416016 2.3833892345428466797 2.2747385501861572266 3.0200133323669433594 3.42032623291015625 3.5655612945556640625 3.4191710948944091797 3.7199366092681884766 3.1793427467346191406 2.7490518093109130859 2.7504379749298095703 3.5372240543365478516 3.4242610931396484375 3.4489305019378662109 3.6741344928741455078 3.4194750785827636719 3.7307317256927490234 3.6207211017608642578 3.5172882080078125 3.8547008037567138672 4.0345196723937988281 3.7860774993896484375 3.9400899410247802734 3.9553911685943603516 3.8211624622344970703 
1.0087381601333618164 2.2016704082489013672 3.6686847209930419922 2.1164593696594238281 2.4689557552337646484 2.4689557552337646484 2.4689557552337646484 3.5349488258361816406 1.5544667243957519531 3.7933325767517089844 3.9215016365051269531 5.0049319267272949219 2.6200101375579833984 3.1917226314544677734 1.6203732490539550781 1.2621108293533325195 2.0501871109008789063 1.1219903230667114258 1.1219903230667114258 1.3161882162094116211 2.4689557552337646484 1.7194232940673828125 2.4689557552337646484 1.0378412008285522461 1.15718841552734375 1.1390080451965332031 1.5088394880294799805 1.4069783687591552734 1.7723914384841918945 2.1751532554626464844 1.8979200124740600586 1.7675901651382446289 2.5163183212280273438 2.0540864467620849609 2.2677381038665771484 2.6892731189727783203 2.3300528526306152344 2.2433817386627197266 2.4650397300720214844 3.33896636962890625 3.7316367626190185547 3.6969895362854003906 4.9339094161987304688 5.0798649787902832031 5.9027843475341796875 5.3041825294494628906 3.9989783763885498047 3.3512094020843505859 2.7131292819976806641 3.2865247726440429688 3.3308694362640380859 3.6331355571746826172 3.8768322467803955078 3.8425855636596679688 3.6630845069885253906 3.7981231212615966797 4.1413474082946777344 4.9271883964538574219 4.9001598358154296875 4.5971517562866210938 4.4199061393737792969 5.1714053153991699219 5.2582330703735351563 7.2057294845581054688 6.2835516929626464844 6.9091057777404785156 5.0880146026611328125 4.8546452522277832031 5.1110386848449707031 4.7051148414611816406 4.9137620925903320313 4.0156145095825195313 3.6681447029113769531 3.5138428211212158203 3.9847681522369384766 3.3922319412231445313 3.0269265174865722656 2.9084839820861816406 2.9966378211975097656 2.1418106555938720703 2.2504525184631347656 2.1778743267059326172 2.758113861083984375 2.7697942256927490234 2.4702067375183105469 2.1535267829895019531 2.6497168540954589844 2.4311766624450683594 2.1537899971008300781 2.2467358112335205078 2.0048711299896240234 2.2517576217651367188 2.1550772190093994141 1.6308290958404541016 1.8834464550018310547 1.7100204229354858398 1.5857454538345336914 1.8036981821060180664 2.3335013389587402344 2.2526915073394775391 2.382961273193359375 2.4320096969604492188 2.5238494873046875 2.4608263969421386719 2.6621885299682617188 2.7059221267700195313 2.7031018733978271484 2.8727822303771972656 2.6343321800231933594 2.2082231044769287109 2.0377867221832275391 2.5771310329437255859 2.7341976165771484375 2.8422574996948242188 2.0094146728515625 2.1377799510955810547 1.8942302465438842773 1.7981433868408203125 2.2672190666198730469 1.2705578804016113281 1.1393082141876220703 1.1190433502197265625 1.2284057140350341797 1.1239448785781860352 1.3808168172836303711 1.0844278335571289063 1.1650021076202392578 1.4710749387741088867 1.2568001747131347656 1.0812047719955444336 1.3387544155120849609 1.311159968376159668 1.301726222038269043 1.4059491157531738281 1.1028864383697509766 1.1377446651458740234 1.259798884391784668 1.6756902933120727539 1.0595229864120483398 1.0151902437210083008 1.1028864383697509766 1.0498301982879638672 1.0535526275634765625 1.2864267826080322266 1.5852231979370117188 1.6614584922790527344 1.3281556367874145508 1.6262428760528564453 1.7685883045196533203 1.5727221965789794922 1.4489799737930297852 1.5381475687026977539 1.32196044921875 1.55374908447265625 2.2309918403625488281 1.9969956874847412109 1.6435090303421020508 1.8980093002319335938 1.2855550050735473633 1.6946314573287963867 1.7348699569702148438 1.5919278860092163086 1.6326842308044433594 1.6994968652725219727 1.4116938114166259766 1.669684290885925293 1.6084924936294555664 2.1224491596221923828 1.9361222982406616211 2.0908334255218505859 1.7975637912750244141 2.4538006782531738281 2.0042796134948730469 1.8559688329696655273 2.4590580463409423828 3.0819408893585205078 3.1011741161346435547 2.2071044445037841797 2.4943971633911132813 3.2062582969665527344 3.6212918758392333984 3.4935598373413085938 3.2774469852447509766 2.8696382045745849609 3.0366549491882324219 2.708221435546875 3.2511961460113525391 3.8069305419921875 3.5609710216522216797 4.4008531570434570313 4.1264529228210449219 4.3608975410461425781 3.8684175014495849609 3.9595272541046142578 4.4676303863525390625 4.0816359519958496094 4.4876489639282226563 3.8735871315002441406 3.7115256786346435547 3.3820786476135253906 
3.9627170562744140625 2.4689557552337646484 2.8139696121215820313 3.9627170562744140625 1.100308537483215332 1.2621108293533325195 1.1219903230667114258 2.0501871109008789063 2.9014503955841064453 6.8670935630798339844 3.7933325767517089844 3.6919023990631103516 2.6200101375579833984 3.3940508365631103516 1.3161882162094116211 1.100308537483215332 1.5544667243957519531 1.0786268711090087891 2.0898101329803466797 1.100308537483215332 1.1219903230667114258 3.6311545372009277344 2.4689557552337646484 1.0378412008285522461 1.3985282182693481445 1.1801570653915405273 1.3875410556793212891 1.5327128171920776367 1.5711824893951416016 1.7807326316833496094 2.1621410846710205078 1.83707427978515625 2.7621359825134277344 1.7714903354644775391 1.8709932565689086914 2.1144022941589355469 2.5646193027496337891 2.1756203174591064453 2.5625352859497070313 2.8877804279327392578 3.7948460578918457031 4.6283106803894042969 5.4308123588562011719 4.7301878929138183594 4.1109519004821777344 3.7867710590362548828 3.9187142848968505859 3.4537308216094970703 3.2100722789764404297 3.8155202865600585938 3.8460595607757568359 3.4259474277496337891 3.7481505870819091797 3.8777849674224853516 3.7995746135711669922 3.7141482830047607422 3.6726489067077636719 4.2387738227844238281 4.3447556495666503906 5.0980458259582519531 5.2634830474853515625 5.0838332176208496094 5.4939374923706054688 5.7643942832946777344 6.3012051582336425781 6.47954559326171875 6.9779124259948730469 5.9548830986022949219 5.8932981491088867188 5.150348663330078125 5.5139231681823730469 4.5364012718200683594 3.7016177177429199219 3.8769855499267578125 3.1416699886322021484 3.6787779331207275391 2.8318705558776855469 2.6599333286285400391 2.7716975212097167969 2.2358171939849853516 2.1928534507751464844 2.2378630638122558594 2.302692413330078125 2.7439472675323486328 2.5402801036834716797 2.4127435684204101563 2.6200554370880126953 2.7097640037536621094 2.0962631702423095703 1.5591727495193481445 1.5164272785186767578 2.8139696121215820313 1.8922169208526611328 1.7688421010971069336 1.9878934621810913086 1.4134900569915771484 1.5919095277786254883 1.8104462623596191406 2.0757079124450683594 2.3044953346252441406 2.4644916057586669922 2.9304947853088378906 2.8073201179504394531 3.2008600234985351563 2.7648236751556396484 3.0187897682189941406 2.5321924686431884766 2.1890180110931396484 2.2133214473724365234 2.0973970890045166016 2.5219645500183105469 2.1532123088836669922 2.5421864986419677734 2.5326867103576660156 2.8866200447082519531 2.5032610893249511719 2.5802798271179199219 1.7687888145446777344 2.2294087409973144531 1.9344823360443115234 1.2668840885162353516 1.106109619140625 1.3319318294525146484 1.1245682239532470703 1.9108177423477172852 1.2488607168197631836 1.306598663330078125 1.2330955266952514648 1.0690859556198120117 1.4432572126388549805 1.1939966678619384766 1.2726421356201171875 1.9041965007781982422 1.6600682735443115234 1.1076474189758300781 1.29032135009765625 1.5630494356155395508 1.9041965007781982422 1.9041965007781982422 1.0378412008285522461 1.2199838161468505859 1.1755815744400024414 1.1410666704177856445 1.7641561031341552734 1.8967102766036987305 1.3466722965240478516 1.6112654209136962891 1.6273807287216186523 1.6117997169494628906 1.9314429759979248047 2.084880828857421875 1.4951645135879516602 1.513214111328125 1.6891109943389892578 2.0108041763305664063 2.4019150733947753906 2.4192030429840087891 1.7688823938369750977 1.5985000133514404297 1.6831744909286499023 1.9668656587600708008 2.0410201549530029297 2.2680034637451171875 1.7615531682968139648 1.6152073144912719727 1.2885658740997314453 1.5539395809173583984 1.9317991733551025391 1.6564724445343017578 1.2885658740997314453 1.5995131731033325195 1.5078794956207275391 1.9841132164001464844 2.1815392971038818359 2.2811331748962402344 2.4095339775085449219 2.5164811611175537109 2.4685368537902832031 2.7326769828796386719 3.3542022705078125 2.8586542606353759766 4.0285706520080566406 3.3263685703277587891 2.9818966388702392578 3.0946488380432128906 3.5408084392547607422 3.2009422779083251953 4.437999725341796875 4.7738776206970214844 5.146228790283203125 4.7294631004333496094 4.37188720703125 4.1297817230224609375 3.7170455455780029297 4.3302593231201171875 4.5696396827697753906 4.3100571632385253906 3.8061926364898681641 3.740848541259765625 3.4117960929870605469 
1.100308537483215332 3.1229813098907470703 1.7343676090240478516 1.8997918367385864258 1.100308537483215332 2.8177235126495361328 3.9627170562744140625 2.0501871109008789063 2.9014503955841064453 5.9050498008728027344 5.0349431037902832031 3.9215016365051269531 3.2817137241363525391 2.0501871109008789063 1.8997918367385864258 1.3161882162094116211 1.1255956888198852539 3.9215016365051269531 1.2621108293533325195 2.4689557552337646484 1.301726222038269043 1.029074549674987793 1.0378412008285522461 1.6222428083419799805 1.5384764671325683594 1.4361212253570556641 1.6519417762756347656 1.4272019863128662109 1.3775476217269897461 1.4947338104248046875 1.3750693798065185547 1.5303274393081665039 1.728589177131652832 1.4274313449859619141 1.5397708415985107422 2.2919018268585205078 2.4121847152709960938 2.0449187755584716797 2.2808535099029541016 2.759883880615234375 3.0433077812194824219 4.0968427658081054688 4.6334657669067382813 4.0709872245788574219 4.1514620780944824219 3.9038817882537841797 4.4999938011169433594 4.0084295272827148438 3.4849867820739746094 3.5437536239624023438 3.6316633224487304688 3.5646696090698242188 3.5611052513122558594 3.6006429195404052734 3.1300928592681884766 3.7393753528594970703 3.7200670242309570313 3.5515053272247314453 4.3420324325561523438 4.8966169357299804688 4.7743191719055175781 5.4679369926452636719 6.1985902786254882813 6.48687744140625 7.0363330841064453125 6.648956298828125 6.5037875175476074219 6.1271100044250488281 5.9799480438232421875 5.5154843330383300781 5.084003448486328125 4.6873908042907714844 4.6161713600158691406 3.6185896396636962891 3.3700020313262939453 3.4035315513610839844 3.0932888984680175781 3.154266357421875 2.8786094188690185547 2.5530116558074951172 2.3718404769897460938 1.9047248363494873047 1.8727756738662719727 2.7514328956604003906 2.9535400867462158203 2.6252312660217285156 2.7666430473327636719 2.8429768085479736328 1.9760237932205200195 1.7550752162933349609 1.7471821308135986328 1.3976470232009887695 1.6868594884872436523 1.6172664165496826172 1.6184213161468505859 1.5428422689437866211 1.6459660530090332031 1.9041965007781982422 1.7757571935653686523 2.0470175743103027344 2.6520452499389648438 2.62418365478515625 3.0273582935333251953 3.3898262977600097656 3.5363576412200927734 3.2148823738098144531 3.0315036773681640625 2.9008512496948242188 3.0206363201141357422 2.4784350395202636719 2.4184370040893554688 2.4025845527648925781 2.4058911800384521484 2.5351729393005371094 2.9085745811462402344 2.5100224018096923828 2.1572289466857910156 2.0210058689117431641 2.3876001834869384766 1.4745291471481323242 1.3037450313568115234 1.8068523406982421875 1.6791050434112548828 1.3294867277145385742 1.9108177423477172852 2.4979000091552734375 1.9041965007781982422 1.2775474786758422852 1.0595229864120483398 1.1068212985992431641 1.6691575050354003906 1 1.9041965007781982422 1.3164118528366088867 1.2982532978057861328 1.391209721565246582 1.2039668560028076172 1.1814540624618530273 1.1127282381057739258 1.1359997987747192383 1.1657400131225585938 1.5730751752853393555 1.7466963529586791992 1.6503174304962158203 1.4244688749313354492 1.6312699317932128906 2.0203051567077636719 2.0664551258087158203 2.1683685779571533203 1.745396733283996582 1.8106454610824584961 1.4264415502548217773 1.8160138130187988281 1.9819111824035644531 2.1233737468719482422 2.0508563518524169922 2.0300176143646240234 1.915085911750793457 1.3568116426467895508 1.5764731168746948242 1.9638874530792236328 1.4502708911895751953 1.695079803466796875 1.8616130352020263672 1.56409454345703125 1.6396071910858154297 2.4097149372100830078 2.4377801418304443359 2.2726449966430664063 1.7993731498718261719 1.7680540084838867188 1.8030886650085449219 1.7092149257659912109 2.0323798656463623047 2.3891718387603759766 2.2163157463073730469 2.4824864864349365234 2.4262306690216064453 2.8895423412322998047 3.1446533203125 3.0047841072082519531 3.4011240005493164063 2.9540317058563232422 2.7068250179290771484 2.9199531078338623047 3.4606828689575195313 4.3183641433715820313 5.1580028533935546875 5.1830992698669433594 4.9276151657104492188 5.1858992576599121094 4.5260758399963378906 4.4639744758605957031 4.3614773750305175781 4.0868535041809082031 3.9667723178863525391 4.0136399269104003906 3.7472755908966064453 3.4025473594665527344 3.1655778884887695313 
2.0501871109008789063 2.8177235126495361328 3.14661407470703125 1.100308537483215332 1.1219903230667114258 2.4689557552337646484 1.2963656187057495117 1.100045323371887207 3.9215016365051269531 3.7933325767517089844 3.6919023990631103516 5.857574462890625 1.1219903230667114258 1.4329475164413452148 1.8997918367385864258 1.0786268711090087891 2.8177235126495361328 2.0898101329803466797 2.2552065849304199219 1.6868594884872436523 2.3418080806732177734 1.341448664665222168 1.8849902153015136719 1.4395978450775146484 1.2630640268325805664 1.3628063201904296875 1.3664412498474121094 1.121394038200378418 1.385283350944519043 1.6756902933120727539 1.6047159433364868164 1.1701186895370483398 1.709407806396484375 1.3832045793533325195 1.5539414882659912109 1.9235553741455078125 1.7930002212524414063 1.4618632793426513672 1.8442080020904541016 2.5629358291625976563 2.9616549015045166016 2.8899219036102294922 3.6419942378997802734 3.7817890644073486328 4.656642913818359375 4.730182647705078125 4.2985863685607910156 4.1431794166564941406 3.4300189018249511719 3.4834568500518798828 3.8208596706390380859 3.4514360427856445313 3.290294647216796875 3.1602056026458740234 2.5494568347930908203 3.4094676971435546875 3.9577143192291259766 3.5322439670562744141 3.3458819389343261719 3.5073499679565429688 4.0179772377014160156 5.0861568450927734375 6.2259163856506347656 5.87903594970703125 6.18854522705078125 5.6917719841003417969 5.4099230766296386719 5.6529941558837890625 5.4646115303039550781 4.8799777030944824219 5.3385758399963378906 5.5578060150146484375 4.3655629158020019531 3.8319704532623291016 3.2537114620208740234 3.4812886714935302734 3.7940251827239990234 3.6266329288482666016 3.3754129409790039063 2.8705453872680664063 1.9805006980895996094 2.40184783935546875 2.38637542724609375 2.6700122356414794922 2.4979000091552734375 2.4149210453033447266 2.2908835411071777344 2.2268218994140625 2.0135607719421386719 1.6123814582824707031 1.8449094295501708984 1.2682679891586303711 1.9108177423477172852 2.2346231937408447266 1.5621134042739868164 1.5925004482269287109 1.4977176189422607422 1.3819369077682495117 1.8536078929901123047 2.0933926105499267578 2.7075572013854980469 2.72708892822265625 2.6549103260040283203 2.5818314552307128906 2.4700639247894287109 2.7634491920471191406 2.9137353897094726563 2.7919914722442626953 2.7237524986267089844 2.5445954799652099609 2.6238067150115966797 2.3733773231506347656 2.4398012161254882813 3.1383185386657714844 2.8035099506378173828 2.3620679378509521484 2.2068080902099609375 2.2654938697814941406 2.210414886474609375 2.0610628128051757813 2.0346140861511230469 1.8440586328506469727 1.3179914951324462891 2.1780834197998046875 1.4629689455032348633 1.5519431829452514648 1.6955621242523193359 2.2151329517364501953 1.6955621242523193359 1.516812443733215332 1.4089007377624511719 1.1494731903076171875 1.3404469490051269531 1.2770564556121826172 1.2084345817565917969 1.3253092765808105469 1.0644170045852661133 1.2980188131332397461 1.6691575050354003906 1.2578819990158081055 1.1245682239532470703 1.6187412738800048828 1.5446972846984863281 1.6698824167251586914 1.9095735549926757813 2.1616332530975341797 2.1171247959136962891 2.2431309223175048828 2.0258564949035644531 2.6092286109924316406 1.7900645732879638672 2.3078477382659912109 1.9669847488403320313 2.1663498878479003906 2.7466638088226318359 2.4448709487915039063 2.6980955600738525391 2.00185394287109375 1.5643483400344848633 2.0829946994781494141 2.1148610115051269531 1.7964230775833129883 1.8905594348907470703 1.9057714939117431641 2.0526385307312011719 2.0179538726806640625 2.2825706005096435547 2.5743160247802734375 2.3985855579376220703 2.4540379047393798828 1.5002428293228149414 1.8541494607925415039 2.2517170906066894531 2.1617534160614013672 2.2947816848754882813 2.0578153133392333984 2.3916203975677490234 2.4682936668395996094 2.6729233264923095703 2.9193289279937744141 2.6863231658935546875 3.1467077732086181641 2.8963973522186279297 2.9158718585968017578 3.3965871334075927734 3.3080270290374755859 4.0139689445495605469 4.8193812370300292969 5.1417126655578613281 5.6310400962829589844 5.2023091316223144531 5.0349488258361816406 4.4334444999694824219 3.9855926036834716797 4.7490401268005371094 3.66316986083984375 3.3147835731506347656 3.4531214237213134766 3.3498382568359375 2.9776136875152587891 
1.0786268711090087891 3.1010553836822509766 2.4689557552337646484 2.2016704082489013672 3.0062968730926513672 2.5863945484161376953 1.0029140710830688477 1.1219903230667114258 2.2954523563385009766 6.8670935630798339844 3.6919023990631103516 3.9215016365051269531 1.0352632999420166016 1.8997918367385864258 2.5969169139862060547 1.5544667243957519531 1.5544667243957519531 1.0352632999420166016 1.100308537483215332 2.4689557552337646484 1.301726222038269043 1.2928143739700317383 1.5630494356155395508 1.5703603029251098633 1.360638737678527832 1.3117005825042724609 1.0794216394424438477 1.3089200258255004883 1.6955621242523193359 1.2314826250076293945 1.2724488973617553711 1.1441645622253417969 1.5987884998321533203 1.6107974052429199219 1.4265419244766235352 1.8008291721343994141 1.5217709541320800781 1.7573771476745605469 1.461670994758605957 2.1185674667358398438 2.0553593635559082031 2.4012265205383300781 2.8048768043518066406 2.8610076904296875 3.8255090713500976563 3.4000608921051025391 3.7473073005676269531 3.1758637428283691406 3.6350827217102050781 3.1818959712982177734 3.4618670940399169922 3.4147524833679199219 3.1286509037017822266 2.5014314651489257813 3.1107628345489501953 3.7831997871398925781 3.6624634265899658203 3.0594911575317382813 2.9353594779968261719 4.0328888893127441406 4.3583865165710449219 5.3675360679626464844 5.269222259521484375 5.5025796890258789063 5.3913426399230957031 4.892620086669921875 5.5246920585632324219 4.7057700157165527344 4.8694157600402832031 4.3883152008056640625 4.8986253738403320313 4.3748593330383300781 3.9621946811676025391 3.6511473655700683594 3.2657294273376464844 3.7717070579528808594 3.492950439453125 3.5762021541595458984 3.8194704055786132813 3.0917882919311523438 3.0814874172210693359 3.4630970954895019531 2.8463063240051269531 2.3996300697326660156 2.4071125984191894531 2.6293821334838867188 2.0981059074401855469 1.9273495674133300781 1.7171076536178588867 1.8430643081665039063 2.0354316234588623047 1.7329497337341308594 1.6225260496139526367 2.2887313365936279297 1.621494293212890625 1.5755743980407714844 1.5679862499237060547 1.9185056686401367188 1.8145742416381835938 1.8357650041580200195 1.9926220178604125977 1.9193773269653320313 1.9940581321716308594 2.2929494380950927734 2.1137263774871826172 2.0640037059783935547 2.5666749477386474609 2.6342287063598632813 2.5469968318939208984 2.6012566089630126953 2.5097985267639160156 2.2554600238800048828 2.6882941722869873047 2.7392787933349609375 3.0704801082611083984 2.9386477470397949219 3.15906524658203125 2.4621322154998779297 1.8322106599807739258 1.7995500564575195313 1.3088968992233276367 1.8572075366973876953 2.2661640644073486328 1.4705343246459960938 1.4121143817901611328 1.3601629734039306641 1.6403082609176635742 1.3662934303283691406 1.3200002908706665039 1.3613713979721069336 1.1772941350936889648 1.3022195100784301758 2.1035621166229248047 1.7501713037490844727 1.5902960300445556641 1.4342555999755859375 1.0834270715713500977 1.2102940082550048828 1.2726421356201171875 1.6782678365707397461 1.4079328775405883789 1.6058132648468017578 1.6820621490478515625 1.7638002634048461914 1.6175922155380249023 1.6866971254348754883 1.9412546157836914063 2.2871723175048828125 2.1219661235809326172 2.3323214054107666016 2.3658049106597900391 2.8056921958923339844 1.8873075246810913086 2.6027972698211669922 2.6693563461303710938 2.5822577476501464844 3.2678244113922119141 2.6948857307434082031 2.5511224269866943359 2.1155278682708740234 2.0353693962097167969 1.682118535041809082 1.6321188211441040039 2.0437357425689697266 2.3811368942260742188 2.3507184982299804688 2.6231026649475097656 2.6296145915985107422 2.7650816440582275391 2.4171919822692871094 2.2877295017242431641 2.2635254859924316406 2.7795183658599853516 1.8788617849349975586 2.3704361915588378906 1.9745302200317382813 1.8708364963531494141 2.2530839443206787109 2.2680199146270751953 2.7659852504730224609 2.4145653247833251953 3.1477291584014892578 3.3966264724731445313 3.0271306037902832031 3.7329657077789306641 3.8395562171936035156 3.2939045429229736328 4.2866735458374023438 4.4481635093688964844 4.6541123390197753906 4.4454131126403808594 5.0511889457702636719 4.4850192070007324219 4.3620157241821289063 4.6532664299011230469 3.4368133544921875 3.0274813175201416016 3.1474997997283935547 2.6784403324127197266 2.3592672348022460938 
2.5863945484161376953 3.3940508365631103516 1.100308537483215332 2.5863945484161376953 1.2955501079559326172 2.2016704082489013672 1.6868594884872436523 2.2016704082489013672 4.5497288703918457031 1.731220245361328125 3.1424236297607421875 3.9215016365051269531 2.6200101375579833984 1.8997918367385864258 1.2621108293533325195 1.0685595273971557617 2.2552065849304199219 2.2552065849304199219 2.5863945484161376953 1.0431107282638549805 1.3023873567581176758 1.324286341667175293 1.5902960300445556641 1.6165052652359008789 1.2056430578231811523 1.312745213508605957 1.3876796960830688477 1.3946650028228759766 1.2726421356201171875 1.1868023872375488281 2.1344089508056640625 1.4291347265243530273 1.2343306541442871094 1.6955621242523193359 1.4354734420776367188 1.6123386621475219727 1.3416182994842529297 1.4562869071960449219 1.6098396778106689453 1.7238237857818603516 1.7533470392227172852 1.9621558189392089844 2.3175959587097167969 2.3677473068237304688 2.6398673057556152344 2.8859004974365234375 2.8845250606536865234 3.4122374057769775391 3.36319732666015625 3.2338130474090576172 3.5694935321807861328 3.9156036376953125 3.3384761810302734375 3.0372254848480224609 3.4229254722595214844 3.5384938716888427734 3.5864908695220947266 3.0171332359313964844 3.0611197948455810547 3.6632952690124511719 4.3214321136474609375 5.3334536552429199219 4.7267608642578125 5.3402643203735351563 5.4366302490234375 4.8497991561889648438 4.9800930023193359375 5.3215022087097167969 4.4619092941284179688 4.6675877571105957031 4.9156732559204101563 3.9812164306640625 4.7713918685913085938 3.7825682163238525391 3.1687717437744140625 3.1058294773101806641 3.4877381324768066406 3.8074612617492675781 3.8536255359649658203 3.9157302379608154297 3.2423682212829589844 2.7149322032928466797 2.7766542434692382813 2.7274537086486816406 2.0995233058929443359 2.2452852725982666016 2.0068776607513427734 2.0756702423095703125 2.0777885913848876953 2.0899224281311035156 1.9671269655227661133 1.9249403476715087891 1.9958646297454833984 1.6921374797821044922 1.7374986410140991211 1.5713850259780883789 1.8253903388977050781 1.6401140689849853516 1.3740079402923583984 1.4397550821304321289 1.9979647397994995117 2.4136402606964111328 1.9767699241638183594 1.3772467374801635742 2.2100968360900878906 2.1080033779144287109 2.0371334552764892578 2.310382843017578125 2.3501284122467041016 2.4202971458435058594 2.4523403644561767578 1.7948193550109863281 2.4342250823974609375 3.2042391300201416016 3.00594329833984375 3.1828048229217529297 3.0912480354309082031 3.0933566093444824219 2.0274672508239746094 1.7715696096420288086 2.1739704608917236328 2.0715534687042236328 1.331929326057434082 1.6588413715362548828 1.4847010374069213867 1.5385451316833496094 1.2960797548294067383 1.3080457448959350586 1.2749919891357421875 1.395596623420715332 1.5822747945785522461 2.4515626430511474609 1.5630590915679931641 1.7370982170104980469 1.9041965007781982422 1.5130847692489624023 1.1277914047241210938 1.5556428432464599609 2.3189318180084228516 1.5531570911407470703 1.3393065929412841797 1.5629949569702148438 1.5895411968231201172 1.9089753627777099609 1.2030030488967895508 1.2871439456939697266 2.1081116199493408203 1.9870847463607788086 2.4383990764617919922 2.1830892562866210938 2.7994425296783447266 2.1421482563018798828 2.1808648109436035156 2.3058633804321289063 2.7102010250091552734 2.5564184188842773438 1.9411081075668334961 1.9931094646453857422 1.9819136857986450195 1.860886693000793457 1.8095649480819702148 2.00708770751953125 1.7386825084686279297 2.0009992122650146484 1.487906336784362793 2.1669008731842041016 3.0319988727569580078 2.5122091770172119141 2.3299410343170166016 2.2393736839294433594 2.464862823486328125 1.6995223760604858398 2.2066822052001953125 2.0638141632080078125 2.3327934741973876953 1.6354377269744873047 2.4342563152313232422 2.4083685874938964844 2.9306051731109619141 2.4403464794158935547 2.9457960128784179688 3.9177527427673339844 3.4833486080169677734 3.0983419418334960938 3.5538189411163330078 3.6239476203918457031 3.3602161407470703125 3.5874898433685302734 4.3983221054077148438 5.2585859298706054688 5.4577775001525878906 5.8781170845031738281 5.9942026138305664063 5.1888470649719238281 4.6634955406188964844 3.5231831073760986328 3.3268342018127441406 3.5072913169860839844 2.7710349559783935547 2.7651872634887695313 
1.5903766155242919922 1.1219903230667114258 2.6321852207183837891 2.6049542427062988281 2.6049542427062988281 2.6321852207183837891 2.5863945484161376953 1.1219903230667114258 1.100308537483215332 1.2621108293533325195 1.1219903230667114258 2.8177235126495361328 1.100308537483215332 1.1219903230667114258 1.2955501079559326172 2.4689557552337646484 2.4689557552337646484 2.2552065849304199219 3.6686847209930419922 1.0812047719955444336 1.3469986915588378906 1.2588269710540771484 1.3791375160217285156 1.1140508651733398438 1.3649538755416870117 1.2267084121704101563 1.9041965007781982422 1.6874717473983764648 1.0627509355545043945 1.1239763498306274414 1.9041965007781982422 1.301726222038269043 1.0212770700454711914 1.2380802631378173828 1.9041965007781982422 1.4763936996459960938 1.8563123941421508789 1.4843883514404296875 1.6600682735443115234 1.2642998695373535156 1.4566648006439208984 1.6354379653930664063 1.8442466259002685547 1.89408111572265625 2.0687196254730224609 2.4147903919219970703 2.7365372180938720703 2.9638242721557617188 2.6421103477478027344 3.0920784473419189453 3.4804527759552001953 3.5083866119384765625 2.9413967132568359375 3.1544878482818603516 3.0392549037933349609 3.7281579971313476563 3.1080262660980224609 2.7468590736389160156 2.7901196479797363281 3.1290788650512695313 3.8745405673980712891 3.4102685451507568359 3.4932496547698974609 3.7537899017333984375 4.7849993705749511719 5.1992559432983398438 4.5189175605773925781 5.049144744873046875 4.3926501274108886719 4.6973662376403808594 4.312713623046875 4.0293645858764648438 4.0697636604309082031 3.5751993656158447266 3.1129248142242431641 3.3965544700622558594 3.9158122539520263672 3.5731680393218994141 3.5751845836639404297 3.8892228603363037109 3.8620691299438476563 2.9474663734436035156 2.4278323650360107422 2.6759085655212402344 2.6020963191986083984 2.2392225265502929688 1.9554848670959472656 2.0158951282501220703 2.0227811336517333984 1.8223389387130737305 1.683330535888671875 1.8096665143966674805 1.9642709493637084961 2.1174542903900146484 1.9015477895736694336 1.6631265878677368164 2.0462830066680908203 1.7128112316131591797 1.7611787319183349609 2.0303781032562255859 1.9454817771911621094 1.5740784406661987305 1.6824383735656738281 1.7538294792175292969 1.9194337129592895508 2.0136203765869140625 2.0969462394714355469 2.6128652095794677734 2.7301304340362548828 2.5702571868896484375 2.8321545124053955078 2.6709799766540527344 3.4030508995056152344 3.3431537151336669922 3.4116270542144775391 3.4734084606170654297 3.6596133708953857422 3.1605877876281738281 2.3545939922332763672 2.3762655258178710938 1.8702646493911743164 1.8790526390075683594 1.517910003662109375 1.6435821056365966797 1.6005761623382568359 1.5722466707229614258 1.3291296958923339844 1.4175157546997070313 1.6791050434112548828 1.4546850919723510742 1.7362411022186279297 1.3986765146255493164 1.5374014377593994141 1.3257454633712768555 1.6430441141128540039 1.9041965007781982422 1.1366131305694580078 1.5311704874038696289 1.195626378059387207 1.9041965007781982422 1.9822958707809448242 1.640323638916015625 1.8649939298629760742 1.6959664821624755859 1.3401436805725097656 1.5636674165725708008 1.8760011196136474609 2.2052276134490966797 2.8225734233856201172 2.8437738418579101563 2.5433487892150878906 2.5011661052703857422 2.3624327182769775391 2.274662017822265625 2.3366217613220214844 2.1851749420166015625 2.4400861263275146484 2.5599467754364013672 2.3332681655883789063 1.7067887783050537109 1.9553886651992797852 1.6322747468948364258 1.6344630718231201172 1.3942152261734008789 1.8919633626937866211 1.9380899667739868164 2.0668137073516845703 2.0128409862518310547 2.1876211166381835938 2.0239090919494628906 2.5338056087493896484 2.2806046009063720703 2.1570734977722167969 1.7795034646987915039 2.2809276580810546875 2.5264143943786621094 2.4280583858489990234 2.718357086181640625 3.1209707260131835938 2.3606274127960205078 3.4079120159149169922 3.4041240215301513672 3.5867397785186767578 4.0610938072204589844 3.4595904350280761719 4.3825502395629882813 3.8360173702239990234 3.3756871223449707031 4.6985483169555664063 5.4839911460876464844 5.119297027587890625 5.6691350936889648438 6.483097076416015625 5.1590576171875 4.6997103691101074219 4.1955180168151855469 3.8004591464996337891 2.9316244125366210938 3.3405661582946777344 3.0130858421325683594 
1.0941548347473144531 1.9122374057769775391 1.1219903230667114258 1.1779733896255493164 2.4689557552337646484 3.9627170562744140625 1.2514487504959106445 2.2552065849304199219 1.100308537483215332 1.0786268711090087891 2.8177235126495361328 2.8177235126495361328 1.5544667243957519531 2.2016704082489013672 1.4808839559555053711 1.6558682918548583984 1.5301965475082397461 1.1066766977310180664 1.9108177423477172852 1.2726421356201171875 1.1245682239532470703 1.9108177423477172852 1.3533449172973632813 1.1588767766952514648 1.0447978973388671875 2.1164593696594238281 1.3870558738708496094 1.4793959856033325195 1.1538860797882080078 1.2667963504791259766 1.5364124774932861328 1.9185056686401367188 1.301726222038269043 1.0595229864120483398 1.1935619115829467773 1.9041965007781982422 1.0980069637298583984 1.3940677642822265625 1.3604416847229003906 1.9542856216430664063 1.6352813243865966797 1.9041965007781982422 1.7179663181304931641 1.602599024772644043 1.7108592987060546875 2.1912667751312255859 2.0387341976165771484 2.1992199420928955078 2.8374738693237304688 3.3702788352966308594 3.0589852333068847656 2.8236534595489501953 3.1215288639068603516 2.9088551998138427734 3.1144614219665527344 3.1069560050964355469 3.0952997207641601563 3.1987054347991943359 3.3817570209503173828 3.4873495101928710938 3.5875728130340576172 3.4107656478881835938 3.5222306251525878906 3.7475371360778808594 4.1041617393493652344 4.6672620773315429688 5.7662343978881835938 4.7034177780151367188 4.4116215705871582031 4.9692487716674804688 4.175811767578125 4.3348054885864257813 3.6400368213653564453 3.0524032115936279297 3.7157125473022460938 3.7050776481628417969 3.8388516902923583984 3.6745846271514892578 3.1588094234466552734 3.5603449344635009766 3.3845365047454833984 3.0594727993011474609 2.5554678440093994141 2.5558230876922607422 1.9368494749069213867 2.0213639736175537109 1.8539360761642456055 1.9553096294403076172 1.97736358642578125 1.5243220329284667969 1.6591773033142089844 1.5917298793792724609 1.497501373291015625 1.4027783870697021484 1.6803865432739257813 2.1344089508056640625 1.7697298526763916016 1.4873930215835571289 1.374440312385559082 1.6421635150909423828 1.7280296087265014648 1.2750623226165771484 1.4699637889862060547 1.504240870475769043 1.9236952066421508789 2.3636291027069091797 2.9363687038421630859 2.8419318199157714844 2.8844041824340820313 2.1545641422271728516 2.3400454521179199219 2.5295531749725341797 2.9792928695678710938 4.1250705718994140625 4.2541365623474121094 3.5837962627410888672 3.1455059051513671875 2.5073847770690917969 2.3326637744903564453 2.80870819091796875 2.2788331508636474609 1.7268092632293701172 1.7800296545028686523 1.6413902044296264648 2.1231424808502197266 1.8980656862258911133 1.810849308967590332 1.716416478157043457 1.3668438196182250977 1.3336007595062255859 1.6401140689849853516 1.4069193601608276367 1.227383732795715332 1.6600682735443115234 1.8849902153015136719 1.9041965007781982422 1.3044792413711547852 1.1897237300872802734 1.5167553424835205078 1.4130959510803222656 1.7025623321533203125 1.9791083335876464844 1.5975531339645385742 1.483969569206237793 1.8497890233993530273 1.8944467306137084961 2.5716848373413085938 3.0367906093597412109 2.5017049312591552734 3.1692640781402587891 2.7005963325500488281 2.5682947635650634766 2.7476232051849365234 2.8628354072570800781 2.2776427268981933594 2.8154973983764648438 2.1937315464019775391 2.1034631729125976563 2.0621399879455566406 1.8420965671539306641 1.5729310512542724609 1.5574152469635009766 1.7548865079879760742 1.7717803716659545898 1.375586390495300293 1.506605982780456543 1.6314520835876464844 1.6270537376403808594 2.0365149974822998047 2.0714929103851318359 2.1596310138702392578 2.2368497848510742188 2.5308630466461181641 2.5867779254913330078 2.9068059921264648438 2.2507004737854003906 2.5585465431213378906 2.9859380722045898438 3.21033477783203125 3.3319261074066162109 3.3919575214385986328 4.1572976112365722656 3.9325656890869140625 4.4775171279907226563 4.8305449485778808594 4.5558528900146484375 4.5357956886291503906 4.1803722381591796875 3.8042731285095214844 5.1974730491638183594 5.0580263137817382813 5.8886919021606445313 5.399204254150390625 4.7949314117431640625 4.6395740509033203125 4.5423521995544433594 3.5856504440307617188 3.5807664394378662109 4.4404730796813964844 3.6089189052581787109 
3.5383107662200927734 1.8997918367385864258 1.3161882162094116211 2.0501871109008789063 1.0352632999420166016 1.0193665027618408203 3.9627170562744140625 3.9627170562744140625 2.5863945484161376953 1.1219903230667114258 1.2621108293533325195 1.100308537483215332 2.8139696121215820313 1.2008265256881713867 1.163224339485168457 1.4729462862014770508 1.3190658092498779297 1.6003824472427368164 1.0115746259689331055 1.2221333980560302734 1.2161046266555786133 1.3180940151214599609 1.0429040193557739258 1.1289676427841186523 2.5863945484161376953 1.0029140710830688477 1.301726222038269043 1.2955501079559326172 1.5614233016967773438 1.1245682239532470703 2.4689557552337646484 2.1164593696594238281 2.0106759071350097656 1.301726222038269043 1.3276281356811523438 1.4871296882629394531 1.3271569013595581055 1.6955621242523193359 1.1379148960113525391 1.9108177423477172852 1.1092919111251831055 1.8563123941421508789 1.5891034603118896484 1.9615799188613891602 1.6996520757675170898 1.7610070705413818359 2.0875909328460693359 2.2069907188415527344 2.8183336257934570313 2.615570068359375 2.9019422531127929688 3.7660615444183349609 2.8673672676086425781 3.4822721481323242188 2.9466478824615478516 3.0842189788818359375 2.9481885433197021484 3.8862044811248779297 3.0348939895629882813 2.7323553562164306641 3.1308844089508056641 3.5073900222778320313 3.7595310211181640625 3.7268402576446533203 4.0874428749084472656 5.2503628730773925781 5.0474443435668945313 4.9099373817443847656 5.6059708595275878906 5.07317352294921875 4.7164711952209472656 4.6407766342163085938 4.0670919418334960938 4.5460672378540039063 3.8658611774444580078 3.7658147811889648438 3.5143065452575683594 3.2570247650146484375 2.9519546031951904297 3.4121241569519042969 3.0969743728637695313 3.0078771114349365234 2.4828381538391113281 2.3510949611663818359 1.5952154397964477539 1.492033839225769043 1.6493101119995117188 1.8361628055572509766 1.9213379621505737305 2.2906250953674316406 2.6900355815887451172 1.8555902242660522461 1.7954651117324829102 1.4990975856781005859 1.2709369659423828125 2.1344089508056640625 1.0782121419906616211 1.9108177423477172852 1.2497417926788330078 1.8168957233428955078 1.5069835186004638672 1.5874180793762207031 1.8817892074584960938 1.5240869522094726563 1.5558910369873046875 2.2451443672180175781 2.1658215522766113281 1.7938050031661987305 2.9874007701873779297 2.6714663505554199219 3.2552661895751953125 3.4376995563507080078 3.2988464832305908203 4.4532079696655273438 3.4560670852661132813 2.9832141399383544922 2.9509747028350830078 2.353038787841796875 2.2274758815765380859 1.9611353874206542969 1.8653167486190795898 1.8019622564315795898 1.9419840574264526367 1.8627914190292358398 1.7112014293670654297 2.11057281494140625 2.4284238815307617188 2.0313317775726318359 1.8788946866989135742 1.8095401525497436523 1.3280494213104248047 1.0823051929473876953 1.6691575050354003906 1.5744969844818115234 1.4646518230438232422 1.9108177423477172852 3.2410285472869873047 2.4689557552337646484 1.5931094884872436523 1.1944061517715454102 1.2835404872894287109 2.0291223526000976563 1.754385828971862793 2.1081366539001464844 1.6341696977615356445 2.0868916511535644531 1.9812101125717163086 2.9811530113220214844 2.5991575717926025391 2.7393341064453125 2.2717788219451904297 2.6229360103607177734 2.5500960350036621094 2.6183154582977294922 2.3738729953765869141 2.1207380294799804688 2.6034216880798339844 2.2004730701446533203 1.6781649589538574219 1.357893824577331543 1.3479918241500854492 1.7850593328475952148 1.9097422361373901367 1.6791050434112548828 1.5664552450180053711 1.7884287834167480469 2.0097382068634033203 1.5380375385284423828 1.7711210250854492188 2.0406205654144287109 1.7245563268661499023 2.6103518009185791016 2.2783734798431396484 2.6876027584075927734 2.8963782787322998047 2.6292765140533447266 2.4981257915496826172 2.5972189903259277344 2.6218051910400390625 3.5386064052581787109 2.7803821563720703125 3.9029989242553710938 3.5582799911499023438 4.5270357131958007813 3.4777035713195800781 4.2422666549682617188 4.0636396408081054688 4.2656273841857910156 4.5432419776916503906 4.9442119598388671875 4.9131102561950683594 5.4103918075561523438 4.4188122749328613281 3.8229796886444091797 4.0256724357604980469 4.5048575401306152344 4.6905393600463867188 4.1566987037658691406 4.5041785240173339844 4.4836597442626953125 
1.327916264533996582 1.5544667243957519531 2.0501871109008789063 4.4223074913024902344 1.100308537483215332 1.1763280630111694336 1.3161882162094116211 1.1219903230667114258 3.4576802253723144531 1.2621108293533325195 1.3161882162094116211 1.2064284086227416992 1.0203218460083007813 1.0115746259689331055 1.9041965007781982422 1.301726222038269043 1.2718261480331420898 1.2955501079559326172 2.4689557552337646484 1.2303475141525268555 1.0378412008285522461 1.9108177423477172852 1.0378412008285522461 1.2955501079559326172 1.0693286657333374023 1.5671200752258300781 1.0439656972885131836 2.3019168376922607422 2.6321852207183837891 3.14661407470703125 1.5671200752258300781 1.3023484945297241211 1.0029140710830688477 1.0917770862579345703 1.5294724702835083008 2.4515626430511474609 1.0812047719955444336 1.0812047719955444336 1.0326956510543823242 1.2950159311294555664 1.0595229864120483398 1.5630494356155395508 1.6662423610687255859 1.5968285799026489258 2.1150469779968261719 1.923003077507019043 2.2105185985565185547 2.2572045326232910156 2.5768864154815673828 2.6228489875793457031 2.957035064697265625 2.8662199974060058594 3.1199541091918945313 2.8216300010681152344 2.6527292728424072266 3.5323898792266845703 3.4620964527130126953 3.3905918598175048828 3.276371002197265625 3.0975825786590576172 2.8063807487487792969 3.0330698490142822266 3.4597017765045166016 3.8334391117095947266 3.4321305751800537109 4.6797475814819335938 5.2021450996398925781 4.9904150962829589844 5.7985920906066894531 4.9512042999267578125 4.7039494514465332031 5.1347112655639648438 4.2984156608581542969 4.3287549018859863281 3.7313039302825927734 3.9945969581604003906 4.2032032012939453125 4.0745058059692382813 3.3717803955078125 3.0564010143280029297 2.8199801445007324219 3.0194978713989257813 3.2321894168853759766 2.6702413558959960938 2.3253300189971923828 1.9564714431762695313 1.9621572494506835938 1.9291433095932006836 2.2272341251373291016 2.3742537498474121094 2.3233358860015869141 1.7259207963943481445 2.1345474720001220703 1.739597320556640625 1.3925371170043945313 1.9041965007781982422 1.2955501079559326172 1.2004157304763793945 1.1466057300567626953 1.1359587907791137695 1.3290866613388061523 1.4934487342834472656 1.8207563161849975586 1.9483765363693237305 1.9285203218460083008 1.8772361278533935547 1.9015778303146362305 2.0430219173431396484 2.38787841796875 2.3550410270690917969 3.2714698314666748047 3.8205387592315673828 3.7425990104675292969 3.7147550582885742188 3.3129906654357910156 3.2998182773590087891 3.2469546794891357422 2.5943739414215087891 2.6467978954315185547 2.1152293682098388672 2.6511342525482177734 2.1434180736541748047 1.4369033575057983398 2.1714346408843994141 2.4961020946502685547 2.4670417308807373047 2.0122036933898925781 2.1385433673858642578 2.3683073520660400391 2.1957058906555175781 1.9550956487655639648 1.7857975959777832031 1.4709314107894897461 1.7974135875701904297 1.9041965007781982422 1.5357303619384765625 1.3613733053207397461 1.5609575510025024414 1.0690859556198120117 1.3765325546264648438 1.5584390163421630859 1.5727683305740356445 1.9312585592269897461 2.1033349037170410156 1.7286795377731323242 2.0004854202270507813 2.2253916263580322266 2.2459125518798828125 2.9483087062835693359 2.50527191162109375 1.9467508792877197266 1.9271600246429443359 1.8040980100631713867 1.6738468408584594727 2.0691547393798828125 2.2367157936096191406 2.1064805984497070313 1.7301476001739501953 1.9672340154647827148 1.715119481086730957 1.7413309812545776367 1.6791050434112548828 1.574382781982421875 1.7054418325424194336 1.5705646276473999023 2.0037631988525390625 1.5044809579849243164 1.8169404268264770508 2.0253803730010986328 2.3060374259948730469 2.0698406696319580078 2.4316611289978027344 2.2880263328552246094 2.3860692977905273438 2.1969692707061767578 2.3875567913055419922 2.2831742763519287109 2.1841492652893066406 2.3533608913421630859 3.0560014247894287109 2.725055694580078125 3.4066054821014404297 3.6045713424682617188 3.7444159984588623047 3.2989225387573242188 2.9456434249877929688 3.5430212020874023438 4.334346771240234375 4.0136976242065429688 4.0894441604614257813 3.9303026199340820313 4.2109746932983398438 4.4877228736877441406 4.1668267250061035156 4.262531280517578125 4.605968475341796875 4.4101114273071289063 4.5221695899963378906 4.1773400306701660156 3.73291015625 
1.2621108293533325195 1.0786268711090087891 2.5969169139862060547 2.4689557552337646484 3.0418324470520019531 2.8177235126495361328 1.1219903230667114258 4.4223074913024902344 1.0964353084564208984 1.1131479740142822266 3.9627170562744140625 1.7194232940673828125 3.0418324470520019531 1.9108177423477172852 1.2046427726745605469 1.2955501079559326172 3.9627170562744140625 1.9108177423477172852 1.2278879880905151367 2.0106759071350097656 1.1614395380020141602 2.2552065849304199219 1.2107514142990112305 1.4999068975448608398 1.301726222038269043 1.0595229864120483398 2.5969169139862060547 3.9627170562744140625 2.2552065849304199219 2.2552065849304199219 2.5863945484161376953 2.5863945484161376953 1.152932286262512207 1.4089010953903198242 1.2761425971984863281 1.2325661182403564453 1.9108177423477172852 1.4442522525787353516 1.3368989229202270508 1.6955621242523193359 1.6600682735443115234 1.6669743061065673828 1.6377978324890136719 1.5540865659713745117 1.7030599117279052734 2.3700366020202636719 2.5823121070861816406 2.5573525428771972656 2.6597971916198730469 2.5281727313995361328 3.0756840705871582031 3.3336353302001953125 3.0626239776611328125 2.7871580123901367188 3.3620896339416503906 3.0848281383514404297 3.0441460609436035156 3.7163059711456298828 3.3812139034271240234 3.6550235748291015625 3.3161141872406005859 2.7285928726196289063 3.3543999195098876953 3.4154648780822753906 3.9340035915374755859 4.6311144828796386719 5.0582571029663085938 5.0900044441223144531 4.675304412841796875 4.5099439620971679688 4.3122692108154296875 5.6500039100646972656 5.0801191329956054688 4.5715847015380859375 3.9719629287719726563 3.9075019359588623047 4.008388519287109375 3.9019551277160644531 3.7323431968688964844 3.5851688385009765625 3.1415150165557861328 2.9069066047668457031 2.9099662303924560547 3.0507659912109375 2.598846435546875 2.2153675556182861328 2.2521712779998779297 1.9077075719833374023 2.0684139728546142578 2.3678057193756103516 2.1056034564971923828 2.0443639755249023438 2.2239687442779541016 1.6323492527008056641 1.5439372062683105469 1.4085946083068847656 1.3201267719268798828 1.3518837690353393555 1.9041965007781982422 1.7087703943252563477 1.4418846368789672852 1.5779911279678344727 1.1961342096328735352 1.8247034549713134766 1.8644893169403076172 2.4191141128540039063 1.6618174314498901367 1.7244791984558105469 2.0780439376831054688 2.6911017894744873047 3.1463835239410400391 3.1262695789337158203 2.993770599365234375 3.4547238349914550781 3.7801477909088134766 3.2443370819091796875 2.8737690448760986328 2.4750599861145019531 2.6708226203918457031 2.6980893611907958984 2.3461282253265380859 2.4754629135131835938 2.3317883014678955078 2.7240920066833496094 2.7963469028472900391 2.2947747707366943359 1.8537356853485107422 2.0872161388397216797 2.6437141895294189453 2.5186815261840820313 2.3156354427337646484 1.9932922124862670898 1.4399040937423706055 1.6054503917694091797 1.8849902153015136719 1.6039346456527709961 1.7873682975769042969 1.4524271488189697266 1.4112218618392944336 1.6600682735443115234 1.9331991672515869141 1.4614613056182861328 1.6451715230941772461 2.0637161731719970703 1.9554522037506103516 1.7882339954376220703 1.5751667022705078125 2.1505997180938720703 2.3467454910278320313 2.0036199092864990234 2.3316941261291503906 2.2483913898468017578 1.948060154914855957 2.2708218097686767578 1.9556380510330200195 2.5836565494537353516 2.2722222805023193359 2.0476870536804199219 2.0091416835784912109 1.7635252475738525391 1.7020199298858642578 1.960971832275390625 1.6539244651794433594 2.1312782764434814453 2.6752507686614990234 2.1188580989837646484 2.0320394039154052734 2.0238223075866699219 1.6984575986862182617 1.7849814891815185547 2.3004801273345947266 2.4613997936248779297 1.8984210491180419922 2.5329921245574951172 2.4283351898193359375 2.5358817577362060547 2.3968012332916259766 1.9641727209091186523 2.7804889678955078125 2.6777851581573486328 3.2391591072082519531 2.9558041095733642578 2.7583916187286376953 3.036373138427734375 3.2964079380035400391 2.5391335487365722656 2.5121202468872070313 3.2974081039428710938 3.876850128173828125 4.5957188606262207031 3.8519186973571777344 4.03383636474609375 3.4309391975402832031 3.4034428596496582031 4.1321783065795898438 4.7670221328735351563 4.5694551467895507813 4.7254662513732910156 4.7903923988342285156 4.2988576889038085938 
1.3161882162094116211 1.2621108293533325195 2.5969169139862060547 1.0371699333190917969 2.2552065849304199219 2.8177235126495361328 2.6200101375579833984 5.7816576957702636719 1.0352632999420166016 1.0352632999420166016 2.6200101375579833984 1.3161882162094116211 3.9627170562744140625 2.2552065849304199219 3.9627170562744140625 2.4689557552337646484 2.2552065849304199219 1.0812047719955444336 1.5671200752258300781 1.1505318880081176758 1.2955501079559326172 1.3068506717681884766 1.5912570953369140625 1.5671200752258300781 3.1010553836822509766 3.0062968730926513672 2.4689557552337646484 3.9627170562744140625 1.1092237234115600586 3.6686847209930419922 2.2016704082489013672 1.5618904829025268555 1.3304967880249023438 1.2856231927871704102 1.4233331680297851563 1.1856391429901123047 1.540332794189453125 1.9041965007781982422 1.8849902153015136719 1.4710749387741088867 1.1567198038101196289 1.4699335098266601563 1.4023987054824829102 1.7484441995620727539 1.7796580791473388672 1.9709798097610473633 1.6756192445755004883 2.2993867397308349609 2.0676732063293457031 1.9437154531478881836 2.1064519882202148438 2.7308468818664550781 3.1727316379547119141 3.398303985595703125 3.6787652969360351563 3.3968966007232666016 3.6260523796081542969 3.4256284236907958984 3.4665606021881103516 2.7211928367614746094 3.0287275314331054688 3.1787483692169189453 3.2814366817474365234 3.7916529178619384766 4.4040751457214355469 4.4249281883239746094 4.8544812202453613281 5.7065253257751464844 4.9581327438354492188 5.789119720458984375 4.3412442207336425781 5.3525609970092773438 5.4461636543273925781 4.6108064651489257813 4.2412595748901367188 4.18665313720703125 4.4366898536682128906 4.3194794654846191406 3.7103621959686279297 3.6502001285552978516 3.1841793060302734375 2.9426286220550537109 2.5097811222076416016 2.7219738960266113281 2.1647827625274658203 2.0353848934173583984 1.8600707054138183594 1.9650887250900268555 1.6589493751525878906 2.2069845199584960938 2.3656916618347167969 2.2610759735107421875 1.7489973306655883789 1.9013193845748901367 1.3222305774688720703 1.1934921741485595703 1.7058150768280029297 1.9108177423477172852 1.6955621242523193359 1.0378412008285522461 1.3018119335174560547 1.4572284221649169922 1.5809073448181152344 1.9089131355285644531 1.8475004434585571289 1.7107750177383422852 1.8787540197372436523 2.0786864757537841797 2.0923426151275634766 2.0279526710510253906 3.0204939842224121094 3.5301229953765869141 3.3138680458068847656 3.2475459575653076172 3.4798724651336669922 3.6122870445251464844 2.7512094974517822266 2.5148167610168457031 3.0529851913452148438 2.8171746730804443359 2.8073074817657470703 2.7246794700622558594 2.6205015182495117188 2.7011826038360595703 3.7779436111450195313 3.1176316738128662109 2.6634013652801513672 2.3189597129821777344 2.4156811237335205078 2.1255173683166503906 2.098102569580078125 1.596560359001159668 1.9332457780838012695 1.9404457807540893555 1.5996544361114501953 1.7418117523193359375 2.0582780838012695313 1.5875897407531738281 1.6403158903121948242 1.8888913393020629883 1.6675055027008056641 1.9213107824325561523 1.864918828010559082 2.0820271968841552734 1.7640602588653564453 2.3202159404754638672 2.2433216571807861328 2.0278482437133789063 2.2214069366455078125 1.9227013587951660156 1.8154336214065551758 1.7844310998916625977 1.9080399274826049805 2.1396150588989257813 1.9453783035278320313 2.6031711101531982422 2.1273400783538818359 1.5564140081405639648 1.8256933689117431641 1.6919842958450317383 2.0214543342590332031 2.2164111137390136719 1.6407157182693481445 1.7256541252136230469 2.0096111297607421875 2.5052597522735595703 1.9648451805114746094 1.7645801305770874023 2.2353913784027099609 2.1219806671142578125 2.0319521427154541016 1.8844547271728515625 1.6925899982452392578 1.6559814214706420898 2.0436573028564453125 2.5585992336273193359 2.3168699741363525391 2.31172943115234375 2.4175932407379150391 2.1122519969940185547 3.0330383777618408203 3.0000469684600830078 2.65789794921875 2.7885284423828125 2.8952229022979736328 3.3339052200317382813 3.0605428218841552734 3.2551181316375732422 3.5379385948181152344 3.8573925495147705078 3.7306437492370605469 3.5881593227386474609 3.4409463405609130859 2.7755923271179199219 3.3065068721771240234 4.5926051139831542969 4.7528786659240722656 4.9073543548583984375 4.9580869674682617188 4.9538822174072265625 
1.2621108293533325195 1.1737314462661743164 2.5863945484161376953 2.2552065849304199219 2.4689557552337646484 2.2552065849304199219 2.0501871109008789063 5.0049319267272949219 2.3271169662475585938 2.3271169662475585938 1.0786268711090087891 1.1432006359100341797 2.4689557552337646484 3.9627170562744140625 2.5863945484161376953 2.2552065849304199219 2.4689557552337646484 1.1439307928085327148 1.6181848049163818359 1.0812047719955444336 1.8849902153015136719 1.6183363199234008789 1.7257131338119506836 1.084196925163269043 2.6321852207183837891 3.9627170562744140625 2.2016704082489013672 3.0062968730926513672 1.2955501079559326172 3.9627170562744140625 1.1221204996109008789 1.9108177423477172852 1.2031691074371337891 1.15718841552734375 1.5671200752258300781 1.5971407890319824219 1.4662801027297973633 2.4689557552337646484 1.2296897172927856445 1.4096441268920898438 1.6288425922393798828 1.5909900665283203125 1.2889600992202758789 1.6974952220916748047 2.1889858245849609375 1.8999670743942260742 2.1280198097229003906 1.7599930763244628906 1.533938288688659668 1.8540456295013427734 1.9365515708923339844 2.3823506832122802734 3.0251924991607666016 3.8527266979217529297 3.4970173835754394531 3.3208477497100830078 3.9038341045379638672 3.3289470672607421875 3.8505122661590576172 3.2610125541687011719 2.5803785324096679688 3.2487053871154785156 2.9064962863922119141 3.3274815082550048828 3.9482781887054443359 4.1661100387573242188 4.7537364959716796875 5.0291838645935058594 5.8424396514892578125 5.15827178955078125 5.6047611236572265625 4.6654725074768066406 4.3259177207946777344 4.6242384910583496094 4.5755100250244140625 4.28006744384765625 4.1817798614501953125 3.9162664413452148438 3.9982576370239257813 2.9396963119506835938 2.8239362239837646484 3.1099002361297607422 3.0226168632507324219 2.6397922039031982422 2.4281771183013916016 1.9995439052581787109 1.5936909914016723633 1.4303816556930541992 1.5028587579727172852 1.8140881061553955078 2.02103424072265625 1.772248387336730957 1.5231134891510009766 1.4253469705581665039 1.5440320968627929688 1.4341220855712890625 1.1028864383697509766 1.2955501079559326172 1.4369318485260009766 1.3039162158966064453 1.6741328239440917969 1.8630299568176269531 1.8514902591705322266 1.5524431467056274414 1.4426503181457519531 1.7828273773193359375 2.0312037467956542969 1.7111986875534057617 2.2874472141265869141 2.4379408359527587891 2.6549396514892578125 3.0367941856384277344 3.1936924457550048828 3.8636553287506103516 3.5324141979217529297 2.7255992889404296875 1.9717649221420288086 2.5502712726593017578 2.5655591487884521484 2.6609447002410888672 2.4160239696502685547 2.6728258132934570313 2.6898891925811767578 3.3812038898468017578 3.4178366661071777344 3.1981432437896728516 2.8332192897796630859 2.693325042724609375 3.0851263999938964844 2.5749070644378662109 1.7817016839981079102 1.9236277341842651367 1.5613274574279785156 1.8440570831298828125 1.9843852519989013672 1.5637415647506713867 1.9108177423477172852 1.8353011608123779297 1.7959473133087158203 1.7757534980773925781 2.2090427875518798828 1.9901280403137207031 1.74504852294921875 1.9323685169219970703 1.9206054210662841797 2.1585538387298583984 2.3923432826995849609 1.9850014448165893555 2.4076428413391113281 1.5368515253067016602 1.5714457035064697266 1.9785771369934082031 2.045867919921875 1.902432560920715332 2.5813784599304199219 1.5741924047470092773 2.3599386215209960938 1.7753505706787109375 1.7665495872497558594 1.6561415195465087891 1.540102839469909668 2.0996079444885253906 2.5166168212890625 2.6508908271789550781 1.9386577606201171875 2.6808528900146484375 2.0988445281982421875 1.8553903102874755859 2.0574765205383300781 1.7728523015975952148 2.0928695201873779297 2.0848140716552734375 1.9670637845993041992 2.0291461944580078125 2.0898127555847167969 2.2605478763580322266 2.1393752098083496094 2.0397627353668212891 1.9953238964080810547 2.1238355636596679688 2.6638045310974121094 2.6576027870178222656 2.4458830356597900391 2.7293922901153564453 2.461894989013671875 2.6940014362335205078 2.5631153583526611328 2.6617257595062255859 3.4601800441741943359 3.4722447395324707031 3.5181729793548583984 3.3535943031311035156 2.8090720176696777344 3.2940404415130615234 3.8822994232177734375 4.2339825630187988281 4.6353259086608886719 4.5900564193725585938 4.4654750823974609375 4.1516661643981933594 
2.4689557552337646484 1.6463700532913208008 2.6049542427062988281 2.2552065849304199219 3.4684188365936279297 1.2621108293533325195 1.3161882162094116211 1.2621108293533325195 3.1917226314544677734 2.8177235126495361328 1.8997918367385864258 3.1917226314544677734 2.4689557552337646484 1.0476042032241821289 1.1524397134780883789 3.6012563705444335938 1.2955501079559326172 1.1808012723922729492 1.3540925979614257813 1.2162134647369384766 1.6055343151092529297 1.7893148660659790039 1.257783055305480957 1.0812047719955444336 2.5969169139862060547 2.1164593696594238281 2.5863945484161376953 2.5611174106597900391 2.5969169139862060547 2.5969169139862060547 1.6326173543930053711 2.1164593696594238281 1.3831908702850341797 1.6003824472427368164 1.6868594884872436523 1.9122374057769775391 1.9542856216430664063 1.1310961246490478516 1.3387167453765869141 1.5052545070648193359 1.5901929140090942383 1.7875314950942993164 1.5833188295364379883 1.9506580829620361328 2.2074303627014160156 2.3697147369384765625 2.5500428676605224609 2.2666137218475341797 2.3793253898620605469 2.1854689121246337891 2.4434866905212402344 2.6162908077239990234 3.1117792129516601563 3.5412774085998535156 3.90157318115234375 3.3017632961273193359 3.7547235488891601563 3.6921627521514892578 3.1160581111907958984 2.8658254146575927734 2.5099570751190185547 2.66996002197265625 3.3387801647186279297 3.2039585113525390625 3.5201525688171386719 3.4952445030212402344 3.4525468349456787109 4.2726960182189941406 5.1962161064147949219 4.923786163330078125 5.5124711990356445313 4.6769533157348632813 4.7653017044067382813 4.5010695457458496094 4.4992260932922363281 4.0451169013977050781 3.8431992530822753906 3.3280279636383056641 3.5034203529357910156 2.9956116676330566406 3.2312364578247070313 2.9967746734619140625 2.7881305217742919922 2.4852902889251708984 2.0462739467620849609 1.7007882595062255859 1.8887205123901367188 2.4061410427093505859 1.6227110624313354492 1.4245520830154418945 1.7881203889846801758 1.9587432146072387695 1.9793372154235839844 2.1959018707275390625 1.3903785943984985352 1.4759786128997802734 1.3509833812713623047 1.6098328828811645508 1.1383183002471923828 1.6070367097854614258 1.5973862409591674805 1.497384190559387207 1.7329869270324707031 1.8947136402130126953 2.0110139846801757813 2.1695129871368408203 1.5852969884872436523 1.677308201789855957 2.1606833934783935547 2.2655928134918212891 2.27561187744140625 2.4832310676574707031 3.3242194652557373047 3.4928948879241943359 3.6113390922546386719 3.2212884426116943359 2.9181113243103027344 2.4295039176940917969 2.2874689102172851563 2.7556674480438232422 2.5055372714996337891 2.3773629665374755859 2.5438063144683837891 2.804096221923828125 3.0168740749359130859 3.2641370296478271484 3.0581080913543701172 2.8679301738739013672 2.4200038909912109375 2.4525995254516601563 2.0712847709655761719 1.8288453817367553711 1.7619658708572387695 1.8769505023956298828 1.7054418325424194336 1.9351457357406616211 1.3877273797988891602 1.5746599435806274414 1.742947697639465332 2.1762044429779052734 1.9026077985763549805 1.7806160449981689453 1.9058053493499755859 1.7341576814651489258 2.0783243179321289063 2.28050994873046875 2.1207902431488037109 2.4904000759124755859 2.7861325740814208984 2.4040377140045166016 2.3035013675689697266 1.7949612140655517578 1.8827620744705200195 2.2152059078216552734 1.9841756820678710938 2.1577770709991455078 1.5615489482879638672 2.4841520786285400391 1.4208196401596069336 1.6541410684585571289 1.9945584535598754883 2.2228090763092041016 2.2153048515319824219 2.1483564376831054688 2.087177276611328125 2.6558942794799804688 2.890491485595703125 2.2672431468963623047 2.1303281784057617188 2.1138870716094970703 1.950501561164855957 2.1806976795196533203 2.3213751316070556641 1.9613442420959472656 1.5486959218978881836 2.0774235725402832031 2.0183873176574707031 1.7621864080429077148 1.7694368362426757813 1.9815151691436767578 2.1273658275604248047 2.3213341236114501953 2.210079193115234375 2.2174026966094970703 2.5058238506317138672 2.6929874420166015625 2.6542499065399169922 2.9371688365936279297 2.9790544509887695313 2.4721043109893798828 2.6294276714324951172 3.0953574180603027344 3.2561376094818115234 3.7671480178833007813 4.4044613838195800781 4.7160420417785644531 5.0455603599548339844 4.5497894287109375 4.4362115859985351563 4.4285645484924316406 
1.9108177423477172852 1.5671200752258300781 1.1219903230667114258 1.3161882162094116211 1.1761858463287353516 1.2748637199401855469 3.0062968730926513672 1.100308537483215332 1.0352632999420166016 1.2311228513717651367 1.3410714864730834961 1.100308537483215332 1.1028864383697509766 1.9292426109313964844 1.3434112071990966797 1.145436406135559082 2.0106759071350097656 1.3899303674697875977 1.5441529750823974609 1.7752267122268676758 1.8479084968566894531 1.3426961898803710938 1.3773260116577148438 1.4319067001342773438 1.2150760889053344727 1.5671200752258300781 1.9122374057769775391 2.4689557552337646484 2.8139696121215820313 2.5863945484161376953 1.3198757171630859375 3.14661407470703125 1.4752340316772460938 1.0342544317245483398 3.1229813098907470703 3.6012563705444335938 1.9108177423477172852 1.5974442958831787109 1.301726222038269043 1.6691575050354003906 1.3180664777755737305 1.7359105348587036133 1.6527642011642456055 1.9795662164688110352 2.0363581180572509766 2.3143413066864013672 2.2983663082122802734 2.2619647979736328125 2.5192885398864746094 2.477695465087890625 3.3042073249816894531 2.8866748809814453125 3.1238985061645507813 3.0258557796478271484 3.4858849048614501953 3.1814684867858886719 2.7739210128784179688 3.2191257476806640625 3.1968183517456054688 3.2862834930419921875 2.1896758079528808594 2.3213620185852050781 2.9482798576354980469 3.8432767391204833984 3.8947961330413818359 3.9732947349548339844 3.7145133018493652344 4.2910218238830566406 5.2272887229919433594 5.962451934814453125 5.4886336326599121094 4.9434633255004882813 4.6231136322021484375 4.2748103141784667969 4.2129688262939453125 4.1611223220825195313 3.2374653816223144531 3.0666811466217041016 4.1424074172973632813 3.4362096786499023438 3.6259596347808837891 3.4619271755218505859 3.1036660671234130859 2.6541035175323486328 2.2852270603179931641 1.9621392488479614258 2.1865596771240234375 1.8455580472946166992 1.8040268421173095703 1.5596147775650024414 1.8041644096374511719 2.3781299591064453125 2.0809056758880615234 1.7973055839538574219 1.8235151767730712891 1.7793561220169067383 1.3879947662353515625 1.3186407089233398438 1.3026291131973266602 1.6075844764709472656 1.6004621982574462891 1.4161552190780639648 1.8540195226669311523 1.8056914806365966797 1.6410082578659057617 1.7168879508972167969 1.9622135162353515625 2.2837877273559570313 1.9600352048873901367 2.1861867904663085938 2.2984087467193603516 2.7857844829559326172 3.2310657501220703125 3.3636808395385742188 3.6324834823608398438 3.1775789260864257813 3.373180389404296875 2.8070168495178222656 2.2391886711120605469 2.8656849861145019531 3.0320200920104980469 2.3276371955871582031 3.0408670902252197266 2.7506415843963623047 2.7327432632446289063 2.8236021995544433594 2.8169262409210205078 2.1644623279571533203 2.5211811065673828125 2.4478695392608642578 2.2040419578552246094 1.6721001863479614258 1.5764989852905273438 2.1190207004547119141 2.0098226070404052734 1.8428667783737182617 1.3458416461944580078 1.6989309787750244141 2.0784971714019775391 2.3745269775390625 2.2037942409515380859 2.2035710811614990234 2.3109376430511474609 1.8220590353012084961 2.1213481426239013672 2.2760312557220458984 2.0498414039611816406 3.08348846435546875 2.5818200111389160156 2.7074606418609619141 2.5868189334869384766 3.0336661338806152344 2.7010376453399658203 2.3057119846343994141 2.4825930595397949219 2.1307513713836669922 2.0247275829315185547 1.9108613729476928711 1.9233492612838745117 1.467324376106262207 1.882180333137512207 2.1802659034729003906 1.8983724117279052734 1.877783656120300293 2.3276140689849853516 2.2355294227600097656 1.9960273504257202148 2.4203934669494628906 1.7411893606185913086 1.805043339729309082 1.6932330131530761719 1.808673858642578125 1.960728764533996582 2.0919601917266845703 2.0428106784820556641 1.4672750234603881836 1.5322809219360351563 2.0742297172546386719 1.9858460426330566406 2.2222845554351806641 2.4688394069671630859 2.2126042842864990234 2.0415875911712646484 2.0319890975952148438 2.7969505786895751953 2.3888049125671386719 3.1481745243072509766 3.0551979541778564453 3.5720272064208984375 2.5957074165344238281 2.5150535106658935547 2.8907573223114013672 3.3291501998901367188 3.7413985729217529297 4.1021313667297363281 4.2642397880554199219 4.2173261642456054688 3.843601226806640625 3.6763246059417724609 4.2959160804748535156 
1.398369908332824707 1.0203218460083007813 2.6049542427062988281 1.0786268711090087891 2.3271169662475585938 3.13358306884765625 2.2016704082489013672 1.2085090875625610352 1.5903766155242919922 1.3161882162094116211 1.125316619873046875 2.8177235126495361328 3.2410285472869873047 2.8004152774810791016 1.4177160263061523438 1.0508438348770141602 1.2955501079559326172 1.5719010829925537109 1.3731298446655273438 2.0543968677520751953 1.6041108369827270508 1.466014862060546875 2.0309798717498779297 1.496542811393737793 1.242066502571105957 1.1862344741821289063 2.5863945484161376953 3.4979276657104492188 2.5969169139862060547 3.9627170562744140625 1.7194232940673828125 1.3560349941253662109 2.2552065849304199219 1.0597808361053466797 2.5969169139862060547 2.0106759071350097656 3.0418324470520019531 2.0106759071350097656 2.7689762115478515625 1.9041965007781982422 1.7264322042465209961 1.1208237409591674805 1.7713537216186523438 2.1003792285919189453 2.3739645481109619141 1.9339754581451416016 2.9377574920654296875 2.6269850730895996094 2.8912229537963867188 2.7155699729919433594 2.7161440849304199219 2.4455659389495849609 2.7226464748382568359 3.2839019298553466797 3.2865302562713623047 3.2912790775299072266 3.3870654106140136719 3.1095452308654785156 3.0116808414459228516 2.7902929782867431641 2.8090012073516845703 2.4057414531707763672 2.8739092350006103516 3.8161282539367675781 3.7835178375244140625 4.2550139427185058594 3.9270470142364501953 3.5054061412811279297 4.1695919036865234375 5.142719268798828125 5.1435422897338867188 4.7117667198181152344 3.8414053916931152344 3.7328970432281494141 4.3806500434875488281 3.9010057449340820313 3.0836267471313476563 3.3186681270599365234 3.4106264114379882813 3.8290553092956542969 3.3772232532501220703 3.4184792041778564453 2.9620299339294433594 2.8911240100860595703 2.1691558361053466797 2.0778422355651855469 1.9351742267608642578 2.1146101951599121094 1.8246107101440429688 1.7784123420715332031 2.0511391162872314453 1.8844823837280273438 2.2438683509826660156 2.4318664073944091797 2.1414844989776611328 2.2697401046752929688 1.8057733774185180664 1.2714617252349853516 1.9041965007781982422 1.6538292169570922852 1.9981937408447265625 1.91776275634765625 1.5550647974014282227 2.1344089508056640625 1.6122028827667236328 1.1714875698089599609 2.0826094150543212891 2.0010607242584228516 2.0553212165832519531 2.1355321407318115234 2.3610205650329589844 2.4815371036529541016 2.8206262588500976563 3.6934356689453125 3.536350250244140625 3.1272845268249511719 3.5131354331970214844 2.8918132781982421875 2.8772904872894287109 3.2870166301727294922 2.4270732402801513672 2.9763262271881103516 2.8333203792572021484 2.9585788249969482422 2.7762575149536132813 2.8194358348846435547 2.7523870468139648438 3.0998289585113525391 2.2277903556823730469 2.2037885189056396484 1.9456244707107543945 1.7182203531265258789 2.0165696144104003906 2.0964975357055664063 2.4521193504333496094 2.1384370326995849609 1.8213762044906616211 1.5271002054214477539 1.6161800622940063477 2.3048560619354248047 2.1829195022583007813 2.3829109668731689453 1.907225489616394043 2.0604267120361328125 2.2645425796508789063 2.4008603096008300781 2.2317972183227539063 2.6373546123504638672 2.1253750324249267578 2.3846116065979003906 2.3664722442626953125 2.7657797336578369141 2.6640670299530029297 2.640567779541015625 2.6630795001983642578 2.3965013027191162109 2.3647713661193847656 1.8171409368515014648 1.2782667875289916992 1.7853893041610717773 1.7458546161651611328 1.491112828254699707 2.3620328903198242188 1.646755218505859375 1.4305906295776367188 2.1341578960418701172 2.0076425075531005859 1.9560528993606567383 1.581816554069519043 1.408825993537902832 1.5171400308609008789 1.9739840030670166016 2.1251745223999023438 2.3086543083190917969 1.9249098300933837891 1.42194366455078125 1.3616368770599365234 1.7519594430923461914 2.0659344196319580078 1.9571821689605712891 2.3235781192779541016 2.0579471588134765625 2.0801777839660644531 2.4788887500762939453 2.7238147258758544922 2.4359459877014160156 3.3108911514282226563 3.1847138404846191406 3.3211901187896728516 2.7592186927795410156 2.9198396205902099609 2.9624614715576171875 2.6216170787811279297 3.2796585559844970703 3.1670427322387695313 3.2346282005310058594 3.6410057544708251953 3.2609567642211914063 3.6983137130737304688 4.1510782241821289063 
1.4786151647567749023 2.2552065849304199219 1.7058150768280029297 1.100308537483215332 2.0501871109008789063 1.100308537483215332 2.8139696121215820313 2.2016704082489013672 1.3156942129135131836 1.0462354421615600586 1.1624978780746459961 2.2552065849304199219 2.0106759071350097656 2.6151242256164550781 2.4689557552337646484 2.6321852207183837891 1.2156089544296264648 1.5505193471908569336 1.682835698127746582 1.492501378059387207 1.8425502777099609375 2.0044980049133300781 1.2795636653900146484 1.6177411079406738281 1.5421341657638549805 2.1164593696594238281 2.6321852207183837891 1.100308537483215332 1.1219903230667114258 2.2016704082489013672 1.5138489007949829102 1.4176583290100097656 1.7343676090240478516 1.3174790143966674805 1.9292426109313964844 2.0106759071350097656 2.2016704082489013672 2.4689557552337646484 1.6417212486267089844 1.5027624368667602539 1.6326156854629516602 1.7960056066513061523 1.7110728025436401367 1.7378640174865722656 2.2994036674499511719 2.0721135139465332031 2.8764643669128417969 2.966045379638671875 3.4980292320251464844 2.8124361038208007813 2.9647932052612304688 3.0903878211975097656 2.6863598823547363281 2.9811692237854003906 3.4608321189880371094 3.3582651615142822266 3.4626212120056152344 3.266033172607421875 3.367885589599609375 3.4276690483093261719 3.28754425048828125 3.1080317497253417969 2.8639385700225830078 3.2870666980743408203 3.7225365638732910156 3.6386647224426269531 3.7464444637298583984 3.7934322357177734375 3.8750979900360107422 3.9379405975341796875 4.6060976982116699219 4.4582281112670898438 4.1543936729431152344 3.4932210445404052734 3.4643006324768066406 3.5480768680572509766 3.4147527217864990234 3.2672810554504394531 3.5936388969421386719 3.7852892875671386719 3.5569744110107421875 3.2652957439422607422 3.0238285064697265625 2.7771275043487548828 2.0670413970947265625 2.0436382293701171875 1.5027557611465454102 1.6255333423614501953 1.6550869941711425781 1.9905322790145874023 1.9937707185745239258 1.985828399658203125 2.4714047908782958984 2.4746155738830566406 2.9842429161071777344 2.3431401252746582031 1.8686765432357788086 1.5646764039993286133 2.0483198165893554688 2.0801131725311279297 1.9212954044342041016 1.568770289421081543 1.6935324668884277344 1.7595717906951904297 1.2146153450012207031 1.2032190561294555664 2.0377652645111083984 2.1473529338836669922 2.1054165363311767578 2.2866489887237548828 2.1489529609680175781 2.0785481929779052734 2.8686354160308837891 2.754299163818359375 2.7888951301574707031 2.5061979293823242188 2.8566131591796875 3.3265054225921630859 3.5784199237823486328 3.4008359909057617188 2.9453146457672119141 2.4602797031402587891 2.6126720905303955078 2.7339117527008056641 2.4953305721282958984 2.797458648681640625 2.3889138698577880859 2.6264781951904296875 1.7303059101104736328 1.8268588781356811523 2.1297013759613037109 2.2717030048370361328 2.3757877349853515625 2.4215426445007324219 2.4859921932220458984 2.2230722904205322266 1.7256842851638793945 2.064544677734375 1.4125041961669921875 1.7350494861602783203 1.9127544164657592773 2.1643226146697998047 2.0575540065765380859 2.0512280464172363281 2.1397140026092529297 2.0419063568115234375 2.5293400287628173828 2.7750978469848632813 2.0284581184387207031 2.0997521877288818359 2.3054635524749755859 3.0024585723876953125 2.7827205657958984375 2.3592820167541503906 3.1076283454895019531 2.4519150257110595703 2.4433515071868896484 1.3673194646835327148 1.8831911087036132813 1.9376631975173950195 1.7539427280426025391 1.7172964811325073242 1.6612454652786254883 1.6737072467803955078 2.2272279262542724609 2.1595644950866699219 1.7021222114562988281 1.9474922418594360352 1.2784619331359863281 1.8971437215805053711 1.6553008556365966797 1.4126163721084594727 1.8467613458633422852 2.0549683570861816406 1.6487228870391845703 1.8736137151718139648 1.6278388500213623047 1.6791050434112548828 2.0065751075744628906 2.2290158271789550781 2.3191740512847900391 2.4164028167724609375 2.2853028774261474609 2.4210820198059082031 2.9506924152374267578 3.1551384925842285156 4.089359283447265625 3.8947644233703613281 2.6853244304656982422 2.252346038818359375 2.0382933616638183594 2.3517575263977050781 2.4293017387390136719 2.5170485973358154297 2.6610512733459472656 2.7562761306762695313 3.4678220748901367188 2.9666290283203125 3.0903291702270507813 3.6683866977691650391 
2.6321852207183837891 1.100308537483215332 2.4689557552337646484 1.2596697807312011719 2.5863945484161376953 3.9627170562744140625 2.4689557552337646484 1.3768922090530395508 1.6868594884872436523 1.1838697195053100586 2.2552065849304199219 2.2552065849304199219 3.6012563705444335938 1.0203218460083007813 1.6868594884872436523 1.9041965007781982422 1.9041965007781982422 1.6756902933120727539 1.1462500095367431641 1.5236225128173828125 1.978808283805847168 1.821164250373840332 1.8563123941421508789 2.4263837337493896484 1.2955501079559326172 1.1359418630599975586 2.6321852207183837891 1.5903766155242919922 2.4689557552337646484 1.9108177423477172852 2.0106759071350097656 1.9122374057769775391 2.4689557552337646484 1.4041314125061035156 1.4704016447067260742 2.2552065849304199219 1.423801422119140625 1.301726222038269043 1.4053332805633544922 1.6377511024475097656 2.0840082168579101563 1.8470040559768676758 1.6429234743118286133 2.3828327655792236328 2.0146391391754150391 1.9996740818023681641 2.7023332118988037109 2.8659999370574951172 2.6117658615112304688 2.6871020793914794922 3.1221370697021484375 2.8858120441436767578 3.2713625431060791016 2.9242122173309326172 3.1455609798431396484 3.048206329345703125 2.8802955150604248047 3.3423554897308349609 3.4588177204132080078 3.5287504196166992188 3.3039433956146240234 3.6148984432220458984 3.2936856746673583984 3.3361833095550537109 3.8664579391479492188 3.5466549396514892578 3.8261072635650634766 4.0292162895202636719 3.7629430294036865234 4.7501645088195800781 4.7415189743041992188 4.6900553703308105469 3.8458611965179443359 3.7566783428192138672 3.9577562808990478516 4.1674871444702148438 4.0224061012268066406 3.5218758583068847656 3.8274538516998291016 3.2051081657409667969 3.2757675647735595703 3.5150339603424072266 2.9941179752349853516 2.3385112285614013672 2.2835826873779296875 1.7327463626861572266 1.3192348480224609375 1.602986454963684082 1.5454407930374145508 2.3057320117950439453 1.7014235258102416992 2.1579563617706298828 2.4277825355529785156 2.5777542591094970703 2.5773630142211914063 2.4313113689422607422 2.1569309234619140625 2.2059106826782226563 2.0582287311553955078 1.8864051103591918945 1.7720139026641845703 1.3386769294738769531 1.8151750564575195313 1.4740922451019287109 1.6156424283981323242 1.6801652908325195313 1.9148513078689575195 2.173004150390625 1.8668473958969116211 2.8446469306945800781 2.4518873691558837891 2.7237627506256103516 2.9373252391815185547 2.8969871997833251953 3.6278111934661865234 3.1446015834808349609 3.4889442920684814453 3.5651853084564208984 3.7010436058044433594 3.0497920513153076172 2.8348858356475830078 2.2675235271453857422 2.1105289459228515625 1.9352461099624633789 1.9531940221786499023 2.3894693851470947266 2.7178833484649658203 2.5287449359893798828 2.0725457668304443359 2.3683454990386962891 2.1979620456695556641 2.837314605712890625 2.9351716041564941406 2.1910173892974853516 2.7910134792327880859 2.1307663917541503906 1.7945542335510253906 1.7486227750778198242 1.7321871519088745117 2.0373249053955078125 1.9185819625854492188 1.9869283437728881836 2.1233818531036376953 1.7758401632308959961 1.9747240543365478516 2.3020999431610107422 2.3467774391174316406 2.298419952392578125 2.157817840576171875 2.1461408138275146484 2.7388184070587158203 2.4421863555908203125 2.6944379806518554688 2.1948137283325195313 2.1940865516662597656 2.0605983734130859375 2.7775721549987792969 2.2997567653656005859 2.1500866413116455078 1.8915208578109741211 1.7808339595794677734 1.7125871181488037109 1.9819195270538330078 1.940903782844543457 1.9254121780395507813 1.7090232372283935547 2.422565460205078125 1.5966820716857910156 1.6526621580123901367 1.6691575050354003906 1.518947601318359375 1.1245682239532470703 1.6105583906173706055 1.9641864299774169922 1.4780229330062866211 1.6756902933120727539 1.9041965007781982422 1.5479203462600708008 2.3175103664398193359 2.2970030307769775391 2.26064300537109375 2.2915356159210205078 2.4481911659240722656 2.5118882656097412109 2.6784064769744873047 2.7013840675354003906 3.3653438091278076172 3.8929803371429443359 2.5047054290771484375 2.4555029869079589844 2.0320720672607421875 2.3246138095855712891 2.6542432308197021484 2.2636334896087646484 2.4943904876708984375 2.7699587345123291016 3.0097162723541259766 3.1843676567077636719 2.9548366069793701172 3.6482701301574707031 
2.8139696121215820313 3.6686847209930419922 1.2735722064971923828 1.1117050647735595703 1.2955501079559326172 2.2552065849304199219 1.5808603763580322266 1.1360913515090942383 3.2410285472869873047 2.5863945484161376953 1.4505467414855957031 1.2497534751892089844 1.5404903888702392578 1.3150460720062255859 1.0793395042419433594 1.4795746803283691406 1.3893945217132568359 3.14661407470703125 1.3726254701614379883 1.3997341394424438477 1.7356270551681518555 1.3331938982009887695 1.3664891719818115234 1.610748291015625 1.5850934982299804688 1.2313228845596313477 3.6311545372009277344 1.3844358921051025391 1.2311228513717651367 2.2016704082489013672 2.2552065849304199219 2.4689557552337646484 1.8594849109649658203 1.5398709774017333984 2.4689557552337646484 1.9122374057769775391 1.6899843215942382813 2.4689557552337646484 1.4953281879425048828 1.6600682735443115234 1.6192520856857299805 1.4394400119781494141 2.4006671905517578125 1.85831451416015625 2.0945067405700683594 2.1029860973358154297 2.3159356117248535156 2.3484888076782226563 2.4484663009643554688 3.0194697380065917969 2.6649236679077148438 3.145732879638671875 3.8397371768951416016 3.5451886653900146484 3.9538195133209228516 3.2986223697662353516 3.2008032798767089844 4.1428394317626953125 4.1950788497924804688 3.1153957843780517578 3.8631656169891357422 3.9570508003234863281 3.9717819690704345703 3.9795215129852294922 3.8567073345184326172 4.9989180564880371094 4.3168163299560546875 4.135791778564453125 4.0636897087097167969 5.1706414222717285156 5.9728608131408691406 5.039447784423828125 4.2823495864868164063 3.9984805583953857422 4.1661410331726074219 4.4891924858093261719 4.2222476005554199219 3.5282828807830810547 3.0443460941314697266 3.1654450893402099609 3.2289907932281494141 3.6764383316040039063 3.1684288978576660156 2.7320826053619384766 2.3692698478698730469 1.7428334951400756836 1.6307996511459350586 1.6020530462265014648 2.1401219367980957031 1.5073965787887573242 1.9286864995956420898 2.5562958717346191406 2.8429164886474609375 2.89052581787109375 3.1908109188079833984 2.8338689804077148438 2.9325804710388183594 2.2641363143920898438 2.3800799846649169922 1.9928854703903198242 1.894902348518371582 1.9803322553634643555 2.0432441234588623047 1.5452284812927246094 1.9706043004989624023 2.4908602237701416016 2.1149768829345703125 2.2787995338439941406 2.5255253314971923828 2.0803010463714599609 2.0569102764129638672 2.5088334083557128906 3.1681075096130371094 3.0718824863433837891 3.16107177734375 4.1017894744873046875 3.8930330276489257813 3.4290246963500976563 3.7104752063751220703 3.1785755157470703125 3.065521240234375 2.552120208740234375 2.1806645393371582031 2.39348602294921875 2.3660435676574707031 2.5936694145202636719 2.2730433940887451172 2.3374264240264892578 2.4284965991973876953 2.1901698112487792969 2.1111114025115966797 1.6995646953582763672 2.3184380531311035156 2.2611720561981201172 2.2792901992797851563 1.9909642934799194336 1.7959132194519042969 1.7042393684387207031 1.9093594551086425781 2.1911461353302001953 2.1283156871795654297 1.9993374347686767578 2.0306141376495361328 1.7697298526763916016 1.8389475345611572266 1.8916153907775878906 2.1519098281860351563 1.9155582189559936523 1.9852321147918701172 2.0234491825103759766 2.3145816326141357422 2.7904887199401855469 2.72759246826171875 2.6817834377288818359 2.7253444194793701172 1.8755036592483520508 2.1668932437896728516 2.2564637660980224609 1.8833675384521484375 2.1205110549926757813 1.5518378019332885742 1.7251765727996826172 1.2924361228942871094 1.6279202699661254883 1.6857264041900634766 1.8407760858535766602 1.9781830310821533203 1.8864057064056396484 2.1234960556030273438 1.4297784566879272461 1.4966361522674560547 1.3414136171340942383 1.3991184234619140625 1.2731809616088867188 1.4376554489135742188 1.5855019092559814453 1.6329450607299804688 1.52469635009765625 1.871297001838684082 2.0604271888732910156 2.2237818241119384766 2.2968893051147460938 2.4203112125396728516 2.5112922191619873047 3.0818834304809570313 3.0896074771881103516 3.1048080921173095703 2.5777378082275390625 3.1634709835052490234 2.1789848804473876953 1.8699449300765991211 1.9295291900634765625 2.5281934738159179688 2.8468770980834960938 2.2411770820617675781 2.7027151584625244141 2.9563035964965820313 3.0773012638092041016 3.1735544204711914063 3.3100771903991699219 
1.2624405622482299805 1.5182853937149047852 1.9108177423477172852 1.3413349390029907227 1.301726222038269043 1.3329167366027832031 1.3490531444549560547 1.6740105152130126953 1.3145635128021240234 1.9542856216430664063 2.8139696121215820313 3.0418324470520019531 1.3628034591674804688 1.6600682735443115234 1.1873309612274169922 2.4689557552337646484 1.9122374057769775391 2.0106759071350097656 1.3909691572189331055 1.5126850605010986328 1.5776423215866088867 1.8719588518142700195 1.5049953460693359375 1.7652447223663330078 1.6197497844696044922 1.7405707836151123047 1.6911396980285644531 1.2376818656921386719 2.2016704082489013672 1.1219903230667114258 1.7194232940673828125 1.6720540523529052734 1.6143041849136352539 1.3269392251968383789 1.2658586502075195313 1.9108177423477172852 1.2955501079559326172 2.6321852207183837891 1.6326173543930053711 1.8436566591262817383 2.1344089508056640625 2.1789057254791259766 2.2759678363800048828 1.7071180343627929688 1.9500725269317626953 1.7937337160110473633 1.905257105827331543 2.1169123649597167969 2.3530373573303222656 2.8572108745574951172 3.4169216156005859375 3.8561499118804931641 3.8852605819702148438 4.4146032333374023438 4.4383935928344726563 3.9778165817260742188 4.0517950057983398438 3.8342766761779785156 4.3873381614685058594 4.2397322654724121094 4.17510223388671875 3.7243854999542236328 4.8423357009887695313 5.2103061676025390625 4.8013825416564941406 4.56386566162109375 4.7694687843322753906 4.9173307418823242188 5.0337796211242675781 4.9974470138549804688 5.4631557464599609375 4.9874668121337890625 4.8513360023498535156 4.3814878463745117188 4.4150652885437011719 4.1861186027526855469 4.3578739166259765625 3.4415564537048339844 2.7663593292236328125 2.7153830528259277344 3.3226158618927001953 3.30928802490234375 3.0105786323547363281 2.7385528087615966797 2.5044217109680175781 1.6338766813278198242 2.4954929351806640625 2.0102012157440185547 2.0623221397399902344 1.7692986726760864258 2.2082042694091796875 3.3378071784973144531 3.1228821277618408203 3.1957545280456542969 3.5777709484100341797 3.0219609737396240234 2.9411549568176269531 2.1803777217864990234 2.2040243148803710938 2.1022047996520996094 1.7576317787170410156 1.9616398811340332031 1.9016432762145996094 2.0728476047515869141 2.6972367763519287109 2.9523427486419677734 2.5014925003051757813 2.6205425262451171875 2.9228544235229492188 2.4898035526275634766 2.9239366054534912109 2.2232675552368164063 2.9381892681121826172 2.8265492916107177734 3.7594842910766601563 4.2720561027526855469 3.9205672740936279297 3.514072418212890625 3.7659513950347900391 4.0865969657897949219 3.080417633056640625 2.2092182636260986328 2.5667388439178466797 2.4721992015838623047 2.0642881393432617188 2.3204939365386962891 2.2037158012390136719 2.4437716007232666016 2.4354383945465087891 2.2928843498229980469 2.4683313369750976563 2.4545009136199951172 2.4938359260559082031 2.6367616653442382813 2.7503426074981689453 2.0251703262329101563 2.1780335903167724609 2.1455407142639160156 1.7008341550827026367 2.0290331840515136719 1.7743146419525146484 1.9886556863784790039 2.2821516990661621094 1.6964426040649414063 1.8040027618408203125 2.0944972038269042969 1.9500575065612792969 2.1974091529846191406 2.3522861003875732422 2.2864568233489990234 2.3856215476989746094 2.5257203578948974609 2.2683660984039306641 2.4867424964904785156 2.4336113929748535156 2.8375525474548339844 2.2876760959625244141 2.2665746212005615234 2.5294198989868164063 2.6137645244598388672 1.8291944265365600586 2.360065460205078125 1.5760415792465209961 1.4267833232879638672 1.4570076465606689453 1.9041965007781982422 1.8988796472549438477 1.906314849853515625 1.6032721996307373047 1.3224213123321533203 1.4196295738220214844 1.0595229864120483398 1.5287667512893676758 1.2214539051055908203 1.5378440618515014648 1.8088457584381103516 1.629534602165222168 1.229117274284362793 1.5283006429672241211 2.1041660308837890625 2.6420691013336181641 2.6848711967468261719 2.5709393024444580078 2.9657008647918701172 3.4081850051879882813 3.1360585689544677734 2.9980123043060302734 2.683399200439453125 2.2228326797485351563 2.2120363712310791016 1.8915818929672241211 1.6762170791625976563 1.5297063589096069336 2.4298431873321533203 2.3705341815948486328 2.9454610347747802734 2.6228964328765869141 2.5662686824798583984 3.0025293827056884766 3.1151032447814941406 
1.301726222038269043 3.14661407470703125 2.2016704082489013672 1.3177638053894042969 1.3895272016525268555 1.5574432611465454102 1.029074549674987793 1.411833643913269043 1.855218052864074707 1.2463250160217285156 1.0595229864120483398 2.5863945484161376953 2.4689557552337646484 1.6008791923522949219 1.6932694911956787109 3.5383107662200927734 3.4979276657104492188 2.4689557552337646484 1.4378370046615600586 1.7421883344650268555 1.9041965007781982422 1.5820665359497070313 1.3580775260925292969 1.9108177423477172852 1.6114314794540405273 1.2653260231018066406 1.5798587799072265625 1.5173614025115966797 2.4689557552337646484 3.9627170562744140625 3.2410285472869873047 1.3733650445938110352 1.4273359775543212891 1.3401769399642944336 1.3493375778198242188 1.5464544296264648438 1.274996638298034668 2.2552065849304199219 2.6398310661315917969 1.3524909019470214844 1.9041965007781982422 1.9346078634262084961 2.2004985809326171875 2.0423140525817871094 2.0455145835876464844 2.0663983821868896484 1.96002197265625 2.3310482501983642578 2.3454537391662597656 3.0768029689788818359 3.7486362457275390625 4.0932745933532714844 4.1456036567687988281 5.3636775016784667969 5.7421159744262695313 5.0653271675109863281 4.7613492012023925781 4.0497941970825195313 3.5563619136810302734 3.7219851016998291016 4.024707794189453125 4.1137819290161132813 4.8057346343994140625 5.6069421768188476563 5.5648279190063476563 4.9625110626220703125 5.0393872261047363281 5.0761661529541015625 5.9129967689514160156 5.1327681541442871094 5.4043469429016113281 4.5133724212646484375 4.8888397216796875 4.9754571914672851563 4.7843203544616699219 4.5698113441467285156 4.3100409507751464844 4.1874341964721679688 3.1255147457122802734 2.925167083740234375 3.1996655464172363281 3.3556694984436035156 2.8648793697357177734 2.8070769309997558594 2.2665631771087646484 2.3339679241180419922 2.0213985443115234375 1.9699851274490356445 2.0892550945281982422 2.1954798698425292969 2.5149474143981933594 3.46501922607421875 3.324859619140625 2.8514382839202880859 3.1529784202575683594 3.4825310707092285156 2.9475660324096679688 2.3077900409698486328 2.6057460308074951172 1.9732772111892700195 1.8771672248840332031 2.0249416828155517578 2.0668351650238037109 2.0644502639770507813 2.0271010398864746094 2.3891646862030029297 2.3699324131011962891 2.3461854457855224609 2.9201300144195556641 2.14630126953125 3.4215054512023925781 3.382892608642578125 2.8275499343872070313 2.8657190799713134766 4.0030159950256347656 3.9407899379730224609 3.7689843177795410156 3.5718185901641845703 3.4479660987854003906 3.4856092929840087891 3.302734375 3.0541086196899414063 2.2773180007934570313 2.6550054550170898438 2.5763959884643554688 2.3556787967681884766 2.2567670345306396484 2.6124517917633056641 2.3021788597106933594 2.7145082950592041016 2.724079132080078125 2.3964273929595947266 2.0825116634368896484 2.5096604824066162109 2.9184539318084716797 2.864227294921875 2.6322019100189208984 2.5419018268585205078 2.3729734420776367188 2.2168865203857421875 1.953238368034362793 1.6080745458602905273 2.0930023193359375 1.9336792230606079102 1.8783196210861206055 1.6791050434112548828 2.0324759483337402344 1.8621619939804077148 2.1020460128784179688 2.1488721370697021484 2.5795388221740722656 2.5763161182403564453 2.7212414741516113281 2.2895047664642333984 2.6098892688751220703 2.5148262977600097656 2.1957368850708007813 1.8985825777053833008 1.3685067892074584961 2.2454271316528320313 2.1335980892181396484 1.8093459606170654297 1.2916231155395507813 1.1358511447906494141 1.360548853874206543 1.489255070686340332 1.5499013662338256836 1.9041965007781982422 1.2469887733459472656 1.543717503547668457 1.5510251522064208984 1.2275414466857910156 1.1727144718170166016 2.1164593696594238281 1.9041965007781982422 1.4292188882827758789 1.5860961675643920898 1.5477768182754516602 2.1171994209289550781 2.6138873100280761719 2.6611356735229492188 2.7601881027221679688 2.3549282550811767578 3.2522525787353515625 3.0966086387634277344 3.0379378795623779297 3.1624989509582519531 2.1545951366424560547 2.0468263626098632813 2.4489948749542236328 2.2609012126922607422 1.9864553213119506836 1.9532361030578613281 1.9487220048904418945 2.3485913276672363281 2.5774781703948974609 2.4820284843444824219 2.1218614578247070313 2.0897490978240966797 2.7324528694152832031 
1.7788627147674560547 1.3484923839569091797 1.100308537483215332 3.9627170562744140625 1.7854384183883666992 1.3685986995697021484 1.4356859922409057617 2.1344089508056640625 1.83785247802734375 1.2220357656478881836 1.6868594884872436523 1.6558682918548583984 2.5863945484161376953 1.6000919342041015625 1.2788566350936889648 2.0106759071350097656 2.6321852207183837891 3.6012563705444335938 2.2552065849304199219 1.6003824472427368164 1.8486583232879638672 1.6680617332458496094 1.6011410951614379883 1.0266088247299194336 1.8793361186981201172 1.7178692817687988281 1.8157200813293457031 1.2969850301742553711 1.5815145969390869141 1.2815324068069458008 2.4689557552337646484 3.14661407470703125 1.9041965007781982422 1.4216339588165283203 1.0838571786880493164 2.5969169139862060547 1.9108177423477172852 2.2016704082489013672 1.7058150768280029297 1.2986345291137695313 1.6756902933120727539 1.4205288887023925781 1.8607089519500732422 1.9456020593643188477 1.6681549549102783203 1.6529880762100219727 1.6726284027099609375 2.2042667865753173828 2.4387195110321044922 3.5249691009521484375 4.0713028907775878906 3.781585693359375 4.2508792877197265625 4.910564422607421875 5.4718203544616699219 5.1343770027160644531 4.340618133544921875 4.2539086341857910156 3.7344601154327392578 4.4945902824401855469 4.4478220939636230469 4.180652618408203125 5.8562102317810058594 6.0746798515319824219 4.91707611083984375 4.6859965324401855469 5.3417878150939941406 6.3211307525634765625 5.65468597412109375 5.4408936500549316406 6.565319061279296875 5.3050723075866699219 5.9313712120056152344 5.5852756500244140625 6.7363452911376953125 4.8727984428405761719 4.5654125213623046875 3.96343994140625 3.9387707710266113281 3.1620006561279296875 3.1319475173950195313 3.2736058235168457031 2.9857640266418457031 3.2015309333801269531 2.8692178726196289063 2.675689697265625 2.2984244823455810547 2.4863798618316650391 2.4208652973175048828 2.5104777812957763672 2.7645626068115234375 2.9007287025451660156 3.3596560955047607422 3.5435428619384765625 2.9366180896759033203 3.0655698776245117188 2.9409732818603515625 2.6958296298980712891 2.3885211944580078125 2.1396338939666748047 2.3932993412017822266 1.6166653633117675781 2.2108962535858154297 1.3956911563873291016 2.3575994968414306641 2.8717310428619384766 2.5593731403350830078 2.4924883842468261719 2.5700380802154541016 1.9749404191970825195 3.3481290340423583984 4.7092566490173339844 3.9950778484344482422 3.4314844608306884766 3.4705302715301513672 3.3090648651123046875 3.3584728240966796875 3.3693654537200927734 3.0863702297210693359 3.5736443996429443359 2.9507403373718261719 2.8760206699371337891 2.7420263290405273438 2.6334366798400878906 2.1630427837371826172 2.1595184803009033203 2.4264407157897949219 2.6485004425048828125 2.79875946044921875 2.7308156490325927734 2.7884459495544433594 2.3133895397186279297 2.4660127162933349609 2.9854443073272705078 3.2079935073852539063 3.0114700794219970703 2.7984285354614257813 2.44132232666015625 2.40178680419921875 2.3614003658294677734 2.4487080574035644531 2.1416790485382080078 1.4762612581253051758 2.1011176109313964844 1.6366555690765380859 1.6924494504928588867 2.1452417373657226563 2.0723690986633300781 2.4795382022857666016 2.2871415615081787109 2.3316755294799804688 2.7052731513977050781 2.6440305709838867188 2.3712799549102783203 2.6121730804443359375 2.5628576278686523438 2.317859649658203125 2.0100312232971191406 1.4518262147903442383 1.5455414056777954102 1.5950376987457275391 1.852742314338684082 1.7740619182586669922 1.6775017976760864258 1.9041965007781982422 1.9041965007781982422 1.2842285633087158203 1.9041965007781982422 1.9108177423477172852 1.7822002172470092773 1.4589494466781616211 1.4600273370742797852 1.3967351913452148438 1.2916358709335327148 1.5180363655090332031 1.5630494356155395508 1.3615174293518066406 1.798315882682800293 2.3321130275726318359 2.3283340930938720703 2.214630126953125 2.1572391986846923828 2.7786147594451904297 2.9131855964660644531 3.2576324939727783203 3.0580644607543945313 2.7583968639373779297 2.54744720458984375 2.3936619758605957031 2.2944829463958740234 1.8573231697082519531 2.077724456787109375 2.1346623897552490234 2.3264460563659667969 2.309661865234375 2.6680941581726074219 2.2432575225830078125 2.3278260231018066406 2.2796735763549804688 2.8192291259765625 
1.4346590042114257813 1.9108177423477172852 1.3834856748580932617 2.6200101375579833984 1.2923723459243774414 1.490874171257019043 1.6691575050354003906 1.8678319454193115234 1.4755820035934448242 2.2983632087707519531 1.4945478439331054688 1.9542856216430664063 2.2016704082489013672 1.9161218404769897461 1.3645864725112915039 3.2410285472869873047 1.1474694013595581055 1.5358573198318481445 1.3023484945297241211 1.5407686233520507813 1.4766978025436401367 1.416543126106262207 1.6691575050354003906 1.091721653938293457 2.7689762115478515625 1.7425529956817626953 1.5573595762252807617 1.6318253278732299805 1.7886874675750732422 1.480630040168762207 1.7263675928115844727 1.3426344394683837891 2.5863945484161376953 2.2552065849304199219 2.2552065849304199219 2.5969169139862060547 3.9627170562744140625 2.2016704082489013672 2.2016704082489013672 1.9108177423477172852 1.5378366708755493164 1.6756902933120727539 1.7862430810928344727 1.8579555749893188477 1.9612616300582885742 1.6653832197189331055 1.8239715099334716797 1.8757507801055908203 1.7308274507522583008 2.5524668693542480469 3.7732443809509277344 3.8218982219696044922 4.5637998580932617188 5.2553348541259765625 5.4743490219116210938 4.7205591201782226563 4.7443423271179199219 3.8015184402465820313 4.003322601318359375 4.4065890312194824219 4.6139898300170898438 4.43558502197265625 4.5357160568237304688 5.3816804885864257813 5.16648101806640625 4.81841278076171875 5.4682793617248535156 5.7073144912719726563 5.430034637451171875 5.6018433570861816406 5.6581892967224121094 6.0604982376098632813 5.2429227828979492188 5.0204381942749023438 5.6143002510070800781 5.2696366310119628906 3.9583988189697265625 3.3696436882019042969 3.0522935390472412109 3.1649823188781738281 3.2023427486419677734 3.6472544670104980469 4.1358556747436523438 3.4985053539276123047 3.5785183906555175781 3.1517400741577148438 2.6419875621795654297 2.2809839248657226563 2.7141733169555664063 2.4218547344207763672 2.7551178932189941406 2.6609399318695068359 3.1094033718109130859 3.950809478759765625 3.4030110836029052734 2.6239833831787109375 2.7001678943634033203 2.8806922435760498047 2.3211808204650878906 2.0050723552703857422 2.4223189353942871094 2.0397593975067138672 1.9985902309417724609 1.9976491928100585938 2.3253896236419677734 2.2694871425628662109 2.5258755683898925781 1.8500522375106811523 2.1537303924560546875 2.9355809688568115234 2.9076821804046630859 3.6883902549743652344 3.7262053489685058594 3.4983615875244140625 3.4367761611938476563 3.3413372039794921875 4.263431549072265625 3.2333276271820068359 3.2840375900268554688 3.3255174160003662109 3.1264255046844482422 3.2163522243499755859 2.9360995292663574219 2.8030827045440673828 2.6962995529174804688 3.2360205650329589844 2.528926849365234375 2.9688482284545898438 3.6509020328521728516 3.6234025955200195313 3.5294001102447509766 3.4486355781555175781 3.1956851482391357422 3.6190552711486816406 3.450595855712890625 2.7203190326690673828 2.9253690242767333984 2.9724133014678955078 2.9450891017913818359 2.1427834033966064453 2.1446981430053710938 2.3428995609283447266 1.8584907054901123047 2.4622616767883300781 1.927290797233581543 1.7733536958694458008 1.9060996770858764648 2.945552825927734375 2.2937676906585693359 2.6949956417083740234 2.8088979721069335938 2.8789336681365966797 2.7811059951782226563 2.6197605133056640625 2.8888618946075439453 2.5337278842926025391 2.5142648220062255859 1.7663384675979614258 1.9041965007781982422 1.7293668985366821289 1.6927281618118286133 1.4713916778564453125 1.9108177423477172852 1.4501758813858032227 1.0812047719955444336 1.6600682735443115234 1.6308758258819580078 1.5510261058807373047 1.3439270257949829102 1.9041965007781982422 1.3534455299377441406 1.4356507062911987305 1.0904691219329833984 1.4580761194229125977 1.511031031608581543 1.5835510492324829102 1.4783997535705566406 1.7585784196853637695 2.1819753646850585938 2.3365094661712646484 1.8115990161895751953 1.8103072643280029297 2.3082187175750732422 2.8171980381011962891 2.719005584716796875 2.4948396682739257813 2.7771701812744140625 2.4050428867340087891 1.7953965663909912109 2.3273878097534179688 2.1514947414398193359 2.2666711807250976563 2.2840874195098876953 2.8079783916473388672 2.2416658401489257813 2.6656732559204101563 2.3338263034820556641 1.9458202123641967773 1.8922605514526367188 2.3229577541351318359 
1.3323448896408081055 3.2410285472869873047 2.1164593696594238281 1.4419167041778564453 3.14661407470703125 1.6868594884872436523 1.9108177423477172852 1.9041965007781982422 1.478076934814453125 2.1588892936706542969 2.3418080806732177734 1.301726222038269043 1.3959023952484130859 1.4101275205612182617 1.4619958400726318359 1.574969172477722168 2.8139696121215820313 1.4170876741409301758 1.4358334541320800781 2.4689557552337646484 1.4168665409088134766 1.3341782093048095703 1.9185056686401367188 1.9041965007781982422 1.5902960300445556641 1.7837066650390625 1.6714396476745605469 1.9041965007781982422 1.6756902933120727539 1.643815159797668457 1.516536712646484375 1.3156942129135131836 1.2484174966812133789 1.1649674177169799805 1.3358030319213867188 2.4689557552337646484 2.6321852207183837891 3.9627170562744140625 1.9108177423477172852 1.7058150768280029297 2.4689557552337646484 1.4710749387741088867 1.7648583650588989258 1.4342817068099975586 1.8095318078994750977 2.1451463699340820313 2.5149588584899902344 2.3532946109771728516 2.1497697830200195313 2.4817938804626464844 3.594879150390625 4.0260128974914550781 5.5006031990051269531 5.3388438224792480469 4.8591136932373046875 4.0115284919738769531 4.521099090576171875 4.467678070068359375 4.1470088958740234375 4.4005527496337890625 5.2130584716796875 5.2203664779663085938 5.4310784339904785156 5.4308619499206542969 5.2689456939697265625 4.8927035331726074219 4.99837493896484375 5.618579864501953125 5.9539103507995605469 5.9017772674560546875 5.5694122314453125 5.4926381111145019531 6.2539038658142089844 5.689235687255859375 5.3829855918884277344 5.4771032333374023438 4.7000484466552734375 4.0760412216186523438 3.5852098464965820313 3.9435000419616699219 3.8036472797393798828 4.0832767486572265625 4.4254755973815917969 4.3240094184875488281 3.6049823760986328125 3.4515802860260009766 2.8947763442993164063 2.6462333202362060547 2.4980969429016113281 2.5476479530334472656 2.6211030483245849609 2.8168582916259765625 2.8823010921478271484 2.7380113601684570313 3.6258957386016845703 2.9117515087127685547 3.2153151035308837891 2.611446380615234375 2.6978535652160644531 2.5811378955841064453 2.6225769519805908203 2.3037195205688476563 2.1021094322204589844 2.0730993747711181641 2.1318945884704589844 2.3814578056335449219 1.893616795539855957 1.8711431026458740234 2.6859498023986816406 2.6505677700042724609 2.7397208213806152344 3.2513191699981689453 3.5974612236022949219 3.7565972805023193359 3.3762249946594238281 3.3843452930450439453 3.0325014591217041016 3.0062077045440673828 2.49745941162109375 3.2701392173767089844 3.3592693805694580078 3.6326737403869628906 3.1197087764739990234 3.6982209682464599609 3.1916255950927734375 2.8998882770538330078 2.9078383445739746094 2.9255979061126708984 2.7729747295379638672 2.7850797176361083984 3.5805716514587402344 3.3304393291473388672 4.480136871337890625 3.3020305633544921875 3.5730330944061279297 3.5995447635650634766 2.6808083057403564453 2.6339776515960693359 3.5142006874084472656 2.4747879505157470703 2.8284475803375244141 2.7135758399963378906 1.9309042692184448242 2.4756600856781005859 2.4498226642608642578 2.6154773235321044922 2.2862436771392822266 2.6275522708892822266 2.5074365139007568359 2.2084758281707763672 3.0998506546020507813 2.4769902229309082031 2.4796741008758544922 2.5837621688842773438 2.6369161605834960938 2.5283308029174804688 1.8209532499313354492 1.5928537845611572266 2.0471251010894775391 1.2638447284698486328 1.6401140689849853516 2.1344089508056640625 1.9108177423477172852 2.0106759071350097656 1.4933581352233886719 1.3298875093460083008 2.4515626430511474609 1.1653836965560913086 1.5319532155990600586 1.452437281608581543 1.7042825222015380859 1.5243089199066162109 1.2999372482299804688 1.4263721704483032227 1.6600682735443115234 1.6467595100402832031 2.0265085697174072266 1.4823591709136962891 1.8883882761001586914 1.6596726179122924805 1.9303976297378540039 1.7313234806060791016 2.2201001644134521484 2.3614127635955810547 2.6831438541412353516 2.4578485488891601563 2.6798429489135742188 2.2946164608001708984 2.0259602069854736328 1.6123864650726318359 1.9431524276733398438 2.0146024227142333984 1.9589849710464477539 2.0998392105102539063 2.1242237091064453125 2.503162384033203125 2.3973309993743896484 2.2981617450714111328 1.7432403564453125 2.1208143234252929688 
1.6868594884872436523 2.8139696121215820313 1.3688119649887084961 2.4689557552337646484 1.9108177423477172852 1.3465059995651245117 1.5322240591049194336 1.6111646890640258789 1.3817534446716308594 1.2957679033279418945 1.538952946662902832 1.9318233728408813477 1.4830833673477172852 1.8739756345748901367 1.3518837690353393555 1.6767871379852294922 1.5248507261276245117 1.5090594291687011719 1.2347252368927001953 1.843709111213684082 2.2437164783477783203 1.2494845390319824219 1.6655925512313842773 1.9648022651672363281 1.4331551790237426758 2.1806447505950927734 1.7267936468124389648 1.0521776676177978516 1.8485218286514282227 1.983805537223815918 1.4589900970458984375 2.4689557552337646484 2.1164593696594238281 1.3607628345489501953 1.659525752067565918 2.0106759071350097656 1.9292426109313964844 1.6868594884872436523 1.6295553445816040039 1.2831134796142578125 1.2305583953857421875 1.8499166965484619141 1.7448214292526245117 1.6146912574768066406 1.8513017892837524414 2.0937526226043701172 2.161769866943359375 2.1220698356628417969 2.2272620201110839844 2.2587561607360839844 2.7924292087554931641 3.6463744640350341797 4.2577767372131347656 4.8958187103271484375 4.6605935096740722656 3.8241369724273681641 4.6068730354309082031 4.8656873703002929688 4.4471101760864257813 5.2500472068786621094 5.4777317047119140625 4.4744672775268554688 5.4572095870971679688 6.8620810508728027344 5.2404184341430664063 5.0689148902893066406 5.7652211189270019531 5.4911088943481445313 4.8614802360534667969 4.8555111885070800781 5.4354429244995117188 6.0749049186706542969 5.3984594345092773438 5.0400328636169433594 4.7117867469787597656 5.3697919845581054688 5.1589512825012207031 4.5624432563781738281 3.9939641952514648438 4.2073330879211425781 4.4061179161071777344 4.518218994140625 4.5508108139038085938 4.6923289299011230469 3.9570751190185546875 3.8672702312469482422 2.7117624282836914063 3.1800477504730224609 2.4376835823059082031 3.3112025260925292969 2.4576504230499267578 2.3151266574859619141 2.6379516124725341797 2.7478115558624267578 2.8984274864196777344 3.3213341236114501953 3.2080996036529541016 3.1446757316589355469 2.9095122814178466797 2.7295439243316650391 2.5579426288604736328 2.1798422336578369141 2.2280764579772949219 2.3553555011749267578 2.0287175178527832031 1.8285261392593383789 2.2959618568420410156 1.7955642938613891602 2.2450573444366455078 3.2511372566223144531 3.1807775497436523438 3.1117002964019775391 3.407558441162109375 3.0619482994079589844 2.5728189945220947266 3.3271539211273193359 2.6263241767883300781 2.8915288448333740234 3.0022532939910888672 3.0542118549346923828 3.3769795894622802734 3.4610781669616699219 3.8917527198791503906 4.5223636627197265625 4.0739841461181640625 3.703296661376953125 3.7872729301452636719 3.4077608585357666016 3.8098406791687011719 3.4606792926788330078 3.7484536170959472656 4.3774914741516113281 4.2794051170349121094 4.3903021812438964844 3.6636936664581298828 3.3139445781707763672 3.8360040187835693359 3.6327116489410400391 2.8217289447784423828 2.9162738323211669922 2.5527496337890625 2.7677154541015625 2.5905580520629882813 2.7896564006805419922 2.8517808914184570313 2.2313721179962158203 2.1204459667205810547 2.6555228233337402344 2.3133711814880371094 2.4569346904754638672 2.640033721923828125 2.4987504482269287109 3.0042538642883300781 2.4495031833648681641 2.6538312435150146484 2.2449319362640380859 2.0052781105041503906 1.8475767374038696289 1.6965944766998291016 1.8224149942398071289 1.3736857175827026367 1.6759763956069946289 1.3065859079360961914 1.2361371517181396484 1.6347891092300415039 1.5409730672836303711 1.2758649587631225586 1.2459185123443603516 2.4689557552337646484 1.353667140007019043 1.2200632095336914063 1.6239989995956420898 1.6483147144317626953 1.666867375373840332 1.4458926916122436523 1.5630494356155395508 1.8644338846206665039 1.8168681859970092773 1.6934580802917480469 1.757720947265625 1.5124777555465698242 1.8104729652404785156 2.2136642932891845703 2.1956129074096679688 2.2900884151458740234 2.0859773159027099609 1.9552932977676391602 2.2257912158966064453 2.2207560539245605469 2.2439093589782714844 1.6912999153137207031 1.8327155113220214844 1.8383121490478515625 2.2774083614349365234 2.1796221733093261719 2.4992074966430664063 2.4637498855590820313 2.3476660251617431641 2.3018898963928222656 2.0766174793243408203 
1.4139586687088012695 1.3693163394927978516 1.5017355680465698242 1.6868594884872436523 1.7058150768280029297 1.9542856216430664063 1.7170408964157104492 1.6274284124374389648 1.5021069049835205078 1.3858320713043212891 1.5817546844482421875 1.405736088752746582 1.5659513473510742188 2.4689557552337646484 2.1164593696594238281 1.3163183927536010742 1.569537043571472168 1.5479876995086669922 1.3695087432861328125 1.7400341033935546875 1.9670919179916381836 1.5305676460266113281 1.7190893888473510742 2.1344089508056640625 1.1028864383697509766 1.8083746433258056641 1.4989991188049316406 1.6756902933120727539 1.4219924211502075195 2.0024487972259521484 1.4177356958389282227 2.4689557552337646484 3.14661407470703125 1.3044903278350830078 1.4746605157852172852 3.9627170562744140625 1.9122374057769775391 2.8139696121215820313 1.9108177423477172852 1.9041965007781982422 1.6010113954544067383 2.0716552734375 1.9876044988632202148 2.0602636337280273438 2.5143132209777832031 2.1272208690643310547 1.9430875778198242188 1.3840957880020141602 1.9214509725570678711 1.9155136346817016602 2.9372682571411132813 3.0207283496856689453 3.6092846393585205078 4.3576269149780273438 4.1892876625061035156 4.4680075645446777344 4.1352038383483886719 4.2441487312316894531 4.2090001106262207031 4.0265116691589355469 3.9939808845520019531 4.1211695671081542969 5.3080959320068359375 6.241054534912109375 5.0994873046875 5.3161711692810058594 5.6540880203247070313 5.4952554702758789063 5.2004666328430175781 4.9492249488830566406 4.5674891471862792969 4.6553630828857421875 5.1027069091796875 4.6470379829406738281 4.3448543548583984375 4.9293470382690429688 5.0295939445495605469 4.2690720558166503906 5.0739636421203613281 5.3593010902404785156 4.7596197128295898438 4.3541283607482910156 4.5322375297546386719 4.3614048957824707031 4.3079290390014648438 3.9044430255889892578 3.7751221656799316406 3.2027900218963623047 3.1337757110595703125 2.9276254177093505859 3.07379150390625 2.6274058818817138672 2.5812015533447265625 3.1808640956878662109 3.4015727043151855469 3.3810708522796630859 3.2013044357299804688 2.8073186874389648438 2.8371701240539550781 2.5449085235595703125 2.1440057754516601563 2.362201690673828125 2.3396487236022949219 2.0310876369476318359 1.8368573188781738281 2.1398046016693115234 2.6958615779876708984 2.1782414913177490234 2.5913076400756835938 2.8543577194213867188 3.3006536960601806641 2.7429869174957275391 2.9380030632019042969 3.0696096420288085938 2.7255079746246337891 2.8628799915313720703 2.6058890819549560547 2.6467585563659667969 2.6998236179351806641 3.3827259540557861328 3.9542810916900634766 4.3455071449279785156 4.4622735977172851563 4.7811613082885742188 4.3205051422119140625 4.5880422592163085938 4.4709544181823730469 3.7926208972930908203 3.8160634040832519531 3.4582056999206542969 3.6890819072723388672 5.2445268630981445313 4.5229029655456542969 4.1438670158386230469 4.4647121429443359375 3.7086396217346191406 3.7325582504272460938 3.5429627895355224609 4.0802245140075683594 3.2259595394134521484 3.0248703956604003906 2.3755538463592529297 2.2423291206359863281 2.6549165248870849609 2.1981575489044189453 2.3961930274963378906 2.3144536018371582031 2.4203698635101318359 2.5948534011840820313 2.0672326087951660156 2.293701171875 2.5131459236145019531 2.504390716552734375 2.23468017578125 2.316730499267578125 1.569965362548828125 1.7038362026214599609 1.900704503059387207 1.6077938079833984375 1.5252872705459594727 2.1344089508056640625 1.7461268901824951172 1.6868594884872436523 2.8004152774810791016 1.2955501079559326172 1.3034496307373046875 1.3039941787719726563 1.3777296543121337891 2.0106759071350097656 1.380030512809753418 1.4157550334930419922 1.5454156398773193359 1.6461527347564697266 1.6921247243881225586 1.8477386236190795898 1.6033017635345458984 1.8965474367141723633 1.6980264186859130859 1.7803846597671508789 1.6974569559097290039 1.5843933820724487305 1.8825310468673706055 2.0496129989624023438 1.7851667404174804688 1.8284591436386108398 2.328800201416015625 2.0396616458892822266 2.118274688720703125 2.1620078086853027344 1.6267061233520507813 1.7376166582107543945 1.6426479816436767578 2.0722651481628417969 2.1974596977233886719 2.0297138690948486328 2.2939248085021972656 2.3386371135711669922 1.8873993158340454102 1.9108177423477172852 2.3463792800903320313 
1.3214181661605834961 1.6518259048461914063 1.7760131359100341797 1.301726222038269043 1.301726222038269043 1.3029673099517822266 2.2151329517364501953 1.2512212991714477539 1.9023987054824829102 1.6883466243743896484 1.6822702884674072266 1.8294925689697265625 1.9041965007781982422 1.4425179958343505859 1.2157459259033203125 1.3121993541717529297 1.7385561466217041016 1.2313934564590454102 1.3927974700927734375 1.4708214998245239258 2.2151329517364501953 1.4513106346130371094 2.2358155250549316406 1.6856104135513305664 1.643815159797668457 1.3527876138687133789 1.3391566276550292969 1.543778538703918457 2.4801437854766845703 1.4387816190719604492 1.7464091777801513672 1.3890584707260131836 1.5539357662200927734 1.2097463607788085938 1.9041965007781982422 1.2326923608779907227 1.5409271717071533203 1.364841461181640625 1.2944505214691162109 1.4643975496292114258 2.3237147331237792969 1.8998304605484008789 2.3136165142059326172 2.5122673511505126953 1.9886504411697387695 1.8817000389099121094 2.1495513916015625 1.7962796688079833984 1.7702404260635375977 1.8061467409133911133 2.6481773853302001953 3.2917027473449707031 3.2932858467102050781 3.6882529258728027344 3.6778371334075927734 3.6148355007171630859 3.8041534423828125 3.5544583797454833984 4.0040173530578613281 3.6514213085174560547 3.1710820198059082031 3.8562579154968261719 4.4322733879089355469 4.8190388679504394531 4.9297666549682617188 5.0420713424682617188 5.1438241004943847656 4.7868804931640625 4.4192242622375488281 4.3724722862243652344 4.4455127716064453125 3.6599755287170410156 4.6284804344177246094 4.5360107421875 4.8824067115783691406 5.1555562019348144531 5.0245428085327148438 4.6450924873352050781 5.39559173583984375 4.8648171424865722656 4.7696533203125 4.7188482284545898438 4.0980482101440429688 3.9140865802764892578 4.5761876106262207031 4.0134487152099609375 3.5294187068939208984 3.4468297958374023438 2.9028909206390380859 2.5325343608856201172 2.4529132843017578125 2.0081322193145751953 2.9175498485565185547 3.3101384639739990234 3.6546852588653564453 3.6879911422729492188 2.8192195892333984375 3.1808793544769287109 2.5216991901397705078 2.3058865070343017578 2.6134510040283203125 2.5291934013366699219 2.4519820213317871094 2.1180269718170166016 2.4166171550750732422 2.1224200725555419922 2.7203872203826904297 2.6792471408843994141 3.0503146648406982422 2.7687299251556396484 3.2321524620056152344 3.2666668891906738281 2.7015902996063232422 2.5814111232757568359 2.5175328254699707031 3.0055673122406005859 3.0137724876403808594 2.619129180908203125 2.8389382362365722656 2.9604694843292236328 3.5447936058044433594 3.6559007167816162109 4.5344457626342773438 4.8889703750610351563 4.5004630088806152344 4.7820377349853515625 4.6342458724975585938 4.6979737281799316406 4.41883087158203125 3.4410688877105712891 3.9491024017333984375 5.6940889358520507813 6.2563948631286621094 5.248592376708984375 4.5493040084838867188 4.388759613037109375 4.1495652198791503906 3.7349200248718261719 3.1880354881286621094 3.8742856979370117188 3.1151938438415527344 2.4114861488342285156 2.78985595703125 2.2351167201995849609 2.1947224140167236328 2.3570683002471923828 2.5070316791534423828 2.2078135013580322266 2.1687073707580566406 2.5869076251983642578 2.2821226119995117188 2.3819444179534912109 2.8161520957946777344 2.4260363578796386719 2.3978931903839111328 2.164691925048828125 2.4941103458404541016 1.9801214933395385742 2.1683897972106933594 1.7388291358947753906 1.4285072088241577148 1.6761842966079711914 1.4668910503387451172 1.7048664093017578125 1.9318233728408813477 1.5791553258895874023 1.7311955690383911133 1.9041965007781982422 1.617279052734375 1.5378743410110473633 1.5480753183364868164 1.2163537740707397461 1.7320983409881591797 1.8563123941421508789 1.9345833063125610352 1.4502991437911987305 1.7258168458938598633 1.8723950386047363281 1.4584679603576660156 2.1571233272552490234 1.8947374820709228516 2.1538341045379638672 1.675502777099609375 1.8780221939086914063 1.7920129299163818359 2.0923616886138916016 2.2463123798370361328 2.3600189685821533203 1.9095433950424194336 1.7442128658294677734 1.7008186578750610352 1.7105603218078613281 1.6773965358734130859 1.9954788684844970703 1.9041965007781982422 1.5170940160751342773 2.1223626136779785156 2.108062744140625 2.2908504009246826172 2.1253473758697509766 
1.8496065139770507813 1.8863930702209472656 1.6175124645233154297 1.5667142868041992188 1.4537451267242431641 1.9162571430206298828 1.6293969154357910156 1.7522819042205810547 1.9544541835784912109 2.1899931430816650391 1.8253513574600219727 1.5916427373886108398 1.8418775796890258789 1.657168269157409668 1.301726222038269043 1.5413260459899902344 2.1344089508056640625 1.7202181816101074219 1.5091357231140136719 1.732693791389465332 1.797017216682434082 1.7211618423461914063 1.6600682735443115234 1.9757492542266845703 1.5476967096328735352 1.6223878860473632813 1.9722380638122558594 1.8704366683959960938 1.8562548160552978516 1.9781609773635864258 1.9452867507934570313 1.2839761972427368164 1.45841217041015625 1.3175892829895019531 1.6208460330963134766 1.8724453449249267578 1.8159511089324951172 1.7376563549041748047 1.7346159219741821289 1.7309529781341552734 2.0731186866760253906 1.8714944124221801758 2.3161563873291015625 2.2339615821838378906 2.1574168205261230469 1.8315726518630981445 1.8575620651245117188 1.9438097476959228516 1.6515893936157226563 2.2622473239898681641 2.7157995700836181641 2.4684233665466308594 3.6180005073547363281 3.4703009128570556641 3.2457244396209716797 3.0532312393188476563 2.6483759880065917969 3.4824960231781005859 3.1280028820037841797 3.1811108589172363281 3.3660960197448730469 3.4311418533325195313 3.9029901027679443359 4.6682882308959960938 4.7694439888000488281 3.9686989784240722656 4.7439970970153808594 3.9826006889343261719 4.1482992172241210938 3.9995434284210205078 3.9678745269775390625 3.8989074230194091797 3.8083345890045166016 4.1367821693420410156 5.3417673110961914063 5.5992259979248046875 4.8219900131225585938 4.6589517593383789063 4.0200643539428710938 5.3180713653564453125 4.7916193008422851563 4.4431524276733398438 3.7239344120025634766 4.0212550163269042969 4.1195425987243652344 3.4379990100860595703 3.0043823719024658203 3.0065362453460693359 3.0172441005706787109 3.1844437122344970703 2.9515058994293212891 2.2063362598419189453 2.4940335750579833984 2.7744174003601074219 3.0216739177703857422 2.9054558277130126953 2.9309747219085693359 2.7800891399383544922 2.2728168964385986328 2.0836019515991210938 2.4252834320068359375 2.4978640079498291016 2.2912142276763916016 2.3577103614807128906 2.2311735153198242188 2.5056285858154296875 2.8316071033477783203 2.6889581680297851563 2.6719515323638916016 2.7597577571868896484 3.1168498992919921875 2.8313081264495849609 2.5997707843780517578 2.2240419387817382813 2.4984965324401855469 2.4677243232727050781 2.4659640789031982422 2.6137170791625976563 2.8218595981597900391 3.3957560062408447266 3.8801677227020263672 3.7813761234283447266 4.2848711013793945313 4.5696420669555664063 4.391918182373046875 3.5001010894775390625 3.7454464435577392578 4.9377036094665527344 3.7022376060485839844 3.9684700965881347656 5.284008026123046875 6.0042786598205566406 6.9893541336059570313 6.0627064704895019531 5.0917024612426757813 4.6630773544311523438 5.2693843841552734375 4.1076951026916503906 3.5967488288879394531 3.8470053672790527344 3.5148558616638183594 3.1623499393463134766 2.7363076210021972656 2.5492620468139648438 2.0828855037689208984 2.2523441314697265625 2.6171970367431640625 2.5207471847534179688 2.8568885326385498047 3.620059967041015625 2.6410129070281982422 2.9366037845611572266 2.3014173507690429688 2.6093871593475341797 2.4694967269897460938 2.3324170112609863281 1.6451849937438964844 1.8501846790313720703 1.7657909393310546875 1.696880340576171875 1.8580474853515625 1.6955621242523193359 1.9092899560928344727 1.4674669504165649414 1.8043208122253417969 1.8476282358169555664 1.6600682735443115234 1.4002771377563476563 1.4678392410278320313 1.8011109828948974609 2.1665194034576416016 1.5345616340637207031 1.7091617584228515625 1.5581885576248168945 1.3245087862014770508 1.6955621242523193359 1.8028115034103393555 2.0430696010589599609 1.7382787466049194336 1.4952985048294067383 1.8366386890411376953 1.9409711360931396484 1.8735266923904418945 2.0173561573028564453 1.5677149295806884766 2.1946620941162109375 2.3622283935546875 2.0598540306091308594 1.574069976806640625 1.7383222579956054688 1.534720301628112793 1.7500213384628295898 1.8618980646133422852 1.9066916704177856445 1.755313873291015625 2.3026473522186279297 2.0037448406219482422 1.8845925331115722656 2.7079224586486816406 2.5124268531799316406 
1.4769799709320068359 1.9122374057769775391 1.4710749387741088867 1.8192148208618164063 1.7389376163482666016 1.9335525035858154297 1.9830321073532104492 2.1581847667694091797 2.1814429759979248047 2.1836407184600830078 2.1746537685394287109 1.6932566165924072266 1.7057604789733886719 1.3676512241363525391 1.9703911542892456055 2.4515626430511474609 1.7443290948867797852 1.7588069438934326172 1.8113739490509033203 1.7043656110763549805 2.0317246913909912109 1.7168967723846435547 1.2605609893798828125 1.5593955516815185547 1.2395111322402954102 1.6820733547210693359 1.7217850685119628906 2.2525374889373779297 2.2238602638244628906 1.9257446527481079102 1.7021589279174804688 1.8366062641143798828 2.1344089508056640625 1.6307941675186157227 1.9041965007781982422 2.02498626708984375 1.8849902153015136719 1.9041965007781982422 1.9706943035125732422 1.7782050371170043945 2.0838773250579833984 2.4867317676544189453 2.5870161056518554688 2.2058336734771728516 2.2675960063934326172 1.8243159055709838867 1.4181922674179077148 1.8306882381439208984 2.0836064815521240234 2.0809338092803955078 2.4234671592712402344 3.2111182212829589844 3.685482025146484375 3.3578462600708007813 3.3285741806030273438 2.5248486995697021484 3.0584173202514648438 2.8937046527862548828 3.3191266059875488281 3.3657357692718505859 3.7402741909027099609 3.4821372032165527344 4.4866228103637695313 4.5380892753601074219 5.3390369415283203125 4.7379183769226074219 4.455577850341796875 4.4029717445373535156 4.706920623779296875 3.9829614162445068359 3.901371002197265625 3.8524174690246582031 4.0724697113037109375 4.2057771682739257813 6.0346307754516601563 6.1275210380554199219 6.7754874229431152344 5.7724270820617675781 5.5513844490051269531 6.1394686698913574219 4.8659520149230957031 5.3026294708251953125 4.6230082511901855469 4.0959382057189941406 3.8138110637664794922 3.4819386005401611328 3.7763657569885253906 3.4698739051818847656 3.6351187229156494141 3.3482477664947509766 2.7065122127532958984 2.3519768714904785156 1.8128737211227416992 2.2408967018127441406 2.2041292190551757813 2.5246174335479736328 2.3563218116760253906 2.7374143600463867188 2.277973175048828125 2.6766495704650878906 2.3925731182098388672 2.5671679973602294922 2.4411189556121826172 2.2056510448455810547 2.1881909370422363281 2.3855333328247070313 2.6385741233825683594 3.4159336090087890625 2.8105940818786621094 2.7909588813781738281 2.7054893970489501953 2.2822103500366210938 2.1715757846832275391 2.5542118549346923828 2.2379283905029296875 2.3871490955352783203 2.7290935516357421875 2.3546214103698730469 2.7741742134094238281 3.4056978225708007813 3.3758819103240966797 4.0907607078552246094 4.56134033203125 3.7219846248626708984 3.8047099113464355469 3.6047334671020507813 3.2114107608795166016 4.0449781417846679688 5.3052148818969726563 4.7112765312194824219 5.7453045845031738281 5.4722933769226074219 7.9445161819458007813 6.7853846549987792969 5.1038675308227539063 4.838153839111328125 4.691600799560546875 4.4952983856201171875 3.8546435832977294922 3.743633270263671875 3.5052475929260253906 3.21443939208984375 3.1094000339508056641 2.899444580078125 2.3110349178314208984 2.1854448318481445313 3.0684180259704589844 2.4438211917877197266 2.5766277313232421875 3.1402537822723388672 2.8823025226593017578 2.8192694187164306641 2.0771372318267822266 2.2597241401672363281 2.3407278060913085938 2.18733978271484375 1.8616623878479003906 2.0490429401397705078 1.6326823234558105469 1.9621890783309936523 1.7009261846542358398 2.7689762115478515625 1.8443715572357177734 1.6003824472427368164 1.4935361146926879883 1.7373124361038208008 1.6714191436767578125 1.5431512594223022461 1.8843703269958496094 1.7139905691146850586 1.8932282924652099609 1.3697363138198852539 1.6761478185653686523 1.6094818115234375 1.6003824472427368164 1.5252753496170043945 1.5052349567413330078 1.297482609748840332 1.9407191276550292969 1.6104588508605957031 1.7896764278411865234 1.4676138162612915039 1.5239423513412475586 2.3498444557189941406 2.04904937744140625 2.064273834228515625 2.0719735622406005859 2.1300210952758789063 1.9884735345840454102 1.8387658596038818359 1.981231689453125 1.7044277191162109375 1.5952115058898925781 2.0190603733062744141 1.9989879131317138672 2.2015161514282226563 2.1638000011444091797 2.3385808467864990234 2.0451154708862304688 2.6820814609527587891 
1.5903766155242919922 1.3320592641830444336 1.8649556636810302734 1.7405377626419067383 1.9798845052719116211 2.2220804691314697266 1.8117303848266601563 1.9972213506698608398 2.1913380622863769531 2.6664183139801025391 1.8988987207412719727 1.7898039817810058594 2.2027640342712402344 1.863581538200378418 1.9530586004257202148 1.8947279453277587891 1.9097117185592651367 1.5614229440689086914 1.3340299129486083984 1.8051279783248901367 1.9538530111312866211 1.6279072761535644531 1.8133431673049926758 1.6670335531234741211 1.8270125389099121094 1.8067991733551025391 1.9298156499862670898 1.7558892965316772461 2.2687728404998779297 2.1168465614318847656 2.0415179729461669922 1.7620602846145629883 1.88932037353515625 1.7378532886505126953 1.4740173816680908203 1.7885302305221557617 1.5035452842712402344 1.9540071487426757813 1.6889539957046508789 1.9941943883895874023 1.9041965007781982422 2.0561814308166503906 2.0721123218536376953 2.4069418907165527344 1.6650211811065673828 1.9959535598754882813 2.12819671630859375 2.1961319446563720703 2.6094448566436767578 2.3519856929779052734 2.4873368740081787109 2.6556961536407470703 2.9300010204315185547 3.4167764186859130859 3.2693293094635009766 3.0525000095367431641 3.0377409458160400391 2.8272237777709960938 3.2701957225799560547 3.4696888923645019531 3.2558476924896240234 3.3107271194458007813 3.4608337879180908203 4.7120618820190429688 4.5470747947692871094 3.9117150306701660156 4.153308868408203125 4.4751691818237304688 4.3636488914489746094 3.5909936428070068359 4.309650421142578125 4.3612823486328125 4.4706792831420898438 4.8087377548217773438 5.5795831680297851563 6.4396033287048339844 6.5653514862060546875 6.310428619384765625 6.1485648155212402344 5.3107929229736328125 5.7398753166198730469 4.7763080596923828125 4.0159287452697753906 4.9119997024536132813 4.0080513954162597656 3.4710307121276855469 3.8431980609893798828 3.399322509765625 3.6297507286071777344 3.4942142963409423828 3.0675284862518310547 2.7411453723907470703 2.4414579868316650391 2.2483696937561035156 2.4796006679534912109 2.3334891796112060547 2.0896041393280029297 2.2036461830139160156 2.5590162277221679688 2.4767422676086425781 2.4753882884979248047 2.5607655048370361328 2.4837005138397216797 2.6200864315032958984 2.21514892578125 2.3601183891296386719 2.5959210395812988281 2.9650831222534179688 2.711536407470703125 3.2525990009307861328 2.9668583869934082031 2.8451697826385498047 2.6949098110198974609 1.8404635190963745117 1.7348936796188354492 2.3935310840606689453 2.4619972705841064453 2.6278769969940185547 2.8574697971343994141 3.570621490478515625 3.3838140964508056641 3.2877776622772216797 3.4234707355499267578 3.7756273746490478516 3.5111377239227294922 3.8573377132415771484 4.2716078758239746094 4.8637981414794921875 5.486995697021484375 5.8156690597534179688 5.4019331932067871094 7.4442729949951171875 7.4665536880493164063 7.9656591415405273438 5.8065195083618164063 5.653392791748046875 5.3427143096923828125 4.0006895065307617188 4.0866899490356445313 4.4759716987609863281 3.6484143733978271484 4.1000986099243164063 3.1554055213928222656 3.0274689197540283203 2.4848086833953857422 2.8396062850952148438 2.4705040454864501953 3.2145929336547851563 3.085147857666015625 3.4178180694580078125 3.4717426300048828125 2.8131439685821533203 2.1482946872711181641 2.5328722000122070313 2.3506398200988769531 2.4276802539825439453 1.8866404294967651367 1.9046992063522338867 2.1285662651062011719 1.7647157907485961914 1.5898352861404418945 1.8835719823837280273 1.5342682600021362305 1.5671200752258300781 3.5383107662200927734 2.0136427879333496094 1.8463318347930908203 1.627615809440612793 1.3587294816970825195 1.5966368913650512695 1.6868594884872436523 1.3156942129135131836 2.2552065849304199219 1.9122374057769775391 2.2016704082489013672 2.6321852207183837891 1.0706779956817626953 1.679816126823425293 1.9290689229965209961 2.1251187324523925781 1.3159910440444946289 1.52562713623046875 1.3508198261260986328 1.2650812864303588867 2.2415754795074462891 1.9565832614898681641 2.2427766323089599609 2.0352823734283447266 2.5119774341583251953 2.0803773403167724609 1.9968854188919067383 2.1851909160614013672 1.9793967008590698242 2.0492608547210693359 2.5202734470367431641 2.1853473186492919922 3.1320767402648925781 2.5176270008087158203 2.5621771812438964844 2.4912798404693603516 
1.4495056867599487305 1.9108177423477172852 1.1991376876831054688 2.2209250926971435547 1.90819549560546875 2.0772216320037841797 2.0520327091217041016 1.8663566112518310547 1.7320404052734375 1.8610194921493530273 1.7607032060623168945 1.8585004806518554688 2.0262119770050048828 1.8015969991683959961 1.9515644311904907227 1.745957493782043457 1.8036251068115234375 2.0354759693145751953 1.5597851276397705078 1.4557694196701049805 2.0587403774261474609 1.9561063051223754883 1.8152948617935180664 1.6235469579696655273 1.7353298664093017578 1.7805721759796142578 1.5982950925827026367 1.7155305147171020508 1.9468674659729003906 2.1363484859466552734 1.6438812017440795898 1.9227823019027709961 1.8840597867965698242 2.1054701805114746094 1.4327933788299560547 1.3459569215774536133 1.2724190950393676758 1.9041965007781982422 1.8412853479385375977 1.5418419837951660156 1.8363440036773681641 1.630825042724609375 2.2054038047790527344 1.8984161615371704102 2.0242638587951660156 2.3919389247894287109 1.930217742919921875 2.2938215732574462891 2.8524844646453857422 2.9297785758972167969 2.8907887935638427734 3.231533050537109375 2.9627313613891601563 3.4339034557342529297 3.0381352901458740234 3.3614842891693115234 3.0008981227874755859 3.0005106925964355469 3.5901191234588623047 3.7016615867614746094 3.7901952266693115234 4.1053447723388671875 4.0576758384704589844 3.7631049156188964844 3.9684908390045166016 4.2867407798767089844 4.0956964492797851563 3.7670612335205078125 3.8520805835723876953 4.3716959953308105469 4.889003753662109375 4.6252970695495605469 4.8114118576049804688 5.9075651168823242188 6.5531020164489746094 7.2776350975036621094 7.9997997283935546875 7.40758514404296875 6.492496490478515625 5.5599799156188964844 5.6622591018676757813 4.6951084136962890625 5.1614842414855957031 5.0663089752197265625 3.8789567947387695313 3.5732338428497314453 3.4830634593963623047 3.2621665000915527344 3.3958461284637451172 3.6823709011077880859 2.8033747673034667969 2.4961273670196533203 2.1786470413208007813 2.6450815200805664063 2.7596986293792724609 2.2901265621185302734 2.0721902847290039063 2.2337465286254882813 2.5004398822784423828 2.1770029067993164063 1.8058226108551025391 2.2372734546661376953 2.2101345062255859375 1.9693104028701782227 1.7636568546295166016 2.0936572551727294922 2.1508147716522216797 2.5436093807220458984 2.4481153488159179688 2.5779170989990234375 2.4428439140319824219 2.5765941143035888672 2.4077780246734619141 2.5031769275665283203 2.3688073158264160156 1.7088072299957275391 2.3142004013061523438 2.2076416015625 2.4784731864929199219 2.8704531192779541016 3.3364520072937011719 2.5274693965911865234 3.5004053115844726563 3.9359366893768310547 3.8831427097320556641 4.5004220008850097656 4.2367968559265136719 5.3318090438842773438 5.9829945564270019531 5.8845357894897460938 6.1040744781494140625 6.7819027900695800781 7.1217961311340332031 7.3440885543823242188 6.8485865592956542969 7.5114274024963378906 5.0939555168151855469 4.8535933494567871094 4.507720947265625 5.4699625968933105469 3.9410967826843261719 3.5930755138397216797 3.4252569675445556641 2.8030478954315185547 2.6837069988250732422 2.3979406356811523438 2.8677723407745361328 3.0524513721466064453 3.3012320995330810547 3.5940117835998535156 3.2188200950622558594 2.7925438880920410156 3.3151576519012451172 2.9381551742553710938 2.6440341472625732422 2.4460062980651855469 2.2127928733825683594 1.9316148757934570313 1.8513448238372802734 1.999611973762512207 1.5890978574752807617 1.5049459934234619141 1.3871757984161376953 1.9122374057769775391 1.9108177423477172852 1.6639339923858642578 1.6094901561737060547 2.1344089508056640625 1.808237910270690918 1.7676521539688110352 1.9108177423477172852 1.4228973388671875 1.5671200752258300781 2.5863945484161376953 1.5816646814346313477 2.2243709564208984375 1.6048071384429931641 2.1445937156677246094 1.4793529510498046875 1.6134934425354003906 1.7186801433563232422 2.0014595985412597656 1.9745535850524902344 1.8206018209457397461 1.820476531982421875 1.8254140615463256836 1.9401557445526123047 1.7607333660125732422 1.9316182136535644531 2.3110070228576660156 1.9590684175491333008 2.0917322635650634766 2.3465712070465087891 2.4774024486541748047 2.7658624649047851563 2.6530523300170898438 2.6489253044128417969 2.3416628837585449219 2.2295446395874023438 2.6163184642791748047 
1.9122374057769775391 1.6003779172897338867 1.9041965007781982422 1.9175854921340942383 1.6531304121017456055 2.0678279399871826172 2.2590467929840087891 2.3612978458404541016 2.1723184585571289063 2.5586695671081542969 2.0671393871307373047 2.0032646656036376953 2.1150496006011962891 2.0311694145202636719 1.7982351779937744141 2.2073276042938232422 2.1516005992889404297 1.4737069606781005859 1.8821973800659179688 1.7819697856903076172 1.6591681241989135742 2.0647900104522705078 2.1557672023773193359 2.0023281574249267578 2.3108570575714111328 1.7612375020980834961 1.9504662752151489258 2.1400468349456787109 2.3916144371032714844 2.4163820743560791016 2.0812005996704101563 2.0703954696655273438 2.1014587879180908203 1.7475657463073730469 1.4207587242126464844 1.7601535320281982422 1.2858128547668457031 1.2682678699493408203 1.3248517513275146484 1.9041965007781982422 1.6866014003753662109 2.1465303897857666016 2.1040642261505126953 2.1806991100311279297 1.9278212785720825195 1.9878088235855102539 2.1787996292114257813 1.9722197055816650391 2.4079158306121826172 3.1764733791351318359 3.1845695972442626953 2.9241955280303955078 3.0917704105377197266 3.5712320804595947266 3.1504895687103271484 3.0754346847534179688 3.7310001850128173828 3.7939910888671875 3.8109064102172851563 3.5445106029510498047 3.1888973712921142578 3.8649044036865234375 3.7158486843109130859 3.1374680995941162109 3.2827770709991455078 3.8569400310516357422 5.0465211868286132813 4.0232391357421875 3.8456356525421142578 4.9282259941101074219 5.2527818679809570313 4.89875030517578125 5.2088818550109863281 5.4019818305969238281 5.7237820625305175781 7.0875091552734375 7.2012400627136230469 7.7611598968505859375 6.00604248046875 5.7684612274169921875 4.7020087242126464844 4.0078535079956054688 4.8001422882080078125 4.6549019813537597656 3.6130156517028808594 3.4427189826965332031 3.8119359016418457031 3.2736270427703857422 3.3671860694885253906 3.3361101150512695313 3.8574151992797851563 3.0473947525024414063 2.4376823902130126953 2.6853268146514892578 2.7220969200134277344 2.6796948909759521484 2.9824748039245605469 2.4479861259460449219 1.7725238800048828125 2.1250383853912353516 2.2639007568359375 2.2695882320404052734 2.3824601173400878906 2.0623948574066162109 1.5630276203155517578 2.0683982372283935547 2.0396568775177001953 2.3448369503021240234 2.3030226230621337891 2.7035958766937255859 2.2847692966461181641 2.0956044197082519531 2.3782668113708496094 2.0604109764099121094 2.2482006549835205078 1.9486708641052246094 2.6018400192260742188 2.4984822273254394531 2.4738619327545166016 2.9145836830139160156 2.9127633571624755859 3.1288359165191650391 3.3088543415069580078 3.9014058113098144531 4.7545728683471679688 4.9369988441467285156 5.4900660514831542969 5.4261164665222167969 6.7765903472900390625 6.7078599929809570313 5.4331159591674804688 5.5021481513977050781 6.7011771202087402344 8.7402791976928710938 8.7701349258422851563 6.9547052383422851563 5.2921462059020996094 5.4904155731201171875 4.92884063720703125 4.2377223968505859375 3.8334333896636962891 3.4387125968933105469 2.9987080097198486328 2.7299041748046875 2.3651411533355712891 2.3376114368438720703 2.811748504638671875 3.6383755207061767578 3.4803946018218994141 3.6449992656707763672 3.2260041236877441406 3.08098602294921875 3.5580475330352783203 2.748851776123046875 2.8410413265228271484 2.9245178699493408203 2.0792875289916992188 2.0105884075164794922 1.9951333999633789063 1.6444997787475585938 1.8849902153015136719 1.8682541847229003906 1.6311678886413574219 2.0106759071350097656 1.8799813985824584961 1.8212188482284545898 1.9819184541702270508 1.6441682577133178711 1.5149557590484619141 1.0661258697509765625 2.2016704082489013672 1.4393366575241088867 1.7058150768280029297 1.7137659788131713867 1.6928840875625610352 2.7689762115478515625 1.9041965007781982422 2.1344089508056640625 2.1726839542388916016 1.9886308908462524414 2.0740542411804199219 2.6611659526824951172 1.9536807537078857422 2.0538730621337890625 2.0945637226104736328 2.0949680805206298828 1.6861149072647094727 2.1876757144927978516 1.8175830841064453125 1.997445225715637207 2.1385447978973388672 2.439037322998046875 2.8079814910888671875 2.97321319580078125 2.6685345172882080078 2.7183561325073242188 2.3338906764984130859 2.2995810508728027344 2.0594878196716308594 2.2820572853088378906 
1.7819757461547851563 1.9108177423477172852 1.3904378414154052734 1.7854310274124145508 1.6006982326507568359 1.8787622451782226563 1.9513678550720214844 2.2525682449340820313 2.0224714279174804688 2.6190266609191894531 2.5150954723358154297 2.1763389110565185547 1.8044312000274658203 2.2553617954254150391 2.0873191356658935547 1.8548578023910522461 1.9777555465698242188 1.7741057872772216797 1.761994481086730957 2.297542572021484375 1.8503491878509521484 1.6545996665954589844 1.8972809314727783203 1.8025317192077636719 1.9130637645721435547 2.2354075908660888672 1.7290614843368530273 2.2366442680358886719 2.0541729927062988281 2.1115310192108154297 2.0237092971801757813 2.0946114063262939453 1.8772180080413818359 1.9287216663360595703 1.7550607919692993164 1.4093699455261230469 1.6868594884872436523 1.4047130346298217773 1.8171328306198120117 1.6691575050354003906 1.9998846054077148438 2.2034125328063964844 1.8377155065536499023 1.8695671558380126953 2.1994853019714355469 2.5754053592681884766 2.3444159030914306641 2.5317158699035644531 2.5142219066619873047 2.8995614051818847656 3.1768028736114501953 2.7251169681549072266 3.0296831130981445313 3.2230494022369384766 3.1471884250640869141 3.2441835403442382813 3.4134452342987060547 2.9763498306274414063 3.6774911880493164063 3.3793516159057617188 3.9017624855041503906 4.1524486541748046875 3.8225474357604980469 3.3564870357513427734 3.1927123069763183594 4.0880742073059082031 3.8638937473297119141 3.8400964736938476563 4.4819488525390625 5.3844938278198242188 6.0543389320373535156 5.7108049392700195313 5.3896193504333496094 6.161556243896484375 6.0822629928588867188 6.4213314056396484375 6.4164714813232421875 5.4934434890747070313 4.9713644981384277344 5.0468888282775878906 4.648288726806640625 4.5998411178588867188 4.6727275848388671875 4.1582293510437011719 4.1379370689392089844 3.7493453025817871094 4.0562496185302734375 3.2696104049682617188 3.7259600162506103516 3.8205301761627197266 3.5118994712829589844 2.7425446510314941406 2.7485306262969970703 2.5579240322113037109 2.5470879077911376953 2.97957611083984375 2.5920937061309814453 2.2067570686340332031 2.3184323310852050781 2.3909785747528076172 2.4522943496704101563 2.380035400390625 2.3819584846496582031 2.4462492465972900391 2.4398779869079589844 2.0273981094360351563 2.1030676364898681641 2.2814114093780517578 2.8499546051025390625 2.7881331443786621094 2.6290018558502197266 2.1997323036193847656 2.3046724796295166016 2.4257907867431640625 2.0979340076446533203 2.3519618511199951172 2.3026349544525146484 2.3930060863494873047 2.4065287113189697266 2.4396672248840332031 2.7197320461273193359 3.104587554931640625 3.8819572925567626953 4.6269564628601074219 4.8431992530822753906 4.7778224945068359375 5.5772700309753417969 5.4381008148193359375 5.6729478836059570313 5.7705111503601074219 5.9878439903259277344 6.4493079185485839844 7.61937713623046875 7.13483428955078125 7.898349761962890625 5.5474119186401367188 6.4554295539855957031 5.1238756179809570313 5.3301782608032226563 4.3924856185913085938 4.0748801231384277344 3.6084320545196533203 2.9313890933990478516 2.7279634475708007813 2.3664348125457763672 2.4413943290710449219 2.9751169681549072266 3.5104076862335205078 3.9530687332153320313 3.7410180568695068359 2.9967834949493408203 3.3027794361114501953 3.5387637615203857422 3.3463628292083740234 3.3692915439605712891 2.9016580581665039063 2.6199419498443603516 2.5804119110107421875 2.2708220481872558594 2.2828731536865234375 2.0225887298583984375 2.1164035797119140625 2.0003402233123779297 1.7541567087173461914 1.7136236429214477539 1.8274480104446411133 1.6196346282958984375 1.312325596809387207 1.5347530841827392578 1.4513983726501464844 1.2968503236770629883 1.5536543130874633789 1.8619748353958129883 1.9922679662704467773 1.6161768436431884766 1.7400271892547607422 1.6413600444793701172 1.7308973073959350586 1.8511881828308105469 2.0104784965515136719 2.1091437339782714844 2.1441481113433837891 1.8443810939788818359 2.2541263103485107422 1.8808997869491577148 2.0138821601867675781 2.1022996902465820313 1.7610909938812255859 2.1076233386993408203 2.0375013351440429688 2.0731461048126220703 2.7677044868469238281 2.3652787208557128906 2.1041047573089599609 2.4660902023315429688 3.1548342704772949219 3.0105359554290771484 2.2566554546356201172 2.2016704082489013672 2.0296623706817626953 
1.6435376405715942383 2.4689557552337646484 1.301726222038269043 1.9805518388748168945 1.5653592348098754883 2.7689762115478515625 1.6724971532821655273 1.9420845508575439453 2.2285892963409423828 2.4079189300537109375 2.1303300857543945313 2.5251245498657226563 2.2791604995727539063 2.1941070556640625 2.4597897529602050781 1.8496739864349365234 2.0479600429534912109 1.674109339714050293 1.7189635038375854492 1.8335425853729248047 2.3078610897064208984 2.4895050525665283203 1.7584296464920043945 2.239719390869140625 2.2676026821136474609 2.0129783153533935547 1.7378973960876464844 1.6899560689926147461 2.1848671436309814453 1.7933657169342041016 2.0425443649291992188 2.0863773822784423828 2.1699535846710205078 1.895779728889465332 1.6330769062042236328 1.3105429410934448242 1.4604001045227050781 1.8217346668243408203 1.4141355752944946289 1.7465424537658691406 1.5314735174179077148 2.1344089508056640625 2.5236942768096923828 1.9650871753692626953 1.9591269493103027344 2.7498426437377929688 2.4960675239562988281 2.82962799072265625 3.1997139453887939453 2.9052727222442626953 2.93463134765625 2.6254763603210449219 2.7762532234191894531 3.0628671646118164063 2.7374098300933837891 3.0496983528137207031 2.8953607082366943359 3.0972299575805664063 3.6451649665832519531 3.9805154800415039063 3.5637183189392089844 3.4729447364807128906 3.2829687595367431641 3.2183375358581542969 3.0276348590850830078 2.8575747013092041016 3.2656371593475341797 3.9460489749908447266 4.4391560554504394531 5.7735128402709960938 4.931949615478515625 5.1430950164794921875 6.4774088859558105469 6.2375698089599609375 5.7962384223937988281 6.5938849449157714844 5.6154460906982421875 5.076076507568359375 4.5169062614440917969 4.7840318679809570313 4.5577244758605957031 5.4231290817260742188 4.9405345916748046875 4.5577454566955566406 3.8967909812927246094 4.4764971733093261719 3.9496445655822753906 3.5907700061798095703 2.9434912204742431641 3.7606551647186279297 3.0785360336303710938 2.6742749214172363281 2.5879561901092529297 2.4975385665893554688 2.5965135097503662109 2.7717037200927734375 2.8066165447235107422 2.5348250865936279297 2.4155261516571044922 2.2283432483673095703 2.03508758544921875 2.0114908218383789063 2.2529838085174560547 1.8548415899276733398 2.26351165771484375 2.0738198757171630859 2.4339957237243652344 2.3483903408050537109 1.8949682712554931641 2.7587153911590576172 2.4759356975555419922 2.2719399929046630859 2.2984776496887207031 2.1325392723083496094 2.0695464611053466797 2.3388526439666748047 2.7488610744476318359 2.4031882286071777344 2.7130501270294189453 1.9033167362213134766 2.5717113018035888672 3.3847270011901855469 3.5733885765075683594 4.621654510498046875 5.7074275016784667969 5.06179046630859375 5.5333971977233886719 5.6937041282653808594 5.9260272979736328125 5.87572479248046875 5.5300836563110351563 7.1438298225402832031 7.0448489189147949219 7.9682602882385253906 9.0313720703125 6.6889395713806152344 7.319065093994140625 6.8997807502746582031 5.5727519989013671875 5.2392115592956542969 4.411823272705078125 3.0292856693267822266 3.3784136772155761719 2.6727287769317626953 2.6017823219299316406 2.8835389614105224609 3.1274402141571044922 3.9705975055694580078 4.5115036964416503906 3.9845988750457763672 3.8595409393310546875 3.5897095203399658203 4.0702700614929199219 3.8696522712707519531 3.7422597408294677734 3.3855485916137695313 3.2667489051818847656 2.8443789482116699219 2.7414050102233886719 2.1687908172607421875 2.2091965675354003906 2.2935900688171386719 1.87296295166015625 1.7582917213439941406 1.724943995475769043 1.8787393569946289063 1.8499275445938110352 1.6502400636672973633 2.1344089508056640625 1.702387690544128418 1.5887829065322875977 1.6091518402099609375 1.3788036108016967773 2.0096676349639892578 1.7251191139221191406 1.7598456144332885742 2.1440775394439697266 1.9427800178527832031 2.0346579551696777344 1.9287537336349487305 1.7864441871643066406 1.7933315038681030273 1.7911728620529174805 2.2864000797271728516 1.8083466291427612305 2.0554897785186767578 2.1529345512390136719 2.0011649131774902344 2.0169024467468261719 2.0867774486541748047 2.3217737674713134766 2.2252621650695800781 2.4627199172973632813 2.5472307205200195313 2.6043050289154052734 2.4371607303619384766 2.6266260147094726563 2.2981562614440917969 1.8368418216705322266 2.5124464035034179688 
2.6321852207183837891 1.6536338329315185547 1.7356191873550415039 1.7883940935134887695 1.8349932432174682617 1.9041965007781982422 2.0017120838165283203 1.9443345069885253906 2.1287631988525390625 2.0749592781066894531 2.5142107009887695313 2.4505510330200195313 1.8671877384185791016 2.0438320636749267578 2.6070320606231689453 1.7664065361022949219 1.8751567602157592773 1.6203919649124145508 1.787905573844909668 2.1355240345001220703 2.2051317691802978516 1.8522582054138183594 2.2231574058532714844 2.3914661407470703125 2.2824261188507080078 2.1433322429656982422 1.85897064208984375 2.1715564727783203125 2.1860182285308837891 2.0409834384918212891 2.3683714866638183594 1.7680839300155639648 1.7530969381332397461 2.1344089508056640625 1.6363710165023803711 1.4798262119293212891 1.9041965007781982422 1.8985964059829711914 1.9108177423477172852 1.5256483554840087891 1.6560342311859130859 1.8681342601776123047 2.0335233211517333984 2.0526499748229980469 2.1986315250396728516 2.3455479145050048828 2.6000189781188964844 2.4416897296905517578 2.9450361728668212891 2.795192718505859375 2.5063724517822265625 2.7370498180389404297 2.9533684253692626953 3.4481787681579589844 2.8541557788848876953 3.2307078838348388672 3.2024984359741210938 2.8026509284973144531 3.5501689910888671875 3.6577751636505126953 2.9244396686553955078 3.5441029071807861328 3.6882309913635253906 3.2754795551300048828 3.626739501953125 3.4046843051910400391 3.6053831577301025391 4.541210174560546875 4.9260606765747070313 4.9664278030395507813 5.1865472793579101563 4.8451304435729980469 5.5748682022094726563 6.616428375244140625 5.7042713165283203125 6.6540355682373046875 4.9382314682006835938 5.2065210342407226563 4.4910449981689453125 5.1446475982666015625 5.0074367523193359375 4.9180078506469726563 4.5203204154968261719 3.8337633609771728516 4.8758306503295898438 4.8032970428466796875 5.1554002761840820313 4.7411808967590332031 3.6212117671966552734 3.6166050434112548828 3.3500609397888183594 2.5699598789215087891 3.0167515277862548828 2.8707215785980224609 2.849933624267578125 2.8883771896362304688 3.1679470539093017578 3.0826556682586669922 2.7831790447235107422 2.5394976139068603516 2.4971585273742675781 2.2783300876617431641 2.6035695075988769531 2.0205214023590087891 2.3951017856597900391 2.0427031517028808594 2.1305689811706542969 2.4173183441162109375 2.2079765796661376953 2.6863372325897216797 2.3312177658081054688 2.6400914192199707031 2.1769368648529052734 2.1802601814270019531 2.0974161624908447266 2.00279998779296875 2.1401238441467285156 2.2191755771636962891 2.0859692096710205078 2.2489914894104003906 2.2776539325714111328 3.0978989601135253906 3.5466296672821044922 4.5832381248474121094 5.1641745567321777344 5.5680880546569824219 5.3235540390014648438 5.9083666801452636719 5.7352457046508789063 5.9246039390563964844 5.0932288169860839844 6.82338714599609375 7.2899675369262695313 7.259693145751953125 6.9989390373229980469 7.0137939453125 6.9780840873718261719 7.1347117424011230469 6.1080927848815917969 5.3258929252624511719 3.4562423229217529297 3.0926661491394042969 3.3450582027435302734 2.8758060932159423828 2.7762861251831054688 2.8633732795715332031 3.1657068729400634766 3.470729827880859375 4.1226925849914550781 3.9345674514770507813 3.9299399852752685547 4.1355500221252441406 4.60889434814453125 4.8998723030090332031 3.9946660995483398438 3.4596760272979736328 2.992961883544921875 3.2407488822937011719 2.6879146099090576172 2.2760934829711914063 2.2047944068908691406 2.4545636177062988281 1.6144973039627075195 1.8919827938079833984 1.7606912851333618164 1.8567399978637695313 1.7188942432403564453 1.9449304342269897461 1.7700328826904296875 1.730426788330078125 1.4387433528900146484 1.6532942056655883789 1.4761762619018554688 1.7375977039337158203 2.2554528713226318359 1.8480548858642578125 1.9051719903945922852 1.7269164323806762695 2.2772188186645507813 1.7308814525604248047 2.2936949729919433594 1.9715268611907958984 2.2403891086578369141 2.2974576950073242188 2.2156832218170166016 1.9234972000122070313 2.06500244140625 1.9956767559051513672 2.4436650276184082031 2.6936688423156738281 2.5435791015625 2.506847381591796875 2.1431109905242919922 2.2410831451416015625 2.0268623828887939453 1.9959279298782348633 2.4571146965026855469 2.5329062938690185547 2.1583511829376220703 2.2814171314239501953 
3.1229813098907470703 2.6049542427062988281 1.4357994794845581055 1.7284586429595947266 1.7410528659820556641 2.1188852787017822266 2.1978657245635986328 2.0858831405639648438 2.2591872215270996094 2.5737135410308837891 2.7220032215118408203 2.7018091678619384766 2.4830958843231201172 2.4446856975555419922 2.574237823486328125 2.0459270477294921875 2.4527485370635986328 2.0925047397613525391 2.1804394721984863281 2.2147586345672607422 3.0285665988922119141 2.1433057785034179688 2.5136692523956298828 2.3528361320495605469 1.6691575050354003906 1.9598290920257568359 2.2567245960235595703 2.1187293529510498047 2.6240122318267822266 2.2655088901519775391 2.0737040042877197266 1.9819390773773193359 1.8613491058349609375 1.7900390625 1.3947222232818603516 1.6955621242523193359 1.9199817180633544922 1.5491414070129394531 1.8625662326812744141 1.770537257194519043 1.9800884723663330078 1.7349026203155517578 2.1313276290893554688 2.1184041500091552734 2.0250689983367919922 2.5007944107055664063 2.7337567806243896484 2.7737157344818115234 2.5566802024841308594 2.6703867912292480469 2.6159441471099853516 3.2257571220397949219 2.7603390216827392578 2.7482061386108398438 3.0243084430694580078 3.1251230239868164063 2.8185918331146240234 3.3039889335632324219 3.1884503364562988281 3.4009759426116943359 3.1859114170074462891 3.5059297084808349609 3.6190688610076904297 3.7209146022796630859 3.6854407787322998047 3.2403757572174072266 3.9146945476531982422 4.6580176353454589844 4.8306627273559570313 5.7333121299743652344 5.3017396926879882813 5.0805377960205078125 5.8453969955444335938 5.7391152381896972656 5.8683629035949707031 6.2225117683410644531 6.1432819366455078125 4.8244085311889648438 5.5896291732788085938 6.0970549583435058594 5.1690955162048339844 5.4860701560974121094 4.7303619384765625 4.8508272171020507813 5.5882563591003417969 6.2279906272888183594 5.385028839111328125 5.1577486991882324219 4.2916283607482910156 3.7103660106658935547 3.8299176692962646484 3.9329164028167724609 2.9412868022918701172 3.3094377517700195313 3.3132417201995849609 3.9070382118225097656 3.3402903079986572266 3.0892133712768554688 2.8859436511993408203 2.8916897773742675781 2.2392945289611816406 2.1552197933197021484 2.205745697021484375 1.6937358379364013672 2.2529273033142089844 2.4270246028900146484 2.3061349391937255859 2.4832365512847900391 2.6442501544952392578 2.4275581836700439453 2.5764951705932617188 3.0006587505340576172 2.6926662921905517578 2.5670194625854492188 2.5905282497406005859 2.3912644386291503906 2.6980013847351074219 2.4058551788330078125 2.7812986373901367188 2.5372891426086425781 2.3635325431823730469 2.6061124801635742188 3.0349433422088623047 4.1860356330871582031 4.2407689094543457031 4.0925192832946777344 4.7242760658264160156 5.0343346595764160156 6.3864302635192871094 5.6522979736328125 6.4356732368469238281 6.9009637832641601563 7.4261636734008789063 6.0422811508178710938 5.9479665756225585938 5.8349256515502929688 7.1723275184631347656 6.9712467193603515625 5.2693610191345214844 5.0557141304016113281 3.9328896999359130859 3.4642031192779541016 2.8250653743743896484 2.9721000194549560547 3.5506134033203125 3.6224253177642822266 3.2947952747344970703 4.0093822479248046875 3.6190886497497558594 3.7219209671020507813 4.4138360023498535156 4.7948198318481445313 5.5308885574340820313 4.7843351364135742188 4.9151453971862792969 4.2656221389770507813 3.5478763580322265625 2.8828845024108886719 2.7745051383972167969 2.1016013622283935547 2.7003157138824462891 2.1631796360015869141 1.8138321638107299805 1.6937301158905029297 1.7787898778915405273 1.8694689273834228516 1.935673832893371582 1.8080425262451171875 2.1331746578216552734 1.8727087974548339844 2.0069737434387207031 1.8422086238861083984 2.0318632125854492188 1.8974208831787109375 2.4635894298553466797 1.9014291763305664063 2.2932939529418945313 1.8712962865829467773 2.0524251461029052734 2.0287086963653564453 2.1518056392669677734 2.4532392024993896484 2.4700875282287597656 2.5699436664581298828 2.412708282470703125 2.0238547325134277344 2.0089781284332275391 1.7885949611663818359 1.7869422435760498047 1.9134724140167236328 2.3773207664489746094 2.8373539447784423828 2.3258104324340820313 2.0056781768798828125 2.3319363594055175781 1.8220808506011962891 2.1146414279937744141 2.2015709877014160156 2.3749175071716308594 2.2280440330505371094 
1.9108177423477172852 1.9718017578125 1.866034388542175293 1.6708636283874511719 1.8253263235092163086 2.3797068595886230469 2.0882117748260498047 2.5800526142120361328 2.2006227970123291016 2.7612874507904052734 2.1479942798614501953 2.6684219837188720703 2.9081234931945800781 2.8730206489562988281 2.6514799594879150391 2.6373400688171386719 2.5283744335174560547 2.6984517574310302734 2.4314680099487304688 2.9904007911682128906 2.6133425235748291016 2.6564390659332275391 2.5190427303314208984 2.1832342147827148438 2.0934934616088867188 1.8664400577545166016 1.7893561124801635742 2.2071459293365478516 2.2323310375213623047 2.2340743541717529297 1.9940129518508911133 1.6019762754440307617 1.9274023771286010742 1.6150401830673217773 1.717909693717956543 1.8938298225402832031 1.6639600992202758789 1.4705711603164672852 2.2552065849304199219 1.6504081487655639648 1.5424189567565917969 1.9451912641525268555 2.2840149402618408203 2.0958933830261230469 2.5273418426513671875 2.244312286376953125 2.5546553134918212891 2.2242679595947265625 3.0445199012756347656 2.8467028141021728516 2.4510796070098876953 2.5519020557403564453 2.6890776157379150391 2.8077335357666015625 3.0641422271728515625 3.3980512619018554688 3.5887615680694580078 3.3036313056945800781 3.3158574104309082031 2.9075140953063964844 2.8432331085205078125 2.8447325229644775391 4.383296966552734375 3.9106011390686035156 3.7174031734466552734 3.7891583442687988281 4.9453191757202148438 4.0844359397888183594 5.1105942726135253906 4.1264734268188476563 5.30388641357421875 4.5434641838073730469 5.9166827201843261719 5.54119873046875 6.2011814117431640625 7.3573479652404785156 7.3446178436279296875 5.6681032180786132813 6.451992034912109375 6.9742121696472167969 5.9045567512512207031 5.7771711349487304688 5.4380826950073242188 5.507572174072265625 5.9436440467834472656 6.0585217475891113281 5.4394974708557128906 5.4189424514770507813 5.0397291183471679688 4.369541168212890625 4.1707215309143066406 3.9237458705902099609 3.5185739994049072266 3.3009185791015625 3.6231207847595214844 3.6746683120727539063 3.0514161586761474609 2.5992786884307861328 3.0819864273071289063 2.3131444454193115234 2.5310130119323730469 2.4008476734161376953 2.1399035453796386719 2.0343453884124755859 1.7397512197494506836 1.8717435598373413086 2.4407355785369873047 2.1735653877258300781 2.3195943832397460938 2.7835185527801513672 2.3215296268463134766 3.4120516777038574219 2.9384374618530273438 2.9572682380676269531 2.7408046722412109375 2.72075653076171875 2.1279206275939941406 2.7469804286956787109 2.4949688911437988281 2.8692941665649414063 2.3597772121429443359 2.6387629508972167969 2.7501080036163330078 3.5694625377655029297 4.4837961196899414063 5.0388917922973632813 5.5117959976196289063 5.8878068923950195313 5.4705877304077148438 6.4496202468872070313 6.3860850334167480469 7.2275829315185546875 6.5013098716735839844 6.4604692459106445313 6.058563232421875 6.5604557991027832031 8.4603605270385742188 6.6475887298583984375 6.2731499671936035156 5.4364275932312011719 3.8063578605651855469 3.8335831165313720703 3.6418011188507080078 3.553466796875 3.5858001708984375 3.5224363803863525391 3.3923389911651611328 3.7710361480712890625 3.4226369857788085938 4.0620317459106445313 4.70935821533203125 5.1206574440002441406 5.0897936820983886719 4.4084043502807617188 4.8777484893798828125 4.501922607421875 3.64051055908203125 2.7645084857940673828 2.5262932777404785156 2.6203339099884033203 2.3581793308258056641 2.1132130622863769531 1.7837505340576171875 1.6507031917572021484 2.4515626430511474609 1.91051483154296875 1.9041965007781982422 1.4781447649002075195 2.3693587779998779297 1.9624837636947631836 1.911993861198425293 2.0264608860015869141 1.8416041135787963867 2.0719056129455566406 2.3514525890350341797 2.3205206394195556641 2.2255580425262451172 2.0768918991088867188 2.2766363620758056641 2.6005401611328125 2.3871257305145263672 2.5546565055847167969 2.6279575824737548828 2.4594216346740722656 3.012790679931640625 2.7060949802398681641 2.0137784481048583984 1.9322210550308227539 2.1124854087829589844 1.7886933088302612305 2.052215576171875 2.0457270145416259766 2.0175597667694091797 2.0172390937805175781 2.4143190383911132813 2.3946621417999267578 2.3220293521881103516 2.226528167724609375 2.5264410972595214844 2.138393402099609375 
1.7427037954330444336 1.829131007194519043 2.7452986240386962891 2.0140926837921142578 1.5380873680114746094 2.4129700660705566406 1.9020233154296875 2.0511529445648193359 2.8898499011993408203 2.7160956859588623047 2.8741006851196289063 2.7292535305023193359 2.7633514404296875 3.1154537200927734375 2.4898951053619384766 2.7803046703338623047 2.8071877956390380859 2.8594324588775634766 2.4587149620056152344 2.8535635471343994141 3.0025260448455810547 2.4037997722625732422 2.0808587074279785156 1.8178876638412475586 1.8408045768737792969 1.9041965007781982422 1.5356969833374023438 2.2566010951995849609 1.9023035764694213867 1.8873194456100463867 2.3454568386077880859 1.8877131938934326172 1.908784031867980957 1.9108177423477172852 1.9656004905700683594 1.7482380867004394531 1.6482416391372680664 1.3306131362915039063 1.5671200752258300781 2.2151329517364501953 1.5754194259643554688 1.3459517955780029297 2.8944268226623535156 2.1926500797271728516 2.3175404071807861328 2.5623171329498291016 2.4724864959716796875 2.6366012096405029297 2.4861814975738525391 2.9769017696380615234 2.7127401828765869141 2.7694177627563476563 2.4034397602081298828 2.6052186489105224609 2.9284470081329345703 2.8440823554992675781 3.1602184772491455078 3.1268506050109863281 3.1524434089660644531 3.2869637012481689453 2.3712415695190429688 3.3827104568481445313 3.4153616428375244141 3.3557388782501220703 4.2530040740966796875 3.7834479808807373047 4.3598952293395996094 4.5637426376342773438 5.3587174415588378906 4.300846099853515625 4.0622258186340332031 5.2773075103759765625 4.812580108642578125 4.6653208732604980469 4.9409780502319335938 6.0337300300598144531 6.3540782928466796875 6.6613416671752929688 6.6897482872009277344 5.8224396705627441406 4.9543638229370117188 5.6327195167541503906 6.2066059112548828125 8.2070703506469726563 5.768627166748046875 5.3743534088134765625 5.2674918174743652344 5.0348258018493652344 4.5230946540832519531 4.5890860557556152344 4.5345735549926757813 4.1921062469482421875 3.9200685024261474609 3.7834649085998535156 2.9874138832092285156 3.577541351318359375 2.7049977779388427734 2.8969101905822753906 3.1448154449462890625 2.5673034191131591797 2.9171679019927978516 2.8671247959136962891 2.4537529945373535156 2.2560362815856933594 2.2068846225738525391 1.9015232324600219727 2.6389460563659667969 2.320858001708984375 2.7266206741333007813 3.0510523319244384766 3.0708665847778320313 3.1813445091247558594 2.9323775768280029297 3.1833002567291259766 2.8070888519287109375 2.7842125892639160156 2.7402379512786865234 3.0973525047302246094 2.4889791011810302734 2.8344597816467285156 2.5353634357452392578 3.0056774616241455078 3.1628623008728027344 3.9459214210510253906 4.9814915657043457031 5.6391820907592773438 5.9300065040588378906 6.9830746650695800781 6.2674350738525390625 6.0624451637268066406 6.4023499488830566406 5.0308814048767089844 6.4276652336120605469 6.9033408164978027344 7.0109195709228515625 6.5266141891479492188 7.3855924606323242188 7.0006270408630371094 6.5409255027770996094 5.6174483299255371094 4.5517587661743164063 4.56728363037109375 4.6863989830017089844 4.3907928466796875 3.9881863594055175781 3.5818340778350830078 4.18801116943359375 3.6830968856811523438 3.8433468341827392578 4.9681792259216308594 5.0281586647033691406 5.5753989219665527344 4.6404619216918945313 4.560588836669921875 4.3788623809814453125 3.8861088752746582031 3.150089263916015625 2.9739105701446533203 2.4008224010467529297 2.5825951099395751953 2.1368043422698974609 2.1194908618927001953 1.899850010871887207 1.4596335887908935547 1.9048893451690673828 2.0510201454162597656 1.9041965007781982422 1.8789110183715820313 1.9901295900344848633 1.7661993503570556641 1.938939213752746582 2.4125566482543945313 2.0890066623687744141 2.1966948509216308594 2.3570792675018310547 2.5480532646179199219 2.4468278884887695313 2.530902862548828125 2.2814774513244628906 2.7530577182769775391 2.3862094879150390625 2.5691170692443847656 3.0289442539215087891 3.2268548011779785156 2.8895459175109863281 2.6157162189483642578 2.0576851367950439453 1.9895507097244262695 2.0494987964630126953 1.7315421104431152344 1.7191585302352905273 1.8475430011749267578 2.1414442062377929688 2.0997004508972167969 1.9916349649429321289 2.4381070137023925781 2.7303097248077392578 2.2628052234649658203 2.2602846622467041016 2.1587171554565429688 
