ncols        200
nrows        200
xllcorner    -0.000000000000
yllcorner    0.000000000000
cellsize     1.000000000000
NODATA_value nan
3.8073031902313232422 4.0018715858459472656 3.6435368061065673828 3.9863181114196777344 3.4502103328704833984 3.4643840789794921875 3.51259613037109375 3.4824042320251464844 3.1528160572052001953 3.2328248023986816406 2.9287855625152587891 3.2628755569458007813 3.2034482955932617188 2.9069468975067138672 3.0141990184783935547 2.8757987022399902344 2.5669298171997070313 2.9904353618621826172 2.4254207611083984375 2.7694525718688964844 2.9040410518646240234 2.3681311607360839844 2.7880139350891113281 2.7232930660247802734 2.6539835929870605469 2.7014937400817871094 3.0827252864837646484 3.0352365970611572266 2.9030637741088867188 2.9342164993286132813 2.8752315044403076172 2.9139881134033203125 2.6286447048187255859 2.3410162925720214844 2.6229832172393798828 3.0387375354766845703 3.0160501003265380859 3.4304687976837158203 3.2782151699066162109 3.4176080226898193359 3.6139495372772216797 3.5767910480499267578 3.3685150146484375 3.2456581592559814453 3.3802220821380615234 3.3982400894165039063 3.4274539947509765625 3.2560048103332519531 3.111530303955078125 2.951251983642578125 2.9478921890258789063 3.0896601676940917969 3.3748385906219482422 3.2329952716827392578 3.0793974399566650391 2.9191446304321289063 3.134792327880859375 2.8950450420379638672 3.484424591064453125 3.4175634384155273438 3.6253340244293212891 2.9023690223693847656 3.7373955249786376953 3.9833819866180419922 3.6599533557891845703 3.4832434654235839844 3.7801792621612548828 3.9882943630218505859 3.0927939414978027344 3.6008896827697753906 3.6050863265991210938 3.3168513774871826172 3.4833381175994873047 3.7146680355072021484 3.7633824348449707031 3.4483342170715332031 3.205047607421875 3.0058674812316894531 2.9183080196380615234 3.0886113643646240234 2.7851512432098388672 3.5472290515899658203 3.7812561988830566406 3.4810423851013183594 3.3507120609283447266 3.0403318405151367188 2.8906540870666503906 2.3141450881958007813 3.0124802589416503906 3.3570668697357177734 3.0592937469482421875 2.9354138374328613281 2.8209788799285888672 2.8605496883392333984 2.8224956989288330078 2.5791523456573486328 3.1808757781982421875 3.4074475765228271484 3.0262269973754882813 2.8293099403381347656 2.8223695755004882813 3.2266902923583984375 3.1308422088623046875 2.8145580291748046875 2.5985720157623291016 2.6067891120910644531 3.2863783836364746094 3.1937110424041748047 3.2078042030334472656 3.3842701911926269531 3.0656750202178955078 2.8919174671173095703 2.5548634529113769531 3.3447427749633789063 2.8562712669372558594 2.8257880210876464844 2.4752080440521240234 2.6399900913238525391 3.1307895183563232422 2.6171751022338867188 2.3200364112854003906 2.7881753444671630859 2.4941880702972412109 2.7906184196472167969 2.5245580673217773438 2.2007067203521728516 2.8531842231750488281 2.9536356925964355469 2.3901674747467041016 2.7105085849761962891 2.1903526782989501953 2.7224826812744140625 2.5341000556945800781 2.5309381484985351563 3.0200333595275878906 2.4551346302032470703 2.5654902458190917969 2.3461787700653076172 2.4145798683166503906 2.9027805328369140625 2.7771503925323486328 2.7108280658721923828 2.6690752506256103516 2.9972105026245117188 3.4953052997589111328 3.5835444927215576172 4.1693224906921386719 3.8309636116027832031 4.0809469223022460938 6.9809064865112304688 7.4214315414428710938 6.0625452995300292969 5.201412200927734375 4.9926981925964355469 5.5236310958862304688 5.30347442626953125 6.5612096786499023438 5.9080657958984375 5.4447507858276367188 5.27631378173828125 4.8204288482666015625 5.2064042091369628906 6.862499237060546875 5.2209763526916503906 4.3564777374267578125 5.5509786605834960938 5.0099430084228515625 4.2389307022094726563 3.9219238758087158203 4.5509171485900878906 4.0654320716857910156 3.9067776203155517578 3.8439786434173583984 3.8697714805603027344 3.943569183349609375 4.7135624885559082031 3.7778654098510742188 3.7278711795806884766 3.7049775123596191406 3.3745501041412353516 3.0330171585083007813 2.7722849845886230469 2.9001629352569580078 2.5785191059112548828 3.1330041885375976563 3.221996307373046875 2.9260880947113037109 2.4655957221984863281 2.8320491313934326172 2.982975006103515625 3.0703275203704833984 2.6365172863006591797 2.7150223255157470703 2.8031370639801025391 2.8281643390655517578 2.8095593452453613281 3.1352436542510986328 3.1298339366912841797 2.9480006694793701172 2.7585425376892089844 
3.6253054141998291016 3.9093484878540039063 3.6193506717681884766 3.6928386688232421875 3.2042315006256103516 3.1632225513458251953 3.1212842464447021484 3.3388841152191162109 2.9778678417205810547 2.7680659294128417969 2.7591359615325927734 3.1321225166320800781 2.7770392894744873047 3.0762248039245605469 3.4040696620941162109 2.9976055622100830078 2.5036725997924804688 2.5457966327667236328 2.6615819931030273438 3.2461774349212646484 2.9958772659301757813 3.0770561695098876953 2.8862340450286865234 2.8638532161712646484 2.7472007274627685547 3.5455036163330078125 3.0762171745300292969 3.0581152439117431641 2.9427063465118408203 2.7843134403228759766 2.8044569492340087891 2.5568714141845703125 2.1476540565490722656 2.7097520828247070313 2.788547515869140625 2.9656567573547363281 3.3304450511932373047 3.3103222846984863281 3.6364810466766357422 3.6602160930633544922 3.7452769279479980469 3.272586822509765625 3.3628492355346679688 3.2942104339599609375 3.2930133342742919922 3.24394989013671875 3.3745200634002685547 3.0740535259246826172 3.097690582275390625 3.1322028636932373047 3.2042264938354492188 3.2720150947570800781 2.8925306797027587891 2.9775209426879882813 3.1668579578399658203 3.0459153652191162109 3.2568538188934326172 3.4568009376525878906 3.7675526142120361328 3.4861702919006347656 3.08733367919921875 3.3240981101989746094 3.0873365402221679688 3.9295337200164794922 3.9477210044860839844 3.7669775485992431641 4.5138425827026367188 3.4835934638977050781 3.0460410118103027344 3.4480772018432617188 3.2908911705017089844 3.0395264625549316406 3.4955449104309082031 3.4871020317077636719 3.6381447315216064453 3.7360122203826904297 3.4045438766479492188 3.4561736583709716797 3.1744337081909179688 2.9757044315338134766 3.4551329612731933594 3.0472810268402099609 3.3176989555358886719 3.9773993492126464844 3.0388011932373046875 3.0742027759552001953 2.3259208202362060547 2.3884005546569824219 3.2412416934967041016 2.8530468940734863281 2.805377960205078125 2.9642844200134277344 2.3187611103057861328 2.599086761474609375 2.8260924816131591797 2.9114158153533935547 3.0264961719512939453 2.4230713844299316406 2.8220484256744384766 2.8440184593200683594 3.0115549564361572266 2.8598482608795166016 2.5963320732116699219 2.922542572021484375 2.5818104743957519531 2.4366209506988525391 2.649463653564453125 2.717006683349609375 2.9907360076904296875 3.0054903030395507813 2.5877025127410888672 3.4929006099700927734 3.0583486557006835938 2.9899272918701171875 2.5440561771392822266 2.6801424026489257813 2.7200918197631835938 2.7881343364715576172 2.47895050048828125 2.1262273788452148438 2.4541304111480712891 2.187244415283203125 2.1436796188354492188 2.4914333820343017578 3.082538604736328125 3.2259352207183837891 2.8680796623229980469 3.8948292732238769531 2.8360393047332763672 2.3728570938110351563 2.11287689208984375 2.5611331462860107422 1.9010975360870361328 2.7914981842041015625 2.6067225933074951172 2.6879279613494873047 2.3401753902435302734 2.5066087245941162109 3.28931427001953125 2.4219849109649658203 2.8931038379669189453 2.8918900489807128906 2.8770856857299804688 3.8169519901275634766 3.7616198062896728516 4.1284861564636230469 4.1543059349060058594 3.7297358512878417969 4.3383588790893554688 4.3086276054382324219 4.6626029014587402344 6.3410367965698242188 5.9209198951721191406 7.9806184768676757813 5.2409863471984863281 6.4355373382568359375 5.5601902008056640625 6.1985988616943359375 5.4624891281127929688 5.51253509521484375 5.321849822998046875 4.938434600830078125 5.5605731010437011719 4.9301519393920898438 6.4079504013061523438 6.5174107551574707031 4.3662695884704589844 4.231380462646484375 4.2300634384155273438 4.037555694580078125 3.7874155044555664063 3.6104531288146972656 3.4027888774871826172 3.5110096931457519531 3.5605466365814208984 3.6735033988952636719 3.7770166397094726563 3.4575562477111816406 4.1693167686462402344 3.6890666484832763672 2.4879088401794433594 2.7767190933227539063 2.5364935398101806641 2.5630872249603271484 2.8666493892669677734 2.7368190288543701172 2.9148678779602050781 2.8773453235626220703 2.79189300537109375 2.7986633777618408203 3.1062598228454589844 2.8213269710540771484 2.9309034347534179688 2.9780881404876708984 3.0532741546630859375 2.9174425601959228516 3.4005572795867919922 3.0174393653869628906 3.1084651947021484375 2.6887862682342529297 
3.3764619827270507813 3.1376461982727050781 3.383296966552734375 3.5634925365447998047 3.1486501693725585938 3.3095002174377441406 2.9369177818298339844 2.9512929916381835938 3.0246272087097167969 2.8988964557647705078 2.7346355915069580078 2.9239804744720458984 3.2367305755615234375 2.8926770687103271484 3.0899822711944580078 2.7513520717620849609 2.5430495738983154297 2.346324920654296875 2.911746978759765625 3.1947267055511474609 3.3987300395965576172 3.082515716552734375 3.0634484291076660156 3.2464864253997802734 3.1990556716918945313 2.9859917163848876953 2.9494993686676025391 2.7409808635711669922 2.7910616397857666016 3.0993638038635253906 2.7460780143737792969 2.3369557857513427734 2.387939453125 2.6926300525665283203 2.6489050388336181641 2.8510715961456298828 2.7415924072265625 3.1569178104400634766 3.0804295539855957031 3.4588925838470458984 3.4394636154174804688 3.8469245433807373047 3.5140743255615234375 3.6714611053466796875 3.6357908248901367188 3.5102398395538330078 3.5892548561096191406 3.4407777786254882813 3.5375514030456542969 3.2638170719146728516 3.0757384300231933594 2.9346680641174316406 3.2798097133636474609 3.0206513404846191406 3.2589449882507324219 2.8862440586090087891 3.5242381095886230469 3.5877482891082763672 3.8055019378662109375 3.8987185955047607422 4.0177617073059082031 3.4613015651702880859 3.7464785575866699219 4.6655063629150390625 3.5063352584838867188 3.4578318595886230469 3.3528614044189453125 3.6099035739898681641 3.3491308689117431641 3.1169161796569824219 3.2493844032287597656 3.5105390548706054688 3.8021996021270751953 4.0338969230651855469 4.009185791015625 3.7592365741729736328 3.522918701171875 3.5626585483551025391 3.3723425865173339844 2.8635385036468505859 4.2073702812194824219 3.355510711669921875 3.2207939624786376953 2.9041697978973388672 3.0156226158142089844 3.3396890163421630859 2.5416264533996582031 2.4017260074615478516 3.4000744819641113281 3.1563568115234375 2.7180304527282714844 2.3160507678985595703 2.8069539070129394531 2.1748673915863037109 2.4296689033508300781 2.2736866474151611328 2.9662411212921142578 2.8993325233459472656 2.7104170322418212891 2.7602188587188720703 2.7830977439880371094 3.0485079288482666016 2.781970977783203125 2.4688267707824707031 2.7164416313171386719 2.4889178276062011719 2.7275176048278808594 2.6866669654846191406 2.9488580226898193359 2.871639251708984375 2.8747878074645996094 2.7583322525024414063 3.1044902801513671875 2.9782857894897460938 2.9075562953948974609 2.8050820827484130859 2.6699392795562744141 2.7803356647491455078 2.13462066650390625 2.1334488391876220703 2.2920732498168945313 1.9274771213531494141 2.1500949859619140625 2.6475889682769775391 2.3584399223327636719 2.5388987064361572266 2.9402089118957519531 2.5885341167449951172 2.4209828376770019531 2.1865234375 2.3885054588317871094 2.7783598899841308594 2.3241851329803466797 2.7332670688629150391 2.5214073657989501953 2.7806148529052734375 2.3196804523468017578 2.535694122314453125 3.072887420654296875 2.7727315425872802734 3.2572262287139892578 2.5983896255493164063 3.0950186252593994141 3.2360081672668457031 3.8642797470092773438 3.9564797878265380859 4.7298102378845214844 4.075038909912109375 5.59096527099609375 7.127307891845703125 4.7361207008361816406 5.3384261131286621094 5.1770257949829101563 6.4554276466369628906 6.4382853507995605469 5.5281434059143066406 5.6585397720336914063 5.7713041305541992188 5.4151678085327148438 5.6256585121154785156 5.1831264495849609375 5.34970855712890625 4.9452214241027832031 7.5962371826171875 4.8345346450805664063 4.8160142898559570313 5.2211275100708007813 3.9317777156829833984 4.0117840766906738281 4.1002602577209472656 3.6828765869140625 3.3043901920318603516 3.445140838623046875 3.3455829620361328125 3.4803338050842285156 4.4334073066711425781 3.8067576885223388672 3.7425174713134765625 3.0073134899139404297 2.7712905406951904297 2.0758309364318847656 2.3955934047698974609 2.5310702323913574219 2.4063513278961181641 3.0184226036071777344 2.6762852668762207031 2.4903438091278076172 2.8143329620361328125 3.0674064159393310547 2.758907318115234375 3.1021852493286132813 2.7017180919647216797 3.0671942234039306641 2.6684806346893310547 2.6192419528961181641 2.84735107421875 2.9429364204406738281 3.046295166015625 3.0176739692687988281 3.1933379173278808594 
3.1596674919128417969 2.6677248477935791016 3.3606023788452148438 2.9668498039245605469 2.7635724544525146484 3.1503221988677978516 2.4760196208953857422 3.0932936668395996094 2.6245255470275878906 2.6306710243225097656 2.5195412635803222656 3.1352384090423583984 2.8943102359771728516 3.1442277431488037109 3.0110266208648681641 2.93390655517578125 2.9683320522308349609 2.3700525760650634766 2.8655004501342773438 2.8939940929412841797 3.0352487564086914063 2.7974686622619628906 2.8720755577087402344 2.9362897872924804688 2.7220571041107177734 2.7157654762268066406 2.8552772998809814453 2.7519161701202392578 2.6042106151580810547 2.9633917808532714844 2.7878363132476806641 2.6852538585662841797 2.6844618320465087891 2.7911283969879150391 2.9229810237884521484 2.7126200199127197266 2.8398771286010742188 2.9953742027282714844 2.8330941200256347656 3.1124043464660644531 3.5833067893981933594 3.7406094074249267578 3.7237386703491210938 3.1645212173461914063 3.6667761802673339844 3.4805889129638671875 3.4481747150421142578 3.0515601634979248047 3.6655595302581787109 3.4110939502716064453 3.3865728378295898438 3.1312167644500732422 2.8711402416229248047 2.9881289005279541016 2.8899221420288085938 3.1451940536499023438 3.6408269405364990234 3.6103041172027587891 3.6621391773223876953 4.4251794815063476563 3.9299724102020263672 3.6283581256866455078 3.54419708251953125 3.7608354091644287109 3.1737947463989257813 2.9432830810546875 3.8148596286773681641 3.4305739402770996094 3.9067094326019287109 4.2788496017456054688 3.7464814186096191406 3.592891693115234375 4.1367545127868652344 4.7122750282287597656 4.0146532058715820313 4.3139958381652832031 4.4465112686157226563 3.9025261402130126953 3.6469614505767822266 3.6847820281982421875 3.57289886474609375 3.4224936962127685547 3.6416866779327392578 3.97936248779296875 3.4131035804748535156 3.0909678936004638672 3.5933735370635986328 2.7689130306243896484 3.1969656944274902344 2.8408029079437255859 3.0480082035064697266 3.0323498249053955078 2.6685464382171630859 2.7308590412139892578 3.5143253803253173828 2.5965242385864257813 2.7728273868560791016 2.8008897304534912109 2.3761477470397949219 2.5336296558380126953 2.5628917217254638672 2.7019433975219726563 2.8080718517303466797 2.9840989112854003906 2.5887558460235595703 2.7602641582489013672 2.5778493881225585938 2.7614254951477050781 2.4329333305358886719 2.6015117168426513672 2.8095355033874511719 2.8349976539611816406 3.2155642509460449219 3.3975980281829833984 2.850551605224609375 2.6279826164245605469 2.6799840927124023438 2.4535574913024902344 2.3734450340270996094 2.008296966552734375 2.0357303619384765625 2.2185292243957519531 2.3220186233520507813 2.7735478878021240234 2.5801868438720703125 3.2825047969818115234 2.5985307693481445313 2.8808553218841552734 2.7500185966491699219 3.2730607986450195313 3.1732125282287597656 2.6519870758056640625 2.4471650123596191406 2.4433677196502685547 2.4191095829010009766 2.6293597221374511719 3.0795650482177734375 2.5174734592437744141 2.8893773555755615234 3.0234112739562988281 2.6086008548736572266 2.7477986812591552734 3.0806674957275390625 3.6907725334167480469 3.2603392601013183594 4.2804660797119140625 3.6548972129821777344 4.3831305503845214844 4.2850069999694824219 4.8292298316955566406 5.0517039299011230469 6.0801653861999511719 5.7178511619567871094 5.7646260261535644531 5.7662444114685058594 7.1442475318908691406 5.938594818115234375 5.4007558822631835938 5.2337050437927246094 5.8562574386596679688 6.1592478752136230469 6.0916051864624023438 5.1924595832824707031 4.8334403038024902344 6.0401167869567871094 4.2661252021789550781 4.8055562973022460938 4.2790169715881347656 4.3063282966613769531 3.5999796390533447266 3.1029801368713378906 3.0936384201049804688 3.2419004440307617188 3.1165974140167236328 3.5392081737518310547 3.7793426513671875 4.3551726341247558594 3.0338637828826904297 2.7761905193328857422 2.899326324462890625 2.1726174354553222656 2.7861156463623046875 2.7524304389953613281 2.5834145545959472656 2.5174074172973632813 2.3096232414245605469 2.784404754638671875 2.5486271381378173828 2.8654091358184814453 3.2944614887237548828 3.0433447360992431641 2.5306503772735595703 2.8382272720336914063 2.5152018070220947266 2.6875703334808349609 3.1945950984954833984 2.8874616622924804688 2.9025092124938964844 3.0694587230682373047 2.9188294410705566406 
3.2310726642608642578 3.0458734035491943359 2.6992292404174804688 2.7302222251892089844 2.9316573143005371094 2.9227015972137451172 3.1043012142181396484 2.7348201274871826172 2.6997618675231933594 2.8438160419464111328 2.3025395870208740234 2.8499083518981933594 2.6897590160369873047 2.8597135543823242188 2.9148037433624267578 2.6372308731079101563 3.0649423599243164063 2.6730310916900634766 3.3427305221557617188 3.276592254638671875 3.1514954566955566406 3.0530791282653808594 2.6381168365478515625 2.6611757278442382813 2.9245965480804443359 2.8194935321807861328 3.2555854320526123047 2.68658447265625 2.7656550407409667969 2.7535567283630371094 2.7979485988616943359 2.8624272346496582031 2.1025168895721435547 2.5460138320922851563 2.4745924472808837891 2.4862773418426513672 2.6175603866577148438 2.8533256053924560547 2.87007904052734375 2.9093027114868164063 3.2806921005249023438 3.2982442378997802734 3.1444671154022216797 3.5972244739532470703 3.5173106193542480469 3.6902613639831542969 3.4929418563842773438 3.7452526092529296875 3.7876844406127929688 3.4990246295928955078 3.2689363956451416016 3.2633202075958251953 3.2326540946960449219 3.1666419506072998047 2.9828324317932128906 2.9876961708068847656 3.4585196971893310547 3.3015127182006835938 3.2820162773132324219 3.8775899410247802734 3.6342296600341796875 3.5835003852844238281 3.5429975986480712891 3.5061600208282470703 3.3408067226409912109 2.9028747081756591797 4.4106397628784179688 4.1507768630981445313 4.8010678291320800781 3.4613170623779296875 4.2702622413635253906 4.1489920616149902344 4.3321805000305175781 4.39947509765625 6.0526762008666992188 5.9838194847106933594 5.1910467147827148438 7.1418929100036621094 4.1874542236328125 4.0137281417846679688 3.8426826000213623047 3.5410795211791992188 3.944080352783203125 3.2782933712005615234 3.0517766475677490234 2.8760204315185546875 3.4051771163940429688 3.2652144432067871094 2.9317941665649414063 2.6388220787048339844 2.9918096065521240234 2.422809600830078125 3.0257956981658935547 2.4999735355377197266 2.4146013259887695313 2.36499786376953125 2.0478842258453369141 2.407955169677734375 2.3458788394927978516 2.3505995273590087891 2.0607018470764160156 2.2750484943389892578 2.7321798801422119141 2.5104823112487792969 2.3529152870178222656 2.499446868896484375 2.70012664794921875 2.8272199630737304688 3.1968646049499511719 3.0381870269775390625 2.7368586063385009766 2.6330811977386474609 3.0835576057434082031 2.6811895370483398438 2.9218907356262207031 2.6635339260101318359 2.3975746631622314453 2.2819552421569824219 2.5112781524658203125 2.4500560760498046875 2.4018571376800537109 2.6453831195831298828 2.1137816905975341797 2.0573930740356445313 2.3276855945587158203 2.7121424674987792969 3.3349833488464355469 2.9391191005706787109 2.9637386798858642578 3.4909749031066894531 2.6218211650848388672 3.1396427154541015625 2.8822450637817382813 2.6815168857574462891 2.9441347122192382813 2.7562334537506103516 2.1146483421325683594 2.2766711711883544922 2.7342779636383056641 2.1397752761840820313 2.5657141208648681641 3.1539549827575683594 2.7833669185638427734 2.3229482173919677734 2.8384978771209716797 3.4421844482421875 5.0039234161376953125 5.7838125228881835938 4.9732122421264648438 6.0373053550720214844 5.4078383445739746094 4.6726064682006835938 4.9744610786437988281 6.4318437576293945313 5.5954303741455078125 5.7462000846862792969 5.5467500686645507813 5.6507945060729980469 4.9637341499328613281 5.2880125045776367188 5.5934929847717285156 6.1063609123229980469 5.0195393562316894531 5.3840918540954589844 4.1710338592529296875 4.0046677589416503906 3.8040587902069091797 4.7990651130676269531 3.2874293327331542969 4.0207042694091796875 3.4496874809265136719 2.9450213909149169922 3.3249871730804443359 2.9668397903442382813 3.8969430923461914063 3.480682373046875 3.2366824150085449219 2.9362030029296875 2.6434266567230224609 2.3626275062561035156 2.3709447383880615234 2.2214715480804443359 2.4295918941497802734 2.3693943023681640625 2.6998035907745361328 2.6281847953796386719 2.7448532581329345703 2.5687801837921142578 3.1216275691986083984 3.1089603900909423828 3.1627533435821533203 2.9084625244140625 2.3918917179107666016 2.9377019405364990234 3.1251122951507568359 2.8194224834442138672 2.6098608970642089844 2.8209536075592041016 3.0975852012634277344 3.0074555873870849609 
3.0968184471130371094 3.3305695056915283203 3.0749869346618652344 3.2268681526184082031 3.1797034740447998047 2.6214299201965332031 2.7564187049865722656 2.8143146038055419922 2.7280781269073486328 2.8093924522399902344 2.5761103630065917969 2.6951472759246826172 2.7333443164825439453 3.0139424800872802734 2.9279074668884277344 2.9700906276702880859 2.8754379749298095703 3.2011854648590087891 2.9168455600738525391 3.1919076442718505859 3.2281095981597900391 3.1910452842712402344 2.7639060020446777344 2.8640248775482177734 3.1567828655242919922 2.5953266620635986328 2.4186761379241943359 2.644847869873046875 2.8439657688140869141 2.6027274131774902344 2.9749503135681152344 2.5394198894500732422 2.2635722160339355469 2.6581988334655761719 2.6579544544219970703 2.5717263221740722656 2.6622874736785888672 2.8724930286407470703 2.7966978549957275391 2.9481396675109863281 2.9417550563812255859 3.0905947685241699219 3.3784580230712890625 3.2611002922058105469 3.7166924476623535156 3.7701206207275390625 3.9541766643524169922 3.6035377979278564453 3.6453020572662353516 3.4849071502685546875 3.2584784030914306641 3.4478054046630859375 2.9396641254425048828 3.0281808376312255859 2.937404632568359375 2.90155029296875 4.0171093940734863281 3.9510638713836669922 3.6814904212951660156 3.7792019844055175781 4.0493817329406738281 3.9642708301544189453 3.4501566886901855469 3.7605183124542236328 3.2257335186004638672 3.3630442619323730469 3.8515594005584716797 3.2201945781707763672 4.04961395263671875 4.2190256118774414063 4.0853056907653808594 4.34932708740234375 4.2845263481140136719 4.7038116455078125 5.0314288139343261719 5.8723368644714355469 4.6570682525634765625 4.525974273681640625 5.40242767333984375 4.9774842262268066406 4.4366621971130371094 4.801311492919921875 3.3211774826049804688 3.2536923885345458984 3.1118447780609130859 3.1463675498962402344 3.0889077186584472656 3.0160286426544189453 2.7785172462463378906 2.6749517917633056641 3.3198590278625488281 2.9959325790405273438 2.9615275859832763672 2.8471584320068359375 2.7264115810394287109 2.4423456192016601563 2.8519558906555175781 2.4923436641693115234 2.2480618953704833984 2.3718314170837402344 2.368007659912109375 2.1654515266418457031 2.9195415973663330078 2.6557612419128417969 2.8766317367553710938 2.7292196750640869141 3.0121340751647949219 2.7409703731536865234 2.8477702140808105469 2.7383639812469482422 2.9577438831329345703 2.6768281459808349609 2.8723816871643066406 2.7499277591705322266 2.51245880126953125 2.5387825965881347656 2.389415740966796875 2.3411574363708496094 2.1670739650726318359 2.0479800701141357422 2.6107165813446044922 2.4180634021759033203 2.6292214393615722656 2.4781472682952880859 2.9124748706817626953 3.0073931217193603516 3.2048435211181640625 3.1703937053680419922 2.94538116455078125 2.8639585971832275391 3.094394683837890625 3.5098371505737304688 3.0258693695068359375 2.8913519382476806641 2.9923465251922607422 2.3777937889099121094 3.1074945926666259766 2.5254154205322265625 2.7939059734344482422 2.6074628829956054688 2.7641680240631103516 3.1995000839233398438 3.4003498554229736328 2.7104113101959228516 2.9451918601989746094 3.8780133724212646484 4.6148209571838378906 4.3084940910339355469 4.4697828292846679688 4.7258706092834472656 4.6287689208984375 5.102184295654296875 4.3538732528686523438 4.7855119705200195313 5.6222772598266601563 5.7517261505126953125 6.6226115226745605469 6.6090345382690429688 4.8423624038696289063 4.9824967384338378906 5.3472032546997070313 4.8737330436706542969 6.0074138641357421875 5.6658368110656738281 4.8417801856994628906 4.3537282943725585938 3.6988909244537353516 3.323223114013671875 3.3891544342041015625 3.1444334983825683594 3.7133836746215820313 2.9367415904998779297 2.6955347061157226563 2.3232932090759277344 2.6246221065521240234 3.1596338748931884766 2.9209487438201904297 2.8663346767425537109 2.5173537731170654297 2.5249326229095458984 2.4206416606903076172 2.4096064567565917969 2.4765536785125732422 2.957180023193359375 2.6890454292297363281 2.5425515174865722656 2.7967908382415771484 2.8394856452941894531 2.8111619949340820313 2.9772417545318603516 2.9178674221038818359 2.5991308689117431641 2.5247600078582763672 2.8119947910308837891 2.8830981254577636719 2.5028524398803710938 3.0382246971130371094 2.8042402267456054688 3.477626800537109375 2.7702541351318359375 
2.7161030769348144531 2.7772138118743896484 3.0319898128509521484 3.0957660675048828125 3.6275265216827392578 2.8335795402526855469 2.9035463333129882813 2.7361648082733154297 2.4986019134521484375 2.6118798255920410156 2.650066375732421875 3.2018210887908935547 2.9068696498870849609 3.1213772296905517578 3.0432286262512207031 3.4865558147430419922 3.1797113418579101563 3.4351811408996582031 2.8545832633972167969 3.5948376655578613281 3.3673870563507080078 3.004421234130859375 2.9427368640899658203 3.0012738704681396484 2.9076542854309082031 2.934276580810546875 2.4909617900848388672 2.9269082546234130859 2.7488799095153808594 2.7529692649841308594 2.695934295654296875 2.8165726661682128906 2.5004813671112060547 2.5501444339752197266 2.3837003707885742188 2.3695533275604248047 2.6534483432769775391 2.9562475681304931641 2.628936767578125 2.8059902191162109375 3.0301115512847900391 3.1373541355133056641 3.1151742935180664063 3.6388781070709228516 4.0601382255554199219 3.7091548442840576172 4.0210814476013183594 3.3845155239105224609 3.5662276744842529297 3.4419894218444824219 3.5234005451202392578 3.3375418186187744141 3.2783384323120117188 3.3467125892639160156 3.7441656589508056641 3.5508289337158203125 4.0099759101867675781 3.7259647846221923828 4.2947535514831542969 3.9808630943298339844 4.1185984611511230469 4.4319171905517578125 3.7770535945892333984 3.5782284736633300781 3.1055948734283447266 3.4710071086883544922 3.3525784015655517578 4.1399288177490234375 4.7503819465637207031 3.9965066909790039063 3.8563883304595947266 4.2245488166809082031 5.1705565452575683594 4.4884405136108398438 4.7053503990173339844 5.159832000732421875 4.97072601318359375 6.3590435981750488281 7.2291235923767089844 5.4938859939575195313 4.1313300132751464844 3.4515941143035888672 3.507144927978515625 3.9768507480621337891 2.9698491096496582031 3.2822797298431396484 3.3355171680450439453 2.7465577125549316406 3.3529963493347167969 2.8709077835083007813 2.8670086860656738281 2.187305450439453125 2.3980231285095214844 2.3293788433074951172 3.0556893348693847656 2.3815009593963623047 2.5889606475830078125 2.4266581535339355469 2.6380128860473632813 2.0789463520050048828 2.3101139068603515625 2.6685011386871337891 2.3286218643188476563 2.7544677257537841797 2.5951480865478515625 1.9978846311569213867 2.9131360054016113281 2.4774968624114990234 2.4073760509490966797 2.8015952110290527344 2.9785950183868408203 2.9420101642608642578 3.0132880210876464844 2.5452241897583007813 2.4868268966674804688 2.3341858386993408203 2.1977941989898681641 2.3435008525848388672 2.1594283580780029297 1.9369149208068847656 2.0398077964782714844 2.6082241535186767578 2.2498946189880371094 2.1665298938751220703 2.3392660617828369141 2.8165421485900878906 2.8570172786712646484 2.9274961948394775391 3.1475660800933837891 2.7895367145538330078 2.3535578250885009766 2.537906646728515625 2.5492293834686279297 3.0838155746459960938 2.8978145122528076172 2.7977309226989746094 3.3332002162933349609 2.6562595367431640625 2.7423079013824462891 2.7021918296813964844 2.6076383590698242188 2.9537050724029541016 3.2482671737670898438 3.1614458560943603516 3.1315600872039794922 3.8077607154846191406 4.423736572265625 4.8423891067504882813 4.4160761833190917969 4.4785771369934082031 4.6390891075134277344 5.6435503959655761719 5.3279223442077636719 5.094524383544921875 5.2077121734619140625 6.3333568572998046875 6.7168531417846679688 5.5060219764709472656 4.9682211875915527344 4.6477036476135253906 4.4366703033447265625 4.3173165321350097656 4.8499684333801269531 4.58679962158203125 4.3910927772521972656 4.2202463150024414063 3.4329597949981689453 3.3365876674652099609 3.0488886833190917969 2.6086199283599853516 3.7852330207824707031 2.9698133468627929688 2.5569250583648681641 2.8659532070159912109 3.551422119140625 2.8246910572052001953 2.3459155559539794922 3.1062839031219482422 2.047954559326171875 2.1471168994903564453 2.1714339256286621094 2.5180251598358154297 2.3358833789825439453 2.7286005020141601563 2.4836325645446777344 2.6389684677124023438 2.5973672866821289063 2.7823381423950195313 2.5663163661956787109 2.5808761119842529297 2.6029815673828125 2.7216596603393554688 2.9296712875366210938 2.6891195774078369141 2.9910326004028320313 3.2316911220550537109 3.229587554931640625 3.0060267448425292969 2.7173092365264892578 3.106906890869140625 
2.9205310344696044922 2.9335296154022216797 3.0125865936279296875 2.9155142307281494141 3.1856999397277832031 2.6983642578125 2.9064047336578369141 2.9843728542327880859 2.5953357219696044922 2.5761752128601074219 2.8397612571716308594 2.8807616233825683594 2.7524063587188720703 2.9681050777435302734 2.8540709018707275391 2.9623999595642089844 3.3389406204223632813 2.8943624496459960938 3.3243081569671630859 3.1260318756103515625 3.4817965030670166016 3.4437665939331054688 2.9631128311157226563 3.0072112083435058594 2.6128954887390136719 2.3899607658386230469 2.8870041370391845703 2.5009827613830566406 2.6421308517456054688 2.40338134765625 2.6631107330322265625 2.2579555511474609375 2.2082684040069580078 2.3711922168731689453 2.5303635597229003906 2.7547194957733154297 2.7356405258178710938 2.9136576652526855469 2.9329941272735595703 3.0359053611755371094 3.3317055702209472656 2.8479275703430175781 2.8720979690551757813 3.422977447509765625 3.5295975208282470703 3.7386167049407958984 3.6979343891143798828 3.7256286144256591797 3.3876965045928955078 4.1463036537170410156 3.239856719970703125 3.8408596515655517578 4.081058502197265625 3.7755956649780273438 3.1922259330749511719 3.7240176200866699219 4.0785145759582519531 4.3562526702880859375 4.3084635734558105469 4.7031207084655761719 4.1537079811096191406 4.4319705963134765625 3.6017069816589355469 4.5662031173706054688 3.6840336322784423828 3.3628668785095214844 3.3227033615112304688 3.9315364360809326172 3.22564697265625 3.7783632278442382813 4.0390429496765136719 6.0351190567016601563 4.5216641426086425781 4.8356356620788574219 4.2991251945495605469 6.2739481925964355469 7.8855366706848144531 5.7103886604309082031 7.6496644020080566406 8.2304277420043945313 4.1649365425109863281 6.2346749305725097656 4.3318486213684082031 3.5134155750274658203 3.6281158924102783203 3.3248078823089599609 3.4252359867095947266 3.0674450397491455078 2.7925014495849609375 2.9633638858795166016 3.1656525135040283203 3.0699756145477294922 2.5270178318023681641 2.3682198524475097656 2.322330474853515625 3.2622513771057128906 2.2157018184661865234 2.3862287998199462891 2.2090373039245605469 2.6710095405578613281 2.0703489780426025391 2.5117127895355224609 2.5430607795715332031 2.9421625137329101563 2.7919108867645263672 2.8966920375823974609 2.7800457477569580078 2.2702453136444091797 2.6019589900970458984 2.5934081077575683594 2.6509768962860107422 3.0474569797515869141 2.8118071556091308594 2.2147831916809082031 2.4389772415161132813 2.2516317367553710938 2.1110308170318603516 2.5290369987487792969 2.177883148193359375 2.0796115398406982422 2.1024272441864013672 2.102569580078125 2.5914492607116699219 2.1858592033386230469 3.0762355327606201172 2.8445885181427001953 2.9842884540557861328 2.4724273681640625 3.1917622089385986328 3.0999739170074462891 2.8149378299713134766 3.0202264785766601563 3.1191194057464599609 3.3362910747528076172 3.1587500572204589844 2.9771158695220947266 3.3175311088562011719 2.9539952278137207031 3.1905748844146728516 2.6326429843902587891 2.4495470523834228516 3.1841244697570800781 3.490177154541015625 3.3116512298583984375 3.5461790561676025391 4.1498880386352539063 4.3794703483581542969 4.7288541793823242188 4.2497277259826660156 5.8957581520080566406 4.0197772979736328125 4.3432402610778808594 4.3402390480041503906 4.23188018798828125 4.3377475738525390625 5.1649842262268066406 6.7133922576904296875 5.2620334625244140625 5.5344958305358886719 5.5770630836486816406 4.7424616813659667969 4.8286843299865722656 4.3374147415161132813 4.1236491203308105469 4.5090694427490234375 3.6231989860534667969 4.0294771194458007813 3.1395161151885986328 3.2063558101654052734 3.102558135986328125 2.9132721424102783203 2.8268363475799560547 2.8287973403930664063 2.4982173442840576172 2.6635546684265136719 2.6723196506500244141 2.4782812595367431641 2.3290123939514160156 2.1631331443786621094 2.0004827976226806641 1.9911063909530639648 2.4804658889770507813 2.5081701278686523438 2.2182002067565917969 2.7894597053527832031 2.6615741252899169922 2.743213653564453125 2.2215673923492431641 2.4094305038452148438 2.5874228477478027344 2.3351716995239257813 2.3467838764190673828 2.2079255580902099609 3.0468630790710449219 2.5196425914764404297 3.1370565891265869141 2.7598555088043212891 2.9742636680603027344 3.0440955162048339844 2.9325973987579345703 
2.7834422588348388672 2.67102813720703125 2.9188823699951171875 3.1589231491088867188 2.9556114673614501953 2.33727264404296875 2.9488701820373535156 3.1560969352722167969 3.1075310707092285156 2.6368296146392822266 3.0270867347717285156 2.8039038181304931641 2.8796174526214599609 3.1797823905944824219 3.0360615253448486328 3.2648453712463378906 3.0981509685516357422 2.9734959602355957031 3.2324347496032714844 3.1505696773529052734 3.2787101268768310547 3.1296370029449462891 3.0071752071380615234 3.2014458179473876953 2.8457677364349365234 2.4292206764221191406 2.5810859203338623047 2.7207677364349365234 2.5843012332916259766 2.1919393539428710938 2.1268754005432128906 2.3882508277893066406 2.2181093692779541016 2.2948067188262939453 2.0065791606903076172 2.2362024784088134766 2.6618502140045166016 2.4079637527465820313 2.8102781772613525391 2.7962851524353027344 2.8582100868225097656 3.0223071575164794922 2.9431135654449462891 3.3539288043975830078 3.2930853366851806641 3.4065251350402832031 3.2279436588287353516 3.3300919532775878906 3.5198233127593994141 3.9412183761596679688 4.1509404182434082031 4.21787261962890625 4.3459711074829101563 3.4676144123077392578 3.8945698738098144531 3.6829183101654052734 3.8510267734527587891 3.729122161865234375 4.2611718177795410156 4.7349619865417480469 3.8520219326019287109 4.0340976715087890625 3.8615725040435791016 3.5741574764251708984 3.6847081184387207031 3.7162003517150878906 4.257419586181640625 3.5077223777770996094 4.0380353927612304688 4.1043844223022460938 4.4012293815612792969 4.5656857490539550781 4.9126691818237304688 4.3212971687316894531 4.7070765495300292969 6.1102881431579589844 5.2419462203979492188 5.1267709732055664063 4.5579977035522460938 6.0316066741943359375 5.28917694091796875 5.5135970115661621094 4.1451082229614257813 4.1152286529541015625 3.9744346141815185547 3.5354604721069335938 3.6359608173370361328 3.0370912551879882813 2.7501378059387207031 3.0968537330627441406 2.7375457286834716797 3.0344781875610351563 2.3506553173065185547 2.4396610260009765625 2.3413081169128417969 2.5847256183624267578 2.2993950843811035156 1.9713639020919799805 2.3990645408630371094 2.3755419254302978516 3.1565759181976318359 1.9920742511749267578 2.3857176303863525391 2.6249749660491943359 2.6280524730682373047 2.7467978000640869141 2.6092617511749267578 2.9520173072814941406 2.6904122829437255859 2.6781039237976074219 2.987010955810546875 2.5225133895874023438 2.4552817344665527344 2.2457158565521240234 2.2401330471038818359 2.4051935672760009766 2.7791903018951416016 2.2781741619110107422 2.4923074245452880859 2.1163084506988525391 2.5459637641906738281 2.8003280162811279297 2.2018764019012451172 2.7923226356506347656 2.3658802509307861328 2.6906607151031494141 2.7151963710784912109 3.1338431835174560547 3.4264922142028808594 2.9136073589324951172 2.8906323909759521484 2.7312340736389160156 3.1958684921264648438 2.7848479747772216797 2.9023866653442382813 3.0691080093383789063 3.3827517032623291016 3.1202147006988525391 3.0644192695617675781 3.1898338794708251953 2.9219717979431152344 3.0970458984375 3.2326812744140625 3.7674775123596191406 4.1522040367126464844 4.204975128173828125 4.2515139579772949219 4.85689544677734375 5.2221941947937011719 4.5253391265869140625 4.1666083335876464844 5.0553927421569824219 4.3303532600402832031 4.0064907073974609375 4.6221942901611328125 4.1961359977722167969 4.3226375579833984375 4.8461742401123046875 4.8443212509155273438 5.2063803672790527344 4.7747058868408203125 4.7669582366943359375 4.1115369796752929688 3.7419819831848144531 4.1792502403259277344 4.1403722763061523438 3.6446030139923095703 3.5916910171508789063 2.6170215606689453125 3.2264263629913330078 2.8814518451690673828 2.8440163135528564453 2.5146563053131103516 2.6029810905456542969 2.8587284088134765625 2.5536487102508544922 2.6290459632873535156 2.7009541988372802734 2.4104280471801757813 2.8811190128326416016 2.9694283008575439453 2.0831630229949951172 2.4942235946655273438 2.4001364707946777344 2.671966552734375 2.4675812721252441406 2.5176136493682861328 2.4901757240295410156 2.6076896190643310547 2.5653324127197265625 2.6636443138122558594 2.618236541748046875 2.6579201221466064453 2.6025195121765136719 2.8229389190673828125 2.6712656021118164063 2.9580564498901367188 2.8204557895660400391 3.1101839542388916016 3.1439485549926757813 
2.75247955322265625 2.8226809501647949219 2.7087953090667724609 2.4355359077453613281 2.6802401542663574219 2.6059629917144775391 2.8109648227691650391 2.8492980003356933594 2.6468846797943115234 2.9270148277282714844 3.1273019313812255859 3.4272019863128662109 3.4016516208648681641 3.3165574073791503906 3.1995134353637695313 2.9096925258636474609 3.0236699581146240234 2.8229405879974365234 3.0575304031372070313 3.1717638969421386719 3.3308672904968261719 3.3696658611297607422 3.1110491752624511719 3.2092990875244140625 2.7238013744354248047 3.0057468414306640625 2.6995105743408203125 2.7363934516906738281 2.7138178348541259766 1.9673339128494262695 2.2672626972198486328 2.2706930637359619141 2.1796932220458984375 2.3039762973785400391 2.3836650848388671875 2.6270089149475097656 2.4796156883239746094 2.6353731155395507813 2.66049957275390625 2.7885468006134033203 3.0268883705139160156 2.7822921276092529297 2.7010986804962158203 2.9295623302459716797 2.976779937744140625 2.7166819572448730469 2.8561227321624755859 2.9967331886291503906 2.7888014316558837891 3.6052157878875732422 3.7631916999816894531 4.5018053054809570313 3.38775634765625 3.5918164253234863281 3.9922428131103515625 3.8428208827972412109 3.7312757968902587891 3.9637885093688964844 3.8664326667785644531 4.6290392875671386719 4.1010346412658691406 4.6054244041442871094 3.9218909740447998047 3.9405107498168945313 3.6338074207305908203 4.0195288658142089844 4.3315153121948242188 3.7156343460083007813 3.9199807643890380859 4.2013125419616699219 5.2394852638244628906 6.04642486572265625 5.6117944717407226563 6.3005166053771972656 7.681896209716796875 5.136226654052734375 5.1302356719970703125 6.5504589080810546875 4.3214216232299804688 4.3318567276000976563 4.6210002899169921875 4.824558258056640625 6.2323894500732421875 4.2812180519104003906 4.3766489028930664063 4.7157888412475585938 3.5289545059204101563 3.1861543655395507813 3.1905398368835449219 2.9825365543365478516 2.8555550575256347656 3.4584803581237792969 3.4185333251953125 2.5053884983062744141 2.5712981224060058594 2.4449419975280761719 3.1504359245300292969 3.7427382469177246094 2.0720851421356201172 2.8558976650238037109 2.3090875148773193359 2.0618839263916015625 2.6532659530639648438 2.7916064262390136719 2.9660289287567138672 2.4217207431793212891 2.4279386997222900391 2.7423846721649169922 2.5313208103179931641 3.1337597370147705078 2.4926915168762207031 2.4561505317687988281 2.6184291839599609375 2.6413509845733642578 2.4057087898254394531 2.1849043369293212891 2.26013946533203125 2.0115652084350585938 2.1785786151885986328 2.1155631542205810547 2.8965790271759033203 2.2592701911926269531 3.1885683536529541016 2.6592700481414794922 3.5242388248443603516 2.2734582424163818359 3.1645739078521728516 2.38796234130859375 3.2116885185241699219 3.1114342212677001953 3.2906603813171386719 2.4409890174865722656 2.7069537639617919922 3.1230437755584716797 2.5744915008544921875 3.5851902961730957031 3.1280372142791748047 2.6075720787048339844 3.8024351596832275391 3.3706879615783691406 3.3650417327880859375 3.1948938369750976563 3.440673828125 3.5698859691619873047 4.1471543312072753906 4.2816038131713867188 4.2621302604675292969 5.3790121078491210938 4.8066372871398925781 4.4237298965454101563 4.169506072998046875 4.2460737228393554688 4.0893735885620117188 4.5436053276062011719 3.7264413833618164063 4.2946429252624511719 4.7917647361755371094 4.6468191146850585938 4.611919403076171875 4.4003000259399414063 4.5748996734619140625 4.13948822021484375 4.0689253807067871094 4.4205679893493652344 5.0474987030029296875 3.8475420475006103516 3.5385832786560058594 2.8161947727203369141 2.5776536464691162109 2.5349264144897460938 2.8143775463104248047 2.808048248291015625 2.5340006351470947266 3.3187127113342285156 2.8874325752258300781 2.5945415496826171875 2.6900413036346435547 2.7000775337219238281 3.0194818973541259766 2.6061291694641113281 2.5431096553802490234 2.6321303844451904297 2.813930511474609375 2.3724102973937988281 2.510654449462890625 2.8566520214080810547 2.4265339374542236328 2.5874857902526855469 2.3420877456665039063 2.646167755126953125 2.2843112945556640625 2.6795372962951660156 2.3114018440246582031 2.7055327892303466797 2.7067952156066894531 3.1239590644836425781 2.9376664161682128906 2.8761801719665527344 3.0144994258880615234 2.7519881725311279297 
2.7118508815765380859 3.2544362545013427734 2.5770838260650634766 3.1072385311126708984 3.1917388439178466797 2.8221764564514160156 3.0496265888214111328 2.7584409713745117188 2.9902606010437011719 2.8680684566497802734 2.9789984226226806641 2.5564785003662109375 2.8436226844787597656 2.9402019977569580078 2.9211976528167724609 2.8804101943969726563 3.2937552928924560547 3.0555403232574462891 3.0842545032501220703 3.3416326045989990234 3.5995132923126220703 3.3445503711700439453 3.3188443183898925781 2.8574931621551513672 3.5987846851348876953 2.9768593311309814453 2.8876683712005615234 2.5052371025085449219 2.3699922561645507813 2.1514351367950439453 2.2039625644683837891 2.4850878715515136719 2.5056977272033691406 2.355602264404296875 2.1191344261169433594 2.2909991741180419922 2.6525902748107910156 2.3724427223205566406 2.7013535499572753906 2.9776179790496826172 2.87648773193359375 2.361019134521484375 2.7226827144622802734 2.6635451316833496094 2.8451874256134033203 2.7985849380493164063 2.8583002090454101563 2.6746315956115722656 2.7569239139556884766 2.9400348663330078125 3.4000747203826904297 3.4285275936126708984 3.1652448177337646484 3.0809571743011474609 3.4107670783996582031 3.2421927452087402344 3.6228365898132324219 3.4109480381011962891 3.795440673828125 3.8152337074279785156 5.3427600860595703125 4.2553267478942871094 3.8525528907775878906 4.20163726806640625 4.1578769683837890625 4.051372528076171875 3.9884440898895263672 4.2997584342956542969 4.1555619239807128906 4.56761932373046875 4.7075405120849609375 4.8444128036499023438 6.3896722793579101563 6.2689576148986816406 5.7430095672607421875 6.6931753158569335938 6.6185245513916015625 5.2473940849304199219 5.6913199424743652344 5.4280786514282226563 5.8585519790649414063 6.03121185302734375 6.2082061767578125 4.8907785415649414063 5.2058153152465820313 3.8302049636840820313 3.5637753009796142578 3.0000698566436767578 3.7431890964508056641 3.1084599494934082031 3.8505451679229736328 3.1493995189666748047 3.3518581390380859375 3.484760284423828125 2.9248781204223632813 2.4515969753265380859 2.6960322856903076172 4.4621415138244628906 4.038867950439453125 2.4155580997467041016 2.4745099544525146484 1.9793223142623901367 2.1197147369384765625 2.3896734714508056641 2.8102943897247314453 2.5024290084838867188 2.5037949085235595703 2.09648895263671875 2.6317534446716308594 2.1721730232238769531 2.6475512981414794922 2.6656551361083984375 2.2273008823394775391 2.3865039348602294922 1.8291614055633544922 2.3166627883911132813 2.2007668018341064453 2.320781707763671875 2.3560941219329833984 2.1721186637878417969 2.3394882678985595703 2.5940914154052734375 2.7177426815032958984 2.6035397052764892578 2.1338393688201904297 2.7254197597503662109 2.8273580074310302734 2.8159089088439941406 2.8865818977355957031 2.3002300262451171875 2.2111470699310302734 3.4003052711486816406 2.7325062751770019531 3.2604472637176513672 3.3033528327941894531 3.5986640453338623047 3.0382175445556640625 2.9879946708679199219 3.7151043415069580078 3.2077040672302246094 2.6143219470977783203 3.5090224742889404297 3.782421112060546875 4.1293888092041015625 3.9313800334930419922 4.2773790359497070313 4.5029153823852539063 4.6864333152770996094 5.1852588653564453125 3.9546828269958496094 4.2958765029907226563 4.430828094482421875 4.4923939704895019531 4.4230108261108398438 4.9216451644897460938 4.3095788955688476563 4.1809782981872558594 4.3509154319763183594 4.3466439247131347656 4.3176712989807128906 4.2075495719909667969 4.0048985481262207031 3.9479501247406005859 3.8890280723571777344 4.0341114997863769531 3.94091796875 3.7415790557861328125 3.3006744384765625 3.0594522953033447266 2.7359614372253417969 2.5873255729675292969 2.9667925834655761719 2.99433135986328125 3.0219762325286865234 2.6642606258392333984 2.4150071144104003906 2.8086369037628173828 2.9515810012817382813 2.6437008380889892578 2.9103538990020751953 2.5908315181732177734 2.9847004413604736328 2.5541930198669433594 2.7550320625305175781 2.6911208629608154297 2.5992534160614013672 2.5604426860809326172 2.5331656932830810547 2.4150433540344238281 2.6220183372497558594 2.3618745803833007813 2.6851255893707275391 2.550647735595703125 2.5004034042358398438 2.7428212165832519531 2.7612173557281494141 2.9975316524505615234 2.7440373897552490234 3.3375215530395507813 2.854358673095703125 
2.766448974609375 2.6896505355834960938 2.8243052959442138672 2.8040761947631835938 2.8547379970550537109 3.1391730308532714844 2.8727746009826660156 2.8072326183319091797 2.8645277023315429688 2.9866056442260742188 3.1253042221069335938 2.9248321056365966797 3.0278170108795166016 3.0759234428405761719 3.3345656394958496094 3.0348670482635498047 2.6733331680297851563 3.3189022541046142578 3.7657253742218017578 3.3740975856781005859 2.9720377922058105469 3.1515479087829589844 2.8806719779968261719 3.2258706092834472656 3.3346686363220214844 3.1513659954071044922 2.8348124027252197266 2.8966326713562011719 2.3773214817047119141 2.6153960227966308594 2.3240535259246826172 2.0941097736358642578 2.1686913967132568359 2.3846101760864257813 2.467437744140625 2.4692068099975585938 2.4109599590301513672 2.0806047916412353516 2.3389608860015869141 2.5323009490966796875 2.2491066455841064453 2.5244507789611816406 2.7113039493560791016 2.4694275856018066406 2.5398848056793212891 2.5432600975036621094 2.6367623805999755859 3.1672012805938720703 2.9861185550689697266 3.3753440380096435547 3.5968434810638427734 3.4036185741424560547 3.2273890972137451172 2.5828940868377685547 3.5059969425201416016 3.1438605785369873047 3.5071260929107666016 3.3679850101470947266 3.6766524314880371094 4.5986638069152832031 4.5228409767150878906 4.3311176300048828125 4.0901584625244140625 4.0303297042846679688 4.311244964599609375 4.0439763069152832031 4.6993060111999511719 4.1990299224853515625 4.5183749198913574219 4.9726586341857910156 4.9809603691101074219 5.0112967491149902344 5.0124521255493164063 6.418773651123046875 7.2773880958557128906 6.1908292770385742188 6.0791807174682617188 6.2657618522644042969 5.6134729385375976563 4.1958856582641601563 4.4571285247802734375 5.3768105506896972656 6.0781030654907226563 5.0613346099853515625 5.6077699661254882813 3.9223079681396484375 3.1954462528228759766 3.8976466655731201172 2.7325017452239990234 2.9909915924072265625 2.8846898078918457031 3.2271738052368164063 4.5241546630859375 5.028522491455078125 3.2532343864440917969 2.7396085262298583984 2.2755630016326904297 3.7030854225158691406 3.7382979393005371094 3.1420571804046630859 3.1249468326568603516 2.0910613536834716797 2.1279263496398925781 2.1462588310241699219 2.1600844860076904297 2.4614570140838623047 2.4339945316314697266 2.2125220298767089844 2.572139739990234375 2.5799665451049804688 2.6719343662261962891 2.3928496837615966797 2.3717389106750488281 2.2584507465362548828 2.2034652233123779297 2.3564379215240478516 1.8732807636260986328 1.8576180934906005859 2.3931512832641601563 2.1140716075897216797 2.1087105274200439453 2.488803863525390625 2.3092906475067138672 1.7351833581924438477 2.763072967529296875 2.3781266212463378906 2.48653411865234375 2.8635718822479248047 2.8561990261077880859 2.8858983516693115234 3.0557405948638916016 2.5889770984649658203 3.13425445556640625 2.5947926044464111328 2.4994153976440429688 2.7442193031311035156 2.250423431396484375 2.9472100734710693359 3.3166162967681884766 3.1864867210388183594 3.0801513195037841797 3.3212416172027587891 3.7435300350189208984 4.1118192672729492188 4.443157196044921875 4.1335625648498535156 4.709491729736328125 4.723804473876953125 4.6831393241882324219 4.3582463264465332031 4.3712334632873535156 3.8901839256286621094 4.0508937835693359375 3.9229509830474853516 4.1833329200744628906 5.2735509872436523438 4.608005523681640625 4.7745623588562011719 4.8058562278747558594 4.2559690475463867188 4.1037759780883789063 4.0239567756652832031 3.8449635505676269531 4.0395808219909667969 3.8592686653137207031 3.8039832115173339844 3.3897376060485839844 3.1098690032958984375 3.2641017436981201172 2.8536171913146972656 3.053058624267578125 2.6420500278472900391 2.8735082149505615234 2.7844457626342773438 2.6585245132446289063 2.9535651206970214844 2.9250812530517578125 2.694793701171875 2.6394205093383789063 2.4150829315185546875 2.5600950717926025391 2.5514624118804931641 3.1192679405212402344 2.7001178264617919922 2.7282235622406005859 2.8160448074340820313 2.4646637439727783203 2.6218938827514648438 2.618915557861328125 2.7062051296234130859 2.5856883525848388672 2.6415717601776123047 2.6958494186401367188 2.8009965419769287109 3.0353918075561523438 2.8304333686828613281 2.8493742942810058594 2.973033905029296875 2.8985652923583984375 2.9582943916320800781 
2.2497065067291259766 2.6149039268493652344 2.8126230239868164063 3.0849714279174804688 2.6988682746887207031 2.8387286663055419922 2.9375209808349609375 3.1354801654815673828 2.8827145099639892578 2.9535017013549804688 2.6457853317260742188 2.8689658641815185547 2.7714095115661621094 2.89582061767578125 3.0928971767425537109 3.0321710109710693359 3.3568999767303466797 3.2358579635620117188 3.2719104290008544922 3.1853685379028320313 2.9767117500305175781 3.2938263416290283203 3.2920107841491699219 3.21344757080078125 2.99034881591796875 3.1034173965454101563 3.2271165847778320313 2.8441994190216064453 2.7634720802307128906 2.4159879684448242188 2.4682269096374511719 1.9731736183166503906 2.1870572566986083984 2.14196014404296875 2.4790213108062744141 1.9109185934066772461 2.5948941707611083984 2.3767261505126953125 2.5358884334564208984 2.27080535888671875 2.1965339183807373047 2.3769032955169677734 2.6203904151916503906 2.6383571624755859375 2.5254962444305419922 2.4506938457489013672 2.8051397800445556641 3.2893598079681396484 3.4399063587188720703 3.5495617389678955078 3.2468667030334472656 3.8516950607299804688 3.2326481342315673828 3.4506163597106933594 3.6159534454345703125 3.3960869312286376953 3.5123236179351806641 3.5190262794494628906 3.7592978477478027344 3.8765664100646972656 3.9977998733520507813 3.9425902366638183594 3.9886467456817626953 4.4262828826904296875 4.6275310516357421875 4.5139126777648925781 4.2099523544311523438 4.5935597419738769531 4.5507988929748535156 5.070117950439453125 5.1524472236633300781 6.4312806129455566406 5.7256927490234375 5.4322366714477539063 5.2667083740234375 6.1388039588928222656 5.2109012603759765625 4.4197845458984375 5.5669536590576171875 4.2078847885131835938 4.2311654090881347656 4.4336810111999511719 6.0873694419860839844 7.683994293212890625 4.4527492523193359375 3.5763342380523681641 2.7835745811462402344 4.1709532737731933594 4.0408802032470703125 3.4790866374969482422 2.8633937835693359375 4.2978239059448242188 4.0598125457763671875 3.7878959178924560547 3.4756555557250976563 4.6966886520385742188 4.3195261955261230469 3.4640347957611083984 2.6029860973358154297 2.4946672916412353516 3.4000988006591796875 2.3405401706695556641 2.0177257061004638672 2.3395082950592041016 2.1977677345275878906 2.0714991092681884766 2.2344946861267089844 2.2593739032745361328 2.2970569133758544922 2.6053371429443359375 2.8069486618041992188 2.3491098880767822266 2.2892615795135498047 2.6981847286224365234 2.3529477119445800781 2.2054841518402099609 1.7868295907974243164 2.0826344490051269531 2.0291664600372314453 1.9662805795669555664 2.0221693515777587891 2.0389943122863769531 2.0334832668304443359 2.1605560779571533203 2.0061144828796386719 2.5071299076080322266 2.5896766185760498047 3.0434441566467285156 2.9470670223236083984 2.6654467582702636719 2.6822435855865478516 2.5447022914886474609 2.2379553318023681641 2.5629770755767822266 2.7855002880096435547 3.7441313266754150391 3.4504978656768798828 2.8918623924255371094 2.8866584300994873047 3.1178719997406005859 3.33699798583984375 3.1619849205017089844 3.5261592864990234375 3.9390432834625244141 4.4459757804870605469 4.5403623580932617188 4.6217608451843261719 4.12157440185546875 4.8076653480529785156 5.3908371925354003906 4.4817137718200683594 4.7917008399963378906 5.8388295173645019531 5.2338657379150390625 4.8494038581848144531 4.7154598236083984375 4.46826934814453125 4.1015229225158691406 4.2219877243041992188 3.8337726593017578125 4.2922434806823730469 4.0999574661254882813 3.8915107250213623047 3.6286387443542480469 3.4618532657623291016 3.6223056316375732422 3.5120801925659179688 3.4717767238616943359 2.6785740852355957031 2.6868865489959716797 2.9190084934234619141 2.5791828632354736328 2.6833605766296386719 3.0705628395080566406 3.0668859481811523438 2.8557915687561035156 2.6451632976531982422 2.2296400070190429688 2.4547820091247558594 2.633548736572265625 2.7266166210174560547 2.5853185653686523438 2.54613494873046875 2.8382327556610107422 2.7114441394805908203 2.6345260143280029297 2.4343960285186767578 2.9623296260833740234 2.5690219402313232422 2.7862727642059326172 2.4415280818939208984 2.4561796188354492188 2.7165250778198242188 2.7325594425201416016 3.0253794193267822266 2.8954310417175292969 3.002227783203125 3.0508337020874023438 3.0280542373657226563 2.7415409088134765625 
3.0545682907104492188 2.6097898483276367188 2.9211611747741699219 2.4137406349182128906 2.7164673805236816406 2.8943004608154296875 3.1641778945922851563 2.9200570583343505859 2.9625761508941650391 3.2149994373321533203 2.9256353378295898438 3.0080392360687255859 3.0581603050231933594 2.8086094856262207031 2.9057075977325439453 2.982646942138671875 3.4455714225769042969 3.1463549137115478516 3.2147083282470703125 2.9200923442840576172 3.2879800796508789063 2.8650202751159667969 3.0627140998840332031 2.7401545047760009766 2.8202688694000244141 2.9209222793579101563 3.0066931247711181641 2.8706407546997070313 2.7447676658630371094 2.2847278118133544922 2.3831019401550292969 2.0983417034149169922 2.4737706184387207031 2.3373038768768310547 2.2595858573913574219 1.9678723812103271484 2.3699362277984619141 2.2260324954986572266 2.1914169788360595703 2.1314589977264404297 2.1737029552459716797 2.2553834915161132813 2.5268988609313964844 2.7382206916809082031 2.8971276283264160156 2.8391427993774414063 2.8596501350402832031 2.8664486408233642578 3.1362960338592529297 4.2259807586669921875 3.8307862281799316406 3.9927697181701660156 3.9495158195495605469 3.7106420993804931641 3.6370959281921386719 3.6860637664794921875 3.6654613018035888672 3.5735707283020019531 3.6785185337066650391 3.8793430328369140625 4.2189273834228515625 4.068080902099609375 3.5220203399658203125 4.2609286308288574219 4.0426797866821289063 4.3820147514343261719 4.5830564498901367188 4.6995339393615722656 4.7536363601684570313 4.8662409782409667969 5.2373995780944824219 5.1625337600708007813 5.5567502975463867188 5.7040677070617675781 5.124095916748046875 5.0027589797973632813 4.9870181083679199219 6.416263580322265625 4.9681558609008789063 4.899677276611328125 5.5539746284484863281 4.5507292747497558594 4.4454851150512695313 6.062282562255859375 4.3326768875122070313 3.7683033943176269531 3.4354655742645263672 3.1344449520111083984 2.9237525463104248047 4.0202641487121582031 6.1603140830993652344 3.5113484859466552734 4.2441668510437011719 4.1883058547973632813 3.6834545135498046875 4.7134079933166503906 5.52756500244140625 3.3717992305755615234 2.4351348876953125 3.2169802188873291016 4.2815923690795898438 2.3553931713104248047 1.7429172992706298828 2.1342942714691162109 2.3995423316955566406 2.3088910579681396484 2.0984389781951904297 1.960763096809387207 1.9784724712371826172 2.372486114501953125 2.5916454792022705078 2.1397416591644287109 2.7720866203308105469 2.1376669406890869141 2.3428480625152587891 2.1572661399841308594 2.1134123802185058594 1.97149658203125 2.0142152309417724609 1.891754150390625 2.1661980152130126953 1.9142359495162963867 2.4569954872131347656 1.9018690586090087891 2.2369725704193115234 2.5996546745300292969 2.3249969482421875 2.4430391788482666016 2.5567090511322021484 2.4440975189208984375 2.7688193321228027344 2.153186798095703125 2.1836490631103515625 2.5483188629150390625 2.0982191562652587891 2.1974282264709472656 2.6303770542144775391 3.0418639183044433594 3.6031503677368164063 3.2551159858703613281 3.3937191963195800781 3.0867311954498291016 3.8055262565612792969 3.6551830768585205078 3.9805185794830322266 4.6249823570251464844 4.1273007392883300781 4.3152379989624023438 4.6634602546691894531 4.3827886581420898438 4.7079672813415527344 4.4670848846435546875 4.1201796531677246094 4.7021403312683105469 4.7734856605529785156 5.0791916847229003906 4.767730712890625 4.3145871162414550781 4.8518977165222167969 4.344207763671875 4.6033658981323242188 3.7476353645324707031 3.6606307029724121094 3.5134510993957519531 3.4325957298278808594 3.3860414028167724609 3.2163689136505126953 3.0065147876739501953 3.0617296695709228516 3.0245974063873291016 2.5738658905029296875 3.0422751903533935547 2.6751985549926757813 3.0158491134643554688 2.5341641902923583984 2.6043698787689208984 2.4373519420623779297 2.6277627944946289063 2.9547960758209228516 2.4572386741638183594 2.6154329776763916016 2.9585459232330322266 2.9355883598327636719 2.5399906635284423828 2.6159336566925048828 2.7560672760009765625 2.8671395778656005859 2.5802683830261230469 2.8227741718292236328 2.4541335105895996094 2.6727964878082275391 2.7923500537872314453 2.5481674671173095703 2.9490556716918945313 2.4556107521057128906 2.8089268207550048828 2.7344777584075927734 3.0470292568206787109 2.8820087909698486328 2.4469053745269775391 
2.4605457782745361328 2.9788277149200439453 2.8012661933898925781 2.3658018112182617188 2.5929102897644042969 2.5911836624145507813 3.0467398166656494141 3.0125651359558105469 3.0273959636688232422 3.3222334384918212891 3.1108839511871337891 3.3618054389953613281 3.2947573661804199219 2.9813847541809082031 2.94628143310546875 3.3378441333770751953 3.0743358135223388672 3.14171600341796875 3.0166754722595214844 2.8402369022369384766 2.8989310264587402344 2.9574105739593505859 2.7856264114379882813 2.7685220241546630859 2.7383294105529785156 3.2409539222717285156 2.782749176025390625 3.0213987827301025391 2.6238846778869628906 2.4639754295349121094 1.9707661867141723633 2.5844933986663818359 2.5779192447662353516 2.0919239521026611328 2.4115476608276367188 2.4076685905456542969 2.3291378021240234375 2.7334268093109130859 1.8668509721755981445 2.2142350673675537109 2.3081614971160888672 2.0624279975891113281 2.3544819355010986328 2.2715086936950683594 2.7142984867095947266 3.1650595664978027344 3.1633739471435546875 3.2368032932281494141 3.3728959560394287109 3.2713544368743896484 3.885284423828125 3.7470009326934814453 3.6415345668792724609 3.8485217094421386719 3.6736204624176025391 3.5861427783966064453 3.6374478340148925781 3.5768053531646728516 4.1782689094543457031 3.9976329803466796875 4.7512378692626953125 4.5449914932250976563 4.3254437446594238281 4.3259015083312988281 4.6572294235229492188 4.2522611618041992188 4.2200775146484375 4.4012198448181152344 4.1752400398254394531 4.064922332763671875 4.666408538818359375 5.0927076339721679688 5.1855082511901855469 5.8856182098388671875 5.3985910415649414063 6.77416229248046875 5.284557342529296875 4.8930258750915527344 6.9600234031677246094 5.2396922111511230469 4.2210893630981445313 4.3842730522155761719 5.0824370384216308594 4.5634646415710449219 4.2886509895324707031 4.752330780029296875 3.5242931842803955078 3.4220571517944335938 5.0891027450561523438 5.5965518951416015625 5.6505641937255859375 3.9829003810882568359 4.5933666229248046875 3.1768298149108886719 2.9753289222717285156 2.5084528923034667969 3.04468536376953125 3.6268661022186279297 2.53023529052734375 3.7084112167358398438 2.3158528804779052734 2.0593640804290771484 2.958652496337890625 2.2016186714172363281 2.3091750144958496094 2.4590616226196289063 2.2988302707672119141 2.6012310981750488281 2.7247564792633056641 2.2477223873138427734 2.4251050949096679688 2.3508920669555664063 2.0427706241607666016 2.367938995361328125 2.2530064582824707031 2.6258761882781982422 2.0010242462158203125 1.8698035478591918945 2.0735635757446289063 1.8853600025177001953 2.0349397659301757813 1.949065089225769043 2.0037586688995361328 1.8691675662994384766 1.9594897031784057617 2.220703125 2.5334963798522949219 2.4822018146514892578 2.0628435611724853516 2.2735908031463623047 2.5149736404418945313 2.26519775390625 2.0038542747497558594 2.0007307529449462891 2.1108710765838623047 2.5067811012268066406 2.9365193843841552734 2.4497792720794677734 2.5256936550140380859 2.8963158130645751953 2.6438593864440917969 3.0344097614288330078 2.7205903530120849609 3.7047495841979980469 3.6776492595672607422 4.1092553138732910156 4.0959124565124511719 4.13225555419921875 3.9341318607330322266 3.7209849357604980469 4.198169708251953125 4.0584588050842285156 4.1728343963623046875 4.2051196098327636719 4.645122528076171875 4.2554430961608886719 4.608333587646484375 4.9345307350158691406 4.3695998191833496094 4.443576812744140625 4.7443737983703613281 4.2708849906921386719 3.7346327304840087891 3.8662130832672119141 3.5175626277923583984 3.2738504409790039063 3.0483872890472412109 2.8333237171173095703 2.855731964111328125 3.0197427272796630859 2.9974558353424072266 2.8575115203857421875 2.4072859287261962891 2.4067873954772949219 2.5390753746032714844 2.4999411106109619141 2.6435956954956054688 2.3020250797271728516 2.2858211994171142578 2.1552824974060058594 2.551586151123046875 2.7222750186920166016 2.6657667160034179688 2.4662487506866455078 2.7168321609497070313 2.3790481090545654297 2.6078233718872070313 2.2686951160430908203 2.6119108200073242188 2.6210961341857910156 2.9102573394775390625 2.5596218109130859375 2.626934051513671875 2.6296155452728271484 2.4274868965148925781 2.763427734375 2.7320299148559570313 2.7647337913513183594 2.6417202949523925781 2.6048188209533691406 
3.1366436481475830078 2.8675394058227539063 2.7182176113128662109 2.4979488849639892578 2.5903344154357910156 2.8373398780822753906 2.9124591350555419922 2.9253408908843994141 3.0110390186309814453 3.1523029804229736328 2.7152216434478759766 3.0681970119476318359 3.2877984046936035156 3.2658817768096923828 2.61285400390625 3.0411953926086425781 3.2392847537994384766 2.7506251335144042969 3.1915576457977294922 3.1325566768646240234 2.9181816577911376953 3.0458748340606689453 2.8750269412994384766 2.9840250015258789063 2.8421542644500732422 2.7450504302978515625 2.42914581298828125 2.46103668212890625 2.6610431671142578125 2.5138378143310546875 2.3249657154083251953 2.2191739082336425781 2.4049646854400634766 2.5107893943786621094 2.3536357879638671875 1.926476597785949707 2.3858418464660644531 2.0780177116394042969 2.0921046733856201172 2.2539918422698974609 2.0149593353271484375 2.40192413330078125 2.6229879856109619141 2.3879015445709228516 2.5852360725402832031 3.2779510021209716797 3.7027523517608642578 3.4889960289001464844 3.8195779323577880859 3.6680173873901367188 3.4166762828826904297 3.6923902034759521484 4.471454620361328125 3.8490412235260009766 3.9546139240264892578 3.7099490165710449219 3.8306114673614501953 3.870632171630859375 4.0331778526306152344 4.4575600624084472656 4.9312314987182617188 4.2042474746704101563 4.1578187942504882813 4.2312369346618652344 4.745594024658203125 4.2109503746032714844 4.3537387847900390625 3.8732202053070068359 3.5362164974212646484 3.5086474418640136719 4.2021441459655761719 6.1722979545593261719 5.0831532478332519531 6.4869318008422851563 5.7183828353881835938 4.8122630119323730469 6.0810656547546386719 6.1785159111022949219 4.3007960319519042969 4.0459723472595214844 4.2045717239379882813 4.4867420196533203125 3.9713380336761474609 5.202213287353515625 3.7035019397735595703 3.9475464820861816406 3.5587067604064941406 3.9476654529571533203 4.0100269317626953125 5.5565352439880371094 4.6604928970336914063 5.3478298187255859375 5.2821836471557617188 4.5778360366821289063 5.3252224922180175781 3.7693543434143066406 3.8378992080688476563 4.1160192489624023438 2.6613698005676269531 3.5668752193450927734 2.2759833335876464844 2.0518729686737060547 2.4132838249206542969 2.0014927387237548828 2.0742161273956298828 2.3493106365203857422 2.2841448783874511719 2.5959942340850830078 2.9362783432006835938 2.53527069091796875 2.1358628273010253906 2.275455474853515625 2.8853068351745605469 2.2943847179412841797 2.0938317775726318359 1.9219554662704467773 2.0372867584228515625 2.0489118099212646484 2.024600982666015625 1.9694749116897583008 2.0530414581298828125 2.1807360649108886719 2.1608011722564697266 1.9977290630340576172 1.9053924083709716797 2.1351530551910400391 2.3982520103454589844 2.4547317028045654297 1.7652738094329833984 1.9957258701324462891 2.5963568687438964844 2.3179306983947753906 2.6660223007202148438 2.1844964027404785156 1.756480097770690918 2.2615377902984619141 2.5537343025207519531 2.6424040794372558594 2.4768886566162109375 2.5246117115020751953 2.7128453254699707031 2.6453292369842529297 2.6275515556335449219 3.1154141426086425781 3.2936589717864990234 3.3642678260803222656 3.8037748336791992188 3.7486340999603271484 4.1845870018005371094 4.2761259078979492188 3.7921929359436035156 4.5844206809997558594 4.4284749031066894531 4.8572955131530761719 4.5804657936096191406 4.6931447982788085938 4.4667787551879882813 4.7623300552368164063 4.487857818603515625 3.7078154087066650391 3.7152254581451416016 3.2704098224639892578 3.3585488796234130859 3.3341794013977050781 3.7673313617706298828 2.9248838424682617188 2.7999613285064697266 3.3419408798217773438 2.8733522891998291016 3.0486953258514404297 2.6586966514587402344 2.59464263916015625 2.5093913078308105469 2.2235028743743896484 2.3046889305114746094 2.5746338367462158203 2.2210555076599121094 2.25689697265625 2.1684522628784179688 2.4434792995452880859 2.7980806827545166016 2.3815374374389648438 2.4239821434020996094 2.6141629219055175781 2.8271825313568115234 2.4645941257476806641 2.3890244960784912109 2.5186886787414550781 2.4461255073547363281 2.6019778251647949219 3.0107932090759277344 2.2955977916717529297 2.6032266616821289063 2.8217971324920654297 2.7170171737670898438 2.8815958499908447266 2.5361876487731933594 2.6303434371948242188 2.9813165664672851563 2.9081337451934814453 
2.7811956405639648438 2.5671844482421875 2.5983502864837646484 2.4768564701080322266 2.8671586513519287109 2.8777077198028564453 2.6859869956970214844 2.6646513938903808594 2.9650092124938964844 3.2196545600891113281 2.6462910175323486328 3.2241904735565185547 3.3184864521026611328 2.6873476505279541016 2.6943986415863037109 2.6848530769348144531 3.1180615425109863281 3.0439326763153076172 2.9989006519317626953 3.0595533847808837891 3.0665786266326904297 3.0390491485595703125 3.0652942657470703125 3.0933463573455810547 2.7465555667877197266 2.8704152107238769531 2.7244236469268798828 2.8303594589233398438 2.6106016635894775391 2.7319405078887939453 2.7160711288452148438 2.5123527050018310547 2.3007678985595703125 2.3278112411499023438 2.1155185699462890625 2.2649390697479248047 1.7045683860778808594 2.7825949192047119141 2.0966966152191162109 2.2676668167114257813 2.7910296916961669922 2.1781482696533203125 2.4225766658782958984 3.5009219646453857422 2.5065946578979492188 2.8786866664886474609 3.1615188121795654297 3.5350382328033447266 3.5960106849670410156 3.3179826736450195313 3.5907738208770751953 3.9875555038452148438 4.290798187255859375 4.0847826004028320313 3.5660390853881835938 3.6913626194000244141 3.2965140342712402344 3.9596838951110839844 3.9077043533325195313 4.1360454559326171875 4.0868849754333496094 4.2428097724914550781 4.0834751129150390625 3.8705575466156005859 4.0618448257446289063 4.4105277061462402344 4.1465702056884765625 3.8388929367065429688 4.15955352783203125 4.2864050865173339844 4.60286712646484375 4.4556975364685058594 4.765819549560546875 5.635509490966796875 4.8013138771057128906 6.3914723396301269531 4.6147618293762207031 4.5254330635070800781 5.8574428558349609375 4.15618896484375 4.220432281494140625 3.9930453300476074219 4.2105989456176757813 5.3775506019592285156 3.8584225177764892578 3.8708558082580566406 4.6264081001281738281 4.9772305488586425781 5.5013341903686523438 4.031055450439453125 4.1464123725891113281 5.4154152870178222656 3.6483912467956542969 3.1904687881469726563 3.4234194755554199219 3.0302066802978515625 3.7095820903778076172 2.7895750999450683594 3.05426788330078125 1.9458242654800415039 3.0967073440551757813 3.2724676132202148438 2.2022111415863037109 3.8510572910308837891 1.9829607009887695313 2.3675827980041503906 2.5777580738067626953 2.7530043125152587891 2.4131743907928466797 2.4734225273132324219 2.2059011459350585938 2.6603295803070068359 2.2695288658142089844 2.0942587852478027344 2.1549363136291503906 2.1390814781188964844 2.3480792045593261719 2.2252571582794189453 1.9668639898300170898 2.2735612392425537109 2.2617447376251220703 2.4449315071105957031 2.0143110752105712891 1.8040529489517211914 1.8495222330093383789 1.7781317234039306641 1.8942587375640869141 2.1407744884490966797 1.8068051338195800781 1.6814548969268798828 1.9903348684310913086 1.9400687217712402344 2.5597147941589355469 2.6097681522369384766 1.945261836051940918 2.6938872337341308594 2.2544362545013427734 2.4754352569580078125 2.18230438232421875 2.5479662418365478516 2.7929773330688476563 2.8477597236633300781 2.834644317626953125 3.5379860401153564453 3.5498507022857666016 3.3426053524017333984 3.9310946464538574219 3.1115841865539550781 3.5490972995758056641 4.0527539253234863281 3.7184386253356933594 3.9440412521362304688 3.8618645668029785156 4.565578460693359375 4.1223268508911132813 4.1965551376342773438 4.5400042533874511719 4.5282158851623535156 3.8592319488525390625 3.5830032825469970703 3.3957228660583496094 3.2335362434387207031 3.3218767642974853516 3.2429404258728027344 3.2850372791290283203 2.903377532958984375 3.2870719432830810547 2.7913136482238769531 3.2170836925506591797 2.8033313751220703125 3.0194728374481201172 2.3778145313262939453 2.5508990287780761719 2.5579259395599365234 2.5586249828338623047 2.6857082843780517578 2.2687423229217529297 2.2965061664581298828 2.1919171810150146484 2.6752233505249023438 2.3415424823760986328 2.4871084690093994141 2.3889725208282470703 2.5992188453674316406 2.4877274036407470703 3.1492974758148193359 2.6876261234283447266 2.5668423175811767578 2.5478997230529785156 2.6495654582977294922 2.3563585281372070313 2.3295791149139404297 2.4458062648773193359 2.5309898853302001953 2.3083958625793457031 2.4269130229949951172 2.5781409740447998047 2.4146974086761474609 2.2385065555572509766 2.6561708450317382813 
2.3554036617279052734 2.6543688774108886719 2.5704023838043212891 2.8182697296142578125 2.8767387866973876953 2.5490980148315429688 2.8892037868499755859 2.6274571418762207031 2.6217951774597167969 2.66290283203125 2.8398535251617431641 2.6692821979522705078 3.0948939323425292969 3.0087797641754150391 2.8341217041015625 2.6487524509429931641 3.0868561267852783203 2.7356164455413818359 3.0323302745819091797 2.9557545185089111328 3.2129509449005126953 3.2205448150634765625 2.8173804283142089844 2.8507237434387207031 2.49626922607421875 2.8083269596099853516 2.9297280311584472656 2.8227322101593017578 2.6151823997497558594 2.6511158943176269531 2.5805842876434326172 2.1809151172637939453 2.0473678112030029297 2.2368321418762207031 2.0204501152038574219 2.1561098098754882813 2.2280607223510742188 2.1974186897277832031 2.5135452747344970703 2.0696499347686767578 2.5344793796539306641 2.1358654499053955078 2.5472657680511474609 2.5823428630828857422 2.7037074565887451172 2.831615447998046875 2.8898730278015136719 3.336040496826171875 3.2811849117279052734 3.4910476207733154297 3.4472801685333251953 3.4616789817810058594 3.8901572227478027344 3.64516448974609375 3.5793015956878662109 3.1411042213439941406 3.5120909214019775391 3.5651962757110595703 3.6795513629913330078 4.3155765533447265625 3.4488937854766845703 3.8969271183013916016 4.0022778511047363281 4.1809368133544921875 4.1872296333312988281 3.5614826679229736328 4.5952229499816894531 3.3592128753662109375 3.6156213283538818359 3.8088483810424804688 4.4782896041870117188 4.7658104896545410156 5.2156405448913574219 6.2618780136108398438 5.8193488121032714844 4.8908977508544921875 4.9201755523681640625 5.7089314460754394531 5.8314867019653320313 4.5368447303771972656 4.9248342514038085938 4.180957794189453125 3.9759833812713623047 3.9758434295654296875 3.926013946533203125 3.5915594100952148438 4.97660064697265625 4.1408529281616210938 3.5556840896606445313 4.3151426315307617188 6.0143136978149414063 5.0821661949157714844 4.900135040283203125 3.5997354984283447266 4.4943752288818359375 3.3074452877044677734 2.4482529163360595703 2.4639940261840820313 2.5271997451782226563 3.7162251472473144531 2.3351140022277832031 2.3533155918121337891 5.0965666770935058594 4.0418100357055664063 2.7929289340972900391 2.2415041923522949219 2.5281314849853515625 2.7913606166839599609 2.3647775650024414063 2.6346526145935058594 2.4036414623260498047 2.2727630138397216797 2.1169669628143310547 1.9048376083374023438 2.3415646553039550781 2.0334303379058837891 2.49555206298828125 2.3842678070068359375 2.3785555362701416016 2.2252330780029296875 1.9524732828140258789 1.9521687030792236328 2.2881226539611816406 1.9181005954742431641 2.1600251197814941406 1.9705125093460083008 1.9015350341796875 1.6253192424774169922 2.0064091682434082031 1.9105790853500366211 1.9588289260864257813 1.9425687789916992188 2.1105659008026123047 1.9840121269226074219 2.7131853103637695313 2.7385354042053222656 2.9715576171875 2.6543550491333007813 2.1400086879730224609 2.4950749874114990234 2.4595091342926025391 3.0547971725463867188 2.9620537757873535156 3.3680069446563720703 3.2990283966064453125 3.2399461269378662109 3.8645501136779785156 3.0414917469024658203 3.8871176242828369141 3.7859821319580078125 3.6911561489105224609 3.3904404640197753906 3.9690580368041992188 3.4885835647583007813 4.4014258384704589844 4.0916223526000976563 4.2186207771301269531 3.5662579536437988281 3.7831356525421142578 3.0345587730407714844 3.7735974788665771484 3.1006927490234375 3.4681627750396728516 3.2325346469879150391 3.4522163867950439453 2.5144622325897216797 2.9731912612915039063 2.7697737216949462891 3.0119862556457519531 3.2020428180694580078 3.0062155723571777344 2.7467722892761230469 2.5314083099365234375 2.6137943267822265625 2.6356101036071777344 2.7695195674896240234 2.1889297962188720703 2.2057616710662841797 2.3929734230041503906 2.1672112941741943359 2.2702085971832275391 2.4720237255096435547 2.5351157188415527344 2.7535312175750732422 2.5481173992156982422 2.5070779323577880859 2.4754984378814697266 2.3969905376434326172 2.0635206699371337891 2.5897729396820068359 2.8600776195526123047 2.2021722793579101563 2.2505481243133544922 2.5590431690216064453 2.4336905479431152344 2.4445209503173828125 2.4695715904235839844 2.4894568920135498047 2.3798480033874511719 2.2201991081237792969 
2.5192553997039794922 2.6848955154418945313 2.4964709281921386719 2.2788076400756835938 2.4811794757843017578 2.9970598220825195313 2.9562196731567382813 2.8995823860168457031 2.7065823078155517578 2.6194829940795898438 2.8800089359283447266 3.0462892055511474609 3.1937944889068603516 2.8367130756378173828 2.6966750621795654297 2.9490871429443359375 2.71903228759765625 3.06568145751953125 3.3962652683258056641 3.3655488491058349609 2.8423955440521240234 3.0252881050109863281 2.8456287384033203125 3.3036201000213623047 2.994998931884765625 2.7365167140960693359 2.6199393272399902344 2.6684892177581787109 2.6700763702392578125 2.506046295166015625 2.0867431163787841797 2.3814470767974853516 2.1198170185089111328 2.209987640380859375 2.4497575759887695313 2.0878949165344238281 2.0959911346435546875 2.1268551349639892578 1.6570621728897094727 2.4968328475952148438 2.4149584770202636719 2.7391865253448486328 3.1113770008087158203 2.9582135677337646484 2.9063901901245117188 3.6784985065460205078 3.1546003818511962891 3.1270306110382080078 3.5981059074401855469 3.6258904933929443359 3.3620765209197998047 3.7749471664428710938 3.4798362255096435547 3.8470821380615234375 4.1101660728454589844 3.4143159389495849609 3.3785686492919921875 4.07907867431640625 3.4763936996459960938 3.9162545204162597656 4.4371113777160644531 4.4430832862854003906 3.6531419754028320313 4.1312346458435058594 4.2378869056701660156 4.1248416900634765625 3.9778611660003662109 3.8778018951416015625 3.6246297359466552734 3.9200866222381591797 4.5507855415344238281 4.8339939117431640625 4.789459228515625 4.9649176597595214844 5.4735636711120605469 4.7703833580017089844 4.4779767990112304688 4.5936055183410644531 4.5568718910217285156 5.0260009765625 4.1444621086120605469 4.0131063461303710938 3.7822217941284179688 3.6958675384521484375 3.659023284912109375 4.1360254287719726563 3.6230983734130859375 5.5406475067138671875 3.9736082553863525391 6.5579094886779785156 3.4653408527374267578 3.6588654518127441406 4.0854287147521972656 3.2917492389678955078 4.429431915283203125 3.7871081829071044922 2.7008373737335205078 2.4797875881195068359 2.5514485836029052734 4.2493734359741210938 2.9278903007507324219 2.9617857933044433594 2.7770991325378417969 2.7660465240478515625 2.7397439479827880859 2.4676063060760498047 2.8087775707244873047 2.2419879436492919922 2.1909613609313964844 2.5458705425262451172 2.1526532173156738281 2.2750916481018066406 1.9453490972518920898 2.1217327117919921875 2.0957319736480712891 2.5404169559478759766 1.8485157489776611328 2.4535610675811767578 2.2344024181365966797 1.9944618940353393555 2.0022511482238769531 2.144012451171875 2.0269176959991455078 1.7268853187561035156 1.9187079668045043945 2.0280466079711914063 2.0214693546295166016 1.7787349224090576172 1.9949089288711547852 1.6763811111450195313 2.0706365108489990234 2.2224833965301513672 2.4308245182037353516 1.9685809612274169922 1.5190474987030029297 2.5552821159362792969 1.9862097501754760742 2.1370332241058349609 2.6966378688812255859 2.6475932598114013672 2.1916878223419189453 2.7311437129974365234 2.4512009620666503906 3.4832100868225097656 2.7502036094665527344 2.917888641357421875 3.2773680686950683594 3.0509197711944580078 3.0532543659210205078 3.5080366134643554688 3.3495049476623535156 3.1051545143127441406 3.3977487087249755859 3.9164819717407226563 3.6913583278656005859 3.8616538047790527344 3.5650312900543212891 3.1933259963989257813 3.1818332672119140625 3.4135189056396484375 3.1968100070953369141 2.7593998908996582031 3.2832698822021484375 2.6247711181640625 3.1037349700927734375 2.6555981636047363281 3.0517308712005615234 2.9120738506317138672 2.8177182674407958984 2.7140090465545654297 2.6521408557891845703 3.1688909530639648438 2.6749374866485595703 2.7609734535217285156 2.4814424514770507813 2.7428047657012939453 2.4412162303924560547 2.2986311912536621094 2.1357283592224121094 2.2857968807220458984 2.4667570590972900391 2.2112748622894287109 2.4926126003265380859 2.1264955997467041016 2.5925137996673583984 2.5209167003631591797 2.4784021377563476563 2.1973726749420166016 1.9903230667114257813 2.31758880615234375 2.3159048557281494141 2.0062730312347412109 2.3979156017303466797 2.7130730152130126953 2.4725697040557861328 2.4052827358245849609 2.5902500152587890625 1.8535397052764892578 2.3625140190124511719 2.4324541091918945313 
2.4564607143402099609 2.0689611434936523438 2.3534858226776123047 2.8024153709411621094 2.8392121791839599609 2.5861508846282958984 2.6107866764068603516 2.6794457435607910156 2.7086460590362548828 2.5657474994659423828 2.8701946735382080078 2.4063267707824707031 3.0002574920654296875 3.4585447311401367188 2.8039290904998779297 3.2827112674713134766 2.6835465431213378906 3.0574090480804443359 2.920978546142578125 3.4462082386016845703 2.9899082183837890625 2.8211414813995361328 2.9825267791748046875 3.1090986728668212891 2.8612320423126220703 2.7472321987152099609 2.6897301673889160156 2.8157863616943359375 2.5766475200653076172 2.5671362876892089844 2.9667437076568603516 2.3578007221221923828 2.2177860736846923828 2.0915789604187011719 1.9492161273956298828 2.2248167991638183594 2.4675126075744628906 2.1843006610870361328 2.0377180576324462891 2.8517346382141113281 2.9802637100219726563 2.6026017665863037109 2.9616134166717529297 3.4411444664001464844 3.0184750556945800781 3.0392012596130371094 2.64710235595703125 3.2998282909393310547 3.3163945674896240234 3.9370393753051757813 3.5706434249877929688 3.48938751220703125 3.8115482330322265625 3.5171935558319091797 3.8611168861389160156 3.2117371559143066406 3.17552947998046875 3.8497834205627441406 3.6335887908935546875 3.3878958225250244141 3.3821880817413330078 3.6168820858001708984 3.8171403408050537109 4.328121185302734375 4.2545781135559082031 4.452129364013671875 4.5840268135070800781 3.7262845039367675781 4.7079663276672363281 4.5508050918579101563 4.5002870559692382813 5.0637001991271972656 4.8411355018615722656 4.9261746406555175781 4.9017343521118164063 4.5942974090576171875 5.0636382102966308594 4.9322109222412109375 4.4792523384094238281 5.0525870323181152344 3.6293733119964599609 3.6902167797088623047 3.5229566097259521484 3.3380990028381347656 3.5776884555816650391 4.0411868095397949219 3.8333060741424560547 4.1639790534973144531 4.4510359764099121094 5.8515534400939941406 3.8344643115997314453 4.0313925743103027344 4.3298459053039550781 3.27127838134765625 3.6954655647277832031 2.6011624336242675781 2.9891431331634521484 2.7330796718597412109 2.5992648601531982422 4.1510529518127441406 4.8560986518859863281 5.4808287620544433594 2.9195926189422607422 2.4182007312774658203 2.5052373409271240234 2.4772524833679199219 2.4221935272216796875 3.2463190555572509766 2.3355753421783447266 2.3851439952850341797 2.3940107822418212891 2.1448886394500732422 2.2408823966979980469 2.202800750732421875 2.2453811168670654297 2.4308421611785888672 2.568939208984375 2.2388041019439697266 2.0163936614990234375 1.6414225101470947266 1.9540526866912841797 1.9854047298431396484 1.7923880815505981445 2.0403537750244140625 1.9062590599060058594 2.1396379470825195313 2.2058229446411132813 2.0583255290985107422 1.8363159894943237305 2.0515418052673339844 2.3855390548706054688 2.0367188453674316406 1.9582116603851318359 1.7648627758026123047 1.8882603645324707031 2.5554938316345214844 2.1111929416656494141 2.3527555465698242188 2.2275335788726806641 3.0012865066528320313 2.7432584762573242188 2.8326542377471923828 2.6939284801483154297 2.9760422706604003906 3.1654124259948730469 2.8925194740295410156 2.8169090747833251953 2.9810779094696044922 3.9280247688293457031 3.1272242069244384766 3.0032196044921875 3.4713184833526611328 3.6044714450836181641 3.7010216712951660156 2.9237024784088134766 3.259979248046875 3.3508086204528808594 3.3331360816955566406 3.4409272670745849609 2.7607982158660888672 2.9556062221527099609 3.0355863571166992188 2.6087803840637207031 3.2709383964538574219 2.2618582248687744141 2.6193120479583740234 2.9220845699310302734 2.858486175537109375 2.4934060573577880859 2.4431955814361572266 2.287303924560546875 2.7475993633270263672 2.4792697429656982422 3.0960237979888916016 2.3571956157684326172 2.6177380084991455078 2.1971178054809570313 2.0021266937255859375 2.4387905597686767578 2.0720026493072509766 1.9825388193130493164 2.1657299995422363281 2.1816358566284179688 2.4495062828063964844 2.3720498085021972656 2.5941448211669921875 2.4148762226104736328 2.3834164142608642578 2.789897918701171875 2.3238377571105957031 2.230072021484375 2.1595160961151123047 2.5727868080139160156 2.3516879081726074219 2.3818297386169433594 2.510486602783203125 2.211246490478515625 1.7771768569946289063 2.2959742546081542969 1.945934295654296875 
2.2013833522796630859 2.6219274997711181641 2.2846436500549316406 2.5481684207916259766 2.7796330451965332031 2.7913572788238525391 2.8834524154663085938 2.4915997982025146484 2.6516542434692382813 2.8823587894439697266 2.799285888671875 2.8909063339233398438 2.9222817420959472656 2.878208160400390625 2.8758139610290527344 3.1590113639831542969 2.8926937580108642578 2.7383592128753662109 2.7121744155883789063 3.0355207920074462891 3.1130197048187255859 2.7434141635894775391 2.7277925014495849609 2.7590456008911132813 3.0878939628601074219 2.7895247936248779297 2.7675073146820068359 2.5021185874938964844 3.1408405303955078125 2.0672192573547363281 2.3633878231048583984 2.0212452411651611328 2.1505362987518310547 2.0751903057098388672 2.1588637828826904297 2.0229382514953613281 2.2321710586547851563 2.0928194522857666016 2.2545783519744873047 2.2435700893402099609 2.1449112892150878906 2.5383768081665039063 2.3591153621673583984 2.4866051673889160156 2.9577298164367675781 2.6384081840515136719 3.2183005809783935547 2.9491384029388427734 3.4671716690063476563 3.3755803108215332031 3.7407703399658203125 3.1506669521331787109 3.7957596778869628906 3.4940590858459472656 3.4775929450988769531 3.0841436386108398438 3.340167999267578125 3.6722474098205566406 3.324481964111328125 3.8095886707305908203 3.8314311504364013672 3.6477117538452148438 3.7286810874938964844 4.0143098831176757813 4.0913372039794921875 4.3581628799438476563 4.3577075004577636719 4.2288331985473632813 4.1345591545104980469 3.9795229434967041016 4.2677979469299316406 4.4906296730041503906 4.4576897621154785156 5.6747956275939941406 5.6871776580810546875 5.2040500640869140625 4.8672113418579101563 4.5614604949951171875 6.0326504707336425781 4.9717421531677246094 5.0411977767944335938 3.7402179241180419922 4.9508919715881347656 3.3782441616058349609 3.6409692764282226563 4.1635589599609375 5.3722677230834960938 6.7676472663879394531 4.6065568923950195313 4.96878814697265625 3.7679889202117919922 3.7532589435577392578 3.5179686546325683594 3.1682264804840087891 6.2250046730041503906 3.6004114151000976563 3.0420701503753662109 2.6353154182434082031 2.7892577648162841797 3.6650688648223876953 4.1989693641662597656 2.6948347091674804688 2.8653187751770019531 3.6410727500915527344 2.7925896644592285156 3.0919635295867919922 4.3247117996215820313 2.2059915065765380859 2.6467723846435546875 2.5213108062744140625 1.9495872259140014648 2.3808789253234863281 2.3061621189117431641 2.0018944740295410156 2.4584958553314208984 2.2817580699920654297 2.0207719802856445313 2.1479671001434326172 1.7015058994293212891 1.8604713678359985352 2.0232110023498535156 2.0244436264038085938 2.2057728767395019531 2.0254969596862792969 1.8002524375915527344 2.1624372005462646484 1.9924082756042480469 1.8427726030349731445 2.0689678192138671875 2.0999047756195068359 2.3916306495666503906 2.13628387451171875 2.0247471332550048828 2.1054179668426513672 2.0005016326904296875 2.0525043010711669922 2.2724437713623046875 2.2191383838653564453 2.7235846519470214844 2.3658540248870849609 2.7719197273254394531 2.4482004642486572266 2.6384725570678710938 2.3301341533660888672 3.1593337059020996094 2.39550018310546875 2.3234744071960449219 2.4709546566009521484 2.8753099441528320313 2.7020633220672607422 3.0332281589508056641 2.4427525997161865234 3.3072745800018310547 2.8357119560241699219 3.3003494739532470703 3.1501314640045166016 3.2701940536499023438 3.0085456371307373047 3.5405476093292236328 3.4611980915069580078 2.6553514003753662109 2.9346294403076171875 2.7133028507232666016 2.5173237323760986328 2.3800573348999023438 2.5097208023071289063 2.7874193191528320313 2.4854102134704589844 2.4923691749572753906 2.3391821384429931641 2.1593658924102783203 2.3569071292877197266 2.4626281261444091797 2.5652735233306884766 2.5913217067718505859 2.4713194370269775391 1.9760973453521728516 1.8484430313110351563 1.9813756942749023438 2.0850806236267089844 2.44870758056640625 2.3459811210632324219 2.3176856040954589844 2.3397283554077148438 2.0797531604766845703 2.4131455421447753906 2.3964245319366455078 2.3493511676788330078 2.3235607147216796875 2.4359564781188964844 2.4428877830505371094 2.1853795051574707031 2.3728106021881103516 2.3151357173919677734 1.9692184925079345703 1.9439085721969604492 2.0320596694946289063 1.8984611034393310547 2.1026256084442138672 2.0930221080780029297 
2.5544352531433105469 2.6931600570678710938 2.3451848030090332031 2.5803468227386474609 2.9525063037872314453 2.6721975803375244141 2.5550470352172851563 2.5355215072631835938 2.7712378501892089844 2.4139268398284912109 2.9507677555084228516 2.4770083427429199219 3.1139853000640869141 2.9110729694366455078 2.6555736064910888672 2.8063807487487792969 2.9066870212554931641 2.7086691856384277344 2.9079790115356445313 3.3129343986511230469 2.6104414463043212891 2.9705929756164550781 2.7564308643341064453 2.4920182228088378906 2.4668395519256591797 3.0041668415069580078 2.8592541217803955078 2.6808056831359863281 2.8315446376800537109 2.1834752559661865234 2.4123549461364746094 1.8243968486785888672 1.8832232952117919922 1.9312798976898193359 2.2394270896911621094 2.1957566738128662109 2.1983630657196044922 2.2368662357330322266 2.3133223056793212891 2.2527143955230712891 3.0499081611633300781 2.5195019245147705078 2.6008281707763671875 2.5300557613372802734 2.6012113094329833984 2.5373737812042236328 2.8577506542205810547 2.63239288330078125 2.9297420978546142578 3.5940444469451904297 3.2524433135986328125 3.8333523273468017578 3.2638530731201171875 2.7297437191009521484 2.6963078975677490234 3.2442107200622558594 3.2028431892395019531 3.3290021419525146484 3.6964173316955566406 3.8419213294982910156 4.0669493675231933594 3.3866508007049560547 3.1447927951812744141 3.6705992221832275391 4.0432996749877929688 4.2688589096069335938 4.2582044601440429688 4.2634692192077636719 4.1323680877685546875 4.0939908027648925781 4.2859272956848144531 4.6163477897644042969 4.517925262451171875 4.6352262496948242188 4.82738494873046875 4.8039011955261230469 4.6542363166809082031 4.6221370697021484375 5.2364192008972167969 5.078395843505859375 4.2341699600219726563 3.5805344581604003906 3.2670598030090332031 3.3181986808776855469 4.4878559112548828125 4.171489715576171875 5.3488092422485351563 5.1250138282775878906 3.4965078830718994141 4.6484837532043457031 4.0016222000122070313 5.1722159385681152344 4.8606019020080566406 4.6234025955200195313 5.363330841064453125 5.0111498832702636719 3.2590262889862060547 2.2142481803894042969 2.4941887855529785156 3.8428905010223388672 3.6580455303192138672 2.7110576629638671875 2.7145445346832275391 3.9420635700225830078 3.1447136402130126953 3.0755162239074707031 3.0951316356658935547 2.0134434700012207031 2.4573738574981689453 2.1688108444213867188 2.090923309326171875 2.3911013603210449219 2.1034860610961914063 2.1289961338043212891 1.8890341520309448242 2.3086957931518554688 1.7913022041320800781 2.3542964458465576172 2.3351328372955322266 1.7630841732025146484 1.6437828540802001953 2.1239519119262695313 1.8851995468139648438 2.0888216495513916016 2.0057582855224609375 1.8503527641296386719 2.1428344249725341797 2.0102922916412353516 2.11617279052734375 1.9020159244537353516 1.9018959999084472656 1.7953157424926757813 1.9661622047424316406 1.9869521856307983398 1.8818353414535522461 2.513317108154296875 1.9141671657562255859 2.1876311302185058594 2.2691256999969482422 2.5962309837341308594 2.5047829151153564453 3.2974557876586914063 2.6822249889373779297 2.7663185596466064453 2.0857186317443847656 2.5126886367797851563 2.6666760444641113281 3.3211166858673095703 2.8575379848480224609 2.6716959476470947266 2.7852849960327148438 3.3122456073760986328 2.58349609375 2.4709615707397460938 3.3339140415191650391 2.6129398345947265625 2.5773348808288574219 3.2368445396423339844 3.3059952259063720703 3.3497979640960693359 2.6493439674377441406 2.6066129207611083984 2.4337069988250732422 2.7494380474090576172 2.2795665264129638672 2.4146771430969238281 2.1805753707885742188 2.3565120697021484375 2.2140216827392578125 2.1567695140838623047 2.1868703365325927734 2.43550872802734375 2.2419452667236328125 2.1541907787322998047 2.2021791934967041016 2.4280469417572021484 2.3326802253723144531 1.9515682458877563477 2.0752718448638916016 1.9597686529159545898 2.0637221336364746094 1.9969301223754882813 2.1439335346221923828 2.5655417442321777344 2.2908921241760253906 2.5656785964965820313 2.30094146728515625 1.9970118999481201172 2.0485980510711669922 2.503391265869140625 2.3420174121856689453 2.6915242671966552734 2.0008280277252197266 2.2993845939636230469 2.1527245044708251953 2.2319855690002441406 2.1865282058715820313 1.7020498514175415039 1.9622304439544677734 1.8266508579254150391 
2.4000597000122070313 2.7059099674224853516 2.7681481838226318359 2.4600362777709960938 2.6544198989868164063 2.40299224853515625 2.6232883930206298828 2.9523024559020996094 2.7069575786590576172 2.5741102695465087891 2.4468908309936523438 2.7227377891540527344 2.8596346378326416016 2.7139027118682861328 2.9174420833587646484 2.7454731464385986328 3.5419187545776367188 2.6812567710876464844 2.6211304664611816406 2.9548509120941162109 2.9119400978088378906 2.5862603187561035156 2.7309956550598144531 2.5349264144897460938 2.5813565254211425781 2.7921996116638183594 2.68242645263671875 2.4241664409637451172 2.2021639347076416016 2.1702971458435058594 2.1220118999481201172 2.16240692138671875 1.9920561313629150391 1.8991433382034301758 2.0864086151123046875 1.963385462760925293 1.9278670549392700195 2.4787685871124267578 1.7838248014450073242 2.4454615116119384766 2.6113202571868896484 2.193515777587890625 2.4295406341552734375 3.1264238357543945313 2.9879662990570068359 2.1864876747131347656 2.6186745166778564453 2.4248328208923339844 3.4296586513519287109 2.9106733798980712891 3.2558450698852539063 3.7189466953277587891 3.6477332115173339844 3.3227159976959228516 3.8542094230651855469 3.1513845920562744141 3.0512263774871826172 4.0064053535461425781 3.9346594810485839844 3.9161875247955322266 3.780731201171875 3.4867291450500488281 3.1624894142150878906 3.1001448631286621094 4.1547222137451171875 3.717929840087890625 3.614963531494140625 3.9005081653594970703 3.5640540122985839844 3.8287899494171142578 4.4794130325317382813 4.1814889907836914063 4.1028103828430175781 5.8594861030578613281 6.6080846786499023438 4.8161139488220214844 4.8994073867797851563 5.0642213821411132813 4.4485774040222167969 5.0519556999206542969 3.5207209587097167969 3.5500829219818115234 3.1581876277923583984 3.0837092399597167969 3.0599942207336425781 3.5795805454254150391 3.7606303691864013672 3.5397846698760986328 3.4051992893218994141 3.5811994075775146484 3.8265664577484130859 5.0635833740234375 5.0308899879455566406 3.4934060573577880859 6.0990910530090332031 2.9294960498809814453 4.3293862342834472656 2.7668180465698242188 3.3264102935791015625 4.0135202407836914063 3.5477030277252197266 3.2406835556030273438 2.4830372333526611328 2.7164440155029296875 2.1118538379669189453 2.7754428386688232422 2.1562185287475585938 2.1755042076110839844 1.7992336750030517578 2.1971781253814697266 1.9014722108840942383 1.6984392404556274414 2.0033292770385742188 2.0491740703582763672 2.3817245960235595703 2.0761084556579589844 1.8937826156616210938 2.0392498970031738281 2.1201891899108886719 2.201808929443359375 2.0042641162872314453 2.0768277645111083984 1.6077316999435424805 2.4274320602416992188 1.7197659015655517578 2.2388498783111572266 2.4091365337371826172 1.9838365316390991211 1.8810173273086547852 1.8055891990661621094 1.8442811965942382813 1.9933629035949707031 2.0468001365661621094 2.0891470909118652344 2.1725184917449951172 2.291881561279296875 2.1305708885192871094 2.7577900886535644531 2.5052263736724853516 2.2158360481262207031 2.3733556270599365234 2.7213122844696044922 1.9402837753295898438 2.15079498291015625 2.45318603515625 2.1937489509582519531 2.4903154373168945313 2.4993405342102050781 3.1415231227874755859 2.4171102046966552734 2.5327439308166503906 3.0660607814788818359 2.3286709785461425781 2.4616932868957519531 3.0479426383972167969 2.6336166858673095703 2.3656394481658935547 2.6820414066314697266 3.3693068027496337891 3.3590040206909179688 2.1552288532257080078 2.9018721580505371094 2.7135558128356933594 2.1756446361541748047 2.0298724174499511719 2.1491780281066894531 2.1147220134735107422 1.9922362565994262695 2.1760854721069335938 2.0725486278533935547 2.1175625324249267578 2.366970062255859375 2.0611848831176757813 2.1037790775299072266 2.2914235591888427734 2.3444445133209228516 2.17673492431640625 2.0215446949005126953 1.9720017910003662109 1.7874970436096191406 2.0066778659820556641 2.1855041980743408203 1.9774800539016723633 2.0082333087921142578 2.5251107215881347656 2.05072784423828125 2.3365948200225830078 2.4468939304351806641 2.1857409477233886719 2.0182287693023681641 2.4413163661956787109 2.2622430324554443359 2.14273834228515625 2.1476862430572509766 1.9516376256942749023 1.6716997623443603516 1.8116600513458251953 2.0491573810577392578 1.6568862199783325195 2.1469488143920898438 
2.7405977249145507813 2.6465201377868652344 2.5955417156219482422 2.4008858203887939453 2.8155257701873779297 2.5760302543640136719 2.6268491744995117188 2.4007766246795654297 2.6744859218597412109 2.6021606922149658203 2.5920832157135009766 2.6050484180450439453 2.8702268600463867188 2.5688738822937011719 3.0423581600189208984 2.6981787681579589844 2.8924303054809570313 2.8973348140716552734 3.1160950660705566406 2.7773494720458984375 2.7615323066711425781 2.7225229740142822266 2.8050932884216308594 2.7085492610931396484 2.9628796577453613281 2.8275654315948486328 2.4658007621765136719 2.7307312488555908203 2.5020451545715332031 2.5804114341735839844 2.3483889102935791016 2.4041843414306640625 2.0915734767913818359 1.9094785451889038086 1.8074071407318115234 2.6539106369018554688 2.0677268505096435547 1.8997378349304199219 1.9451490640640258789 2.7682874202728271484 2.1914875507354736328 2.5840313434600830078 3.3665714263916015625 3.3944096565246582031 2.9026186466217041016 2.6113684177398681641 2.1627814769744873047 2.4790616035461425781 2.9196748733520507813 2.7978827953338623047 2.8489215373992919922 2.9871783256530761719 3.4744570255279541016 3.4889817237854003906 3.5143294334411621094 3.1151406764984130859 2.9439632892608642578 3.1742050647735595703 3.7948744297027587891 3.4914574623107910156 3.54933929443359375 3.4784109592437744141 3.8754796981811523438 3.9404897689819335938 3.8170671463012695313 3.9347743988037109375 3.7842323780059814453 3.1107242107391357422 3.5876989364624023438 3.6968746185302734375 3.9113824367523193359 4.0700259208679199219 4.1433544158935546875 4.5068669319152832031 4.8436231613159179688 5.0998930931091308594 4.562664031982421875 3.9764683246612548828 4.4750351905822753906 4.11971282958984375 4.3967266082763671875 3.4391965866088867188 3.7057979106903076172 3.3216283321380615234 4.3320250511169433594 3.2842824459075927734 4.131130218505859375 4.4218392372131347656 3.7679920196533203125 5.8779363632202148438 3.3395853042602539063 3.7585375308990478516 4.8659939765930175781 3.3796007633209228516 4.66684722900390625 3.3369817733764648438 4.2231044769287109375 2.9355297088623046875 2.5791082382202148438 2.9767057895660400391 3.5545942783355712891 3.4866025447845458984 2.1382272243499755859 1.7737213373184204102 1.8139747381210327148 2.3510801792144775391 1.9350862503051757813 2.3174948692321777344 2.4194817543029785156 2.1984739303588867188 2.3929796218872070313 2.5457916259765625 2.2943644523620605469 2.0393784046173095703 2.0037477016448974609 2.1576292514801025391 1.9065250158309936523 1.989989161491394043 1.7915587425231933594 1.8308123350143432617 1.9290786981582641602 1.7604100704193115234 2.6750895977020263672 1.9606473445892333984 2.0988719463348388672 1.8966219425201416016 1.7952905893325805664 2.3823626041412353516 1.9839826822280883789 2.2078297138214111328 2.2479169368743896484 2.4306130409240722656 2.5484831333160400391 2.2784881591796875 2.1703040599822998047 2.5675020217895507813 2.7433085441589355469 2.6661274433135986328 2.39134979248046875 2.0986247062683105469 2.6336948871612548828 2.4948384761810302734 1.9334735870361328125 2.2653045654296875 2.4924798011779785156 3.1105680465698242188 2.7599611282348632813 2.5496861934661865234 2.3348791599273681641 2.7390432357788085938 3.3222441673278808594 2.3908784389495849609 3.0508894920349121094 3.662120819091796875 2.7065362930297851563 2.5063736438751220703 2.4324953556060791016 3.0853927135467529297 2.9970464706420898438 3.08618927001953125 2.3863551616668701172 2.4662442207336425781 2.4590559005737304688 2.7047891616821289063 2.5796270370483398438 1.9730852842330932617 1.8089019060134887695 1.9292031526565551758 2.3101475238800048828 1.9991334676742553711 2.1453268527984619141 2.0572798252105712891 2.1393904685974121094 1.6688430309295654297 2.1378750801086425781 2.4586167335510253906 2.2458326816558837891 2.2085018157958984375 1.8285262584686279297 1.9364098310470581055 2.5240588188171386719 2.1725797653198242188 2.1065235137939453125 1.9594227075576782227 2.1950385570526123047 2.3527786731719970703 2.1996762752532958984 2.3457007408142089844 2.5528550148010253906 2.5218393802642822266 2.4477400779724121094 2.5713942050933837891 2.2085344791412353516 2.1442637443542480469 1.9020974636077880859 1.9572013616561889648 1.6978738307952880859 1.6605468988418579102 1.7622427940368652344 1.8849477767944335938 
2.8643364906311035156 2.8140742778778076172 3.1142928600311279297 2.7522332668304443359 2.4908354282379150391 2.6598315238952636719 2.0878076553344726563 2.5615587234497070313 2.6504848003387451172 2.1157166957855224609 2.2534427642822265625 2.950176239013671875 2.5535340309143066406 2.4333412647247314453 2.9466607570648193359 2.3097090721130371094 2.9894835948944091797 3.2108511924743652344 2.5620296001434326172 3.0257012844085693359 2.8662559986114501953 2.6647264957427978516 2.7472684383392333984 2.9303450584411621094 3.0882446765899658203 2.6798028945922851563 2.2265598773956298828 2.5308737754821777344 2.804561614990234375 2.3620133399963378906 2.1582212448120117188 2.4290032386779785156 2.6184599399566650391 2.1683554649353027344 2.1242947578430175781 1.9093240499496459961 1.9912984371185302734 2.3757803440093994141 1.9420592784881591797 1.7623970508575439453 2.0880134105682373047 2.8574724197387695313 3.0600669384002685547 2.5911047458648681641 2.4172065258026123047 2.2133085727691650391 2.5607187747955322266 2.3981313705444335938 2.3830509185791015625 2.5077610015869140625 2.2919702529907226563 3.2392675876617431641 3.0054118633270263672 3.2899796962738037109 3.2716145515441894531 3.3387291431427001953 2.8690924644470214844 2.7477715015411376953 3.4187688827514648438 3.6286242008209228516 3.7127728462219238281 3.5753529071807861328 3.5654084682464599609 4.7512531280517578125 3.8704707622528076172 3.5868527889251708984 4.0959887504577636719 3.8269987106323242188 3.5345380306243896484 3.2392773628234863281 3.8160560131072998047 3.8007643222808837891 4.1325621604919433594 4.4630866050720214844 4.6037349700927734375 4.8635988235473632813 4.6204547882080078125 4.62609100341796875 4.8118772506713867188 3.9404027462005615234 3.6323628425598144531 4.1943693161010742188 3.8030576705932617188 3.2372899055480957031 2.8886818885803222656 3.1267497539520263672 3.9195914268493652344 4.1255693435668945313 3.0468695163726806641 3.8513464927673339844 3.5443563461303710938 3.9291102886199951172 5.187225341796875 3.7611219882965087891 5.4225811958312988281 4.4334769248962402344 4.5124535560607910156 2.7185761928558349609 2.6403651237487792969 2.5220134258270263672 2.7344412803649902344 3.2755334377288818359 2.417949676513671875 1.87209320068359375 2.7285447120666503906 1.6955801248550415039 2.6905944347381591797 1.9863069057464599609 2.2995705604553222656 2.0262961387634277344 2.7668867111206054688 2.3446879386901855469 1.9593334197998046875 2.6080012321472167969 2.3246457576751708984 2.1475605964660644531 1.7849080562591552734 1.8858966827392578125 1.7935817241668701172 2.0850009918212890625 1.9129626750946044922 1.8361692428588867188 2.1210477352142333984 1.7908004522323608398 2.5648272037506103516 2.4643814563751220703 2.1299419403076171875 2.2066340446472167969 1.6973050832748413086 1.7034968137741088867 2.1004047393798828125 1.9963333606719970703 2.4206736087799072266 2.2758824825286865234 2.5806810855865478516 2.2917721271514892578 2.1953880786895751953 1.753775477409362793 2.5580725669860839844 2.7480046749114990234 2.7697572708129882813 2.565235137939453125 1.9607349634170532227 1.8700345754623413086 1.9744840860366821289 1.9954532384872436523 2.7796583175659179688 2.6373546123504638672 3.2883903980255126953 2.8091154098510742188 2.5175139904022216797 2.7265672683715820313 2.5090770721435546875 2.9448943138122558594 2.8234946727752685547 2.5792996883392333984 2.9352676868438720703 2.8617665767669677734 3.2479593753814697266 2.6078143119812011719 2.9078612327575683594 2.4693801403045654297 1.8428604602813720703 2.0625782012939453125 2.1290590763092041016 1.8580189943313598633 2.0651135444641113281 2.4125983715057373047 2.0674135684967041016 2.3498077392578125 1.8085955381393432617 1.8658698797225952148 1.8762390613555908203 1.9419814348220825195 2.1973235607147216797 2.1937901973724365234 2.2233948707580566406 1.9672799110412597656 2.1559693813323974609 1.800118565559387207 1.9543036222457885742 2.4040591716766357422 2.3300042152404785156 2.3374128341674804688 2.0923769474029541016 2.1486928462982177734 2.1653227806091308594 2.5235929489135742188 2.0585186481475830078 2.1274309158325195313 2.1150188446044921875 2.1155076026916503906 2.067783355712890625 2.4796102046966552734 2.3242545127868652344 2.1664819717407226563 1.9390507936477661133 2.1392683982849121094 2.1297185420989990234 2.2919740676879882813 
2.7488396167755126953 3.0910060405731201172 3.0843844413757324219 2.6990327835083007813 2.7418131828308105469 2.1419222354888916016 2.3582744598388671875 2.4857697486877441406 1.9445068836212158203 2.6345484256744384766 2.5281963348388671875 2.5674550533294677734 2.5015065670013427734 2.5097928047180175781 2.8216583728790283203 2.9035341739654541016 2.2685129642486572266 2.5786268711090087891 2.8130142688751220703 3.1654391288757324219 2.981319427490234375 2.8341944217681884766 3.2935674190521240234 2.7178950309753417969 2.8350665569305419922 2.6027963161468505859 2.7265975475311279297 2.67188262939453125 2.6920132637023925781 2.2308964729309082031 2.2265160083770751953 2.2713401317596435547 2.3242437839508056641 2.1613626480102539063 2.1437809467315673828 2.215969085693359375 1.8289408683776855469 2.0684695243835449219 1.8231866359710693359 1.6755541563034057617 2.7610433101654052734 2.8015561103820800781 2.9441576004028320313 2.2868025302886962891 3.0779013633728027344 2.2751340866088867188 2.7630696296691894531 3.0885787010192871094 2.5571420192718505859 2.8811087608337402344 2.7684826850891113281 2.6414022445678710938 2.7406971454620361328 3.2193305492401123047 2.8241095542907714844 2.9307265281677246094 2.9492540359497070313 2.7845232486724853516 3.3060851097106933594 3.7922422885894775391 4.0040349960327148438 3.6221137046813964844 3.8273830413818359375 3.4047749042510986328 4.0642790794372558594 3.8412873744964599609 3.6053712368011474609 3.4838507175445556641 4.2530946731567382813 3.9051060676574707031 4.1802678108215332031 3.9739973545074462891 4.3760790824890136719 5.3988919258117675781 6.0400342941284179688 4.7089509963989257813 4.9733281135559082031 5.7800507545471191406 3.7635030746459960938 3.4763431549072265625 3.5680804252624511719 3.3766274452209472656 2.8521313667297363281 3.0214655399322509766 2.9589459896087646484 2.9100315570831298828 3.1984801292419433594 3.1304094791412353516 3.6360759735107421875 3.0447952747344970703 4.0321755409240722656 5.009098052978515625 5.0508565902709960938 5.2534127235412597656 5.2845530509948730469 4.2108254432678222656 4.7009053230285644531 3.0537321567535400391 2.8097431659698486328 2.4875421524047851563 2.7152523994445800781 2.5905938148498535156 2.3389537334442138672 2.0728418827056884766 2.2557861804962158203 2.3889448642730712891 1.8492332696914672852 2.2529540061950683594 2.4193882942199707031 2.1539351940155029297 1.9721101522445678711 1.7777187824249267578 2.1655485630035400391 2.0206391811370849609 1.7399129867553710938 1.8073155879974365234 2.3817486763000488281 1.8501147031784057617 1.7726300954818725586 1.9934322834014892578 2.0375339984893798828 2.3975653648376464844 2.0099434852600097656 1.5001376867294311523 2.0633945465087890625 1.9754959344863891602 1.6090790033340454102 2.2152285575866699219 2.2174677848815917969 2.2342455387115478516 2.0886566638946533203 2.3130011558532714844 2.5450036525726318359 2.8095607757568359375 2.8916697502136230469 2.4211893081665039063 2.5659158229827880859 2.4812014102935791016 2.8079309463500976563 2.20917510986328125 1.9181226491928100586 2.6609122753143310547 2.3827869892120361328 2.9435355663299560547 2.252696990966796875 2.7277054786682128906 2.541492462158203125 2.6219017505645751953 3.2080097198486328125 3.4119746685028076172 3.5103819370269775391 2.4939985275268554688 2.1244611740112304688 2.7174131870269775391 3.30511474609375 2.9529323577880859375 3.2521979808807373047 2.4197220802307128906 2.7560524940490722656 2.4340646266937255859 1.9176903963088989258 1.7669897079467773438 2.6085400581359863281 2.0209763050079345703 2.1673722267150878906 2.111392974853515625 1.6844452619552612305 2.0929439067840576172 2.1484849452972412109 2.3210058212280273438 1.8450276851654052734 1.7579201459884643555 1.9228562116622924805 2.1354360580444335938 1.8994374275207519531 1.9609800577163696289 2.0310120582580566406 1.8392080068588256836 1.8809946775436401367 2.0661189556121826172 1.9257857799530029297 2.1187298297882080078 1.911641240119934082 1.6827965974807739258 2.0944836139678955078 2.1841788291931152344 2.3414072990417480469 2.4156675338745117188 2.3709549903869628906 1.9939197301864624023 2.2849771976470947266 2.220355987548828125 2.3386027812957763672 2.3162884712219238281 2.5014681816101074219 2.1755318641662597656 1.9052171707153320313 2.3672893047332763672 1.9788494110107421875 2.3746881484985351563 
2.8707880973815917969 3.0717270374298095703 2.9141376018524169922 2.6047890186309814453 2.7397162914276123047 2.6154983043670654297 2.481311798095703125 2.2542393207550048828 2.3860204219818115234 1.9518475532531738281 2.0212671756744384766 2.1490652561187744141 2.7503716945648193359 2.4685695171356201172 3.08937835693359375 2.4926748275756835938 2.4440460205078125 2.5187916755676269531 2.8761131763458251953 3.0124263763427734375 3.1276628971099853516 2.8642165660858154297 2.8454303741455078125 3.0815365314483642578 2.9584860801696777344 2.6189422607421875 2.8269414901733398438 2.2046895027160644531 2.7501769065856933594 2.4706566333770751953 2.3296356201171875 2.3034601211547851563 2.2632234096527099609 2.1772058010101318359 2.6600558757781982422 2.3443698883056640625 1.9574007987976074219 1.8984723091125488281 1.9386736154556274414 2.6288292407989501953 2.1582973003387451172 1.8721053600311279297 3.0624754428863525391 2.8890795707702636719 2.6221189498901367188 3.621212005615234375 2.9179277420043945313 2.6086132526397705078 2.7966802120208740234 2.4798264503479003906 2.4109108448028564453 3.2113933563232421875 3.1213321685791015625 2.8090264797210693359 2.5778672695159912109 2.4895188808441162109 2.985546112060546875 2.8214404582977294922 3.2911155223846435547 3.7951705455780029297 4.2699437141418457031 3.4209108352661132813 3.1909039020538330078 3.3410336971282958984 3.2488145828247070313 3.6542713642120361328 3.9763445854187011719 3.9703354835510253906 3.9845287799835205078 3.7430419921875 4.2502603530883789063 3.9535708427429199219 4.7497501373291015625 4.4972810745239257813 4.7478685379028320313 4.3594965934753417969 5.9652991294860839844 3.8997848033905029297 4.5383090972900390625 3.4959161281585693359 3.3817160129547119141 3.2519204616546630859 4.0772266387939453125 3.0590960979461669922 2.6418738365173339844 2.8732900619506835938 3.0986468791961669922 3.0083508491516113281 4.0386753082275390625 2.994823455810546875 3.3712756633758544922 2.9762845039367675781 3.6459572315216064453 3.685638427734375 4.8711223602294921875 2.9312484264373779297 4.7373814582824707031 3.2864623069763183594 2.947956085205078125 2.7650506496429443359 2.7461016178131103516 2.3428735733032226563 2.1372859477996826172 1.6767416000366210938 2.0226886272430419922 3.0355160236358642578 1.7517163753509521484 1.8718949556350708008 2.1616575717926025391 1.9442231655120849609 1.9440889358520507813 2.3039371967315673828 2.1333947181701660156 2.1628737449645996094 2.3066277503967285156 2.2382686138153076172 1.8043162822723388672 2.5460283756256103516 1.7518845796585083008 2.1260409355163574219 1.7955201864242553711 2.0322961807250976563 1.6822278499603271484 1.9581310749053955078 2.6437654495239257813 2.4843735694885253906 1.9059786796569824219 1.9065647125244140625 2.0361478328704833984 2.0054662227630615234 2.0652742385864257813 2.1270530223846435547 2.6881196498870849609 2.8282368183135986328 3.0469679832458496094 2.7239284515380859375 2.8210709095001220703 3.0210137367248535156 2.7016246318817138672 2.5019094944000244141 2.2839071750640869141 2.0959832668304443359 1.9741265773773193359 2.5063629150390625 2.0801591873168945313 3.4041805267333984375 3.3031673431396484375 2.9173247814178466797 3.1614797115325927734 3.4242258071899414063 2.8349530696868896484 2.5184781551361083984 2.3294270038604736328 3.020832061767578125 2.3487021923065185547 2.3428485393524169922 2.9146971702575683594 2.5138387680053710938 3.1372935771942138672 2.3648817539215087891 2.1318671703338623047 2.5239214897155761719 2.5185306072235107422 1.8608032464981079102 2.2197675704956054688 1.7571249008178710938 1.9884471893310546875 2.5747704505920410156 2.3240365982055664063 2.5117084980010986328 2.3894512653350830078 2.2832195758819580078 2.3530573844909667969 2.3449964523315429688 2.2115809917449951172 2.0516901016235351563 2.1175320148468017578 1.9030346870422363281 2.1676046848297119141 2.0714030265808105469 2.0164089202880859375 2.487911224365234375 2.0931105613708496094 2.3498592376708984375 2.3374359607696533203 2.0358855724334716797 2.19153594970703125 2.35622406005859375 2.2310488224029541016 1.9460601806640625 2.5204656124114990234 2.2559156417846679688 2.1665101051330566406 2.2074782848358154297 2.6769232749938964844 2.3820836544036865234 2.6195816993713378906 2.1616890430450439453 2.5069110393524169922 2.299602508544921875 
3.1099948883056640625 2.7786357402801513672 2.9114983081817626953 2.234531402587890625 2.5359215736389160156 2.9175839424133300781 2.4365634918212890625 1.9147334098815917969 2.026416778564453125 2.131320953369140625 2.3328740596771240234 2.3770656585693359375 2.2315275669097900391 2.2275776863098144531 2.2683422565460205078 2.4271738529205322266 2.4535055160522460938 2.2248041629791259766 2.6944653987884521484 3.0740492343902587891 3.0806355476379394531 3.1125154495239257813 2.6734161376953125 3.0530612468719482422 2.608081817626953125 2.5119793415069580078 2.6072556972503662109 2.2735106945037841797 2.4048902988433837891 2.2448878288269042969 2.5643289089202880859 2.8226339817047119141 2.3253035545349121094 2.6903543472290039063 2.4318325519561767578 2.2105813026428222656 2.1516690254211425781 2.111141204833984375 2.4047131538391113281 1.9433209896087646484 2.2731893062591552734 2.1334469318389892578 2.3354256153106689453 3.3646585941314697266 3.2291688919067382813 2.3393800258636474609 2.7609167098999023438 2.7556927204132080078 2.2405879497528076172 2.0362300872802734375 1.9406014680862426758 2.7025699615478515625 2.6598393917083740234 2.8340964317321777344 2.2653310298919677734 2.50252532958984375 2.3055665493011474609 2.4296967983245849609 3.5705380439758300781 3.3030750751495361328 3.5080139636993408203 3.7130694389343261719 3.3816771507263183594 3.7514059543609619141 3.2097995281219482422 3.9858412742614746094 4.1615662574768066406 3.4758372306823730469 3.3115429878234863281 3.9983975887298583984 3.7508156299591064453 4.4988555908203125 4.4156298637390136719 4.4829730987548828125 4.1344633102416992188 4.3982915878295898438 3.9448530673980712891 3.4644653797149658203 2.7845036983489990234 3.2892999649047851563 3.3195943832397460938 3.2623515129089355469 2.6822271347045898438 4.3018674850463867188 3.0606000423431396484 2.7463281154632568359 2.7654047012329101563 2.8174452781677246094 3.0107305049896240234 3.7225689888000488281 2.7263410091400146484 2.9183256626129150391 3.1999745368957519531 3.2395956516265869141 3.008853912353515625 2.5260751247406005859 3.6651287078857421875 4.6558218002319335938 2.6754858493804931641 2.8278434276580810547 2.6109068393707275391 2.6533281803131103516 2.2983405590057373047 1.8498589992523193359 2.2055695056915283203 1.9416576623916625977 2.0908744335174560547 2.0630474090576171875 1.5551096200942993164 1.9993460178375244141 1.9166531562805175781 2.2439723014831542969 2.3066403865814208984 1.8498129844665527344 2.0143456459045410156 2.15509796142578125 2.2191622257232666016 2.2479555606842041016 1.7055785655975341797 2.0250144004821777344 2.1437466144561767578 2.0444390773773193359 1.8698006868362426758 2.4445781707763671875 2.3152658939361572266 2.1096541881561279297 1.9835720062255859375 2.0361464023590087891 2.4077556133270263672 2.6338477134704589844 2.2451224327087402344 2.4052572250366210938 2.8302359580993652344 2.6404378414154052734 2.4631280899047851563 2.9465456008911132813 2.8469798564910888672 2.556858062744140625 2.1572229862213134766 2.1687030792236328125 1.987424015998840332 2.7057440280914306641 2.6374444961547851563 2.2761888504028320313 2.1049296855926513672 2.7291703224182128906 2.3593394756317138672 2.4267566204071044922 3.3457489013671875 2.8525493144989013672 2.3164060115814208984 3.26952362060546875 2.33780670166015625 1.9832735061645507813 2.5004978179931640625 2.6994969844818115234 3.1203114986419677734 2.5783510208129882813 3.036197662353515625 2.8328011035919189453 2.3222956657409667969 2.6901774406433105469 1.7656255960464477539 2.4602935314178466797 2.5687959194183349609 2.2450776100158691406 2.0720121860504150391 2.2427413463592529297 2.1093597412109375 2.7846238613128662109 2.1772649288177490234 2.0897188186645507813 1.8988401889801025391 1.4433207511901855469 2.2873466014862060547 2.0969824790954589844 2.3846905231475830078 2.0546584129333496094 2.1024556159973144531 2.2272157669067382813 2.2488915920257568359 2.1926782131195068359 2.5399520397186279297 2.2369160652160644531 2.4977502822875976563 1.8691972494125366211 2.0638945102691650391 2.4165606498718261719 2.5364809036254882813 2.1385636329650878906 2.6506037712097167969 2.8627839088439941406 2.4565324783325195313 2.1331875324249267578 2.5504138469696044922 2.5228822231292724609 2.4248061180114746094 2.1178686618804931641 2.3530399799346923828 2.2062556743621826172 
2.7601313591003417969 2.6251895427703857422 2.9110803604125976563 2.8765106201171875 2.6567535400390625 2.3963260650634765625 2.1019914150238037109 2.162837982177734375 2.2302806377410888672 2.48432159423828125 2.6555829048156738281 2.3600242137908935547 2.4437518119812011719 2.5173923969268798828 2.0612955093383789063 2.6405913829803466797 2.1876375675201416016 2.1893367767333984375 2.7691357135772705078 2.5889225006103515625 2.5737771987915039063 2.8964147567749023438 2.7048075199127197266 2.8239462375640869141 2.8592386245727539063 2.6884324550628662109 2.5928258895874023438 2.6634416580200195313 2.2855024337768554688 2.0443260669708251953 2.1955785751342773438 2.4968099594116210938 2.3542680740356445313 2.3278722763061523438 2.0840899944305419922 2.1037340164184570313 2.1195125579833984375 2.1264097690582275391 1.8292220830917358398 1.962174534797668457 2.3561160564422607422 2.2592706680297851563 2.7969565391540527344 2.5014581680297851563 2.7446496486663818359 2.7384684085845947266 3.0768029689788818359 3.0038731098175048828 2.677669525146484375 2.3891131877899169922 2.2128453254699707031 2.2741014957427978516 3.4627542495727539063 2.6094353199005126953 2.7718091011047363281 2.3678231239318847656 2.3245899677276611328 2.8155667781829833984 3.23693084716796875 3.3737607002258300781 3.3900561332702636719 3.5485489368438720703 3.5912594795227050781 3.2018299102783203125 3.586334228515625 4.2772679328918457031 3.3885562419891357422 3.6380994319915771484 3.3250505924224853516 4.1118121147155761719 4.3726038932800292969 4.2723040580749511719 3.9335062503814697266 4.1125364303588867188 3.5683903694152832031 3.4313526153564453125 3.4528498649597167969 3.1379525661468505859 3.1082813739776611328 2.9020676612854003906 3.1184165477752685547 3.1730737686157226563 2.6363654136657714844 3.1483862400054931641 3.56150054931640625 2.7459588050842285156 2.6752600669860839844 3.4346756935119628906 3.65352630615234375 2.5518398284912109375 2.4665696620941162109 3.0091490745544433594 3.2248456478118896484 3.2119088172912597656 2.8993136882781982422 2.8388423919677734375 2.8628160953521728516 4.20082855224609375 3.1633629798889160156 2.6069266796112060547 2.2933657169342041016 2.4740092754364013672 2.0020112991333007813 2.163616180419921875 2.1887457370758056641 3.0180602073669433594 2.2956960201263427734 1.8541598320007324219 1.8681538105010986328 2.2448132038116455078 1.8027832508087158203 2.0112402439117431641 2.3205900192260742188 2.3866763114929199219 2.1677865982055664063 2.2743487358093261719 2.3166019916534423828 2.0935635566711425781 2.1937296390533447266 1.9769133329391479492 2.2640450000762939453 2.1566116809844970703 2.4540135860443115234 2.5329327583312988281 2.3856549263000488281 1.8181437253952026367 2.2707087993621826172 1.9068193435668945313 2.4566366672515869141 2.2776923179626464844 2.4551045894622802734 2.4405617713928222656 2.1985220909118652344 2.1444172859191894531 2.5456261634826660156 2.2948067188262939453 2.4532785415649414063 2.3758337497711181641 2.2412025928497314453 2.6764042377471923828 3.1300704479217529297 2.5737869739532470703 2.4430906772613525391 2.6351587772369384766 1.9693019390106201172 3.1278531551361083984 3.3388562202453613281 3.0141110420227050781 2.6495714187622070313 2.8235025405883789063 3.6571314334869384766 2.7466440200805664063 2.9786679744720458984 2.4884786605834960938 1.9346092939376831055 2.3127002716064453125 2.3316986560821533203 2.5521724224090576172 2.2106447219848632813 2.6162207126617431641 2.8806416988372802734 2.5813887119293212891 3.2690284252166748047 2.0665736198425292969 1.9280351400375366211 2.5052430629730224609 2.3117871284484863281 2.0941281318664550781 1.7681142091751098633 2.0151782035827636719 2.6005346775054931641 2.5194399356842041016 2.2654376029968261719 2.6165533065795898438 2.8329720497131347656 2.3577001094818115234 1.9577307701110839844 2.4805970191955566406 2.0715143680572509766 2.0128908157348632813 1.7186102867126464844 2.370281219482421875 2.4946999549865722656 2.1997849941253662109 1.5979856252670288086 2.1571462154388427734 1.9385102987289428711 2.0556280612945556641 2.1775450706481933594 2.1105592250823974609 2.5313196182250976563 2.3388996124267578125 2.4003534317016601563 2.2381072044372558594 2.0307052135467529297 2.2701230049133300781 2.6196150779724121094 2.4531874656677246094 2.5211150646209716797 2.4600498676300048828 
3.0960428714752197266 2.2188744544982910156 2.5474543571472167969 2.4561223983764648438 2.5322134494781494141 2.4269092082977294922 2.7245714664459228516 2.2707505226135253906 2.8198699951171875 2.7784278392791748047 2.5457973480224609375 2.3651006221771240234 2.53974151611328125 2.4221606254577636719 3.1454250812530517578 2.5099332332611083984 2.3796639442443847656 2.1935563087463378906 2.7732160091400146484 2.6096897125244140625 2.3087170124053955078 2.6516072750091552734 2.8562343120574951172 2.4213702678680419922 2.3650319576263427734 2.3796460628509521484 2.4865057468414306641 2.6733675003051757813 2.2475061416625976563 2.8960604667663574219 1.834910273551940918 2.3231596946716308594 2.4176502227783203125 2.0966842174530029297 2.1039371490478515625 2.0387639999389648438 2.2862522602081298828 2.1702134609222412109 2.0831930637359619141 2.0655596256256103516 2.2379667758941650391 1.8768784999847412109 1.7363077402114868164 2.1030063629150390625 2.475818634033203125 2.5375928878784179688 3.2705185413360595703 2.5906260013580322266 2.8271086215972900391 2.6610693931579589844 2.83136749267578125 2.3740596771240234375 2.6157157421112060547 2.8178250789642333984 2.9185893535614013672 3.1236236095428466797 3.3926999568939208984 2.7181565761566162109 3.1561303138732910156 3.4076256752014160156 3.2651779651641845703 3.3166244029998779297 3.1907610893249511719 3.3737335205078125 3.0898725986480712891 3.8172733783721923828 3.6895265579223632813 3.7570912837982177734 3.3583853244781494141 3.9352846145629882813 4.0499830245971679688 4.2038545608520507813 4.4349398612976074219 3.8230657577514648438 3.2805774211883544922 3.3212306499481201172 3.3013451099395751953 3.5668966770172119141 3.2202894687652587891 3.2136235237121582031 3.5843508243560791016 3.3514604568481445313 2.8181588649749755859 2.693279266357421875 2.8258748054504394531 2.5776171684265136719 3.7891793251037597656 3.8262827396392822266 2.6192262172698974609 2.8075397014617919922 2.6348283290863037109 2.8309850692749023438 3.4735474586486816406 3.0668871402740478516 5.0897126197814941406 3.9480657577514648438 3.0405352115631103516 2.9231700897216796875 2.3941218852996826172 2.0898931026458740234 3.6015720367431640625 3.6424803733825683594 3.7872481346130371094 1.9915131330490112305 2.2314298152923583984 2.1962993144989013672 2.4680864810943603516 1.8818045854568481445 1.9729049205780029297 2.0491762161254882813 2.3161401748657226563 1.6301075220108032227 2.3921504020690917969 1.8718249797821044922 2.2674806118011474609 2.2207942008972167969 2.3447561264038085938 2.0169053077697753906 1.8119069337844848633 2.0134310722351074219 2.2149472236633300781 2.1833107471466064453 2.7015502452850341797 2.2453274726867675781 2.0064589977264404297 1.9352233409881591797 1.9814318418502807617 1.5366668701171875 1.9874807596206665039 2.7897229194641113281 2.0819864273071289063 2.6058156490325927734 2.5862488746643066406 2.1797268390655517578 2.2906994819641113281 2.2830052375793457031 2.9436285495758056641 2.6795392036437988281 2.3635566234588623047 2.208835601806640625 2.73028564453125 2.5636312961578369141 2.7540762424468994141 2.6532623767852783203 2.0138266086578369141 2.566020965576171875 2.7164607048034667969 3.1457502841949462891 2.7202742099761962891 2.7047927379608154297 2.4348192214965820313 2.6871707439422607422 2.9977059364318847656 2.8994581699371337891 2.0582392215728759766 2.1987833976745605469 2.7061924934387207031 2.5922422409057617188 2.5704843997955322266 2.3689403533935546875 2.81346893310546875 2.6710479259490966797 3.0588691234588623047 2.9647021293640136719 2.3327057361602783203 2.8554999828338623047 2.5404541492462158203 2.9256947040557861328 3.1536083221435546875 2.1346087455749511719 2.8200831413269042969 2.2308189868927001953 2.3464953899383544922 2.5268831253051757813 2.1111917495727539063 1.9041286706924438477 2.0617284774780273438 2.4413182735443115234 1.8736673593521118164 2.2287383079528808594 2.3264515399932861328 2.7931649684906005859 1.9713326692581176758 2.3171627521514892578 1.9758542776107788086 2.1832354068756103516 2.2857699394226074219 2.2975063323974609375 2.3305122852325439453 2.1249847412109375 2.0163576602935791016 2.2784206867218017578 2.3039557933807373047 2.1287524700164794922 2.2396738529205322266 2.5367255210876464844 2.1282911300659179688 2.6409137248992919922 3.0204677581787109375 2.6079697608947753906 
2.3501939773559570313 2.3416450023651123047 2.0735535621643066406 2.5537793636322021484 2.6812293529510498047 2.7834880352020263672 2.1667454242706298828 2.0941407680511474609 2.3186488151550292969 2.8625895977020263672 2.4883451461791992188 2.5017902851104736328 2.4845666885375976563 2.7629809379577636719 2.2388443946838378906 2.45044708251953125 2.3026127815246582031 2.5676832199096679688 2.4137957096099853516 2.8047366142272949219 2.51729583740234375 3.0337874889373779297 2.8188199996948242188 2.4100234508514404297 2.2108566761016845703 2.5378487110137939453 2.5990324020385742188 2.8750135898590087891 2.3703780174255371094 2.3862102031707763672 2.2999451160430908203 1.9352158308029174805 1.7488629817962646484 1.9228862524032592773 2.0209374427795410156 1.8624397516250610352 2.1379766464233398438 1.7222362756729125977 1.8234930038452148438 1.7992434501647949219 2.0108473300933837891 2.2320537567138671875 2.5705232620239257813 2.2912359237670898438 2.5224230289459228516 1.8968412876129150391 2.6112520694732666016 2.4436588287353515625 2.7027850151062011719 2.5690970420837402344 2.4521431922912597656 3.0805871486663818359 2.6118998527526855469 2.2061603069305419922 2.6217803955078125 2.9026899337768554688 2.5110261440277099609 2.8980865478515625 3.2180743217468261719 3.4563977718353271484 3.2698011398315429688 3.0340588092803955078 2.9410977363586425781 3.0973429679870605469 3.32709503173828125 3.4492847919464111328 4.2219567298889160156 3.3102190494537353516 3.223278045654296875 3.5697579383850097656 3.3539991378784179688 4.2654023170471191406 3.41646575927734375 3.7221176624298095703 3.3013658523559570313 3.1520802974700927734 3.2376143932342529297 3.2854592800140380859 3.0273616313934326172 3.0273525714874267578 3.2044811248779296875 3.0209774971008300781 2.9557392597198486328 3.04085540771484375 2.3853631019592285156 2.8043820858001708984 3.0452985763549804688 3.0919864177703857422 3.8887307643890380859 4.0841813087463378906 3.0641522407531738281 3.1372592449188232422 3.0159087181091308594 2.9441735744476318359 3.3062467575073242188 2.6137135028839111328 2.5051326751708984375 2.7196166515350341797 2.4206690788269042969 2.1131181716918945313 3.4219298362731933594 3.5473613739013671875 3.7903280258178710938 1.8395748138427734375 2.1170275211334228516 1.9218453168869018555 2.3191070556640625 1.9285149574279785156 1.6349617242813110352 1.8350709676742553711 1.6203452348709106445 3.5417420864105224609 2.0568108558654785156 1.7417421340942382813 1.8414294719696044922 2.2119429111480712891 2.3150181770324707031 2.478641510009765625 2.3652577400207519531 2.3178324699401855469 1.8745750188827514648 2.5505228042602539063 2.6830830574035644531 3.26119232177734375 2.363555908203125 1.9987263679504394531 2.4520368576049804688 2.5340878963470458984 2.4274485111236572266 2.2151935100555419922 2.3185753822326660156 2.4920489788055419922 3.1586351394653320313 2.7201557159423828125 2.4484381675720214844 2.9685349464416503906 2.8553478717803955078 2.3728072643280029297 2.3942236900329589844 3.0721538066864013672 2.4239962100982666016 2.8757166862487792969 2.7243008613586425781 2.1621096134185791016 2.4697721004486083984 3.1677625179290771484 2.6365880966186523438 2.2138307094573974609 3.005260467529296875 2.8835270404815673828 3.2153136730194091797 2.9287040233612060547 2.3211150169372558594 2.3911550045013427734 2.2855041027069091797 2.3508648872375488281 2.2584450244903564453 2.5524070262908935547 2.9966151714324951172 3.487163543701171875 2.6061902046203613281 3.0113346576690673828 2.9419603347778320313 3.0853230953216552734 3.0095720291137695313 3.0288159847259521484 2.4770209789276123047 2.9492571353912353516 2.8954041004180908203 2.2508547306060791016 2.6825478076934814453 2.990215301513671875 1.9966179132461547852 1.8294062614440917969 1.5837934017181396484 1.9095122814178466797 2.2272548675537109375 1.7549403905868530273 1.8351813554763793945 1.6212878227233886719 1.8794717788696289063 2.2512857913970947266 2.3801558017730712891 2.6790335178375244141 2.3896052837371826172 2.8690979480743408203 2.2101237773895263672 1.9067513942718505859 2.1535000801086425781 2.4417335987091064453 1.9261021614074707031 1.7856774330139160156 2.1686687469482421875 2.5986585617065429688 2.40489959716796875 2.3782031536102294922 2.2246966361999511719 2.5312383174896240234 2.5845327377319335938 2.3235423564910888672 
2.4270963668823242188 2.4156332015991210938 2.3594851493835449219 2.5002460479736328125 2.2661297321319580078 2.239902496337890625 2.3694584369659423828 2.5470342636108398438 1.9862167835235595703 2.3016874790191650391 2.326099395751953125 2.3367800712585449219 2.1122052669525146484 2.5979311466217041016 2.2994382381439208984 2.4121205806732177734 2.339931488037109375 2.9569723606109619141 3.0702600479125976563 2.5664143562316894531 2.8644578456878662109 2.7485475540161132813 2.7396299839019775391 2.5654084682464599609 2.5632376670837402344 2.1159882545471191406 2.5660884380340576172 2.4437396526336669922 2.4752712249755859375 2.4487466812133789063 2.5172491073608398438 2.1583957672119140625 2.0134665966033935547 2.208843231201171875 1.8910388946533203125 1.641566157341003418 1.7267616987228393555 1.8081585168838500977 1.768717646598815918 1.5172200202941894531 2.0838453769683837891 1.8895120620727539063 2.0659382343292236328 2.9312922954559326172 2.4810526371002197266 2.2364962100982666016 2.6833827495574951172 2.2651829719543457031 2.9924705028533935547 2.5802986621856689453 2.6007845401763916016 2.4986779689788818359 2.4202725887298583984 2.5866606235504150391 2.7805817127227783203 3.0495016574859619141 3.0068635940551757813 3.2786896228790283203 3.6292707920074462891 3.4742853641510009766 3.1403865814208984375 3.2955520153045654297 3.2765190601348876953 2.8078987598419189453 3.2001569271087646484 3.4356281757354736328 3.3925619125366210938 3.5232837200164794922 3.5255126953125 3.7721109390258789063 3.6188426017761230469 3.3849248886108398438 3.1900525093078613281 3.3579006195068359375 3.5430345535278320313 3.4098107814788818359 3.2334856986999511719 3.32521820068359375 3.3672208786010742188 2.9441432952880859375 3.5542767047882080078 2.9088127613067626953 3.0383002758026123047 3.160686492919921875 2.62816619873046875 2.8887307643890380859 2.8187117576599121094 3.5202147960662841797 3.3058514595031738281 3.4276602268218994141 2.7798266410827636719 3.0385668277740478516 3.3620238304138183594 3.9745278358459472656 3.2046976089477539063 2.3359997272491455078 2.6672813892364501953 2.6137032508850097656 2.332965850830078125 2.4809625148773193359 2.3997104167938232422 1.7283425331115722656 2.0913455486297607422 1.7702897787094116211 2.0921938419342041016 2.0180218219757080078 2.1349422931671142578 2.0338242053985595703 1.7515542507171630859 1.9499582052230834961 1.7773765325546264648 1.9695931673049926758 2.3812966346740722656 1.7020822763442993164 2.2555279731750488281 1.6182224750518798828 1.946587681770324707 1.8840487003326416016 2.2696819305419921875 2.9551057815551757813 1.7301883697509765625 2.7287354469299316406 3.1365184783935546875 2.8231565952301025391 2.3598086833953857422 2.7943770885467529297 1.7437181472778320313 2.3439302444458007813 2.3785698413848876953 2.1443946361541748047 2.7920196056365966797 2.8125178813934326172 3.0631403923034667969 3.3972067832946777344 2.3215420246124267578 2.8970639705657958984 2.9777474403381347656 2.9265050888061523438 2.8420257568359375 3.2856740951538085938 2.549495697021484375 2.8740713596343994141 2.8478786945343017578 3.2901139259338378906 2.4622094631195068359 2.8389573097229003906 1.9800086021423339844 3.1130220890045166016 2.4643008708953857422 2.9275298118591308594 2.4736118316650390625 2.7273538112640380859 2.7883069515228271484 2.8956162929534912109 2.5409905910491943359 2.2352037429809570313 2.857227325439453125 2.3923444747924804688 2.9491453170776367188 3.2912118434906005859 2.9140181541442871094 2.9570660591125488281 2.4326193332672119141 2.7172491550445556641 3.1970129013061523438 2.2408647537231445313 1.9314850568771362305 2.9534585475921630859 3.2155611515045166016 2.9262282848358154297 2.5673892498016357422 2.8128075599670410156 2.3871376514434814453 2.106090545654296875 2.8836469650268554688 3.0357472896575927734 1.9731206893920898438 2.0422739982604980469 1.8354308605194091797 2.1654086112976074219 2.0588052272796630859 2.2738194465637207031 2.2976195812225341797 1.9693081378936767578 2.0285871028900146484 2.4367768764495849609 2.8700439929962158203 1.8001984357833862305 2.2640228271484375 1.766411900520324707 2.4558718204498291016 2.4892718791961669922 2.1955201625823974609 2.3173038959503173828 2.5094809532165527344 2.5740540027618408203 2.5417802333831787109 2.6653075218200683594 2.7632617950439453125 2.3075211048126220703 
2.4575133323669433594 2.1952502727508544922 2.5220184326171875 2.3426542282104492188 2.4600706100463867188 2.3710877895355224609 2.0904910564422607422 2.0570209026336669922 2.0169773101806640625 2.4761242866516113281 2.5190987586975097656 2.3190183639526367188 1.9479197263717651367 2.1292083263397216797 2.468658447265625 2.5147790908813476563 2.5557098388671875 2.7525804042816162109 2.8590612411499023438 2.7261176109313964844 2.5977015495300292969 2.2704927921295166016 2.6805002689361572266 2.4291317462921142578 2.1016879081726074219 2.6793985366821289063 2.426300048828125 2.5169990062713623047 2.6250698566436767578 2.2844717502593994141 2.6401057243347167969 2.0583727359771728516 1.98775482177734375 1.8538498878479003906 1.7811028957366943359 2.1598970890045166016 2.0886149406433105469 1.5557789802551269531 1.5609073638916015625 2.0839905738830566406 2.1491665840148925781 1.8896636962890625 1.7548986673355102539 2.1426258087158203125 2.0313158035278320313 2.565189361572265625 1.9262440204620361328 2.7730813026428222656 2.4359292984008789063 3.1522676944732666016 2.6835072040557861328 2.3799822330474853516 2.7065820693969726563 2.81781005859375 2.9682726860046386719 3.3359172344207763672 3.04715728759765625 2.8244979381561279297 3.3135066032409667969 2.7761926651000976563 2.965427398681640625 2.9383780956268310547 3.0736505985260009766 3.0534772872924804688 2.9149174690246582031 3.34436798095703125 2.9475259780883789063 3.0399348735809326172 3.4651439189910888672 3.7780184745788574219 3.8364214897155761719 3.2022659778594970703 3.2388758659362792969 2.8033070564270019531 3.2974183559417724609 3.3525345325469970703 3.1416513919830322266 3.0804073810577392578 3.5519464015960693359 2.9789721965789794922 3.1581296920776367188 3.0419213771820068359 2.5964350700378417969 2.6795375347137451172 2.3994030952453613281 2.7265450954437255859 3.0340507030487060547 3.3139858245849609375 2.9184975624084472656 2.7422692775726318359 2.9050946235656738281 2.9375092983245849609 2.7109553813934326172 2.7527995109558105469 3.7661812305450439453 4.1808643341064453125 2.7870380878448486328 3.3510446548461914063 2.7536082267761230469 2.4101297855377197266 2.2652218341827392578 1.82171630859375 1.7299813032150268555 1.7722752094268798828 1.9940705299377441406 1.7822097539901733398 2.0720551013946533203 2.3119754791259765625 1.9240920543670654297 1.6798658370971679688 2.2615962028503417969 1.9837218523025512695 1.8538991212844848633 1.7671226263046264648 2.3760631084442138672 2.4877924919128417969 2.1861169338226318359 1.9583573341369628906 2.6861553192138671875 1.8159705400466918945 2.3618013858795166016 3.1262340545654296875 2.6503808498382568359 2.7393872737884521484 2.7355051040649414063 2.9718189239501953125 2.0356395244598388672 2.4257185459136962891 2.0037894248962402344 2.5467085838317871094 2.3840270042419433594 2.4808988571166992188 3.1713771820068359375 2.9756474494934082031 3.0794022083282470703 3.0201961994171142578 2.4265453815460205078 2.7949509620666503906 3.2148282527923583984 3.5512316226959228516 2.5268733501434326172 3.1267476081848144531 3.2053780555725097656 2.4620599746704101563 2.6044046878814697266 2.9039316177368164063 3.1608157157897949219 2.9275774955749511719 2.5807037353515625 3.1008327007293701172 3.1878972053527832031 2.5449297428131103516 2.9849534034729003906 2.6847178936004638672 1.6472856998443603516 2.0732145309448242188 2.553554534912109375 2.5295863151550292969 2.9565434455871582031 3.3874831199645996094 3.1405584812164306641 3.2897160053253173828 2.2157595157623291016 2.3123574256896972656 2.4533722400665283203 2.5635983943939208984 2.0773270130157470703 3.0700790882110595703 2.474712371826171875 2.7382833957672119141 2.6254389286041259766 2.3031163215637207031 2.2415513992309570313 2.5803711414337158203 3.0386109352111816406 2.0529019832611083984 2.3559069633483886719 1.9650119543075561523 1.4345024824142456055 1.8271250724792480469 2.1633255481719970703 1.9423434734344482422 1.4568533897399902344 1.9683709144592285156 2.6226725578308105469 1.901517033576965332 1.8473715782165527344 1.9149953126907348633 1.7212193012237548828 1.7369847297668457031 1.988636016845703125 1.9764159917831420898 2.2613351345062255859 2.1413915157318115234 2.7039444446563720703 2.2487599849700927734 2.5276737213134765625 2.2942788600921630859 2.6637046337127685547 2.3866248130798339844 
2.2034325599670410156 2.3348600864410400391 2.4458653926849365234 2.1547605991363525391 2.3475127220153808594 2.2886588573455810547 2.3455796241760253906 2.2093203067779541016 2.3357169628143310547 2.4190251827239990234 2.4893031120300292969 1.9679055213928222656 2.2006628513336181641 2.1829698085784912109 2.3034093379974365234 2.6125130653381347656 2.6878418922424316406 2.737579345703125 2.6122162342071533203 2.4913194179534912109 2.5782103538513183594 2.3689913749694824219 2.4313118457794189453 2.3106844425201416016 2.4105780124664306641 2.7966184616088867188 2.3282563686370849609 2.2597446441650390625 2.425624847412109375 2.4744946956634521484 2.5039000511169433594 2.1886799335479736328 2.4315352439880371094 2.1115236282348632813 2.0056025981903076172 1.9525525569915771484 2.0912890434265136719 1.7546093463897705078 1.8742876052856445313 1.8645043373107910156 2.0675497055053710938 2.0248944759368896484 1.8245927095413208008 2.0726382732391357422 1.8212907314300537109 2.1626946926116943359 2.374423980712890625 2.7915122509002685547 2.3062365055084228516 2.6204755306243896484 3.0746381282806396484 3.2200856208801269531 2.9437189102172851563 2.8027174472808837891 2.8012347221374511719 3.0022330284118652344 3.1053416728973388672 3.0444202423095703125 3.2996580600738525391 2.5966095924377441406 3.0729250907897949219 3.0373363494873046875 3.3890721797943115234 3.1266145706176757813 3.2267336845397949219 2.9872133731842041016 3.2649109363555908203 2.9386579990386962891 3.3627476692199707031 4.0710787773132324219 3.9918086528778076172 3.4716854095458984375 3.0868442058563232422 3.4651131629943847656 2.9396224021911621094 2.9472975730895996094 2.4277667999267578125 2.4940683841705322266 2.7176907062530517578 4.0442728996276855469 2.9713120460510253906 2.8611676692962646484 3.1892938613891601563 2.6544828414916992188 3.1080036163330078125 2.6805262565612792969 2.9606983661651611328 2.9545080661773681641 2.8385102748870849609 3.0850844383239746094 3.2507631778717041016 4.1840653419494628906 2.7873930931091308594 3.9933235645294189453 2.5698380470275878906 2.3790338039398193359 2.8836679458618164063 2.843475341796875 2.9845685958862304688 2.3484315872192382813 2.3481233119964599609 2.9664161205291748047 1.8977848291397094727 1.7753196954727172852 1.6740481853485107422 1.8504886627197265625 2.2209670543670654297 1.8654066324234008789 2.0188374519348144531 1.6225636005401611328 1.6445962190628051758 1.6011672019958496094 1.6290277242660522461 1.7026163339614868164 2.9231050014495849609 1.949029088020324707 2.7998189926147460938 2.1500949859619140625 2.9165437221527099609 2.5078160762786865234 1.6199508905410766602 2.1232204437255859375 1.410491943359375 2.1991682052612304688 2.0344903469085693359 2.5306444168090820313 2.4236445426940917969 2.513500213623046875 2.3282375335693359375 1.9905833005905151367 2.0075082778930664063 2.3265480995178222656 2.4581959247589111328 2.6793599128723144531 2.4330019950866699219 2.6811378002166748047 3.1282894611358642578 2.7973017692565917969 3.1306214332580566406 2.6355795860290527344 2.79964447021484375 2.8788163661956787109 2.5789306163787841797 2.8042323589324951172 3.1972777843475341797 2.6274037361145019531 3.2618889808654785156 3.2950458526611328125 2.9300053119659423828 2.8941698074340820313 3.1088848114013671875 2.3253324031829833984 2.3641941547393798828 1.8108925819396972656 1.9727532863616943359 2.2959957122802734375 1.7836196422576904297 1.8505827188491821289 3.101619720458984375 2.9195368289947509766 3.6326274871826171875 2.4530551433563232422 2.7798845767974853516 2.1754279136657714844 2.4486353397369384766 2.156833648681640625 2.4225471019744873047 2.9064128398895263672 2.4108133316040039063 2.6831376552581787109 2.6178376674652099609 2.4272983074188232422 2.7675795555114746094 3.2359738349914550781 2.9284377098083496094 2.5029306411743164063 2.5338025093078613281 2.0565860271453857422 2.2947459220886230469 1.9453175067901611328 2.0248153209686279297 2.7984294891357421875 2.3455491065979003906 2.2284150123596191406 1.7696954011917114258 2.0463328361511230469 2.2057206630706787109 2.0858016014099121094 2.1977260112762451172 2.0761852264404296875 2.0232450962066650391 2.0306220054626464844 2.4072077274322509766 2.4880762100219726563 2.5291600227355957031 2.6350839138031005859 2.47098541259765625 2.5788798332214355469 2.7542879581451416016 2.3837885856628417969 
2.3479609489440917969 2.1854877471923828125 2.8538072109222412109 2.1433990001678466797 2.5781013965606689453 2.5094835758209228516 2.2741289138793945313 2.5672080516815185547 2.5590293407440185547 2.3838529586791992188 2.1971979141235351563 2.0274651050567626953 2.1119976043701171875 2.4258444309234619141 2.3938431739807128906 2.5657055377960205078 2.7602417469024658203 2.2417964935302734375 2.4945099353790283203 2.5572800636291503906 2.1710138320922851563 1.9802906513214111328 2.5177035331726074219 2.6035943031311035156 2.2975943088531494141 2.628734588623046875 3.1145718097686767578 2.4700653553009033203 2.9246840476989746094 2.7982144355773925781 2.6406376361846923828 2.3921811580657958984 2.5122246742248535156 1.9304381608963012695 2.3792703151702880859 1.8736118078231811523 1.8303179740905761719 1.3034636974334716797 1.6395109891891479492 2.0773510932922363281 1.7372610569000244141 1.8749754428863525391 1.8576865196228027344 1.8436783552169799805 2.0678813457489013672 3.0080084800720214844 1.8079934120178222656 2.4272980690002441406 2.5998134613037109375 2.8159289360046386719 2.6206560134887695313 3.0103816986083984375 3.3939559459686279297 3.4006400108337402344 3.3326904773712158203 3.1190264225006103516 3.4422528743743896484 3.6132447719573974609 3.0653934478759765625 3.8580791950225830078 3.9769046306610107422 4.1596231460571289063 3.6572971343994140625 3.1865632534027099609 3.0630466938018798828 3.350719451904296875 2.9122395515441894531 3.0113887786865234375 3.3309373855590820313 3.7297666072845458984 4.1503210067749023438 3.65724945068359375 3.2823722362518310547 2.9734201431274414063 3.7124860286712646484 2.8273022174835205078 3.4489741325378417969 3.5043129920959472656 2.5362601280212402344 3.4768078327178955078 3.6981945037841796875 2.6569066047668457031 2.8697896003723144531 2.7714886665344238281 2.8255214691162109375 2.6175622940063476563 2.6287302970886230469 3.0444197654724121094 2.9359908103942871094 2.7711803913116455078 3.2545676231384277344 2.9096689224243164063 4.3855009078979492188 2.8404119014739990234 4.2564110755920410156 2.7849516868591308594 2.3968014717102050781 2.4886183738708496094 3.623126983642578125 2.7213199138641357422 3.3488862514495849609 2.5105304718017578125 2.2278230190277099609 2.613780975341796875 2.2585599422454833984 1.82466888427734375 2.4487488269805908203 1.5671437978744506836 2.2304890155792236328 2.2482013702392578125 1.6369384527206420898 1.453303217887878418 2.1825008392333984375 2.2521185874938964844 2.4070849418640136719 2.3348169326782226563 2.0567533969879150391 2.4037358760833740234 3.2135741710662841797 2.6067802906036376953 2.9458627700805664063 2.4094767570495605469 2.1670823097229003906 2.0724070072174072266 2.920856475830078125 2.4964005947113037109 2.4541697502136230469 2.2999322414398193359 2.7055585384368896484 1.8293755054473876953 2.0525302886962890625 3.2265787124633789063 2.4238910675048828125 2.7410378456115722656 2.8250720500946044922 2.4258201122283935547 2.8867669105529785156 2.3498561382293701172 3.0164494514465332031 2.2594218254089355469 2.4380517005920410156 2.8405690193176269531 2.8169155120849609375 3.2966909408569335938 2.6819987297058105469 2.8477234840393066406 2.5326511859893798828 2.1911177635192871094 2.0731599330902099609 3.1136395931243896484 2.5976860523223876953 2.7589111328125 2.9515345096588134766 1.7771649360656738281 2.3146460056304931641 2.4624445438385009766 2.9054620265960693359 2.3409450054168701172 2.179080963134765625 2.1626787185668945313 2.7078597545623779297 2.4433948993682861328 2.1661825180053710938 2.4638314247131347656 1.9188365936279296875 2.4375557899475097656 2.3350293636322021484 3.2999391555786132813 2.5696942806243896484 2.4779322147369384766 2.9168801307678222656 2.2400453090667724609 2.9325931072235107422 2.8454442024230957031 2.2212951183319091797 3.0698173046112060547 2.8691728115081787109 2.5148451328277587891 2.5953581333160400391 2.1553330421447753906 2.0472712516784667969 1.8820453882217407227 1.937122344970703125 1.9436713457107543945 1.8800255060195922852 1.9351170063018798828 2.1597549915313720703 2.1713681221008300781 2.2856142520904541016 2.1569075584411621094 2.0692262649536132813 2.4900004863739013672 2.2299365997314453125 2.6171050071716308594 2.6694765090942382813 2.6799452304840087891 2.8078258037567138672 2.743389129638671875 2.6880161762237548828 2.7675049304962158203 
2.7402853965759277344 2.5584568977355957031 2.2984845638275146484 2.1791887283325195313 2.4436140060424804688 2.2468259334564208984 2.4630279541015625 2.3697595596313476563 2.7051694393157958984 2.2641847133636474609 1.9064117670059204102 2.1682796478271484375 2.0118250846862792969 2.1627621650695800781 2.2382798194885253906 2.6003787517547607422 2.1531634330749511719 2.9630043506622314453 2.7857286930084228516 2.2789478302001953125 2.2631585597991943359 2.2177753448486328125 2.1227259635925292969 2.2806742191314697266 2.4527616500854492188 2.5459749698638916016 2.4482119083404541016 2.4721188545227050781 2.6264090538024902344 2.5970704555511474609 2.5870368480682373047 2.3000352382659912109 2.0264000892639160156 1.9794422388076782227 1.9728360176086425781 2.1096632480621337891 1.4547187089920043945 1.6761281490325927734 1.5799748897552490234 1.7631380558013916016 1.8357878923416137695 1.8705892562866210938 1.7550007104873657227 1.9199391603469848633 1.8023027181625366211 2.0173287391662597656 1.6641086339950561523 2.1883094310760498047 2.2668676376342773438 2.2296817302703857422 2.3001401424407958984 2.3901836872100830078 2.9104712009429931641 3.0515799522399902344 3.2256412506103515625 2.6379094123840332031 3.4802646636962890625 3.3808016777038574219 3.4489481449127197266 3.2492480278015136719 3.7045228481292724609 4.0815930366516113281 3.5221149921417236328 3.1648097038269042969 3.1911320686340332031 3.2650990486145019531 3.2346391677856445313 3.5074064731597900391 3.3196318149566650391 3.4584627151489257813 3.8185868263244628906 4.4478449821472167969 4.4261126518249511719 3.3948945999145507813 3.1236081123352050781 3.4171991348266601563 2.3450119495391845703 3.77600860595703125 2.6682665348052978516 4.0587549209594726563 2.7815492153167724609 4.2178707122802734375 2.8380830287933349609 2.8743548393249511719 2.6344778537750244141 2.6970467567443847656 3.1854894161224365234 2.7416417598724365234 2.7211742401123046875 2.9763405323028564453 3.4990086555480957031 3.1102225780487060547 3.0146946907043457031 3.2350628376007080078 2.7939493656158447266 2.1486902236938476563 4.8345971107482910156 2.8198506832122802734 2.2635755538940429688 4.1011652946472167969 2.6669161319732666016 3.663974761962890625 2.2064411640167236328 2.1988770961761474609 1.6704888343811035156 2.8041138648986816406 2.6949017047882080078 2.4056570529937744141 3.9404838085174560547 1.7768232822418212891 1.657252192497253418 2.9356036186218261719 3.2334864139556884766 4.5769572257995605469 2.7545013427734375 3.8153309822082519531 3.4196102619171142578 2.1652290821075439453 2.8512232303619384766 1.8167541027069091797 2.3393375873565673828 1.9081943035125732422 1.7895300388336181641 1.9091768264770507813 1.9747419357299804688 1.8581085205078125 1.9427895545959472656 2.2153651714324951172 2.4399614334106445313 2.1415224075317382813 1.9845552444458007813 1.7198096513748168945 2.1390552520751953125 1.880560755729675293 2.5474762916564941406 2.0492892265319824219 1.8382476568222045898 2.5296959877014160156 2.7407734394073486328 2.0088107585906982422 2.4453060626983642578 2.7978413105010986328 2.9569215774536132813 2.79297637939453125 3.0087578296661376953 2.4282002449035644531 2.7648472785949707031 3.1211066246032714844 2.9468693733215332031 2.7548744678497314453 2.7774248123168945313 2.2043428421020507813 2.4953331947326660156 2.0139284133911132813 2.2670819759368896484 2.4046194553375244141 2.4201290607452392578 2.5687525272369384766 2.2155041694641113281 2.2142415046691894531 2.6245703697204589844 2.3042657375335693359 2.6566603183746337891 2.6656763553619384766 2.5631024837493896484 2.4370639324188232422 2.6379792690277099609 2.9742493629455566406 2.3401720523834228516 2.6046087741851806641 2.6545047760009765625 2.4885890483856201172 2.4757761955261230469 2.4740583896636962891 2.8449244499206542969 3.1335027217864990234 2.0791037082672119141 2.6414544582366943359 1.9375998973846435547 1.859499812126159668 1.9741864204406738281 2.2384691238403320313 2.0301759243011474609 1.8787980079650878906 2.2625298500061035156 1.8130148649215698242 1.9725396633148193359 2.4941360950469970703 2.1552736759185791016 2.8025357723236083984 2.5133953094482421875 2.1410424709320068359 2.4165360927581787109 2.8339660167694091797 2.7986638545989990234 2.7570843696594238281 2.9423718452453613281 3.2399878501892089844 2.1733133792877197266 3.1315057277679443359 
2.4739170074462890625 2.3345496654510498047 2.543483734130859375 2.3154478073120117188 2.4685201644897460938 2.4671840667724609375 2.3322973251342773438 2.3526740074157714844 2.2699463367462158203 2.5332615375518798828 2.4386205673217773438 2.4083380699157714844 2.3884615898132324219 2.1790752410888671875 2.5603311061859130859 2.2826504707336425781 1.9724389314651489258 2.6750390529632568359 2.3419454097747802734 2.3593900203704833984 2.7089793682098388672 2.2958664894104003906 2.0135552883148193359 2.5153019428253173828 2.7248194217681884766 2.8055193424224853516 2.4351408481597900391 2.5479676723480224609 2.6944634914398193359 2.5109462738037109375 2.0989565849304199219 2.1421673297882080078 2.0248556137084960938 2.2090578079223632813 1.9796668291091918945 1.7342448234558105469 1.9793120622634887695 1.55975341796875 1.8579839468002319336 1.8448107242584228516 1.6290341615676879883 1.7357333898544311523 2.1131255626678466797 1.660128474235534668 1.9096791744232177734 2.4520137310028076172 2.4443292617797851563 2.1393818855285644531 1.919665217399597168 1.8676563501358032227 2.5982203483581542969 2.6655783653259277344 2.6085512638092041016 3.1081340312957763672 2.4404964447021484375 2.9641041755676269531 3.1185367107391357422 2.8646669387817382813 3.2258176803588867188 3.2000174522399902344 3.0250673294067382813 3.2397089004516601563 3.4449579715728759766 3.2493779659271240234 3.0942783355712890625 2.9275419712066650391 3.3255319595336914063 4.0241084098815917969 3.6193299293518066406 3.58243560791015625 3.8159492015838623047 3.7938349246978759766 3.6848897933959960938 3.1609899997711181641 3.0901911258697509766 3.1923558712005615234 3.66274261474609375 2.7843489646911621094 2.7895190715789794922 2.8893647193908691406 2.9179291725158691406 3.1644127368927001953 5.4927682876586914063 2.7694988250732421875 2.5680596828460693359 2.7102026939392089844 2.5729031562805175781 2.4451334476470947266 2.5443718433380126953 2.8554358482360839844 3.5064027309417724609 3.9484555721282958984 5.1600947380065917969 4.3593130111694335938 2.8913245201110839844 3.8950529098510742188 3.9204261302947998047 4.7566843032836914063 4.5952754020690917969 3.4020643234252929688 2.702213287353515625 2.4744837284088134766 2.3731048107147216797 1.9206663370132446289 2.4752855300903320313 2.6314482688903808594 2.8122377395629882813 2.0382189750671386719 1.7885869741439819336 1.7152142524719238281 2.1894800662994384766 1.6396039724349975586 2.6346099376678466797 4.3749170303344726563 2.2313787937164306641 3.7417802810668945313 2.1793088912963867188 2.1097824573516845703 2.4488210678100585938 2.2742979526519775391 2.0079565048217773438 2.3606293201446533203 2.2023556232452392578 1.6423082351684570313 1.7333184480667114258 1.4493868350982666016 2.3478863239288330078 1.9049934148788452148 1.9382158517837524414 2.2306945323944091797 2.3306002616882324219 2.3260424137115478516 2.4894497394561767578 2.2777597904205322266 2.27370452880859375 1.9159857034683227539 2.2135434150695800781 3.3621637821197509766 2.3968997001647949219 2.4760744571685791016 2.7799403667449951172 3.3807642459869384766 3.1240088939666748047 2.1293587684631347656 3.0225889682769775391 2.9170632362365722656 2.3104028701782226563 2.5730092525482177734 2.6194493770599365234 2.5962550640106201172 2.9029009342193603516 2.7390561103820800781 2.5743420124053955078 2.5678029060363769531 2.0860764980316162109 2.5373923778533935547 2.2465572357177734375 2.2270905971527099609 2.8509435653686523438 1.6943213939666748047 2.2842645645141601563 2.4169657230377197266 1.5106353759765625 2.3291990756988525391 2.3361690044403076172 2.4304256439208984375 2.8611798286437988281 2.6274385452270507813 2.0552275180816650391 2.7077322006225585938 2.4876842498779296875 2.1105947494506835938 2.4181225299835205078 2.9689135551452636719 3.0956673622131347656 3.1059012413024902344 2.4473063945770263672 2.8874037265777587891 2.1623325347900390625 2.190959930419921875 2.5254359245300292969 2.2946369647979736328 1.7232012748718261719 2.0483722686767578125 1.9736210107803344727 2.1916801929473876953 2.2360692024230957031 2.2783260345458984375 2.1509664058685302734 2.5576195716857910156 2.1382966041564941406 2.2508807182312011719 2.2539741992950439453 2.5901322364807128906 2.7804608345031738281 2.8306255340576171875 2.87076568603515625 3.2898414134979248047 2.8362796306610107422 3.9224703311920166016 
2.1817414760589599609 2.3639385700225830078 2.9591839313507080078 2.5614948272705078125 2.3406829833984375 2.2981004714965820313 2.4104993343353271484 2.3513996601104736328 2.0947308540344238281 2.2903621196746826172 2.3088176250457763672 2.2621126174926757813 2.1936807632446289063 1.8594435453414916992 2.4849193096160888672 2.1091578006744384766 2.2549333572387695313 2.6282885074615478516 2.8015229701995849609 2.1284878253936767578 2.2694489955902099609 2.3217966556549072266 2.4625186920166015625 2.6723532676696777344 2.3947317600250244141 2.2849853038787841797 2.4391090869903564453 2.5885591506958007813 2.2211260795593261719 2.2289412021636962891 2.4421670436859130859 2.0658042430877685547 2.4277052879333496094 2.0594246387481689453 2.0556857585906982422 1.8155283927917480469 1.909191131591796875 1.6215904951095581055 2.0572416782379150391 1.9576494693756103516 2.0465843677520751953 1.4265576601028442383 1.9586032629013061523 2.619998931884765625 1.9624798297882080078 2.6621859073638916016 1.8498967885971069336 2.4023880958557128906 2.0971014499664306641 2.6392281055450439453 2.4968740940093994141 1.9800788164138793945 2.4084577560424804688 2.0514090061187744141 2.7696237564086914063 2.9097797870635986328 3.1874032020568847656 3.3596818447113037109 3.6180267333984375 2.9164845943450927734 3.4935307502746582031 3.4091663360595703125 3.2564694881439208984 3.4078066349029541016 3.0491328239440917969 2.9967432022094726563 3.6202771663665771484 3.3561027050018310547 3.7425742149353027344 3.8276736736297607422 4.02581787109375 3.3806111812591552734 3.4247372150421142578 4.0887851715087890625 3.3120896816253662109 3.0371673107147216797 2.9338862895965576172 2.7833940982818603516 2.5635793209075927734 2.7095124721527099609 3.1590468883514404297 3.6405010223388671875 3.8501253128051757813 2.9020020961761474609 2.6050558090209960938 3.1946742534637451172 2.8311011791229248047 2.9083664417266845703 2.8123602867126464844 4.2851920127868652344 4.2247843742370605469 3.7407732009887695313 4.1102833747863769531 4.9241876602172851563 3.0704107284545898438 4.4342951774597167969 2.7817304134368896484 3.4443202018737792969 2.7301719188690185547 2.8244760036468505859 2.4095468521118164063 3.4229147434234619141 2.1103699207305908203 2.9141223430633544922 3.3223166465759277344 1.6524392366409301758 2.3753516674041748047 2.755748748779296875 2.3389761447906494141 1.6697378158569335938 2.0243487358093261719 1.7411559820175170898 3.3177802562713623047 2.6283078193664550781 3.729984283447265625 1.8452590703964233398 1.980204463005065918 2.0679886341094970703 2.5148217678070068359 2.4614229202270507813 2.1875650882720947266 2.2240285873413085938 1.8429219722747802734 2.1344251632690429688 2.0938985347747802734 2.0601367950439453125 1.6050610542297363281 2.0705840587615966797 2.1323976516723632813 2.8974137306213378906 1.9653530120849609375 1.9347982406616210938 2.0246224403381347656 2.0573635101318359375 1.9961963891983032227 1.9707956314086914063 2.6653108596801757813 2.2845170497894287109 2.4387993812561035156 1.5186175107955932617 2.2508232593536376953 2.7236819267272949219 2.5066394805908203125 2.3593866825103759766 2.8379268646240234375 3.1126301288604736328 3.0206463336944580078 3.3241944313049316406 2.8445684909820556641 2.861125946044921875 2.8788006305694580078 2.229000091552734375 2.6295371055603027344 2.6369831562042236328 2.7856810092926025391 2.7016720771789550781 2.0997073650360107422 2.9199111461639404297 2.4304807186126708984 2.1911203861236572266 2.4892976284027099609 1.8478703498840332031 1.8988176584243774414 2.0577545166015625 2.0314476490020751953 2.2043068408966064453 2.1781737804412841797 2.9178535938262939453 2.4078283309936523438 3.1176233291625976563 1.878743290901184082 2.2946822643280029297 2.0321941375732421875 2.4482681751251220703 2.6474354267120361328 2.7462489604949951172 2.7680330276489257813 2.1955614089965820313 2.0536770820617675781 2.5775663852691650391 2.0433113574981689453 1.7618303298950195313 1.987837672233581543 1.9469143152236938477 1.7353949546813964844 1.9412178993225097656 1.7613614797592163086 1.8924630880355834961 2.4027702808380126953 2.4073212146759033203 2.3411962985992431641 2.4215576648712158203 2.6022901535034179688 2.3152151107788085938 2.6441481113433837891 2.6564061641693115234 2.6628262996673583984 2.7158749103546142578 2.99449920654296875 3.9958164691925048828 
2.4860994815826416016 2.5683495998382568359 2.7185990810394287109 2.5471360683441162109 2.3864796161651611328 2.4695627689361572266 2.6038832664489746094 2.2089323997497558594 1.8809832334518432617 2.0910737514495849609 2.4463572502136230469 2.1737186908721923828 1.9530718326568603516 2.2677738666534423828 2.3316164016723632813 2.2183735370635986328 2.1099960803985595703 2.3135046958923339844 2.1736190319061279297 2.6247503757476806641 2.1957094669342041016 2.2025928497314453125 2.3635835647583007813 2.7195348739624023438 2.4992611408233642578 2.3049900531768798828 2.3913867473602294922 2.2412981986999511719 2.0580306053161621094 2.3064062595367431641 2.1843967437744140625 1.9215232133865356445 1.7128148078918457031 1.9439586400985717773 2.0188517570495605469 1.8676584959030151367 1.959255218505859375 1.9029871225357055664 1.6234937906265258789 1.5092247724533081055 1.7119811773300170898 1.8174645900726318359 2.0002870559692382813 1.5605847835540771484 2.2422592639923095703 2.1156001091003417969 2.6020872592926025391 2.1745848655700683594 2.4917924404144287109 1.9924752712249755859 1.8590140342712402344 1.9203978776931762695 2.4294724464416503906 2.6809823513031005859 2.4339740276336669922 2.6281728744506835938 3.1348047256469726563 3.0396833419799804688 3.0375068187713623047 3.3000822067260742188 3.0946574211120605469 3.3484787940979003906 3.7848110198974609375 3.5122370719909667969 3.2189264297485351563 3.3146822452545166016 3.5642714500427246094 3.5855803489685058594 4.0999436378479003906 4.0739331245422363281 3.4593362808227539063 3.6397604942321777344 3.3959064483642578125 3.505214691162109375 3.5324909687042236328 3.3382925987243652344 2.8766884803771972656 2.7956631183624267578 2.8115835189819335938 2.9093425273895263672 3.1810550689697265625 4.2223505973815917969 3.6978971958160400391 2.8804955482482910156 2.8948533535003662109 2.7495782375335693359 2.9128773212432861328 3.1262054443359375 4.0712213516235351563 3.3460967540740966797 2.8966183662414550781 5.2416787147521972656 3.8630075454711914063 4.0787873268127441406 3.0957169532775878906 3.2524814605712890625 3.4358189105987548828 4.646533966064453125 4.1049971580505371094 3.0881419181823730469 3.6086635589599609375 2.5152993202209472656 2.9309148788452148438 2.3868029117584228516 2.0266368389129638672 2.9929947853088378906 1.8624336719512939453 1.6503256559371948242 1.6537185907363891602 4.1766448020935058594 1.4650933742523193359 1.7788535356521606445 2.7306983470916748047 2.0758392810821533203 3.6767733097076416016 2.2485754489898681641 2.414821624755859375 2.1608526706695556641 2.1682898998260498047 1.746718287467956543 2.3652048110961914063 2.0046961307525634766 1.9225548505783081055 1.5795956850051879883 1.7484891414642333984 2.1544544696807861328 1.7057888507843017578 1.6299558877944946289 1.551762700080871582 1.9236255884170532227 2.3542058467864990234 2.5319426059722900391 2.3820223808288574219 2.1928989887237548828 2.0092267990112304688 2.5773000717163085938 1.7611640691757202148 1.7516002655029296875 2.8948540687561035156 2.3042440414428710938 1.9223744869232177734 3.0821743011474609375 2.6165411472320556641 2.7795128822326660156 3.0478441715240478516 2.6044614315032958984 2.9913277626037597656 3.2571046352386474609 2.8969776630401611328 2.7044584751129150391 2.8600914478302001953 2.1785519123077392578 2.9466395378112792969 2.5891017913818359375 3.0308372974395751953 2.0805487632751464844 1.9658155441284179688 2.2147214412689208984 2.0165493488311767578 1.8589832782745361328 1.9158775806427001953 2.3117661476135253906 1.9901058673858642578 1.6749911308288574219 2.0767972469329833984 1.8359630107879638672 1.4812936782836914063 1.8483662605285644531 2.4300823211669921875 2.4358341693878173828 2.1731138229370117188 2.4097685813903808594 2.5282540321350097656 1.9664275646209716797 2.1405239105224609375 2.0956301689147949219 2.6637198925018310547 1.9719749689102172852 2.5795066356658935547 2.1676199436187744141 1.9190182685852050781 2.480381011962890625 2.0446436405181884766 1.8019516468048095703 1.7960647344589233398 1.7602734565734863281 1.7105041742324829102 1.8361622095108032227 1.9800084829330444336 2.2195918560028076172 2.3519809246063232422 2.2992086410522460938 2.2481532096862792969 2.6627099514007568359 2.3929219245910644531 2.6991436481475830078 3.2371029853820800781 3.3727896213531494141 4.5921435356140136719 2.9434092044830322266 
2.2198908329010009766 2.4258279800415039063 2.5311157703399658203 2.1702623367309570313 2.3364603519439697266 2.2154700756072998047 1.9937732219696044922 2.1213979721069335938 2.2370610237121582031 2.6329512596130371094 2.1836600303649902344 2.2564764022827148438 2.5578753948211669922 2.706516265869140625 2.3931169509887695313 2.4724898338317871094 1.925243377685546875 2.3464543819427490234 2.1026964187622070313 1.7457945346832275391 1.8469865322113037109 1.9737087488174438477 2.6143169403076171875 2.2924916744232177734 2.6613876819610595703 2.5087375640869140625 2.4512693881988525391 2.2413165569305419922 2.1418061256408691406 2.4134449958801269531 2.1463246345520019531 2.1829283237457275391 1.9953502416610717773 2.4399929046630859375 1.8073346614837646484 1.9888732433319091797 1.6529037952423095703 2.0036337375640869141 1.7149958610534667969 2.516750335693359375 2.2698550224304199219 1.8368065357208251953 2.0248308181762695313 2.2461040019989013672 2.0137469768524169922 1.6414083242416381836 1.7726230621337890625 1.7918530702590942383 2.2208662033081054688 2.0798573493957519531 1.6870090961456298828 1.8345918655395507813 2.2491853237152099609 2.3560299873352050781 2.3956739902496337891 1.9395660161972045898 2.8364057540893554688 3.2292499542236328125 2.9470491409301757813 3.2403204441070556641 3.0701661109924316406 2.8433525562286376953 3.1944730281829833984 4.10173797607421875 3.2787356376647949219 3.1313800811767578125 3.5467271804809570313 3.3824276924133300781 4.0836968421936035156 4.1287450790405273438 3.3925359249114990234 4.2247610092163085938 3.5188488960266113281 3.2238216400146484375 2.992862701416015625 4.3070135116577148438 3.42006683349609375 3.5357654094696044922 3.0107598304748535156 2.8907258510589599609 2.7897617816925048828 3.2620916366577148438 4.2552576065063476563 3.0889394283294677734 2.4172556400299072266 2.8072309494018554688 2.6209337711334228516 2.5954821109771728516 4.7285795211791992188 4.1374177932739257813 4.7192320823669433594 3.3784477710723876953 4.0242795944213867188 3.2805132865905761719 4.7509937286376953125 2.5483756065368652344 4.5714921951293945313 5.067005157470703125 4.1712336540222167969 3.0129873752593994141 3.2119340896606445313 3.7341523170471191406 2.5568678379058837891 2.0629987716674804688 1.7532268762588500977 3.1776926517486572266 1.7844358682632446289 1.546023249626159668 2.2463140487670898438 2.7121443748474121094 1.5854535102844238281 1.7925831079483032227 1.8921587467193603516 3.5399947166442871094 2.0653614997863769531 2.8827741146087646484 2.0349073410034179688 2.2472186088562011719 2.6594955921173095703 2.2410581111907958984 1.9525072574615478516 1.9902769327163696289 2.3782961368560791016 2.1311757564544677734 2.2605133056640625 1.8008944988250732422 1.5858614444732666016 2.1379058361053466797 1.8508677482604980469 2.0002355575561523438 2.3824012279510498047 2.2092831134796142578 2.3004317283630371094 2.4913275241851806641 2.7143085002899169922 2.8981845378875732422 2.1368606090545654297 1.8980076313018798828 1.9964276552200317383 2.0813834667205810547 1.9857513904571533203 2.195262908935546875 2.5878398418426513672 2.1946711540222167969 2.5745704174041748047 2.8788266181945800781 2.9541962146759033203 2.6414518356323242188 3.2607090473175048828 3.0126209259033203125 2.2511646747589111328 3.1848444938659667969 3.1143543720245361328 3.2059803009033203125 2.2120614051818847656 2.2745966911315917969 1.9082241058349609375 1.9448084831237792969 2.0326106548309326172 2.0763964653015136719 1.6196317672729492188 1.5574740171432495117 1.6433604955673217773 1.9315166473388671875 1.9560360908508300781 1.9255124330520629883 1.7076724767684936523 2.102626800537109375 1.9763456583023071289 2.0052950382232666016 2.2840969562530517578 2.2483456134796142578 2.4928343296051025391 2.2879006862640380859 2.5913064479827880859 2.8292036056518554688 2.2796101570129394531 2.3824074268341064453 2.47180938720703125 1.9150165319442749023 2.1344327926635742188 2.3848881721496582031 1.8833708763122558594 1.8330502510070800781 1.7428660392761230469 1.9063867330551147461 1.7339576482772827148 1.9576330184936523438 1.9367221593856811523 1.8564282655715942383 1.9760924577713012695 1.9120069742202758789 2.0732083320617675781 2.3293237686157226563 2.2984089851379394531 2.3536646366119384766 2.6494531631469726563 4.8416743278503417969 3.3023102283477783203 4.0925378799438476563 
2.3109965324401855469 2.7623689174652099609 2.7531936168670654297 2.1264061927795410156 2.4381256103515625 2.1580715179443359375 1.7552181482315063477 2.49503326416015625 2.3838853836059570313 2.0848779678344726563 2.2939419746398925781 2.5173482894897460938 2.4278111457824707031 2.3930106163024902344 2.4761178493499755859 2.6169898509979248047 2.332263946533203125 2.0968210697174072266 2.0822975635528564453 1.8294011354446411133 2.0210781097412109375 2.2294309139251708984 2.4083037376403808594 2.5574402809143066406 2.4355332851409912109 2.2073900699615478516 2.1501927375793457031 2.3411562442779541016 2.0234773159027099609 2.1707422733306884766 2.1778447628021240234 2.03558349609375 2.0666823387145996094 1.8648148775100708008 1.9232981204986572266 2.0477647781372070313 1.9395112991333007813 1.9909739494323730469 1.8188475370407104492 1.6442410945892333984 2.1898531913757324219 2.2920079231262207031 2.1243805885314941406 2.8690347671508789063 1.881244659423828125 1.5049589872360229492 2.1723599433898925781 2.1612162590026855469 2.1177048683166503906 2.3328289985656738281 2.02393341064453125 2.3708670139312744141 2.0649664402008056641 2.1382212638854980469 2.4790163040161132813 2.3740711212158203125 2.44011688232421875 2.9943954944610595703 2.9802267551422119141 2.7511463165283203125 3.1989786624908447266 2.911853790283203125 3.0243511199951171875 2.9576961994171142578 2.9396677017211914063 3.1888766288757324219 3.44567108154296875 3.3440670967102050781 3.84803009033203125 3.8051695823669433594 3.6950731277465820313 4.252620697021484375 3.7106320858001708984 3.5201654434204101563 3.4745290279388427734 3.9414258003234863281 3.0962224006652832031 3.1080679893493652344 3.7308502197265625 3.075061798095703125 2.8780977725982666016 4.1742696762084960938 3.1132285594940185547 2.455821990966796875 2.8784606456756591797 2.8532602787017822266 2.5367631912231445313 2.9120633602142333984 3.4250547885894775391 2.8338871002197265625 3.0138199329376220703 3.5896875858306884766 3.7156825065612792969 3.9055516719818115234 3.3134326934814453125 4.5234313011169433594 4.0526080131530761719 5.7906794548034667969 4.7185502052307128906 3.1503534317016601563 4.5409798622131347656 5.0420408248901367188 2.6253631114959716797 3.6914839744567871094 1.9317634105682373047 1.8198453187942504883 1.7932084798812866211 1.5752707719802856445 1.7346247434616088867 2.6629977226257324219 4.1795077323913574219 1.8158831596374511719 1.9170815944671630859 2.9797217845916748047 2.2021660804748535156 2.3474438190460205078 2.3042109012603759766 2.1697468757629394531 2.2522642612457275391 2.1362493038177490234 1.7910029888153076172 1.8845323324203491211 2.2069256305694580078 2.1650214195251464844 1.9636826515197753906 2.1045942306518554688 2.0016813278198242188 1.8496599197387695313 1.6002767086029052734 1.9116524457931518555 1.8757969141006469727 2.0892260074615478516 1.7289167642593383789 2.2128746509552001953 2.2654032707214355469 2.1474566459655761719 2.2233653068542480469 1.5381302833557128906 2.2793292999267578125 1.9134160280227661133 2.0600268840789794922 1.9342836141586303711 2.9159631729125976563 2.6658003330230712891 2.9073300361633300781 3.2918066978454589844 2.7287757396697998047 2.9444491863250732422 3.3905076980590820313 3.0855937004089355469 2.3357377052307128906 2.6483759880065917969 2.4330048561096191406 2.7685656547546386719 2.5282027721405029297 2.381160736083984375 2.5010628700256347656 1.4356968402862548828 1.4402419328689575195 2.3643426895141601563 1.9063768386840820313 1.9257096052169799805 1.7471449375152587891 2.1136233806610107422 2.0144550800323486328 1.6403917074203491211 1.6227041482925415039 1.375728607177734375 1.8619303703308105469 2.1284365653991699219 2.0192084312438964844 1.7334849834442138672 2.4150464534759521484 2.1517746448516845703 1.7084689140319824219 2.3702356815338134766 2.7719902992248535156 2.3827893733978271484 2.5749351978302001953 2.3846106529235839844 2.1900682449340820313 1.9074289798736572266 2.1097979545593261719 1.7840280532836914063 1.854803919792175293 1.7919760942459106445 1.9548755884170532227 2.2941620349884033203 1.9692318439483642578 2.1422452926635742188 1.9699985980987548828 2.2703020572662353516 2.1790676116943359375 2.0888459682464599609 2.2435698509216308594 2.3077759742736816406 3.2480905055999755859 2.4979662895202636719 3.1578392982482910156 3.0161526203155517578 
2.4424691200256347656 2.4846816062927246094 2.3414225578308105469 2.6919691562652587891 2.1241457462310791016 2.4695522785186767578 2.1252601146697998047 1.5414789915084838867 1.7296719551086425781 1.9931730031967163086 2.1315615177154541016 2.0102334022521972656 2.6355996131896972656 2.2685265541076660156 2.1722996234893798828 2.2428722381591796875 2.0050935745239257813 2.1038517951965332031 2.3409266471862792969 2.2498745918273925781 1.8199270963668823242 2.421932220458984375 2.8787453174591064453 2.7275910377502441406 2.3110675811767578125 2.2222850322723388672 1.6475352048873901367 2.1145269870758056641 2.3615231513977050781 1.9630632400512695313 2.2290110588073730469 1.9105219841003417969 2.4662344455718994141 2.0031218528747558594 2.2451388835906982422 1.846974492073059082 1.7241618633270263672 2.49005889892578125 1.9767866134643554688 2.3029394149780273438 1.896938323974609375 2.1114246845245361328 1.7912740707397460938 1.9400886297225952148 1.95343017578125 1.8845160007476806641 2.0185673236846923828 2.1235654354095458984 2.2151114940643310547 2.01377105712890625 1.9906858205795288086 2.0825123786926269531 1.8980579376220703125 2.4923503398895263672 2.1913406848907470703 2.5932407379150390625 2.5540072917938232422 2.5939221382141113281 2.3501408100128173828 2.3865108489990234375 2.5891261100769042969 2.6745645999908447266 2.9949188232421875 2.8418796062469482422 2.9747178554534912109 2.9246010780334472656 2.8262434005737304688 3.9096467494964599609 3.8306772708892822266 4.1951575279235839844 3.4486629962921142578 3.1857664585113525391 3.1937465667724609375 3.0897755622863769531 2.9468123912811279297 4.2135605812072753906 2.9991648197174072266 3.1701815128326416016 3.2471690177917480469 2.9449710845947265625 3.64000701904296875 3.0373477935791015625 3.0936725139617919922 2.7326548099517822266 2.8571124076843261719 3.1176302433013916016 3.6139247417449951172 3.0286653041839599609 2.9388399124145507813 4.0155501365661621094 2.5634984970092773438 4.941226959228515625 3.3403296470642089844 3.4420928955078125 3.9474358558654785156 4.6101741790771484375 3.4986767768859863281 3.3727905750274658203 3.3043944835662841797 3.3060498237609863281 3.1446306705474853516 2.6768770217895507813 2.3839411735534667969 3.5804407596588134766 3.4136211872100830078 4.521640777587890625 1.6300907135009765625 1.8535114526748657227 1.6937775611877441406 4.0887813568115234375 1.4438736438751220703 1.7075955867767333984 1.7131540775299072266 1.7094572782516479492 1.9159206151962280273 2.1510262489318847656 2.1312439441680908203 2.1115055084228515625 2.8673205375671386719 2.6262497901916503906 2.4392752647399902344 2.0558922290802001953 1.8196417093276977539 2.4208381175994873047 2.1862819194793701172 2.390750885009765625 2.3971729278564453125 2.093097686767578125 2.1641886234283447266 2.3416318893432617188 1.9582700729370117188 2.5423834323883056641 2.1315510272979736328 2.4162809848785400391 2.1785082817077636719 1.9436464309692382813 1.8016791343688964844 2.3055665493011474609 1.4282525777816772461 2.2048642635345458984 2.0613536834716796875 2.1399285793304443359 2.4469137191772460938 2.3675072193145751953 2.938076019287109375 2.9103069305419921875 3.0664200782775878906 2.7737395763397216797 2.8030533790588378906 2.8832125663757324219 2.7190387248992919922 3.0152611732482910156 3.2814214229583740234 2.2258079051971435547 2.6958272457122802734 2.4446530342102050781 2.5634477138519287109 1.6617722511291503906 1.7310212850570678711 1.978603363037109375 1.3975788354873657227 1.6223672628402709961 1.6789301633834838867 2.0487706661224365234 2.0575039386749267578 2.2039723396301269531 1.6659157276153564453 1.5676174163818359375 1.7799844741821289063 2.2222309112548828125 2.3749635219573974609 2.0895211696624755859 1.8669477701187133789 1.7699235677719116211 2.6832356452941894531 2.1488537788391113281 2.9789738655090332031 2.4643876552581787109 2.4517176151275634766 2.09078216552734375 2.0241107940673828125 2.078998565673828125 2.2693543434143066406 2.2349975109100341797 2.1252369880676269531 1.9678311347961425781 1.8039230108261108398 1.743224024772644043 1.918212890625 1.6242673397064208984 2.0903532505035400391 2.1499552726745605469 1.8921785354614257813 2.1109821796417236328 2.0303883552551269531 2.1230139732360839844 2.2139258384704589844 2.2508268356323242188 3.6346867084503173828 2.9347846508026123047 
2.3372824192047119141 2.3580904006958007813 2.1659581661224365234 2.3281199932098388672 2.3221871852874755859 2.2001216411590576172 2.0375623703002929688 2.0298905372619628906 2.1711127758026123047 2.3435001373291015625 1.9971339702606201172 2.4989340305328369141 2.7061104774475097656 2.8272206783294677734 2.3293540477752685547 2.1153497695922851563 2.1455519199371337891 2.3357975482940673828 1.9635933637619018555 2.8214228153228759766 2.2452740669250488281 2.0732090473175048828 2.2742266654968261719 1.7177187204360961914 2.0005524158477783203 1.9622482061386108398 2.0179917812347412109 2.4352228641510009766 2.3149144649505615234 1.9279015064239501953 2.2429282665252685547 2.101589202880859375 1.8521931171417236328 1.9897729158401489258 1.9634318351745605469 1.9338186979293823242 1.7433553934097290039 2.1619386672973632813 2.0496613979339599609 1.7761504650115966797 2.0427417755126953125 2.1237795352935791016 2.2335600852966308594 2.2948019504547119141 2.0502398014068603516 1.7317407131195068359 2.0895128250122070313 2.1555948257446289063 2.1692392826080322266 2.2403295040130615234 1.9987781047821044922 1.8107031583786010742 2.0847759246826171875 2.6741328239440917969 2.1778903007507324219 2.3757371902465820313 2.6386866569519042969 2.7766714096069335938 2.7772703170776367188 2.3853216171264648438 2.6659336090087890625 2.8887815475463867188 3.079639434814453125 2.8188948631286621094 2.8940529823303222656 3.1656820774078369141 3.3179643154144287109 3.2805645465850830078 3.3655798435211181641 3.6870250701904296875 3.3290731906890869141 3.7215001583099365234 3.1358754634857177734 3.0379214286804199219 2.9355590343475341797 3.0911505222320556641 3.079555511474609375 3.1485435962677001953 3.3162508010864257813 3.9718108177185058594 3.7580959796905517578 3.9239430427551269531 3.2017989158630371094 2.8487265110015869141 4.4302854537963867188 3.27541351318359375 3.6841456890106201172 4.0459547042846679688 2.6366038322448730469 2.6585798263549804688 3.9501330852508544922 6.2083024978637695313 3.0887663364410400391 3.6427028179168701172 4.6319546699523925781 3.9991202354431152344 3.1710810661315917969 4.9156503677368164063 4.8234887123107910156 3.4370207786560058594 4.0529122352600097656 4.11072540283203125 2.4385402202606201172 2.5126981735229492188 2.1465516090393066406 3.2435407638549804688 3.29813385009765625 1.7974280118942260742 1.6367599964141845703 1.9190812110900878906 1.7399555444717407227 1.7727270126342773438 1.7789994478225708008 2.7478222846984863281 1.9111658334732055664 2.0115048885345458984 2.6247017383575439453 1.8840606212615966797 2.1430182456970214844 2.4306023120880126953 2.4041595458984375 2.1322321891784667969 2.1522631645202636719 2.2947955131530761719 2.1474542617797851563 2.4203271865844726563 2.323184967041015625 1.8509504795074462891 2.0540652275085449219 1.7957895994186401367 1.8747664690017700195 2.0686404705047607422 1.6028887033462524414 2.1624324321746826172 2.7641174793243408203 1.8212163448333740234 2.3729839324951171875 2.2943446636199951172 1.7139468193054199219 2.1163737773895263672 1.721306920051574707 2.1110842227935791016 2.805511474609375 2.5021753311157226563 2.2688972949981689453 2.2538886070251464844 2.5681896209716796875 2.6305687427520751953 2.4131228923797607422 3.6357691287994384766 2.5680272579193115234 2.6968355178833007813 2.0456664562225341797 2.9651267528533935547 2.7641217708587646484 2.8838553428649902344 2.30442047119140625 1.9811700582504272461 1.8755919933319091797 2.0219252109527587891 1.8115509748458862305 1.9071872234344482422 1.9046472311019897461 2.3612816333770751953 2.6304547786712646484 1.9018474817276000977 2.3550045490264892578 1.8257199525833129883 1.7392228841781616211 2.3648908138275146484 2.1576807498931884766 1.6947345733642578125 2.5444300174713134766 2.4916589260101318359 2.2693994045257568359 1.9979552030563354492 2.5030274391174316406 2.5712904930114746094 2.5820319652557373047 2.3987622261047363281 2.5631191730499267578 2.4186031818389892578 1.9682226181030273438 1.8860415220260620117 1.7799637317657470703 1.9898220300674438477 1.6745195388793945313 1.813428044319152832 1.5327363014221191406 1.6386196613311767578 2.0299620628356933594 2.0215654373168945313 1.6275823116302490234 1.8539301156997680664 1.9674381017684936523 2.4892394542694091797 2.0484969615936279297 2.4973552227020263672 2.8741004467010498047 2.4722092151641845703 
2.6056420803070068359 2.4816286563873291016 2.4987759590148925781 2.4327504634857177734 2.5196619033813476563 2.2890400886535644531 2.1406195163726806641 2.2531721591949462891 1.8749036788940429688 2.7825722694396972656 2.2732489109039306641 2.5877220630645751953 2.3718914985656738281 2.0958025455474853516 2.3571708202362060547 2.0763247013092041016 2.2912805080413818359 1.9711415767669677734 1.9051421880722045898 2.2839474678039550781 2.1030559539794921875 2.2021365165710449219 2.2265894412994384766 2.0871429443359375 1.992888331413269043 1.4290164709091186523 1.6695479154586791992 2.2900547981262207031 1.7946640253067016602 2.3856832981109619141 2.0349509716033935547 2.1001715660095214844 2.2054600715637207031 2.0340583324432373047 1.8655152320861816406 1.7752572298049926758 1.8540948629379272461 1.8108968734741210938 1.9391179084777832031 1.6885868310928344727 1.8531544208526611328 2.3143169879913330078 2.2960808277130126953 2.3392968177795410156 1.9799898862838745117 2.1544787883758544922 2.1846055984497070313 1.6963107585906982422 1.8831279277801513672 1.7802183628082275391 2.2354249954223632813 2.0058951377868652344 2.2141819000244140625 2.1197414398193359375 2.4832129478454589844 2.4985539913177490234 2.5336654186248779297 2.3703670501708984375 2.9865667819976806641 2.4649293422698974609 2.41800689697265625 2.4567458629608154297 2.7425148487091064453 2.6028347015380859375 2.8351321220397949219 2.9381606578826904297 3.3899517059326171875 3.5525863170623779297 3.2556948661804199219 3.3636901378631591797 4.0162096023559570313 3.3706750869750976563 2.9783422946929931641 3.8241987228393554688 3.4990475177764892578 2.7858438491821289063 3.4778029918670654297 2.9243650436401367188 4.2294440269470214844 3.0994975566864013672 3.6472566127777099609 2.9939718246459960938 2.9707746505737304688 4.3749322891235351563 3.5805032253265380859 3.9845316410064697266 3.8478624820709228516 5.3125271797180175781 2.4581756591796875 4.056064605712890625 3.1254942417144775391 4.9884233474731445313 5.17948150634765625 3.4328083992004394531 3.7918026447296142578 3.3296365737915039063 3.2805626392364501953 5.2589898109436035156 3.4830272197723388672 4.4528107643127441406 2.8826467990875244141 3.6809294223785400391 4.3400897979736328125 3.9713640213012695313 1.9275993108749389648 1.7139325141906738281 1.8859218358993530273 1.9509363174438476563 2.1015155315399169922 1.8374698162078857422 1.8218712806701660156 1.7064907550811767578 1.8980058431625366211 1.8942520618438720703 2.2224614620208740234 1.8521440029144287109 2.6308507919311523438 1.9756329059600830078 2.494258880615234375 2.3159999847412109375 2.4674234390258789063 2.12795257568359375 2.1684541702270507813 2.2828221321105957031 2.2099349498748779297 2.3371412754058837891 2.2701177597045898438 1.9978739023208618164 1.7541298866271972656 2.1874730587005615234 1.5761276483535766602 1.8744833469390869141 2.1364853382110595703 2.5741231441497802734 2.1530063152313232422 2.6771705150604248047 1.8002501726150512695 1.8814791440963745117 1.6545307636260986328 1.7031539678573608398 2.02123260498046875 1.5565316677093505859 2.3515737056732177734 2.0150952339172363281 1.9771574735641479492 1.7546024322509765625 1.9421403408050537109 2.1873655319213867188 2.3654620647430419922 2.8501572608947753906 2.9714474678039550781 2.2789449691772460938 2.335357666015625 2.9618308544158935547 3.7440855503082275391 2.4870088100433349609 2.3564875125885009766 1.7629395723342895508 2.4155926704406738281 1.7284551858901977539 1.8859014511108398438 1.7748290300369262695 2.2650415897369384766 2.0059909820556640625 1.5505049228668212891 1.844674229621887207 1.8839623928070068359 1.7055097818374633789 1.8360619544982910156 1.7396795749664306641 1.7252143621444702148 2.0584855079650878906 2.4445323944091796875 2.3825685977935791016 2.3086593151092529297 2.8483045101165771484 2.0559446811676025391 2.6957058906555175781 2.3209218978881835938 2.5575931072235107422 2.4564204216003417969 2.1242740154266357422 2.0835976600646972656 1.6894021034240722656 1.7512102127075195313 1.9538466930389404297 2.0315504074096679688 1.7381916046142578125 1.8224315643310546875 1.7700219154357910156 1.7885379791259765625 1.5325466394424438477 1.7595341205596923828 1.603851318359375 1.8628495931625366211 2.2311859130859375 1.8562675714492797852 2.1921582221984863281 2.7858035564422607422 2.9446020126342773438 
2.1886107921600341797 2.5079252719879150391 2.2327210903167724609 2.403011322021484375 2.2964234352111816406 2.3353230953216552734 2.4092280864715576172 2.4059686660766601563 2.3867580890655517578 2.3679108619689941406 2.2331457138061523438 2.7859697341918945313 2.3387472629547119141 2.1887052059173583984 2.5446715354919433594 2.6325623989105224609 2.5690786838531494141 2.5169856548309326172 2.1190292835235595703 1.8378088474273681641 1.9380336999893188477 2.3471899032592773438 2.1337010860443115234 1.8449113368988037109 1.829013824462890625 2.2536823749542236328 1.9605906009674072266 2.0371797084808349609 1.8404948711395263672 2.1360232830047607422 2.0648176670074462891 1.9700982570648193359 1.9313864707946777344 1.8006125688552856445 2.0521442890167236328 2.1789934635162353516 1.7109253406524658203 1.7754030227661132813 1.8636491298675537109 1.9841094017028808594 1.8031946420669555664 1.6791423559188842773 1.7734674215316772461 2.0412931442260742188 1.86602020263671875 2.2954127788543701172 2.0572774410247802734 2.3130841255187988281 1.9801288843154907227 1.8528566360473632813 1.9528138637542724609 2.0689377784729003906 1.9889373779296875 2.4881811141967773438 2.1804373264312744141 2.1557118892669677734 2.2748377323150634766 2.3404099941253662109 2.4756247997283935547 2.2024385929107666016 2.4302868843078613281 2.3410115242004394531 2.0154016017913818359 3.0031771659851074219 2.5721018314361572266 2.8748552799224853516 3.2328372001647949219 3.4040262699127197266 3.4044740200042724609 3.8366391658782958984 3.9146859645843505859 3.2878160476684570313 3.4083321094512939453 3.4630510807037353516 2.8764019012451171875 3.1868243217468261719 2.6255421638488769531 2.7199807167053222656 2.594997406005859375 3.7172782421112060547 5.022991180419921875 2.8969058990478515625 3.4122729301452636719 3.3353595733642578125 3.0386500358581542969 3.2784087657928466797 4.9502515792846679688 4.0304284095764160156 4.3659572601318359375 3.9620442390441894531 3.660434722900390625 3.6536314487457275391 5.9069795608520507813 4.6846280097961425781 5.2219891548156738281 7.20355987548828125 6.4574360847473144531 3.9162149429321289063 3.2526490688323974609 4.9787058830261230469 4.5844573974609375 5.7849698066711425781 2.5537495613098144531 2.1883292198181152344 2.0182569026947021484 2.5583565235137939453 1.7976261377334594727 1.8501886129379272461 1.9547904729843139648 2.0502927303314208984 2.011566162109375 2.2285158634185791016 2.3034808635711669922 1.9080014228820800781 2.0359146595001220703 3.0671377182006835938 2.1299211978912353516 2.4693956375122070313 2.3408408164978027344 2.4929790496826171875 2.333927154541015625 2.3623633384704589844 2.0569543838500976563 1.8708643913269042969 2.0881927013397216797 2.6355206966400146484 1.7656453847885131836 1.6718523502349853516 1.5983991622924804688 1.9318898916244506836 2.0962393283843994141 2.3052873611450195313 2.6179091930389404297 2.0616617202758789063 2.0532140731811523438 1.7736495733261108398 2.4560503959655761719 2.0979363918304443359 1.4640865325927734375 1.4573378562927246094 2.2156970500946044922 1.751378178596496582 2.25865936279296875 1.9807446002960205078 1.6777107715606689453 2.0945978164672851563 1.5112946033477783203 1.9334052801132202148 3.3261384963989257813 2.8960268497467041016 2.6455795764923095703 2.9372544288635253906 2.2663888931274414063 2.7166562080383300781 3.4020946025848388672 2.5706200599670410156 2.7923388481140136719 2.3742136955261230469 1.945876002311706543 1.9637943506240844727 1.3200756311416625977 1.7570850849151611328 1.5961822271347045898 1.6678465604782104492 1.5716249942779541016 1.4710963964462280273 1.6141493320465087891 1.8816807270050048828 1.7938265800476074219 1.8399242162704467773 1.8200091123580932617 2.5004200935363769531 1.7065473794937133789 2.1508493423461914063 2.3746206760406494141 2.3319728374481201172 2.3392858505249023438 2.0519051551818847656 2.3758816719055175781 2.3223922252655029297 2.6622319221496582031 2.2365486621856689453 2.3660776615142822266 2.3782851696014404297 1.6891082525253295898 2.3198683261871337891 1.8119729757308959961 1.4375909566879272461 1.7769821882247924805 1.9698076248168945313 1.7809317111968994141 1.6433465480804443359 1.6735106706619262695 1.5473124980926513672 2.0161967277526855469 1.7907779216766357422 2.1712429523468017578 2.0502185821533203125 2.1089026927947998047 2.4853916168212890625 
2.2334456443786621094 2.4295752048492431641 2.6138834953308105469 3.3851404190063476563 2.5385179519653320313 2.3005719184875488281 2.2368390560150146484 2.5033640861511230469 2.4804806709289550781 2.1998317241668701172 2.2584111690521240234 2.4477989673614501953 2.6821236610412597656 2.2677023410797119141 2.3536837100982666016 2.4561531543731689453 2.6158838272094726563 2.4498350620269775391 2.24993133544921875 2.2726483345031738281 2.0888733863830566406 2.2710502147674560547 2.2922673225402832031 2.1336264610290527344 2.2695899009704589844 2.1414220333099365234 2.0926308631896972656 1.7788547277450561523 2.1755585670471191406 2.2725071907043457031 1.9844639301300048828 2.0265874862670898438 2.1354327201843261719 1.9244222640991210938 1.6904838085174560547 1.8637926578521728516 1.5514773130416870117 1.7397097349166870117 1.7392292022705078125 1.7727524042129516602 1.5747106075286865234 1.5609709024429321289 1.5477950572967529297 1.5726331472396850586 2.0389530658721923828 2.1286027431488037109 2.1039211750030517578 1.8490263223648071289 1.9908995628356933594 2.0473356246948242188 2.2102065086364746094 2.5059239864349365234 2.2235233783721923828 2.6177732944488525391 2.4447491168975830078 2.8147575855255126953 2.5823335647583007813 2.6681716442108154297 2.5545010566711425781 2.3688254356384277344 2.4750659465789794922 2.3028738498687744141 2.5339183807373046875 2.6631553173065185547 2.3574135303497314453 2.5418856143951416016 3.1238739490509033203 3.1762917041778564453 3.5144376754760742188 3.0938241481781005859 3.4625566005706787109 3.1184561252593994141 3.1413111686706542969 3.5289137363433837891 3.0478417873382568359 3.0648620128631591797 2.8948664665222167969 2.7549529075622558594 2.9731340408325195313 2.8639385700225830078 2.9139361381530761719 3.650909423828125 4.0942363739013671875 3.6341605186462402344 4.1487622261047363281 4.1479830741882324219 2.7359645366668701172 2.8058230876922607422 3.6449956893920898438 4.8213200569152832031 3.6833050251007080078 4.1763205528259277344 3.5056984424591064453 3.7756035327911376953 4.5972886085510253906 4.7144541740417480469 3.6989037990570068359 3.6870038509368896484 4.7631449699401855469 2.9297778606414794922 3.0595898628234863281 2.7191154956817626953 3.8028280735015869141 2.4085791110992431641 3.2673528194427490234 2.300968170166015625 1.9443594217300415039 1.8947317600250244141 1.8072214126586914063 1.6279791593551635742 2.3232407569885253906 1.9915382862091064453 2.238491058349609375 2.3952233791351318359 2.2183449268341064453 2.3323945999145507813 2.3784658908843994141 2.1547586917877197266 2.3552386760711669922 2.4267222881317138672 2.0407209396362304688 2.0508680343627929688 2.06099700927734375 2.4227972030639648438 2.0111949443817138672 1.7279593944549560547 2.0050370693206787109 1.8717588186264038086 1.5967719554901123047 1.9292837381362915039 2.3308043479919433594 2.6154346466064453125 2.4231746196746826172 2.28936767578125 2.473052978515625 1.9244948625564575195 1.780335545539855957 1.5436873435974121094 1.7581518888473510742 2.2607033252716064453 1.3465468883514404297 1.9030826091766357422 1.9215345382690429688 1.7319964170455932617 1.7175791263580322266 1.7358930110931396484 1.9938859939575195313 2.3176019191741943359 2.3356668949127197266 2.2632567882537841797 2.7184560298919677734 2.7787721157073974609 1.9387838840484619141 3.0413289070129394531 2.720485687255859375 2.9763200283050537109 3.3497600555419921875 2.5283420085906982422 1.9894258975982666016 2.0046827793121337891 1.5946240425109863281 2.1735961437225341797 1.6963188648223876953 1.6890957355499267578 1.9802362918853759766 1.8159834146499633789 1.6822990179061889648 2.1025028228759765625 1.9891543388366699219 1.9751312732696533203 1.7741351127624511719 1.6315987110137939453 2.4245407581329345703 2.8768236637115478516 2.8501958847045898438 2.4161357879638671875 2.5764780044555664063 2.0345468521118164063 2.2018516063690185547 3.0450980663299560547 2.8494777679443359375 2.3648753166198730469 2.1186606884002685547 2.0097453594207763672 2.0864400863647460938 1.9215247631072998047 1.6739572286605834961 1.8177323341369628906 1.5837148427963256836 1.9044399261474609375 1.491570591926574707 1.9090903997421264648 1.8138509988784790039 1.5116729736328125 1.7342511415481567383 1.8543647527694702148 1.9924679994583129883 2.0966207981109619141 2.1935203075408935547 1.9692019224166870117 
2.3993909358978271484 2.1530826091766357422 3.5220510959625244141 2.8587672710418701172 2.6826374530792236328 2.1779870986938476563 2.6010944843292236328 2.2238481044769287109 2.7505977153778076172 2.3637287616729736328 2.6137900352478027344 2.6067366600036621094 2.2672345638275146484 2.3297126293182373047 2.4580495357513427734 2.5670228004455566406 2.4577021598815917969 2.3869109153747558594 2.4572861194610595703 1.9112421274185180664 2.0679557323455810547 2.1731138229370117188 2.0422277450561523438 2.1412868499755859375 2.0607390403747558594 1.6963075399398803711 1.5063745975494384766 1.8505300283432006836 1.8941550254821777344 2.4019291400909423828 1.818690180778503418 1.8877578973770141602 1.9523644447326660156 2.5416364669799804688 1.6030114889144897461 1.850434422492980957 1.6353989839553833008 1.5434947013854980469 1.4379887580871582031 1.5022158622741699219 1.5931907892227172852 1.6394498348236083984 1.7379590272903442383 1.8387445211410522461 1.9285072088241577148 2.1238224506378173828 1.7069895267486572266 1.8504297733306884766 2.1010565757751464844 2.2751469612121582031 1.9396190643310546875 2.3607258796691894531 2.5162303447723388672 2.3849213123321533203 2.5783402919769287109 2.314891815185546875 2.6652047634124755859 2.5395190715789794922 2.4521279335021972656 2.0074813365936279297 2.1286561489105224609 2.0862126350402832031 2.3634743690490722656 2.3105144500732421875 2.3092525005340576172 2.4911692142486572266 2.5081307888031005859 2.6065511703491210938 3.2464172840118408203 3.2923593521118164063 3.2376921176910400391 2.8295271396636962891 3.3891940116882324219 3.1278176307678222656 2.9023070335388183594 2.9557163715362548828 2.8502528667449951172 2.6627638339996337891 2.653491973876953125 3.1760447025299072266 2.9610922336578369141 3.7442758083343505859 4.17803192138671875 4.5712900161743164063 3.0978417396545410156 2.7729306221008300781 2.8416299819946289063 3.3257439136505126953 3.6679134368896484375 4.0821905136108398438 3.3035366535186767578 3.1352930068969726563 3.6876161098480224609 3.8692557811737060547 4.7641420364379882813 5.9892096519470214844 5.4649462699890136719 5.2561902999877929688 4.7419047355651855469 4.5857286453247070313 3.7383878231048583984 2.5989069938659667969 2.4010114669799804688 5.4542975425720214844 2.2302250862121582031 2.0699419975280761719 2.8602159023284912109 2.2979297637939453125 1.6701447963714599609 2.0663890838623046875 2.0402524471282958984 2.2729573249816894531 2.4557828903198242188 2.2972080707550048828 2.0471882820129394531 2.3237590789794921875 2.4711294174194335938 2.4493227005004882813 2.5021104812622070313 2.1539185047149658203 2.2912583351135253906 2.6077716350555419922 2.2162344455718994141 1.9005408287048339844 2.183582305908203125 1.7592676877975463867 1.9441745281219482422 1.9951397180557250977 1.8571112155914306641 2.2369732856750488281 2.3090801239013671875 1.9920775890350341797 2.1817095279693603516 2.5151758193969726563 2.253223419189453125 3.9286191463470458984 1.5057255029678344727 1.8505892753601074219 1.6439738273620605469 2.0461697578430175781 1.7994168996810913086 1.7470636367797851563 1.4067888259887695313 1.7721070051193237305 2.42547607421875 2.5372097492218017578 1.7539157867431640625 2.2449772357940673828 2.2343015670776367188 2.5812468528747558594 2.4228355884552001953 2.4035108089447021484 2.5439028739929199219 2.5045442581176757813 2.91436767578125 2.6976885795593261719 3.2239871025085449219 2.7849097251892089844 2.1153430938720703125 2.1430933475494384766 1.9814007282257080078 1.3649966716766357422 1.4780771732330322266 1.5224015712738037109 1.8211647272109985352 1.9391855001449584961 2.0933370590209960938 2.0356848239898681641 1.5288537740707397461 1.1837809085845947266 1.6015468835830688477 1.8098970651626586914 2.0970485210418701172 3.1178045272827148438 3.2204110622406005859 2.4666256904602050781 2.1640520095825195313 1.7201725244522094727 2.3892073631286621094 2.8261470794677734375 2.5659816265106201172 1.7532334327697753906 2.9178264141082763672 1.5069267749786376953 1.6585677862167358398 1.9651265144348144531 1.6478831768035888672 1.9376791715621948242 1.7021368741989135742 1.8005695343017578125 1.8731392621994018555 1.6563779115676879883 1.4271218776702880859 1.6141390800476074219 1.7860853672027587891 1.6122522354125976563 1.8246049880981445313 1.7219676971435546875 2.1680209636688232422 1.8708097934722900391 
2.5740399360656738281 2.8889560699462890625 2.5629134178161621094 2.2671027183532714844 2.4908580780029296875 2.2669897079467773438 2.4158816337585449219 2.8892178535461425781 2.7632339000701904297 2.3911845684051513672 2.5752828121185302734 2.3799393177032470703 2.4248690605163574219 2.2699086666107177734 2.6323246955871582031 2.5379528999328613281 2.6531479358673095703 2.3681206703186035156 2.3135166168212890625 2.2804217338562011719 2.1998512744903564453 1.7901552915573120117 2.1045577526092529297 1.8584580421447753906 2.0515215396881103516 2.1995100975036621094 1.9962010383605957031 1.8594126701354980469 1.8303412199020385742 2.012081146240234375 1.6635315418243408203 1.7849400043487548828 1.7565400600433349609 1.8783227205276489258 1.5154612064361572266 1.855564117431640625 1.7509307861328125 1.5955891609191894531 1.9255311489105224609 1.6416701078414916992 1.7897129058837890625 1.5401960611343383789 1.5674350261688232422 1.8024758100509643555 1.5460056066513061523 1.7866522073745727539 1.6963346004486083984 2.1387805938720703125 2.0486207008361816406 2.0821983814239501953 1.9820234775543212891 1.9240896701812744141 2.2639875411987304688 2.2754604816436767578 2.347049713134765625 2.4987049102783203125 2.5325894355773925781 2.5606813430786132813 2.5741794109344482422 2.2217710018157958984 2.1327354907989501953 2.1537868976593017578 2.0864844322204589844 2.4659054279327392578 2.0270941257476806641 2.1886243820190429688 2.4074752330780029297 2.7399497032165527344 2.4227113723754882813 3.2021183967590332031 2.607845306396484375 3.2773406505584716797 3.2176368236541748047 2.6010336875915527344 2.9459543228149414063 4.0619091987609863281 2.808361053466796875 3.0853126049041748047 3.1817820072174072266 3.4344990253448486328 2.9033598899841308594 4.6537322998046875 4.268711090087890625 4.4812440872192382813 3.1598246097564697266 3.0123376846313476563 3.3613808155059814453 3.6133213043212890625 5.3754715919494628906 5.6698937416076660156 4.5846538543701171875 3.9710381031036376953 4.8902430534362792969 5.0500254631042480469 7.6688923835754394531 5.7692666053771972656 6.2801642417907714844 6.0594186782836914063 3.0002810955047607422 2.6236569881439208984 2.3576018810272216797 3.673095703125 4.9687399864196777344 3.9356172084808349609 3.3348782062530517578 1.7819960117340087891 2.0969970226287841797 1.7807332277297973633 1.7599270343780517578 2.1077063083648681641 2.3525629043579101563 2.222324371337890625 1.9980920553207397461 1.9515554904937744141 2.39591217041015625 2.5097362995147705078 2.5356721878051757813 2.2486236095428466797 2.4451439380645751953 2.4343056678771972656 2.5579431056976318359 2.4294366836547851563 2.2775099277496337891 2.5926735401153564453 2.1508176326751708984 2.1308796405792236328 1.86895751953125 2.027706146240234375 2.3654546737670898438 2.3041856288909912109 3.3867268562316894531 2.3562099933624267578 2.5079360008239746094 2.6206429004669189453 2.5547611713409423828 3.6849694252014160156 2.0468056201934814453 1.8277117013931274414 1.89037322998046875 2.2334465980529785156 2.2029860019683837891 2.0101759433746337891 1.6717821359634399414 2.2306401729583740234 1.9765402078628540039 2.3177149295806884766 2.0272185802459716797 2.4009726047515869141 2.2587316036224365234 1.9182045459747314453 2.5371015071868896484 2.5101528167724609375 1.8228758573532104492 2.77669525146484375 2.9120428562164306641 2.4321050643920898438 2.7533042430877685547 2.2439563274383544922 1.7616189718246459961 2.1874454021453857422 1.7238425016403198242 1.520050048828125 1.8783667087554931641 1.5908032655715942383 1.6818296909332275391 1.7587600946426391602 1.7156187295913696289 2.0032892227172851563 1.4412266016006469727 1.403876185417175293 1.7333753108978271484 2.2193012237548828125 2.7489345073699951172 3.1179680824279785156 3.3174593448638916016 2.72138214111328125 1.6844412088394165039 1.6355202198028564453 1.6817572116851806641 2.2383253574371337891 2.6839728355407714844 1.7192897796630859375 2.4092252254486083984 2.0023477077484130859 1.496517181396484375 1.8350431919097900391 1.7799062728881835938 2.0634138584136962891 1.8670787811279296875 1.7165609598159790039 2.0659050941467285156 1.7496129274368286133 1.5818690061569213867 1.7675933837890625 1.5839039087295532227 1.6843800544738769531 1.5587450265884399414 1.7758696079254150391 1.884783625602722168 2.1639299392700195313 
2.2548310756683349609 2.1476514339447021484 2.5535151958465576172 2.6642251014709472656 2.4907319545745849609 3.1075792312622070313 2.7562596797943115234 2.42131805419921875 2.6940226554870605469 2.6218161582946777344 2.5712864398956298828 2.6431074142456054688 2.6166386604309082031 2.5734798908233642578 2.5814564228057861328 2.4616403579711914063 2.3362610340118408203 2.5933454036712646484 2.465251922607421875 2.2259187698364257813 1.608311772346496582 2.0298235416412353516 1.4439253807067871094 1.5937649011611938477 1.7748335599899291992 2.0100347995758056641 2.0058224201202392578 2.017063140869140625 2.1028673648834228516 1.6337848901748657227 1.6918132305145263672 2.041347503662109375 1.75395965576171875 2.6964952945709228516 1.943922877311706543 1.4678478240966796875 2.3461489677429199219 1.9776324033737182617 1.6195875406265258789 1.6457507610321044922 1.6617509126663208008 2.0141394138336181641 1.8429927825927734375 1.6839084625244140625 1.5330104827880859375 1.9261548519134521484 1.63204193115234375 2.2691628932952880859 2.0243449211120605469 1.9534898996353149414 2.0101459026336669922 2.1467916965484619141 2.4720528125762939453 2.2829959392547607422 2.4534118175506591797 2.6499974727630615234 2.2817430496215820313 2.0856404304504394531 2.0873100757598876953 2.2717466354370117188 2.0445172786712646484 1.9222710132598876953 1.8125185966491699219 2.0283360481262207031 1.9901279211044311523 2.2506856918334960938 2.0545122623443603516 2.48564910888671875 2.5747401714324951172 2.4339878559112548828 3.1163592338562011719 3.1204578876495361328 3.3754148483276367188 2.8186230659484863281 2.9669039249420166016 3.0228374004364013672 2.7805895805358886719 2.5403118133544921875 2.9976663589477539063 2.7416996955871582031 2.7156658172607421875 3.9835999011993408203 3.1587595939636230469 3.5895812511444091797 2.7472326755523681641 2.5067732334136962891 3.6027972698211669922 2.4368295669555664063 3.3144195079803466797 4.0670413970947265625 2.677032470703125 4.611968994140625 3.2415254116058349609 3.6570458412170410156 6.2751178741455078125 5.0357141494750976563 6.745540618896484375 4.1952853202819824219 4.2848992347717285156 2.6534085273742675781 2.9610068798065185547 3.6921699047088623047 2.3437905311584472656 2.4757447242736816406 4.1856589317321777344 2.10585784912109375 1.7086206674575805664 1.8306603431701660156 1.823042750358581543 2.0404257774353027344 1.8020213842391967773 2.3143596649169921875 2.1765592098236083984 2.1818220615386962891 1.9020934104919433594 1.8738328218460083008 2.1525826454162597656 2.3541309833526611328 2.4775254726409912109 2.2261776924133300781 2.6326060295104980469 2.6793396472930908203 2.3600115776062011719 2.3360641002655029297 2.4479982852935791016 2.3154311180114746094 2.7455537319183349609 2.4951019287109375 2.6448068618774414063 3.8020305633544921875 2.7316961288452148438 2.7095563411712646484 2.4757449626922607422 4.0958390235900878906 2.2299101352691650391 1.8562216758728027344 3.2254042625427246094 2.4223532676696777344 2.4829344749450683594 2.5467402935028076172 2.5109066963195800781 2.7635495662689208984 1.7684259414672851563 2.0745866298675537109 2.3280560970306396484 2.0257089138031005859 2.4630734920501708984 2.2870087623596191406 2.0730893611907958984 2.4151673316955566406 2.3715138435363769531 2.3106305599212646484 2.1608595848083496094 2.2619178295135498047 2.7011046409606933594 2.2387721538543701172 2.8364183902740478516 2.2709634304046630859 2.0027141571044921875 2.0778150558471679688 2.4890847206115722656 1.6202230453491210938 1.2595837116241455078 1.8032343387603759766 1.8245271444320678711 2.2364656925201416016 1.3829417228698730469 1.8101235628128051758 1.3095257282257080078 2.3311932086944580078 2.0515544414520263672 2.3642961978912353516 2.2998762130737304688 2.311161041259765625 2.4560668468475341797 2.1784794330596923828 2.0954437255859375 2.0103106498718261719 1.7075637578964233398 2.1660997867584228516 2.0578739643096923828 2.4445233345031738281 1.9224296808242797852 1.5184504985809326172 1.6876914501190185547 1.836360931396484375 1.9251664876937866211 2.0518929958343505859 1.6868232488632202148 1.933628082275390625 1.5125234127044677734 1.6751712560653686523 1.5521806478500366211 1.8793290853500366211 1.8956948518753051758 1.7150489091873168945 1.5547348260879516602 2.1772520542144775391 1.711597442626953125 1.6370065212249755859 
2.576824188232421875 2.5535845756530761719 2.2437922954559326172 2.3225231170654296875 2.5147140026092529297 2.7178680896759033203 2.5358242988586425781 2.5443234443664550781 2.5628747940063476563 2.4684290885925292969 2.6535439491271972656 2.6746785640716552734 2.4285724163055419922 2.3350992202758789063 2.5357232093811035156 2.4383704662322998047 2.4319667816162109375 2.4640262126922607422 2.1731686592102050781 2.2652523517608642578 2.076488494873046875 2.1402292251586914063 1.9502233266830444336 1.7739307880401611328 2.0109019279479980469 2.0776975154876708984 1.9089545011520385742 1.8310281038284301758 1.4964786767959594727 2.3289062976837158203 1.4417450428009033203 1.8503429889678955078 1.9311583042144775391 2.2033128738403320313 1.6211855411529541016 1.6357171535491943359 1.2845375537872314453 1.7580099105834960938 1.8307229280471801758 1.4291574954986572266 1.6464586257934570313 1.4943807125091552734 1.7276521921157836914 1.3735435009002685547 1.7265827655792236328 1.7240413427352905273 1.7464693784713745117 1.6850284337997436523 2.1498034000396728516 2.1995677947998046875 2.4779999256134033203 2.0906519889831542969 2.3409569263458251953 2.3867421150207519531 2.2399618625640869141 2.3338482379913330078 2.2529079914093017578 2.1303770542144775391 2.2165398597717285156 2.2715117931365966797 1.6238796710968017578 2.2032668590545654297 2.5448381900787353516 1.9187438488006591797 1.9762843847274780273 2.3088641166687011719 2.0933773517608642578 2.2272281646728515625 2.1547148227691650391 2.8285880088806152344 2.8367183208465576172 2.5614948272705078125 2.9520573616027832031 3.4173083305358886719 3.0855109691619873047 2.6736433506011962891 3.0620386600494384766 2.7535467147827148438 3.57932281494140625 2.7275738716125488281 2.8788821697235107422 3.0266692638397216797 3.9974334239959716797 4.2683386802673339844 2.5727646350860595703 3.5857949256896972656 2.6167902946472167969 2.4987697601318359375 4.008533477783203125 2.7696321010589599609 2.9246580600738525391 3.1208484172821044922 3.2793757915496826172 4.1211481094360351563 3.7768621444702148438 5.681468963623046875 5.7277212142944335938 5.648441314697265625 2.6865644454956054688 3.25019073486328125 2.2875537872314453125 2.7457749843597412109 2.3167073726654052734 2.9573113918304443359 2.9907381534576416016 1.9882231950759887695 1.8799366950988769531 1.5339246988296508789 1.6249575614929199219 1.9246120452880859375 2.2203392982482910156 2.0571999549865722656 2.0745303630828857422 1.9260268211364746094 1.788422703742980957 1.9619829654693603516 2.1016261577606201172 2.2876009941101074219 2.0873897075653076172 2.3716320991516113281 2.4327826499938964844 2.4291551113128662109 2.2799317836761474609 2.3970489501953125 2.4506351947784423828 2.4410374164581298828 2.1701951026916503906 2.0696659088134765625 2.5593271255493164063 3.4316396713256835938 2.6428973674774169922 2.9890122413635253906 2.8499426841735839844 3.7589137554168701172 3.9070644378662109375 3.2902143001556396484 2.3206560611724853516 4.6371512413024902344 3.3487119674682617188 1.9640417098999023438 1.814570307731628418 2.6417527198791503906 2.2959525585174560547 2.0466077327728271484 1.4048513174057006836 2.1749885082244873047 1.91709136962890625 1.744518280029296875 2.4202790260314941406 2.4576768875122070313 2.11602020263671875 2.349918365478515625 2.1752898693084716797 1.8418247699737548828 2.7286303043365478516 1.8232336044311523438 1.8867990970611572266 2.0457775592803955078 2.1910357475280761719 1.7322559356689453125 1.7363642454147338867 2.1021549701690673828 1.1013696193695068359 2.2618532180786132813 2.3608539104461669922 1.8756989240646362305 1.9673326015472412109 1.7421095371246337891 1.369782567024230957 1.6284540891647338867 2.0465366840362548828 1.782947540283203125 1.7533918619155883789 2.1084477901458740234 2.3358283042907714844 2.1709597110748291016 2.3235211372375488281 2.3721950054168701172 1.9540218114852905273 1.7824285030364990234 2.4611544609069824219 2.0038144588470458984 2.1307914257049560547 2.010623931884765625 1.9304990768432617188 1.6858528852462768555 1.9594950675964355469 1.8013927936553955078 1.5022996664047241211 1.3897291421890258789 1.5771112442016601563 1.6654202938079833984 1.6165801286697387695 1.7334896326065063477 1.901423335075378418 1.8268570899963378906 1.7024323940277099609 1.7744684219360351563 1.8963694572448730469 2.3540019989013671875 
2.3623070716857910156 2.3311126232147216797 2.63224029541015625 2.3972880840301513672 3.0701403617858886719 4.180393218994140625 2.9148666858673095703 2.6408009529113769531 2.6223824024200439453 2.4645638465881347656 2.6521277427673339844 2.329662322998046875 2.7133030891418457031 2.8494808673858642578 2.3691363334655761719 2.3133094310760498047 2.296543121337890625 2.4349803924560546875 2.3562521934509277344 2.0563678741455078125 1.9340401887893676758 1.8582283258438110352 1.9230625629425048828 1.7534480094909667969 1.5467885732650756836 1.4546959400177001953 1.6153448820114135742 2.0006546974182128906 1.6984368562698364258 2.412139892578125 2.390834808349609375 1.8020819425582885742 1.5090163946151733398 2.4181945323944091797 1.9175429344177246094 1.5345423221588134766 1.6181863546371459961 1.5392556190490722656 1.5130823850631713867 1.8928459882736206055 1.7663767337799072266 1.5498727560043334961 1.3060526847839355469 1.745337367057800293 1.5720382928848266602 2.0855545997619628906 1.7761616706848144531 2.0996911525726318359 1.9921416044235229492 1.9291259050369262695 1.8707764148712158203 2.0635478496551513672 2.2234621047973632813 2.3283095359802246094 2.3482975959777832031 2.5456719398498535156 2.4594435691833496094 2.1923527717590332031 2.207122802734375 2.1550693511962890625 2.4743061065673828125 2.0043656826019287109 2.3253359794616699219 2.0013747215270996094 1.9977303743362426758 2.1213977336883544922 2.5249927043914794922 2.2931385040283203125 2.3642578125 2.4582302570343017578 2.5922024250030517578 2.6484503746032714844 2.8023512363433837891 3.0325639247894287109 3.0203359127044677734 3.1266055107116699219 2.8051888942718505859 2.7521729469299316406 2.6530106067657470703 3.850311279296875 3.1108424663543701172 3.2369894981384277344 2.9629929065704345703 2.9896616935729980469 2.8378860950469970703 2.4507122039794921875 2.8464403152465820313 3.2309145927429199219 3.2016947269439697266 3.7043833732604980469 3.6742036342620849609 2.7987618446350097656 3.2247493267059326172 4.8669195175170898438 4.9418630599975585938 3.2284822463989257813 3.1513662338256835938 7.0820927619934082031 3.8220510482788085938 2.5675384998321533203 3.1473300457000732422 2.7467620372772216797 2.641887664794921875 2.3203651905059814453 1.8439602851867675781 1.9825839996337890625 1.9461355209350585938 1.9806821346282958984 1.5256497859954833984 2.4303803443908691406 2.4810862541198730469 2.0334246158599853516 2.5031294822692871094 1.6755546331405639648 1.6114461421966552734 1.8342131376266479492 2.0565710067749023438 1.8023608922958374023 1.9791440963745117188 2.1143221855163574219 2.0543215274810791016 2.2971324920654296875 2.534610748291015625 2.9501297473907470703 2.7128703594207763672 2.6706893444061279297 2.347808837890625 2.2378225326538085938 2.3132328987121582031 2.9240539073944091797 3.7716913223266601563 4.8386020660400390625 3.1489434242248535156 2.5067753791809082031 4.0870909690856933594 3.2796490192413330078 2.0200054645538330078 2.8720138072967529297 4.1303262710571289063 3.1247465610504150391 1.6786295175552368164 1.743258357048034668 2.4632174968719482422 1.9297374486923217773 1.986533045768737793 1.1784417629241943359 1.8949347734451293945 1.6314861774444580078 2.0192599296569824219 1.927577972412109375 1.5806241035461425781 1.3874278068542480469 1.8018157482147216797 1.5906502008438110352 2.0865471363067626953 2.07456207275390625 2.4909696578979492188 2.4343612194061279297 2.3859350681304931641 2.5624229907989501953 1.8342684507369995117 1.910653233528137207 2.5885360240936279297 1.8703937530517578125 2.7407135963439941406 1.7908351421356201172 1.6488029956817626953 2.2872517108917236328 1.2603008747100830078 1.7983938455581665039 1.7388916015625 1.3971430063247680664 1.7139849662780761719 1.7508642673492431641 1.8532966375350952148 2.3832666873931884766 1.9017215967178344727 1.6866381168365478516 1.3567458391189575195 2.2387480735778808594 2.1459703445434570313 1.6553553342819213867 2.1250543594360351563 2.5449755191802978516 2.3878951072692871094 1.3227818012237548828 1.7501195669174194336 1.5699089765548706055 1.8232762813568115234 1.4720228910446166992 1.6701133251190185547 1.5973694324493408203 1.6962614059448242188 1.3774825334548950195 1.6110514402389526367 1.6751166582107543945 1.5715295076370239258 1.8639349937438964844 1.8420015573501586914 1.989470362663269043 
3.6840839385986328125 2.3242170810699462891 2.4282097816467285156 2.3760564327239990234 4.2400574684143066406 3.3313822746276855469 3.3264141082763671875 2.5105097293853759766 2.6927778720855712891 2.7301833629608154297 2.6378812789916992188 2.7506873607635498047 2.7295079231262207031 2.4538629055023193359 2.5276784896850585938 2.6456212997436523438 2.38663482666015625 1.9097770452499389648 2.1912882328033447266 2.0869698524475097656 2.1844401359558105469 1.9378541707992553711 1.7465474605560302734 2.2517435550689697266 1.8736622333526611328 2.012298583984375 1.8946740627288818359 1.8036496639251708984 1.8245487213134765625 1.9795192480087280273 1.789044499397277832 2.0282394886016845703 2.2765448093414306641 2.2874605655670166016 1.8239758014678955078 1.8773273229598999023 1.8402409553527832031 1.5449810028076171875 1.9425693750381469727 1.7093498706817626953 1.6824072599411010742 1.595458984375 1.9880225658416748047 1.9921766519546508789 1.6462016105651855469 1.5661211013793945313 1.696562647819519043 2.1202743053436279297 1.8160574436187744141 1.8620012998580932617 2.2075903415679931641 2.6155803203582763672 2.3694837093353271484 2.3226270675659179688 2.1855247020721435547 2.4796850681304931641 2.4878823757171630859 1.8529534339904785156 2.0265328884124755859 2.3251907825469970703 2.3636748790740966797 1.6783897876739501953 2.0394327640533447266 1.6136542558670043945 2.002124786376953125 2.1186623573303222656 1.9877157211303710938 2.2194323539733886719 1.8514225482940673828 2.4235911369323730469 2.544467926025390625 2.8055865764617919922 2.1601929664611816406 2.9369626045227050781 2.6706178188323974609 3.1201469898223876953 2.8298642635345458984 2.8718996047973632813 2.5143342018127441406 3.5184853076934814453 2.9436442852020263672 3.0327293872833251953 2.3283979892730712891 2.5781419277191162109 2.1644878387451171875 3.9576251506805419922 2.8034222126007080078 2.4436078071594238281 4.2127547264099121094 3.3716788291931152344 3.3454461097717285156 5.9396691322326660156 5.747653961181640625 5.5206732749938964844 4.2741360664367675781 3.7058506011962890625 4.221889495849609375 3.4451589584350585938 2.9481396675109863281 2.5396566390991210938 3.785060882568359375 2.2375276088714599609 2.8783953189849853516 2.3039891719818115234 1.8923619985580444336 1.6391139030456542969 1.4424082040786743164 1.9537848234176635742 2.7701213359832763672 1.9780261516571044922 1.8380360603332519531 1.7264573574066162109 1.7432702779769897461 1.4275113344192504883 1.6554684638977050781 2.4144539833068847656 1.6813544034957885742 1.5933458805084228516 1.8121461868286132813 2.1726322174072265625 2.1747460365295410156 2.3185396194458007813 2.4044983386993408203 2.7817699909210205078 3.0152330398559570313 2.3891203403472900391 2.1319794654846191406 2.1371757984161376953 2.57073211669921875 4.3448657989501953125 3.3494203090667724609 5.9086847305297851563 4.0822858810424804688 4.7531223297119140625 4.8579578399658203125 2.2135937213897705078 2.4262518882751464844 3.2676329612731933594 2.1041700839996337891 2.2894229888916015625 1.8409633636474609375 1.7090811729431152344 1.9850587844848632813 1.6892836093902587891 1.5331974029541015625 2.5247282981872558594 1.8963515758514404297 2.1403975486755371094 2.0662329196929931641 1.8092551231384277344 1.8862797021865844727 1.7909624576568603516 2.3254981040954589844 2.1511859893798828125 2.6629197597503662109 2.3212780952453613281 1.9190486669540405273 1.9532865285873413086 2.1010005474090576172 1.9853694438934326172 2.2100765705108642578 2.5093057155609130859 2.0116331577301025391 2.2623515129089355469 1.8788763284683227539 1.7018908262252807617 2.189357757568359375 1.3865777254104614258 1.1681090593338012695 1.5970327854156494141 1.4847792387008666992 2.1180281639099121094 2.3278903961181640625 1.3975770473480224609 1.5415438413619995117 1.9425579309463500977 1.7920331954956054688 1.7433478832244873047 1.8392859697341918945 2.137287139892578125 1.1960086822509765625 1.9870209693908691406 2.1809077262878417969 1.6750750541687011719 1.9261908531188964844 1.3195526599884033203 1.5323328971862792969 1.8695342540740966797 1.6960186958312988281 1.7963280677795410156 1.9436742067337036133 1.5989947319030761719 1.8751347064971923828 1.7478182315826416016 1.7224364280700683594 1.4525473117828369141 1.5975124835968017578 1.6167092323303222656 2.0917363166809082031 2.1140089035034179688 
3.8695271015167236328 3.9251971244812011719 3.3676204681396484375 3.6980853080749511719 2.4776895046234130859 2.6314685344696044922 3.9931089878082275391 2.5087590217590332031 3.7269103527069091797 2.8928124904632568359 2.8384549617767333984 2.4606554508209228516 2.7051954269409179688 2.5496006011962890625 2.5628919601440429688 2.8584184646606445313 2.503818511962890625 2.4842848777770996094 2.4189667701721191406 2.2098748683929443359 1.8335015773773193359 2.2568924427032470703 2.0568518638610839844 1.9725316762924194336 2.6285202503204345703 2.0523486137390136719 1.886727452278137207 2.2557370662689208984 1.717479705810546875 2.1100206375122070313 2.5145545005798339844 2.0731573104858398438 2.4229342937469482422 2.0314087867736816406 2.0732944011688232422 1.5665454864501953125 1.6350877285003662109 1.7347754240036010742 1.7576965093612670898 1.7492967844009399414 1.8268026113510131836 1.5901497602462768555 1.7334645986557006836 1.6183290481567382813 1.610554814338684082 1.3826628923416137695 1.8000665903091430664 1.5609549283981323242 1.5992394685745239258 1.9636197090148925781 1.8017139434814453125 1.8910424709320068359 2.2158930301666259766 2.2253479957580566406 2.3363971710205078125 2.2154147624969482422 2.3232898712158203125 2.5007879734039306641 2.4035296440124511719 1.8265632390975952148 2.4440188407897949219 2.0698239803314208984 2.211917877197265625 2.1786921024322509766 1.9687337875366210938 2.0076138973236083984 1.9378424882888793945 2.1471416950225830078 2.077564239501953125 2.7352552413940429688 2.5781645774841308594 2.4144730567932128906 2.3239583969116210938 2.2690966129302978516 2.2413232326507568359 2.4846720695495605469 2.4235861301422119141 2.294132232666015625 2.1915316581726074219 3.0652966499328613281 2.1075708866119384766 2.1494460105895996094 2.4590554237365722656 2.6149873733520507813 2.3516962528228759766 3.8252511024475097656 3.3702597618103027344 2.4280660152435302734 3.8992094993591308594 3.9967908859252929688 2.4407548904418945313 5.9199075698852539063 5.18883514404296875 4.3240494728088378906 3.7171125411987304688 3.1256411075592041016 3.1517724990844726563 2.1597750186920166016 3.4129889011383056641 2.2199339866638183594 2.7092258930206298828 2.2651636600494384766 2.05594635009765625 1.7679144144058227539 2.0731532573699951172 1.6588646173477172852 1.6802144050598144531 1.757435917854309082 1.9160326719284057617 2.0189528465270996094 1.8078968524932861328 2.0890729427337646484 1.7532402276992797852 1.4537012577056884766 1.4589953422546386719 1.6025958061218261719 1.8668715953826904297 1.7367401123046875 2.2004461288452148438 2.1374318599700927734 2.1528613567352294922 2.1173832416534423828 2.1580646038055419922 2.2336413860321044922 2.7421116828918457031 3.0005245208740234375 2.2314713001251220703 2.6093456745147705078 2.9684166908264160156 4.7050018310546875 3.5403017997741699219 4.6236782073974609375 2.6462337970733642578 2.9424722194671630859 2.6085515022277832031 2.4550256729125976563 2.3071324825286865234 2.2745029926300048828 2.6344125270843505859 1.6722184419631958008 1.7170422077178955078 1.940952301025390625 1.9784448146820068359 1.3745192289352416992 1.5818240642547607422 1.4168893098831176758 1.81494903564453125 1.2995868921279907227 1.7614122629165649414 1.9913518428802490234 1.8899368047714233398 1.7134546041488647461 2.0173099040985107422 1.9999377727508544922 2.201335906982421875 1.8616889715194702148 2.5750060081481933594 2.5256073474884033203 2.450714111328125 2.2917063236236572266 2.1522755622863769531 2.3354363441467285156 2.7785820960998535156 2.3998575210571289063 2.1188516616821289063 2.6232123374938964844 1.4729850292205810547 2.0208618640899658203 1.3544422388076782227 1.6342414617538452148 1.2209601402282714844 2.0273642539978027344 1.402529597282409668 1.8316853046417236328 2.5155792236328125 1.7634001970291137695 1.8871908187866210938 1.7002490758895874023 1.7564240694046020508 1.5137188434600830078 1.7532597780227661133 1.4115552902221679688 2.2375097274780273438 2.0536775588989257813 1.4191991090774536133 1.4307409524917602539 1.5226050615310668945 1.9572569131851196289 1.7158857583999633789 1.5035899877548217773 1.5964066982269287109 1.665120244026184082 1.6393517255783081055 1.5607628822326660156 1.7025603055953979492 1.7667299509048461914 1.7443464994430541992 1.8388239145278930664 1.735034942626953125 2.344463348388671875 
2.3564550876617431641 4.0158786773681640625 2.6563563346862792969 3.8935942649841308594 3.7970016002655029297 4.1304688453674316406 2.6546521186828613281 2.8260416984558105469 2.7824580669403076172 3.1611380577087402344 3.2788336277008056641 2.8440990447998046875 2.5629293918609619141 2.2750396728515625 2.2566030025482177734 2.3888301849365234375 3.1594665050506591797 2.5739536285400390625 2.1020176410675048828 2.11331939697265625 2.0053362846374511719 1.9499933719635009766 2.1196858882904052734 2.1161236763000488281 2.8733224868774414063 2.0614213943481445313 2.2017886638641357422 1.9252818822860717773 1.9184044599533081055 1.7973377704620361328 1.5187652111053466797 1.7658466100692749023 1.8160858154296875 1.5979162454605102539 1.63022613525390625 1.7741019725799560547 1.5963479280471801758 1.7071512937545776367 1.8887399435043334961 2.0697824954986572266 1.7273054122924804688 1.4749088287353515625 1.5860669612884521484 1.4792472124099731445 2.2747445106506347656 1.7536485195159912109 1.8389382362365722656 1.6979329586029052734 1.7948894500732421875 1.6427137851715087891 1.5905847549438476563 1.5424147844314575195 1.7055460214614868164 2.0702245235443115234 2.1828367710113525391 1.9351197481155395508 1.7784018516540527344 2.5062730312347412109 2.275360107421875 2.3557026386260986328 1.9842104911804199219 2.3248670101165771484 2.4329469203948974609 2.0078814029693603516 2.1829042434692382813 1.783391118049621582 1.8652987480163574219 2.1538143157958984375 2.1140513420104980469 2.2026345729827880859 2.3455884456634521484 2.2940034866333007813 2.4457392692565917969 2.0303108692169189453 2.3906180858612060547 2.9814443588256835938 2.3691797256469726563 2.5905897617340087891 2.5653655529022216797 2.1684098243713378906 2.0706884860992431641 2.3380324840545654297 1.8617436885833740234 2.3529858589172363281 3.5807507038116455078 5.4969701766967773438 3.8734881877899169922 2.0912013053894042969 2.4919824600219726563 5.3849883079528808594 3.1208784580230712891 2.5845506191253662109 2.6832752227783203125 2.5534918308258056641 2.2885587215423583984 2.3946249485015869141 1.8914825916290283203 1.9991455078125 2.4040918350219726563 3.3050384521484375 3.5188028812408447266 2.3912858963012695313 1.8682131767272949219 1.8630434274673461914 1.6657459735870361328 1.6355026960372924805 2.2690119743347167969 2.1198246479034423828 1.4870522022247314453 2.6009943485260009766 1.5031299591064453125 1.8149650096893310547 1.8671344518661499023 1.4561296701431274414 1.4147517681121826172 1.6048922538757324219 1.6038701534271240234 2.0701797008514404297 2.3207180500030517578 2.4590692520141601563 2.2897646427154541016 2.4642195701599121094 1.7921737432479858398 2.0551164150238037109 2.3914153575897216797 2.5865449905395507813 2.4608411788940429688 2.7162268161773681641 4.68987274169921875 3.5310463905334472656 4.746440887451171875 4.1596493721008300781 3.7384510040283203125 3.9781649112701416016 4.3137159347534179688 2.775665283203125 3.4999098777770996094 2.8236587047576904297 2.1607162952423095703 2.2883827686309814453 2.5288789272308349609 2.1417748928070068359 1.8343886137008666992 2.3855595588684082031 1.715670466423034668 1.7306554317474365234 2.4216258525848388672 2.8031668663024902344 1.8706545829772949219 1.723423004150390625 1.8689541816711425781 1.9282356500625610352 1.4587578773498535156 1.6433401107788085938 1.951230168342590332 2.8730089664459228516 2.1452419757843017578 2.0821371078491210938 2.2661573886871337891 2.1208753585815429688 1.7424230575561523438 2.4982628822326660156 1.2656259536743164063 2.026371002197265625 2.1132924556732177734 2.0580930709838867188 2.2208096981048583984 1.7448843717575073242 2.1064546108245849609 2.0119385719299316406 2.4887349605560302734 1.5610718727111816406 1.6950304508209228516 1.749478459358215332 1.7275578975677490234 1.9259145259857177734 2.0957801342010498047 2.0989165306091308594 1.6924706697463989258 2.1756236553192138672 1.8763406276702880859 1.932503819465637207 1.8924868106842041016 1.8287327289581298828 1.5706518888473510742 1.7798371315002441406 1.6608853340148925781 1.8490447998046875 1.8907889127731323242 1.4134769439697265625 1.7817280292510986328 1.4569447040557861328 1.4698003530502319336 1.4339232444763183594 1.7002341747283935547 1.8892823457717895508 1.5318620204925537109 2.0474247932434082031 2.0089788436889648438 2.2584218978881835938 
2.5224092006683349609 4.03292083740234375 3.0753099918365478516 4.1523723602294921875 2.6940834522247314453 2.6510913372039794922 2.7417261600494384766 3.2156419754028320313 3.0009300708770751953 3.1108148097991943359 2.6493232250213623047 2.5823030471801757813 2.4685397148132324219 2.2934687137603759766 2.4356896877288818359 2.4134891033172607422 2.4578557014465332031 2.5416736602783203125 1.8604731559753417969 2.2187802791595458984 2.1497938632965087891 2.1442394256591796875 2.4167833328247070313 2.5128934383392333984 2.8166167736053466797 2.5652873516082763672 2.3388826847076416016 2.625091552734375 2.1984541416168212891 1.6055011749267578125 1.8978356122970581055 2.3394188880920410156 1.9314407110214233398 1.7426375150680541992 1.9810980558395385742 1.9052734375 1.9447158575057983398 1.5805976390838623047 1.6804347038269042969 1.7452487945556640625 1.5954401493072509766 1.5914778709411621094 1.9836686849594116211 1.7215437889099121094 2.3858404159545898438 1.9908096790313720703 1.5829848051071166992 1.5018569231033325195 1.531472325325012207 1.6261364221572875977 1.6928951740264892578 1.8234026432037353516 1.7308136224746704102 1.6550270318984985352 1.6729595661163330078 1.701640009880065918 2.0325872898101806641 2.6530160903930664063 2.2786407470703125 2.5600466728210449219 2.5344111919403076172 2.6167492866516113281 2.4490220546722412109 2.1787397861480712891 1.9618996381759643555 1.8079916238784790039 1.9015941619873046875 1.9824869632720947266 1.834691166877746582 2.0886285305023193359 2.2868702411651611328 2.0709547996520996094 1.851347804069519043 2.0099370479583740234 1.936360478401184082 2.0283486843109130859 2.8632750511169433594 2.6935513019561767578 2.2179956436157226563 2.360382080078125 2.0421247482299804688 1.8489257097244262695 2.9993112087249755859 2.6257307529449462891 3.8355791568756103516 5.4411001205444335938 5.2838282585144042969 2.1131157875061035156 2.2661519050598144531 2.4061760902404785156 1.9366648197174072266 2.6471104621887207031 4.1227278709411621094 3.3536810874938964844 4.2010693550109863281 2.6450226306915283203 3.7742595672607421875 3.5821421146392822266 2.1058933734893798828 2.2919917106628417969 1.855640411376953125 2.10655975341796875 1.6027356386184692383 1.5098837614059448242 1.7094551324844360352 1.6071691513061523438 1.6369670629501342773 1.6982583999633789063 1.9437100887298583984 2.4358332157135009766 1.8960150480270385742 1.4803464412689208984 1.5601407289505004883 1.3520351648330688477 2.2504220008850097656 2.2505772113800048828 1.7272011041641235352 1.740685582160949707 2.4928100109100341797 2.6591908931732177734 2.3433668613433837891 2.0203630924224853516 2.1144127845764160156 1.9857138395309448242 1.769474029541015625 2.5159802436828613281 2.6501612663269042969 2.9926309585571289063 3.4445047378540039063 5.4125156402587890625 5.5440859794616699219 4.1832747459411621094 2.7233290672302246094 2.9710543155670166016 3.9701929092407226563 2.4600110054016113281 1.988667607307434082 2.424800872802734375 2.9896478652954101563 2.1660721302032470703 1.885332942008972168 1.5120486021041870117 2.0908329486846923828 1.9511373043060302734 2.2461595535278320313 1.7227678298950195313 1.9338942766189575195 1.5493713617324829102 1.2821080684661865234 2.2307558059692382813 2.1263298988342285156 2.3000905513763427734 1.955984950065612793 2.0490498542785644531 2.1034014225006103516 2.1924993991851806641 2.5261540412902832031 2.2637240886688232422 1.7282683849334716797 2.1139841079711914063 1.8751429319381713867 2.8922829627990722656 2.4942734241485595703 2.1145808696746826172 2.3041307926177978516 2.1055738925933837891 2.3131315708160400391 1.7425432205200195313 2.5495553016662597656 1.5498839616775512695 1.6704143285751342773 1.4768058061599731445 2.1849029064178466797 2.0781412124633789063 1.8226571083068847656 2.2125530242919921875 1.3973002433776855469 2.0969521999359130859 2.0275897979736328125 2.0226943492889404297 2.9084086418151855469 2.8062868118286132813 2.310001373291015625 1.8338842391967773438 1.3189358711242675781 1.3946400880813598633 1.74896240234375 1.3795348405838012695 1.6944191455841064453 1.4501112699508666992 1.405121922492980957 1.4869353771209716797 1.6391721963882446289 1.860715031623840332 1.4114588499069213867 1.6411824226379394531 1.4723427295684814453 1.6458112001419067383 1.6655585765838623047 2.4627788066864013672 
7.2688760757446289063 2.5001916885375976563 3.4302909374237060547 3.37955474853515625 2.1197762489318847656 2.7110447883605957031 2.8717620372772216797 3.1649889945983886719 4.7275524139404296875 3.0187776088714599609 3.2939825057983398438 3.0115017890930175781 2.75525665283203125 2.7887456417083740234 2.678501129150390625 2.0885956287384033203 2.2411475181579589844 2.3040394783020019531 2.2350356578826904297 2.3301625251770019531 1.8646045923233032227 2.1212103366851806641 2.3823380470275878906 2.7814996242523193359 2.9658174514770507813 2.4711325168609619141 2.1690306663513183594 2.3780508041381835938 2.3751633167266845703 1.8511589765548706055 1.7176775932312011719 1.8385202884674072266 1.8016678094863891602 1.7397484779357910156 1.8996195793151855469 1.9098925590515136719 1.5130751132965087891 1.6553261280059814453 1.540597081184387207 1.6107590198516845703 1.4737313985824584961 1.9878208637237548828 1.40041351318359375 1.6760958433151245117 1.2542769908905029297 1.4438964128494262695 1.5262814760208129883 1.4673492908477783203 1.5530387163162231445 1.7733783721923828125 1.6594458818435668945 1.5722397565841674805 1.66888427734375 1.7420448064804077148 2.4032409191131591797 1.9247170686721801758 2.0763366222381591797 2.1053678989410400391 2.2854409217834472656 2.6930069923400878906 3.0890841484069824219 3.5068566799163818359 2.485576629638671875 2.3941950798034667969 2.059627532958984375 2.1271460056304931641 1.972510218620300293 1.9587546586990356445 2.2946681976318359375 2.9772896766662597656 2.9311826229095458984 2.8045544624328613281 2.4185190200805664063 2.0761430263519287109 2.0645492076873779297 2.5278863906860351563 2.4034993648529052734 2.2106945514678955078 1.8671756982803344727 2.523990631103515625 2.313079833984375 2.5323286056518554688 2.4672820568084716797 2.6451375484466552734 2.76290130615234375 3.6179144382476806641 3.4509522914886474609 4.6968660354614257813 3.3048009872436523438 2.0700178146362304688 2.2241754531860351563 2.6395068168640136719 3.8278219699859619141 2.6049087047576904297 4.5004110336303710938 3.4999523162841796875 2.2885050773620605469 3.7460722923278808594 2.9468162059783935547 1.9969650506973266602 2.0170400142669677734 1.7350264787673950195 1.4890017509460449219 1.6863074302673339844 1.7758477926254272461 1.4815714359283447266 1.9374600648880004883 1.4403226375579833984 1.3808361291885375977 1.4869154691696166992 1.3205686807632446289 1.5096411705017089844 1.5977730751037597656 1.5820671319961547852 1.6513338088989257813 1.661706089973449707 1.7213778495788574219 1.6889883279800415039 2.1162817478179931641 2.3493258953094482422 2.0120053291320800781 2.42626953125 2.6431093215942382813 2.2589218616485595703 2.0917840003967285156 2.1923489570617675781 2.5700547695159912109 3.142314910888671875 3.1078095436096191406 4.8833570480346679688 4.5266175270080566406 3.2676944732666015625 2.9748785495758056641 3.7426586151123046875 2.7868828773498535156 1.8893975019454956055 2.0642125606536865234 2.0811469554901123047 3.859233856201171875 1.8081922531127929688 1.8817467689514160156 1.7274415493011474609 1.5350921154022216797 1.8899223804473876953 2.3693995475769042969 2.0788786411285400391 2.0130062103271484375 1.3513659238815307617 1.9721672534942626953 1.9343987703323364258 2.655200958251953125 2.1568586826324462891 2.0874741077423095703 2.1560218334197998047 3.0346193313598632813 2.0577142238616943359 2.5015859603881835938 1.7834522724151611328 2.1402654647827148438 1.9839049577713012695 1.7373456954956054688 1.9981275796890258789 2.7791566848754882813 2.5304176807403564453 2.0801072120666503906 2.2073428630828857422 1.4707012176513671875 1.7814898490905761719 1.7459555864334106445 1.7757705450057983398 2.1751692295074462891 2.0154628753662109375 1.8030709028244018555 3.2950761318206787109 2.4815921783447265625 1.9016735553741455078 1.7456274032592773438 2.2649350166320800781 2.1979553699493408203 2.4696919918060302734 2.4161717891693115234 3.3170857429504394531 2.1664326190948486328 2.0156209468841552734 1.8786170482635498047 1.8191905021667480469 1.4780424833297729492 1.3081511259078979492 1.3795840740203857422 1.3369899988174438477 2.0783452987670898438 1.8991134166717529297 1.5419670343399047852 1.5504578351974487305 1.8527950048446655273 1.7110297679901123047 1.8230117559432983398 1.9088114500045776367 1.5728613138198852539 1.8560149669647216797 
3.5985391139984130859 2.3148009777069091797 2.1669738292694091797 2.3739125728607177734 2.900989532470703125 2.4744660854339599609 2.9306769371032714844 3.7504558563232421875 5.0965108871459960938 2.7116422653198242188 2.6702597141265869141 2.7778887748718261719 2.6678698062896728516 2.8068158626556396484 2.6630914211273193359 2.3594472408294677734 2.8511652946472167969 2.9646649360656738281 2.0792746543884277344 1.9164376258850097656 2.3082780838012695313 2.0468766689300537109 2.469707489013671875 2.8804075717926025391 2.5169353485107421875 1.9716436862945556641 1.9943107366561889648 2.4934637546539306641 1.7188817262649536133 2.025180816650390625 2.0490818023681640625 1.9975229501724243164 1.9012334346771240234 2.2509081363677978516 1.6331803798675537109 1.2952626943588256836 1.7302184104919433594 1.6437847614288330078 1.4849904775619506836 1.6946493387222290039 1.7004958391189575195 1.6383585929870605469 1.3898133039474487305 1.8197029829025268555 2.0180304050445556641 1.333540797233581543 1.2299479246139526367 1.5411677360534667969 1.6191259622573852539 1.9086365699768066406 1.9284938573837280273 1.5615514516830444336 1.5815107822418212891 1.4961854219436645508 1.7296736240386962891 2.0331201553344726563 2.2828679084777832031 2.1851146221160888672 2.5310151576995849609 1.9269834756851196289 2.1160902976989746094 2.0432903766632080078 3.7324497699737548828 2.3953311443328857422 2.1267454624176025391 1.9574520587921142578 1.9904347658157348633 2.0122883319854736328 2.1435909271240234375 1.9214093685150146484 1.755473017692565918 1.5613257884979248047 1.951568603515625 2.8126103878021240234 2.2057929039001464844 2.7924706935882568359 2.4843990802764892578 3.0961668491363525391 2.5770230293273925781 2.5361950397491455078 2.6222276687622070313 2.3097507953643798828 2.3642184734344482422 2.4545862674713134766 3.7517969608306884766 2.4801845550537109375 2.6787214279174804688 3.2902753353118896484 2.3916132450103759766 3.3149137496948242188 3.1265282630920410156 2.9729692935943603516 1.9466032981872558594 2.5049264430999755859 2.9577388763427734375 2.2323665618896484375 1.7071708440780639648 1.7912740707397460938 2.2821354866027832031 1.9003700017929077148 1.8124780654907226563 1.7212151288986206055 1.8651611804962158203 1.8208358287811279297 1.7013911008834838867 2.2048547267913818359 1.3859455585479736328 1.7490428686141967773 1.2403138875961303711 1.5050063133239746094 1.3330999612808227539 1.5124922990798950195 1.1891615390777587891 1.4295189380645751953 1.7292783260345458984 1.8122867345809936523 1.988921046257019043 1.8971239328384399414 1.7160093784332275391 1.8541002273559570313 2.1909513473510742188 1.7391943931579589844 2.1099038124084472656 1.8449560403823852539 2.4382500648498535156 2.8261082172393798828 2.9122211933135986328 3.5252327919006347656 4.3486766815185546875 3.59835052490234375 4.1512737274169921875 4.1756105422973632813 3.2622017860412597656 3.8926677703857421875 3.0862240791320800781 3.2602334022521972656 2.4725677967071533203 2.3795270919799804688 2.7627446651458740234 2.9116110801696777344 1.9127290248870849609 1.7641190290451049805 1.9589810371398925781 1.6956801414489746094 2.1171190738677978516 1.9277707338333129883 1.5781481266021728516 1.5545576810836791992 1.4181631803512573242 1.6638195514678955078 1.9850960969924926758 2.0005266666412353516 2.1067855358123779297 2.9265270233154296875 2.6791727542877197266 2.442432403564453125 2.5887126922607421875 1.9225603342056274414 1.5607957839965820313 2.2361271381378173828 2.1180195808410644531 2.1337368488311767578 2.1089127063751220703 2.1497371196746826172 1.5285583734512329102 2.0718286037445068359 1.4892380237579345703 1.7228378057479858398 2.3203761577606201172 1.8285291194915771484 2.4710469245910644531 2.2967717647552490234 1.9023879766464233398 1.6391519308090209961 2.1183669567108154297 1.7838156223297119141 2.4199316501617431641 2.8413627147674560547 2.0847346782684326172 1.948184967041015625 2.5896651744842529297 2.6114106178283691406 2.4197602272033691406 2.0265314579010009766 1.7948297262191772461 1.9850624799728393555 1.3813631534576416016 1.7203029394149780273 1.3151174783706665039 1.5012136697769165039 1.7459946870803833008 1.6084342002868652344 1.5934033393859863281 1.8677793741226196289 1.6455535888671875 1.6524318456649780273 1.8230381011962890625 2.2815730571746826172 1.6564871072769165039 1.8867287635803222656 
2.7925772666931152344 2.3267693519592285156 2.2158703804016113281 3.2599523067474365234 2.2019181251525878906 2.0419323444366455078 2.988155364990234375 3.1612601280212402344 4.7021198272705078125 2.3455066680908203125 2.5768480300903320313 2.8514459133148193359 3.2169651985168457031 2.3327476978302001953 2.6887335777282714844 2.030223846435546875 2.0665929317474365234 2.2556297779083251953 2.5220944881439208984 2.1976430416107177734 2.3904409408569335938 2.3141345977783203125 2.1248173713684082031 2.1563854217529296875 2.3341033458709716797 2.2519679069519042969 1.8267476558685302734 2.460338592529296875 2.277618408203125 1.5847918987274169922 1.5599080324172973633 1.8644491434097290039 1.8109024763107299805 1.5090517997741699219 2.1200654506683349609 1.4959980249404907227 1.4500809907913208008 1.5501960515975952148 1.405283808708190918 1.5410773754119873047 1.5473177433013916016 1.4320816993713378906 1.3259316682815551758 1.705742955207824707 1.3596243858337402344 1.4522627592086791992 1.5291292667388916016 1.6667212247848510742 1.775028228759765625 1.560666203498840332 2.1851830482482910156 1.8268035650253295898 1.7750762701034545898 2.354740142822265625 1.9350731372833251953 1.2337549924850463867 1.6110200881958007813 1.9165718555450439453 1.7051556110382080078 1.7425684928894042969 2.2208802700042724609 1.941712498664855957 2.2821371555328369141 2.9009485244750976563 2.3789241313934326172 3.2583971023559570313 3.8363909721374511719 2.1915872097015380859 2.1674709320068359375 1.8543595075607299805 1.9054986238479614258 2.1504702568054199219 1.485596776008605957 1.9698835611343383789 2.1493513584136962891 1.809723973274230957 1.6094301939010620117 2.0631737709045410156 2.9740612506866455078 3.7531106472015380859 3.0474965572357177734 2.3382768630981445313 2.2874476909637451172 2.2129697799682617188 1.9511210918426513672 2.5248124599456787109 3.4354276657104492188 2.3631656169891357422 2.6549746990203857422 1.5746440887451171875 1.9954870939254760742 2.1084222793579101563 1.8773124217987060547 1.9902355670928955078 2.0447916984558105469 1.6907591819763183594 2.1839356422424316406 2.7968266010284423828 1.8563368320465087891 1.6764749288558959961 1.6995031833648681641 1.9308074712753295898 1.5041753053665161133 1.7059739828109741211 1.3347992897033691406 1.8435403108596801758 1.3060585260391235352 1.3981243371963500977 1.7551739215850830078 1.4481014013290405273 1.3571496009826660156 1.2552498579025268555 1.6955124139785766602 1.5639793872833251953 1.3629202842712402344 1.2948703765869140625 1.5388535261154174805 1.8223685026168823242 1.721516728401184082 2.2506513595581054688 2.2826430797576904297 2.2705957889556884766 2.2625231742858886719 1.8715184926986694336 3.0089111328125 2.7744498252868652344 2.453403472900390625 3.2508537769317626953 3.4304585456848144531 3.3861975669860839844 3.9873292446136474609 3.2775170803070068359 3.2585854530334472656 3.0938136577606201172 2.9637775421142578125 2.7851047515869140625 2.5503251552581787109 2.3347198963165283203 3.6026811599731445313 2.3590762615203857422 2.6603968143463134766 1.7485245466232299805 1.3968172073364257813 1.7447631359100341797 1.8674743175506591797 1.8295416831970214844 1.575038909912109375 1.4755203723907470703 1.2668691873550415039 1.5391623973846435547 1.6123001575469970703 1.6554251909255981445 2.1352117061614990234 1.7653464078903198242 2.9364135265350341797 2.7131502628326416016 2.6704361438751220703 2.6029329299926757813 2.9198932647705078125 3.5326602458953857422 2.6358740329742431641 2.1736636161804199219 2.2242431640625 2.7387304306030273438 2.0854451656341552734 2.2555887699127197266 2.4740960597991943359 2.2825860977172851563 2.1495087146759033203 2.2093472480773925781 2.0250146389007568359 2.0761852264404296875 1.9915658235549926758 1.7733932733535766602 2.3149175643920898438 1.9318543672561645508 2.1418552398681640625 1.7732449769973754883 1.4150762557983398438 2.2374668121337890625 2.3006932735443115234 2.397106170654296875 2.6085491180419921875 1.5604420900344848633 1.6181772947311401367 1.4241890907287597656 1.7869272232055664063 1.4163879156112670898 1.5529464483261108398 1.3141636848449707031 1.7380164861679077148 1.5331097841262817383 1.3006707429885864258 1.5882471799850463867 1.9132223129272460938 1.9644963741302490234 2.0010173320770263672 1.9693500995635986328 1.6829752922058105469 1.9647192955017089844 
3.5884158611297607422 3.4475145339965820313 3.4578804969787597656 1.7998013496398925781 3.1193225383758544922 2.9510023593902587891 2.6650319099426269531 3.8427405357360839844 4.2861657142639160156 2.6786153316497802734 2.5531618595123291016 3.1435856819152832031 2.9011418819427490234 2.5012917518615722656 2.6649479866027832031 2.9032628536224365234 2.1855368614196777344 2.0072622299194335938 2.143115997314453125 2.0371263027191162109 2.1597199440002441406 2.2229604721069335938 2.5696330070495605469 1.8663339614868164063 2.3104143142700195313 2.3750455379486083984 1.6729673147201538086 2.0958104133605957031 1.9293519258499145508 1.7461392879486083984 1.7931160926818847656 1.8314375877380371094 1.5931097269058227539 1.4089399576187133789 2.4704244136810302734 1.2214640378952026367 1.2141686677932739258 1.608510136604309082 1.3652260303497314453 1.3843537569046020508 1.3733375072479248047 2.0584430694580078125 1.9001622200012207031 1.4245744943618774414 1.7064843177795410156 2.2029139995574951172 1.5600019693374633789 1.9344676733016967773 1.7681307792663574219 1.9412360191345214844 1.9158260822296142578 2.4376022815704345703 1.7485535144805908203 1.8126728534698486328 2.2133338451385498047 1.8294278383255004883 1.9546415805816650391 1.9571027755737304688 1.7521401643753051758 1.7720428705215454102 2.6148352622985839844 4.1723151206970214844 2.1279594898223876953 2.4350244998931884766 2.1081252098083496094 3.9367809295654296875 3.9830317497253417969 4.4440679550170898438 2.2841866016387939453 1.9162733554840087891 1.559722900390625 2.1680307388305664063 1.8260055780410766602 2.7399535179138183594 1.8212869167327880859 1.611515045166015625 1.4501472711563110352 2.2952110767364501953 2.1887598037719726563 2.5224747657775878906 2.4855997562408447266 2.3487708568572998047 3.4348018169403076172 2.0425612926483154297 2.9637010097503662109 3.4185681343078613281 4.2681779861450195313 2.2386548519134521484 1.8220155239105224609 1.7741875648498535156 1.9373570680618286133 1.6850439310073852539 1.9391789436340332031 3.373668670654296875 1.8993163108825683594 1.8965637683868408203 1.6196213960647583008 1.6942728757858276367 1.9689449071884155273 1.6120017766952514648 1.7826647758483886719 1.6672732830047607422 2.0776858329772949219 1.452542424201965332 1.5852047204971313477 1.3930552005767822266 1.2757143974304199219 1.2920783758163452148 1.713219761848449707 1.3277997970581054688 1.3618527650833129883 1.5272063016891479492 1.5277212858200073242 2.0464007854461669922 1.6251859664916992188 1.2890264987945556641 1.3870090246200561523 1.6517773866653442383 1.5874422788619995117 2.0702064037322998047 1.8010315895080566406 2.5078141689300537109 2.2738130092620849609 2.8019080162048339844 2.9408147335052490234 3.1877942085266113281 3.1900436878204345703 3.1704232692718505859 3.3214743137359619141 3.0034360885620117188 2.9378340244293212891 2.4366261959075927734 2.7301788330078125 3.5065274238586425781 2.6612639427185058594 3.0187554359436035156 2.6966810226440429688 2.4327630996704101563 2.2967786788940429688 2.1687345504760742188 2.4398252964019775391 1.9892730712890625 1.7927443981170654297 1.4465053081512451172 1.4329695701599121094 1.4658358097076416016 1.6660689115524291992 1.2575844526290893555 1.5855796337127685547 1.7646458148956298828 1.79151153564453125 1.9469161033630371094 2.2185170650482177734 2.86181640625 2.3202085494995117188 2.5179791450500488281 2.4983394145965576172 2.3625278472900390625 2.4641883373260498047 2.9551594257354736328 1.9742157459259033203 2.2525732517242431641 2.1849431991577148438 2.3871152400970458984 2.1552538871765136719 2.0642933845520019531 1.931446075439453125 2.392574310302734375 2.3335297107696533203 1.9529715776443481445 2.2994582653045654297 1.5547584295272827148 1.6892076730728149414 1.9740185737609863281 1.5269041061401367188 2.6213898658752441406 1.950565338134765625 2.4035739898681640625 2.0542089939117431641 1.8060784339904785156 2.3255383968353271484 2.3377830982208251953 2.3098993301391601563 2.200286865234375 1.1930208206176757813 1.7254214286804199219 2.0723316669464111328 1.1680552959442138672 1.1434613466262817383 1.6552574634552001953 1.1990718841552734375 2.0420665740966796875 1.8173943758010864258 1.7056818008422851563 1.7731130123138427734 1.5992254018783569336 1.8110747337341308594 1.5113632678985595703 1.843623042106628418 2.2741529941558837891 
3.3467793464660644531 3.2782850265502929688 2.8721067905426025391 3.7606685161590576172 1.6171725988388061523 2.5176534652709960938 3.9867010116577148438 3.9988546371459960938 4.1423826217651367188 3.1380510330200195313 4.2467875480651855469 3.8040459156036376953 3.3079786300659179688 2.7413728237152099609 2.1327128410339355469 2.3919997215270996094 2.1753454208374023438 2.1687843799591064453 1.8721123933792114258 2.2368876934051513672 1.8957399129867553711 2.2477743625640869141 1.8825752735137939453 2.4135315418243408203 2.8653111457824707031 2.686489105224609375 1.8868535757064819336 2.2198503017425537109 1.8717763423919677734 1.7366214990615844727 1.6773006916046142578 1.5409681797027587891 1.6833789348602294922 1.1238282918930053711 2.0290894508361816406 1.3278306722640991211 1.8312172889709472656 1.5095180273056030273 1.4816726446151733398 1.3694106340408325195 1.2821545600891113281 1.4520490169525146484 1.3710004091262817383 1.6968860626220703125 1.6316952705383300781 1.7743237018585205078 1.7632921934127807617 1.4386998414993286133 2.0068049430847167969 2.7366838455200195313 1.5448317527770996094 2.0402019023895263672 1.7606399059295654297 1.6945492029190063477 2.1569011211395263672 1.8813382387161254883 2.0695424079895019531 1.9559419155120849609 2.1950399875640869141 2.8989875316619873047 1.8876417875289916992 2.7208044528961181641 2.6027724742889404297 3.1847128868103027344 2.3292646408081054688 2.6101434230804443359 3.1430330276489257813 3.0171742439270019531 4.0134444236755371094 1.7731804847717285156 2.1641738414764404297 1.7292273044586181641 1.6812491416931152344 3.0733094215393066406 1.7106796503067016602 2.0812027454376220703 1.3378014564514160156 1.8543311357498168945 2.8631522655487060547 2.3734765052795410156 2.8391439914703369141 2.2381701469421386719 2.4328057765960693359 2.5225467681884765625 3.8797907829284667969 5.4147891998291015625 3.9041476249694824219 2.1588428020477294922 3.3319673538208007813 2.3757536411285400391 1.6462241411209106445 2.1273486614227294922 1.8717523813247680664 1.4964666366577148438 1.9301904439926147461 1.9626630544662475586 1.9086463451385498047 1.5914947986602783203 1.8518693447113037109 1.6161835193634033203 1.9623292684555053711 1.9267227649688720703 2.0614573955535888672 1.7558159828186035156 1.7704181671142578125 1.4610605239868164063 1.4541820287704467773 1.6146020889282226563 1.3138271570205688477 1.4482499361038208008 1.2832399606704711914 1.2507467269897460938 2.2076728343963623047 1.6808004379272460938 1.7856355905532836914 1.2725284099578857422 1.4222062826156616211 1.2356716394424438477 1.7433310747146606445 1.7008044719696044922 1.8016920089721679688 2.1266903877258300781 2.1867411136627197266 2.3074257373809814453 3.1602842807769775391 3.2481844425201416016 2.9989016056060791016 3.0334951877593994141 3.0526432991027832031 2.6772258281707763672 2.917736053466796875 2.7174122333526611328 3.2197186946868896484 2.5022592544555664063 2.8080258369445800781 2.9631257057189941406 3.1134974956512451172 1.9492837190628051758 2.1283278465270996094 2.1092476844787597656 2.6872124671936035156 2.0237386226654052734 1.9973788261413574219 1.4907659292221069336 1.662154078483581543 1.477230072021484375 1.5404913425445556641 1.4480500221252441406 1.541136622428894043 1.8397874832153320313 1.7707276344299316406 1.9783414602279663086 2.7715899944305419922 2.7810189723968505859 2.5152432918548583984 2.4877343177795410156 2.5296115875244140625 3.5457851886749267578 1.9904772043228149414 2.3890166282653808594 3.4671545028686523438 1.7272973060607910156 1.9603586196899414063 3.3116004467010498047 2.757556915283203125 2.4143106937408447266 2.57996368408203125 1.7765468358993530273 2.0097196102142333984 1.4992235898971557617 1.8053457736968994141 2.2062003612518310547 2.2518649101257324219 2.3147120475769042969 1.7030465602874755859 1.6696031093597412109 1.5105578899383544922 2.3764069080352783203 1.7457922697067260742 1.7017289400100708008 2.2552812099456787109 2.696781158447265625 1.9210174083709716797 1.891834259033203125 1.628834843635559082 1.8286439180374145508 1.9681417942047119141 1.8745430707931518555 1.6025050878524780273 1.3253457546234130859 1.5964514017105102539 1.3726496696472167969 1.5875136852264404297 1.6104713678359985352 1.443881988525390625 1.6337131261825561523 1.6920124292373657227 1.7223988771438598633 1.8102285861968994141 2.0720403194427490234 
4.79351806640625 1.8240306377410888672 3.1828203201293945313 1.8891582489013671875 2.9467470645904541016 2.9507935047149658203 2.2994763851165771484 4.910846710205078125 2.5851476192474365234 4.3840346336364746094 4.8282470703125 3.1216192245483398438 4.6064043045043945313 3.7180495262145996094 1.9334599971771240234 2.3245553970336914063 2.0754208564758300781 2.147884368896484375 1.8961881399154663086 1.9840933084487915039 2.0812814235687255859 1.8729714155197143555 1.8069816827774047852 1.7456024885177612305 1.8980700969696044922 2.1784675121307373047 2.2431685924530029297 1.7979036569595336914 1.691763758659362793 2.1135115623474121094 2.1033813953399658203 1.7239160537719726563 2.0770611763000488281 1.7926218509674072266 1.5947749614715576172 1.8261291980743408203 1.3067559003829956055 1.5006914138793945313 1.4163746833801269531 1.4071812629699707031 1.531336665153503418 1.2711721658706665039 1.4941481351852416992 2.0925450325012207031 1.8613972663879394531 1.9466384649276733398 2.0448284149169921875 2.2841379642486572266 2.63597869873046875 2.2697160243988037109 2.2172896862030029297 2.5276982784271240234 3.3539552688598632813 2.0515921115875244141 2.2729892730712890625 2.1036052703857421875 1.182765960693359375 1.4250279664993286133 3.1772596836090087891 2.8540561199188232422 4.4480166435241699219 3.4239728450775146484 3.1217825412750244141 3.1017384529113769531 4.3067674636840820313 3.4932236671447753906 2.7611284255981445313 4.5301065444946289063 3.7409310340881347656 3.1574268341064453125 2.0735049247741699219 2.0290441513061523438 2.4242458343505859375 2.6483347415924072266 2.3694431781768798828 2.2330150604248046875 1.826369166374206543 1.9309419393539428711 1.6786807775497436523 1.7202839851379394531 1.9855163097381591797 1.554597020149230957 2.0543298721313476563 2.9401524066925048828 3.6495387554168701172 3.5582940578460693359 3.3327343463897705078 1.8259013891220092773 2.8415825366973876953 2.9525475502014160156 1.7854179143905639648 1.4621297121047973633 1.555916905403137207 1.3931809663772583008 1.5050767660140991211 1.7623459100723266602 1.571530461311340332 1.6993111371994018555 1.8984979391098022461 1.9332699775695800781 1.7379516363143920898 1.7360262870788574219 1.6844731569290161133 1.6015436649322509766 1.5852634906768798828 1.6702866554260253906 1.4584139585494995117 1.484646916389465332 1.1937832832336425781 1.2632155418395996094 1.5174024105072021484 1.5797781944274902344 1.6355464458465576172 1.5033104419708251953 1.6468141078948974609 1.3931325674057006836 1.4041841030120849609 1.5807123184204101563 2.0601270198822021484 1.6582143306732177734 1.8535478115081787109 1.9880218505859375 2.2496771812438964844 3.0684914588928222656 3.3905956745147705078 3.1689417362213134766 3.5648493766784667969 3.3158910274505615234 2.6055605411529541016 2.9478533267974853516 2.9389550685882568359 2.6974873542785644531 2.5980699062347412109 2.5556926727294921875 2.5122649669647216797 2.6062629222869873047 2.3128368854522705078 2.1021966934204101563 1.8258988857269287109 2.1993627548217773438 1.7308546304702758789 1.7955136299133300781 2.0313570499420166016 1.7106428146362304688 1.7027237415313720703 1.2131966352462768555 1.4872660636901855469 2.2267029285430908203 1.5473985671997070313 1.6130130290985107422 2.0874145030975341797 2.9279296398162841797 2.99398040771484375 2.7397375106811523438 2.4143416881561279297 3.9825603961944580078 2.219318389892578125 2.1241972446441650391 1.8097580671310424805 1.9868429899215698242 3.7855443954467773438 1.9616097211837768555 2.1808111667633056641 2.0362780094146728516 1.9877307415008544922 2.4639174938201904297 2.4498229026794433594 2.4604814052581787109 2.1159808635711669922 2.3554222583770751953 1.6285108327865600586 1.7451202869415283203 1.463062286376953125 2.1596798896789550781 1.6123527288436889648 2.19254302978515625 2.0256514549255371094 2.3935770988464355469 2.3726246356964111328 1.7965748310089111328 1.597989201545715332 1.9961302280426025391 1.7354052066802978516 1.4083591699600219727 1.4934291839599609375 1.6242069005966186523 2.4053866863250732422 1.6349619626998901367 1.5298242568969726563 1.5700803995132446289 1.2817442417144775391 1.1600916385650634766 1.4168223142623901367 1.5912151336669921875 1.6919083595275878906 1.5550600290298461914 1.4001452922821044922 1.5287389755249023438 1.7017397880554199219 2.6162655353546142578 
3.9704444408416748047 2.1382162570953369141 3.8783898353576660156 5.8261156082153320313 4.2296247482299804688 2.1153876781463623047 3.4251201152801513672 2.3323078155517578125 2.4503424167633056641 2.6746933460235595703 4.5433468818664550781 3.1547830104827880859 3.0382084846496582031 3.8568270206451416016 3.0998895168304443359 1.9384849071502685547 2.5640354156494140625 2.1247344017028808594 1.9929430484771728516 1.9491633176803588867 1.4996843338012695313 1.8241050243377685547 1.7060396671295166016 1.7910833358764648438 2.06583404541015625 2.2121064662933349609 2.0910418033599853516 1.9087610244750976563 1.8614392280578613281 1.5373075008392333984 1.8728367090225219727 1.537853240966796875 1.4258296489715576172 1.3541862964630126953 1.3249031305313110352 1.7425390481948852539 2.3385782241821289063 1.6288356781005859375 1.6476625204086303711 1.4272794723510742188 1.4569411277770996094 1.2610214948654174805 1.6218073368072509766 2.1206517219543457031 2.0680027008056640625 2.5645701885223388672 2.5683126449584960938 2.2531566619873046875 2.4874334335327148438 2.5914101600646972656 2.7812130451202392578 2.1070625782012939453 2.2154176235198974609 2.0181021690368652344 2.9617226123809814453 1.9607412815093994141 2.6864461898803710938 3.8104708194732666016 2.9904179573059082031 2.2081673145294189453 2.4190642833709716797 3.6120138168334960938 4.1376805305480957031 4.4511580467224121094 2.3996000289916992188 4.9973192214965820313 2.8244698047637939453 3.2248327732086181641 2.3910741806030273438 1.9754369258880615234 1.3595148324966430664 3.0945172309875488281 1.9540680646896362305 2.1112477779388427734 1.9569627046585083008 2.2918097972869873047 1.7043234109878540039 1.935889124870300293 2.8684420585632324219 2.5741245746612548828 2.7282729148864746094 3.51311492919921875 3.0564785003662109375 3.6562449932098388672 3.6251931190490722656 3.5762567520141601563 1.4580631256103515625 2.4899637699127197266 2.1757023334503173828 2.7518513202667236328 1.6372914314270019531 1.6015077829360961914 1.7654492855072021484 1.8199249505996704102 1.5165735483169555664 1.7967203855514526367 1.7469156980514526367 1.7189257144927978516 1.76213836669921875 1.4947484731674194336 2.1419742107391357422 1.7021042108535766602 1.9764069318771362305 1.4754713773727416992 1.380086064338684082 1.4685443639755249023 2.0646984577178955078 1.2981013059616088867 1.6086626052856445313 1.7212738990783691406 2.0650343894958496094 1.4007610082626342773 1.361026763916015625 1.6592887639999389648 1.2721111774444580078 1.5534942150115966797 1.8378281593322753906 1.8272516727447509766 1.3889186382293701172 1.6192457675933837891 2.2385923862457275391 1.8649152517318725586 1.9298444986343383789 2.5434329509735107422 3.5285048484802246094 3.5197217464447021484 2.5807962417602539063 3.0132904052734375 2.6492600440979003906 1.9800546169281005859 2.3646640777587890625 1.8852468729019165039 2.9076755046844482422 2.3141374588012695313 2.6870472431182861328 2.3015897274017333984 2.3545510768890380859 2.4549834728240966797 2.1218047142028808594 2.0067052841186523438 1.5469181537628173828 1.409775853157043457 1.6903059482574462891 1.573626399040222168 1.6335138082504272461 1.2288117408752441406 1.3893967866897583008 1.226216435432434082 1.8079450130462646484 1.9186059236526489258 2.4174375534057617188 2.8508768081665039063 2.6531777381896972656 2.4795043468475341797 3.2997708320617675781 2.3157649040222167969 2.1460654735565185547 3.7605581283569335938 3.3289670944213867188 2.2322211265563964844 2.2178864479064941406 2.9738619327545166016 1.6815177202224731445 1.8468157052993774414 2.1103870868682861328 2.7722640037536621094 2.6191985607147216797 1.5426753759384155273 2.7133891582489013672 1.4139016866683959961 1.7550543546676635742 1.7189707756042480469 1.6262645721435546875 1.2700754404067993164 2.1439394950866699219 1.3996351957321166992 1.4519927501678466797 2.3481466770172119141 1.4258437156677246094 2.1131405830383300781 2.1185839176177978516 1.9363924264907836914 2.3781461715698242188 1.7332494258880615234 2.0199389457702636719 1.6077355146408081055 1.4990020990371704102 1.4823845624923706055 1.1377006769180297852 1.5911518335342407227 1.1959136724472045898 1.1105772256851196289 1.3706531524658203125 1.5845465660095214844 1.6811391115188598633 1.3977336883544921875 1.3742818832397460938 1.7049062252044677734 1.9145408868789672852 1.8378779888153076172 
3.4486083984375 1.7241016626358032227 2.8076920509338378906 1.8881260156631469727 2.26493072509765625 2.0251562595367431641 2.9167263507843017578 2.4037938117980957031 2.3259012699127197266 3.8331432342529296875 2.5604081153869628906 3.8986046314239501953 4.2933888435363769531 4.871448516845703125 2.2544672489166259766 1.9843666553497314453 2.3824839591979980469 2.2125279903411865234 2.3356537818908691406 1.9867683649063110352 1.6892148256301879883 1.6471543312072753906 1.9952373504638671875 1.6961216926574707031 1.9989664554595947266 2.0587508678436279297 2.0658056735992431641 1.8813434839248657227 1.8760992288589477539 1.9835261106491088867 2.1242341995239257813 1.399664759635925293 1.7385703325271606445 1.4977738857269287109 1.9831773042678833008 2.2604639530181884766 1.0402418375015258789 1.9035832881927490234 1.8606588840484619141 1.3336805105209350586 1.462330937385559082 1.6495568752288818359 1.734822392463684082 1.3814510107040405273 1.8762166500091552734 2.2356328964233398438 2.7030961513519287109 3.2851369380950927734 2.5010266304016113281 2.7989420890808105469 2.7568564414978027344 2.3828268051147460938 2.1116931438446044922 1.8836259841918945313 1.8187614679336547852 2.2891395092010498047 4.2215242385864257813 3.2846212387084960938 3.8043615818023681641 2.1176280975341796875 4.2622408866882324219 2.5536715984344482422 3.0649781227111816406 6.5523004531860351563 6.0226159095764160156 4.7496352195739746094 4.343097686767578125 2.1606256961822509766 1.9173771142959594727 2.1645381450653076172 1.9603964090347290039 3.5480916500091552734 3.1628139019012451172 2.1797528266906738281 3.302204132080078125 3.4375264644622802734 2.2833054065704345703 2.0752725601196289063 3.4239690303802490234 3.8205385208129882813 1.7864451408386230469 2.3878946304321289063 1.8961033821105957031 3.42745208740234375 2.7346038818359375 1.722110748291015625 1.6711195707321166992 1.268754124641418457 1.5188221931457519531 2.2089889049530029297 1.4945509433746337891 1.3910821676254272461 1.3830804824829101563 2.2494692802429199219 1.8382506370544433594 2.2515017986297607422 1.6428240537643432617 2.9367034435272216797 1.8480011224746704102 1.43491363525390625 1.9830976724624633789 2.6623532772064208984 1.477904200553894043 1.7823454141616821289 1.3662563562393188477 1.3316159248352050781 1.4005541801452636719 1.3396433591842651367 1.3480736017227172852 1.6480042934417724609 1 1.7782833576202392578 1.7978949546813964844 1.4191272258758544922 1.6517392396926879883 1.8331545591354370117 1.2959082126617431641 1.9629837274551391602 1.8110707998275756836 1.4744431972503662109 2.0078625679016113281 2.0832817554473876953 2.0353825092315673828 2.3168735504150390625 2.8737928867340087891 2.8100752830505371094 2.5622208118438720703 2.5732069015502929688 2.7806303501129150391 2.8869493007659912109 2.1567881107330322266 2.7661201953887939453 3.2092926502227783203 3.6931653022766113281 3.2418267726898193359 3.3211641311645507813 3.1542136669158935547 2.2928938865661621094 1.9795018434524536133 2.0274631977081298828 2.0145552158355712891 2.1152427196502685547 2.3101699352264404297 2.1140263080596923828 1.7944222688674926758 2.4718155860900878906 1.3194524049758911133 2.5030207633972167969 1.7054960727691650391 1.7119506597518920898 1.887187957763671875 2.1834070682525634766 2.2759804725646972656 2.3058657646179199219 2.6967043876647949219 2.0059497356414794922 2.4857423305511474609 2.7256040573120117188 2.01627349853515625 2.7879498004913330078 3.4815325736999511719 2.642547607421875 2.6336715221405029297 2.3266825675964355469 1.5551370382308959961 2.4574069976806640625 2.0828366279602050781 2.8512361049652099609 1.8335338830947875977 2.1317377090454101563 2.2011430263519287109 2.2214863300323486328 2.36382293701171875 2.1227917671203613281 2.4332926273345947266 1.6037451028823852539 1.1640640497207641602 1.3573520183563232422 1.8300172090530395508 1.8157278299331665039 1.9789167642593383789 1.7780323028564453125 2.615535736083984375 1.3987629413604736328 1.6990818977355957031 1.6834832429885864258 1.0113248825073242188 1.3650323152542114258 1.2262030839920043945 1.3943612575531005859 1.8626517057418823242 1.7941820621490478516 1.2232352495193481445 1.3929597139358520508 1.52748870849609375 1.3801397085189819336 1.6730121374130249023 1.7383798360824584961 1.6175148487091064453 1.8122720718383789063 
1.8060059547424316406 1.7383639812469482422 2.2019951343536376953 4.8660569190979003906 2.9510047435760498047 1.7050218582153320313 2.0138154029846191406 3.0936074256896972656 3.7450518608093261719 2.4527330398559570313 3.6270520687103271484 2.3245661258697509766 3.4383840560913085938 2.5119841098785400391 2.5865566730499267578 2.0674605369567871094 4.0605425834655761719 1.8361790180206298828 2.0050561428070068359 1.9048249721527099609 2.0986504554748535156 1.7960249185562133789 2.0468873977661132813 1.9070626497268676758 1.978052973747253418 2.1537468433380126953 2.1303625106811523438 1.6797643899917602539 2.3715395927429199219 1.6434557437896728516 1.5567150115966796875 1.7893083095550537109 1.3711063861846923828 1.2398753166198730469 1.4656491279602050781 1.5462726354598999023 1 1.7232300043106079102 1.3640800714492797852 1.2572785615921020508 1.4410508871078491211 1.449520111083984375 1.4870543479919433594 1.1450190544128417969 2.0082848072052001953 2.4775233268737792969 2.6524970531463623047 2.5618708133697509766 2.9248600006103515625 1.7841980457305908203 2.5522563457489013672 3.0805506706237792969 2.2044348716735839844 2.288463592529296875 2.4112939834594726563 2.3453145027160644531 2.6874341964721679688 3.1656928062438964844 4.0626535415649414063 3.4998145103454589844 3.4835035800933837891 4.3146686553955078125 5.3429226875305175781 5.4420833587646484375 5.2349834442138671875 3.5658385753631591797 2.5301840305328369141 3.4592423439025878906 5.7449917793273925781 3.9010934829711914063 2.5830426216125488281 2.2402501106262207031 3.1250786781311035156 1.8432439565658569336 2.7750239372253417969 2.6847307682037353516 4.1747736930847167969 2.6219928264617919922 3.398967742919921875 3.5307874679565429688 3.5872311592102050781 3.0668072700500488281 2.8186070919036865234 2.3676285743713378906 1.978585362434387207 1.957856297492980957 1.4964007139205932617 1.184584498405456543 1.4538785219192504883 1.3174593448638916016 1.3897556066513061523 1.3967212438583374023 1.7563456296920776367 2.1036479473114013672 1.9700062274932861328 1.9393558502197265625 1.5858790874481201172 1.8410397768020629883 2.1345548629760742188 1.9901952743530273438 2.1565244197845458984 1.5882691144943237305 1.5822227001190185547 1.4486602544784545898 1.5153316259384155273 1.2658715248107910156 1.3240007162094116211 1.4559350013732910156 1.5940413475036621094 1.2636739015579223633 2.3153083324432373047 1.3466587066650390625 2.0466020107269287109 1.9828008413314819336 2.2263283729553222656 1.8800332546234130859 1.7144112586975097656 1.3426988124847412109 1.4638271331787109375 1.8481000661849975586 2.0775177478790283203 2.2087876796722412109 2.1988968849182128906 2.5455434322357177734 3.2635922431945800781 3.1078608036041259766 2.6024017333984375 2.6334013938903808594 2.8375074863433837891 2.5336675643920898438 2.9349360466003417969 2.7920083999633789063 3.0969800949096679688 3.3799803256988525391 2.5573625564575195313 2.3171279430389404297 2.8379547595977783203 2.3716976642608642578 2.5283908843994140625 2.6823580265045166016 2.5478742122650146484 2.2115023136138916016 1.9689525365829467773 2.5281839370727539063 2.1684014797210693359 2.1338891983032226563 2.0140500068664550781 1.8384156227111816406 2.3242411613464355469 1.8667893409729003906 2.1228644847869873047 2.6324579715728759766 2.2719464302062988281 2.4785051345825195313 3.5350918769836425781 3.7398066520690917969 3.6359641551971435547 3.7962405681610107422 3.1730084419250488281 3.5898427963256835938 3.9328734874725341797 2.6625161170959472656 2.0163285732269287109 3.0766143798828125 2.9495031833648681641 2.6103999614715576172 2.7946670055389404297 2.2680006027221679688 2.3520588874816894531 2.6988096237182617188 1.6555633544921875 1.9943051338195800781 2.3337318897247314453 2.2186055183410644531 2.4562168121337890625 2.2599847316741943359 2.3545165061950683594 2.3308579921722412109 2.0166177749633789063 2.0497493743896484375 1.8888363838195800781 2.0146086215972900391 1.5301703214645385742 2.0444104671478271484 1.2698400020599365234 1.4213379621505737305 1.4762822389602661133 1.2344712018966674805 1.4427489042282104492 1.1668882369995117188 1.6011174917221069336 1.2071752548217773438 1.2268896102905273438 1.2976089715957641602 1.2557513713836669922 1.1439260244369506836 1.5098812580108642578 1.3154245615005493164 1.4217733144760131836 1.7029932737350463867 
5.0714015960693359375 2.1773078441619873047 4.274662017822265625 2.8543436527252197266 2.3409786224365234375 3.5036120414733886719 2.4755339622497558594 3.4703297615051269531 3.751735687255859375 2.3746359348297119141 2.7579984664916992188 2.9360203742980957031 2.4342937469482421875 2.870662689208984375 2.2533113956451416016 2.1510109901428222656 2.0952265262603759766 1.8343355655670166016 1.9024541378021240234 1.7324148416519165039 1.7968388795852661133 2.1184618473052978516 2.2046535015106201172 2.2928292751312255859 2.1600189208984375 2.2062368392944335938 1.9633367061614990234 1.9546115398406982422 1.4551368951797485352 1.7557425498962402344 1.7238054275512695313 1.6963679790496826172 1.5233184099197387695 1.2800223827362060547 1.6474150419235229492 1.5146261453628540039 1.289563298225402832 1.768023371696472168 1.2010565996170043945 1.611687779426574707 1.5659843683242797852 1.6009343862533569336 1.327420353889465332 1.33597564697265625 1.5890840291976928711 3.5007944107055664063 2.757175445556640625 2.3066911697387695313 2.2891316413879394531 2.9837403297424316406 4.5937929153442382813 3.8647902011871337891 4.1055760383605957031 2.8378415107727050781 2.8889050483703613281 4.3327641487121582031 2.4191431999206542969 4.0891103744506835938 2.4961857795715332031 2.7545268535614013672 6.2536330223083496094 3.9766304492950439453 2.2557339668273925781 2.6827275753021240234 5.5780377388000488281 4.8860049247741699219 2.6563091278076171875 3.0489037036895751953 3.2158939838409423828 3.9243535995483398438 2.4368216991424560547 3.7197327613830566406 4.8348550796508789063 1.8533298969268798828 2.6541185379028320313 2.2820746898651123047 3.3634486198425292969 2.2812221050262451172 2.0929055213928222656 3.7242054939270019531 3.0794470310211181641 1.8506566286087036133 2.8348495960235595703 2.4736459255218505859 2.0603120326995849609 2.1463773250579833984 1.5339043140411376953 1.2966420650482177734 1.9126882553100585938 1.734058380126953125 1.2132569551467895508 1.4959959983825683594 1.7274136543273925781 2.7487304210662841797 1.6846210956573486328 2.0089643001556396484 3.0583443641662597656 1.901800990104675293 1.5280059576034545898 2.4534673690795898438 1.4741951227188110352 1.1821287870407104492 1.8184721469879150391 1.4924650192260742188 1.6408935785293579102 1.4278825521469116211 1.3360074758529663086 1.4647768735885620117 1.3290382623672485352 2.0586857795715332031 1.9886924028396606445 2.1024680137634277344 2.3071274757385253906 1.7068827152252197266 1.9205040931701660156 1.4934995174407958984 1.5621508359909057617 1.3406397104263305664 1.6189149618148803711 1.7955443859100341797 2.3174614906311035156 2.2781550884246826172 1.803879857063293457 2.1362974643707275391 2.5007314682006835938 2.5727260112762451172 2.7052531242370605469 2.7437810897827148438 2.5371174812316894531 3.349315643310546875 2.7735164165496826172 3.2519791126251220703 3.5036585330963134766 3.0225164890289306641 3.1416277885437011719 2.4169342517852783203 3.1038019657135009766 2.4793715476989746094 2.4993560314178466797 2.8224825859069824219 2.9548752307891845703 2.5035469532012939453 2.6617808341979980469 2.5487337112426757813 2.3313968181610107422 1.5991349220275878906 2.5329163074493408203 1.7403317689895629883 2.9018840789794921875 2.5032503604888916016 3.2301280498504638672 2.9622399806976318359 2.5223901271820068359 3.9327616691589355469 2.7692449092864990234 2.7728698253631591797 2.6032326221466064453 3.76464080810546875 3.4984796047210693359 3.9838643074035644531 3.0690932273864746094 2.2044916152954101563 2.0037674903869628906 2.6225647926330566406 2.2467100620269775391 2.1960527896881103516 2.0720198154449462891 1.9736733436584472656 1.9318259954452514648 2.2544875144958496094 1.8177376985549926758 1.6596193313598632813 1 2.0120985507965087891 1.9799197912216186523 2.4778599739074707031 1.8525745868682861328 1.9729324579238891602 2.2363741397857666016 1.5529582500457763672 1.9776246547698974609 1.8014280796051025391 1.088273167610168457 1.7649466991424560547 1.6514250040054321289 1.5834414958953857422 1.4285224676132202148 1.3691245317459106445 1.1772836446762084961 1.539994359016418457 1.5650979280471801758 1.4200034141540527344 1.2945531606674194336 1.1574627161026000977 1.624396204948425293 1.4225254058837890625 1.3845595121383666992 1.5603257417678833008 1.3760966062545776367 1.5227438211441040039 
6.0543437004089355469 4.3205523490905761719 2.297130584716796875 3.6308281421661376953 2.2503986358642578125 1.9725174903869628906 2.0309038162231445313 2.2442448139190673828 2.4945137500762939453 1.6737486124038696289 2.5349390506744384766 4.0725655555725097656 2.4529592990875244141 1.9480769634246826172 2.7927644252777099609 2.2394826412200927734 2.3336718082427978516 2.0437400341033935547 2.1753301620483398438 1.6624827384948730469 2.1524157524108886719 1.5201742649078369141 1.7709062099456787109 2.3318150043487548828 1.5228700637817382813 1.98809051513671875 1.6422830820083618164 1.6460092067718505859 1.3893320560455322266 1.2765716314315795898 1.6640534400939941406 1.6759003400802612305 1.6971899271011352539 1.241345524787902832 1.5193780660629272461 2.1122889518737792969 1.7150225639343261719 1.3570585250854492188 1.3218841552734375 1.1934611797332763672 1.2282644510269165039 1.6137063503265380859 1.6315097808837890625 1.4023634195327758789 2.1142258644104003906 2.0175924301147460938 2.1886506080627441406 2.1943919658660888672 2.2339122295379638672 2.8335824012756347656 2.2929148674011230469 2.7653913497924804688 4.0868020057678222656 4.0295095443725585938 4.0750293731689453125 3.2695877552032470703 6.0004911422729492188 2.8483083248138427734 4.2523798942565917969 4.3419218063354492188 4.4230937957763671875 3.4743144512176513672 3.7579886913299560547 6.131313323974609375 5.7767648696899414063 2.9676043987274169922 3.5584366321563720703 6.2798590660095214844 5.1969647407531738281 3.7050747871398925781 2.2669682502746582031 2.2797024250030517578 1.7030550241470336914 1.9173398017883300781 1.9789806604385375977 2.0487675666809082031 2.4411625862121582031 5.2421030998229980469 2.6057131290435791016 2.3845016956329345703 2.4368605613708496094 1.7272448539733886719 2.1784713268280029297 1.8292001485824584961 1.7057480812072753906 1.9753041267395019531 1.1507695913314819336 1.4959256649017333984 1.1781843900680541992 1.6745291948318481445 1.6194262504577636719 1.2573342323303222656 2.0744476318359375 1.2551780939102172852 2.6268064975738525391 1.6204628944396972656 2.3261792659759521484 1.7601926326751708984 1.4793208837509155273 1.326398015022277832 1.8491156101226806641 2.0827836990356445313 1.8445978164672851563 1.2510464191436767578 1.1777607202529907227 1.2365757226943969727 1.2281160354614257813 1.2481495141983032227 1.5878945589065551758 1.8219840526580810547 1.8934358358383178711 1.6002031564712524414 1.7038409709930419922 1.7179701328277587891 2.0316686630249023438 2.1160793304443359375 2.1124095916748046875 1.8018362522125244141 1.6285625696182250977 1.6863397359848022461 1.9483168125152587891 1.7294679880142211914 2.0956511497497558594 1.9797394275665283203 1.6303595304489135742 2.6851117610931396484 2.9104998111724853516 3.1123316287994384766 3.0806362628936767578 3.1104667186737060547 2.9834394454956054688 3.0267510414123535156 3.1936647891998291016 3.4287207126617431641 3.2442324161529541016 3.0210154056549072266 3.2116408348083496094 3.2264993190765380859 2.8690488338470458984 3.1209454536437988281 3.2058250904083251953 2.8083438873291015625 2.6412601470947265625 2.510097503662109375 2.4032089710235595703 2.4960303306579589844 2.2210943698883056641 2.9603762626647949219 3.1726267337799072266 2.9484798908233642578 2.5425119400024414063 2.5545430183410644531 2.3957779407501220703 2.8004631996154785156 3.7244386672973632813 2.7394902706146240234 5.509883880615234375 3.5056080818176269531 2.7975420951843261719 2.7984254360198974609 3.1065640449523925781 2.2205371856689453125 1.9875242710113525391 3.3710386753082275391 2.2056181430816650391 2.2550723552703857422 2.2850065231323242188 1.6402214765548706055 1.4353734254837036133 2.2221987247467041016 1.5029916763305664063 1.2914918661117553711 1.6999773979187011719 2.0928759574890136719 1.7916007041931152344 1.6642904281616210938 1.1603035926818847656 1.2178806066513061523 1.3918852806091308594 1.8918644189834594727 2.1203100681304931641 1.155755162239074707 1.3266456127166748047 1.217351078987121582 1.4817392826080322266 1.2186472415924072266 1.5416122674942016602 1.4438533782958984375 1.4814661741256713867 1.3080198764801025391 1.5824397802352905273 1.3942487239837646484 1.9688446521759033203 1.2589662075042724609 1.1572073698043823242 1.4981306791305541992 1.4673105478286743164 1.4204391241073608398 1.1185973882675170898 1.8137894868850708008 
4.1155214309692382813 3.9375154972076416016 3.335357666015625 2.1075723171234130859 2.17282867431640625 2.1414420604705810547 4.0550847053527832031 2.3661444187164306641 3.3761887550354003906 3.6800913810729980469 4.9822521209716796875 3.904697418212890625 3.58309173583984375 2.2359418869018554688 2.1896855831146240234 2.1986117362976074219 2.3665540218353271484 2.3296368122100830078 1.819522857666015625 1.9161447286605834961 1.1739395856857299805 1.9773880243301391602 2.2119638919830322266 2.2222387790679931641 1.7631140947341918945 2.3801472187042236328 1.8031469583511352539 1.7156236171722412109 1.3745157718658447266 1.4073724746704101563 1.6989047527313232422 1.440943598747253418 1.7389713525772094727 1.9260522127151489258 1.8833376169204711914 1.3826036453247070313 2.1348149776458740234 2.1048288345336914063 1.731434941291809082 1.6117284297943115234 1.4402194023132324219 2.0034856796264648438 2.1599295139312744141 1.7966834306716918945 1.0898251533508300781 1.8169553279876708984 1.859371185302734375 2.2641127109527587891 1.7602211236953735352 1.9669013023376464844 2.0695643424987792969 4.1850633621215820313 4.2316470146179199219 3.2547020912170410156 4.6206555366516113281 4.1226787567138671875 3.6516928672790527344 4.9509553909301757813 4.3592929840087890625 2.4956901073455810547 6.8303809165954589844 5.7337403297424316406 3.7529199123382568359 5.3454279899597167969 9.1547384262084960938 5.9831142425537109375 3.4597482681274414063 5.7704100608825683594 4.64646148681640625 2.7105371952056884766 2.5213451385498046875 2.3180978298187255859 2.1354444026947021484 1.9884737730026245117 2.5643854141235351563 2.8025832176208496094 5.9428200721740722656 2.7669107913970947266 5.2210717201232910156 4.0817732810974121094 2.9905924797058105469 2.3633701801300048828 2.4310534000396728516 1.7659701108932495117 2.6805882453918457031 1.6409419775009155273 1.5049959421157836914 1.573355555534362793 1.2732157707214355469 1.6520169973373413086 1.7209455966949462891 1.5309151411056518555 1.312923431396484375 1.1414736509323120117 1.5394854545593261719 1.4935551881790161133 1.6071214675903320313 2.0629353523254394531 1.2990269660949707031 1.1011185646057128906 1.2745900154113769531 1.9289635419845581055 1.538931727409362793 1.6387211084365844727 2.1691734790802001953 1.6720826625823974609 1.3906292915344238281 1.121416926383972168 1.2523679733276367188 1.8589991331100463867 2.2227327823638916016 1.8653471469879150391 1.4681688547134399414 2.3478801250457763672 1.7624475955963134766 1.3476977348327636719 1.5916177034378051758 1.4375071525573730469 1.6249872446060180664 1.6446973085403442383 1.8741015195846557617 1.89569854736328125 2.0319416522979736328 2.2109758853912353516 2.2357187271118164063 2.7155230045318603516 3.2533042430877685547 3.2809233665466308594 2.5774259567260742188 3.0735120773315429688 3.1521816253662109375 3.3031597137451171875 3.7293050289154052734 3.852283477783203125 3.3761904239654541016 3.3557956218719482422 3.3903980255126953125 3.2133862972259521484 3.4036672115325927734 2.9876630306243896484 2.9832353591918945313 2.9957227706909179688 2.8935575485229492188 3.1902570724487304688 2.8412969112396240234 2.6909286975860595703 2.5150308609008789063 2.5257370471954345703 2.7571990489959716797 3.0638623237609863281 2.9687488079071044922 2.7642138004302978516 2.8765885829925537109 3.3495714664459228516 3.9749507904052734375 3.6427795886993408203 3.9000253677368164063 3.9161736965179443359 3.6613559722900390625 3.1228666305541992188 2.8188223838806152344 2.8636586666107177734 2.8805634975433349609 3.2095141410827636719 1.9376764297485351563 2.1300802230834960938 1.706554412841796875 1.739722132682800293 1.9166152477264404297 1.8747689723968505859 2.1041204929351806641 1.9652806520462036133 1.4964681863784790039 2.52022552490234375 1.3613568544387817383 2.309238433837890625 2.1685996055603027344 1.935357213020324707 1.9353711605072021484 1.5967812538146972656 1.2555843591690063477 1.6817731857299804688 1.25872039794921875 1.2860517501831054688 1.3427942991256713867 1.4571695327758789063 1.3159291744232177734 1.2990120649337768555 1.4519253969192504883 1.3504734039306640625 1.4672852754592895508 1.6252844333648681641 1.2365522384643554688 1.2524515390396118164 1.4719125032424926758 1.3218582868576049805 1.4648844003677368164 1.7626301050186157227 1.620333552360534668 1.5461719036102294922 
2.9754452705383300781 2.7279541492462158203 2.1104509830474853516 1.7217406034469604492 2.5895607471466064453 2.6494271755218505859 3.6877989768981933594 1.9405504465103149414 3.8290874958038330078 3.7553458213806152344 2.4506673812866210938 3.85890960693359375 2.3356506824493408203 2.0258030891418457031 1.6672459840774536133 2.0075564384460449219 1.9969856739044189453 2.5529165267944335938 2.1717612743377685547 2.0781612396240234375 1.1949925422668457031 1.6753790378570556641 1.5610642433166503906 1.7150774002075195313 1.8967630863189697266 2.258270263671875 1.4399045705795288086 1.8945749998092651367 1.4390946626663208008 1.5972814559936523438 1.7320441007614135742 1.7719700336456298828 1.5414862632751464844 1.1774544715881347656 1.3416877985000610352 1.3976567983627319336 1.8214877843856811523 1.3305711746215820313 1.304896235466003418 1.4060192108154296875 2.1250779628753662109 2.0630202293395996094 1.8865146636962890625 2.1644322872161865234 1.5329166650772094727 1.8266081809997558594 1.8374683856964111328 2.386135101318359375 2.2115736007690429688 1.9567308425903320313 2.1009244918823242188 2.4752438068389892578 4.33771514892578125 2.5731921195983886719 6.1416821479797363281 4.8095726966857910156 3.4649477005004882813 6.4911904335021972656 2.762142181396484375 2.6366498470306396484 3.0236012935638427734 7.2162141799926757813 6.2045526504516601563 5.9066815376281738281 6.44178009033203125 6.6987085342407226563 3.9754698276519775391 5.6646399497985839844 3.7827699184417724609 4.9377460479736328125 4.6645355224609375 2.2102804183959960938 3.7802898883819580078 3.2083981037139892578 1.7616252899169921875 3.7124254703521728516 2.2076795101165771484 2.2476661205291748047 2.5719470977783203125 3.7429363727569580078 2.3871049880981445313 2.2235002517700195313 2.4636085033416748047 1.719143986701965332 1.6633055210113525391 2.028507232666015625 2.1419551372528076172 1.2454235553741455078 1.9074698686599731445 1.9792909622192382813 1.5624769926071166992 1.617457270622253418 1.0912436246871948242 1.2357707023620605469 1.4435210227966308594 2.2081305980682373047 1.5784528255462646484 1.3395891189575195313 1.1881867647171020508 1.5963392257690429688 1.2949815988540649414 1.3627905845642089844 2.1040217876434326172 1.753382563591003418 1.5417418479919433594 1.9288461208343505859 1.3796825408935546875 1.2118064165115356445 1.6976910829544067383 1.8232327699661254883 1.8511791229248046875 1.9368714094161987305 1.5942866802215576172 1.8392887115478515625 1.7500615119934082031 2.0027337074279785156 1.9367517232894897461 1.9517781734466552734 1.7429935932159423828 1.8587245941162109375 1.5932022333145141602 1.9020712375640869141 1.924691319465637207 1.9421607255935668945 2.3472149372100830078 3.0076277256011962891 3.0856084823608398438 3.0700726509094238281 3.4127979278564453125 3.2000854015350341797 3.1601831912994384766 2.5515410900115966797 3.3181481361389160156 3.6653048992156982422 3.7441070079803466797 3.2246594429016113281 3.20024871826171875 2.9096729755401611328 2.9207201004028320313 3.1453702449798583984 2.8113791942596435547 3.2209792137145996094 3.3521800041198730469 2.7177944183349609375 2.2647397518157958984 2.9709081649780273438 2.4429118633270263672 2.6702268123626708984 2.8815145492553710938 3.0514214038848876953 2.9303634166717529297 3.1180169582366943359 2.721027374267578125 3.8000001907348632813 3.2520101070404052734 2.3588886260986328125 2.8981542587280273438 3.1070456504821777344 2.9563593864440917969 4.1263380050659179688 2.8729050159454345703 2.7491474151611328125 3.2508103847503662109 2.7527914047241210938 2.6088378429412841797 1.9096857309341430664 2.1263918876647949219 1.6348450183868408203 1.9224425554275512695 1.8080663681030273438 1.4502623081207275391 2.0352337360382080078 1.8788536787033081055 2.5198769569396972656 2.1566853523254394531 2.2484643459320068359 1.4928448200225830078 1.3019698858261108398 1.2447201013565063477 1.1063678264617919922 1.5118894577026367188 1.1642193794250488281 1.7896947860717773438 1.2217966318130493164 1.1826732158660888672 1.2045358419418334961 1.4204568862915039063 1.5613119602203369141 1.5486261844635009766 1.5610243082046508789 1.2787806987762451172 1.5516282320022583008 1.3072991371154785156 1.7247118949890136719 1.3531439304351806641 1.3642771244049072266 1.5066694021224975586 1.7076326608657836914 1.663252711296081543 1.2663849592208862305 
2.8340508937835693359 2.5462839603424072266 2.3678507804870605469 2.0410230159759521484 3.7097213268280029297 2.4931542873382568359 2.1765942573547363281 3.7928891181945800781 2.4919226169586181641 3.0609724521636962891 1.9416959285736083984 2.1833167076110839844 2.194278717041015625 1.9804122447967529297 2.5781011581420898438 1.7489652633666992188 2.1186640262603759766 2.2556738853454589844 2.3165776729583740234 2.0731251239776611328 1.8405637741088867188 1.6741726398468017578 1.8573852777481079102 1.9277031421661376953 1.1716886758804321289 2.0685646533966064453 1.2853448390960693359 1.5942170619964599609 1.1565064191818237305 1.1008685827255249023 1.4095637798309326172 1.4296652078628540039 1.5328084230422973633 1.6409647464752197266 1.5439617633819580078 1.7399473190307617188 2.0092833042144775391 1.2243010997772216797 1.5738481283187866211 1.4503649473190307617 2.4869992733001708984 1.6926441192626953125 1.8400169610977172852 1.8287730216979980469 2.0155103206634521484 1.9278713464736938477 1.9274107217788696289 2.0506677627563476563 1.6384110450744628906 2.151760101318359375 1.7440588474273681641 2.5174548625946044922 4.1050629615783691406 4.1074552536010742188 5.6940593719482421875 2.3712518215179443359 3.0253086090087890625 2.8525569438934326172 5.0701417922973632813 4.2306208610534667969 5.0949969291687011719 7.1002688407897949219 8.9884214401245117188 9.1110086441040039063 6.2501955032348632813 4.034694671630859375 5.6228094100952148438 4.994754791259765625 4.2484650611877441406 2.5371077060699462891 3.8146321773529052734 4.1892390251159667969 3.6727805137634277344 3.7039878368377685547 2.8469939231872558594 3.0081746578216552734 3.7519795894622802734 2.5552012920379638672 4.8061437606811523438 4.1267852783203125 2.7984914779663085938 2.1653189659118652344 3.6679923534393310547 2.7471411228179931641 1.6172765493392944336 2.6039075851440429688 1.4851130247116088867 1.6779799461364746094 1.2936806678771972656 1.3604133129119873047 1.6281660795211791992 1.5248618125915527344 1.1594221591949462891 1.8710205554962158203 2.0203955173492431641 1.8634151220321655273 2.0214264392852783203 1.8382221460342407227 1.5265855789184570313 1.1714895963668823242 1.3416169881820678711 2.2571465969085693359 1.9610559940338134766 1.5868270397186279297 2.0916924476623535156 1.8627997636795043945 1.8745093345642089844 1.172892451286315918 1.5364425182342529297 1.7941969633102416992 1.9200327396392822266 2.1153547763824462891 1.7090740203857421875 2.3176813125610351563 2.1724259853363037109 1.8185929059982299805 1.6018366813659667969 1.4690206050872802734 2.1349895000457763672 1.9945145845413208008 2.2733507156372070313 2.0221614837646484375 2.1342337131500244141 2.1299479007720947266 2.6919405460357666016 2.7457680702209472656 2.8166782855987548828 3.3023271560668945313 3.2605671882629394531 3.4091970920562744141 3.2078809738159179688 3.3799548149108886719 2.9019060134887695313 3.3376803398132324219 3.2634775638580322266 3.4690477848052978516 3.6918861865997314453 3.7391185760498046875 3.0312528610229492188 2.9524636268615722656 3.5729784965515136719 2.8363776206970214844 2.6984469890594482422 2.3047223091125488281 2.0543196201324462891 2.9651088714599609375 2.9917228221893310547 3.0679993629455566406 3.3241026401519775391 3.3698160648345947266 3.5924065113067626953 3.0685093402862548828 3.3101413249969482422 2.9707129001617431641 3.1081125736236572266 2.2562165260314941406 2.9811649322509765625 2.664398193359375 2.9800355434417724609 3.2000088691711425781 2.6011817455291748047 2.829662322998046875 2.3368616104125976563 2.4035761356353759766 2.1765203475952148438 1.6290061473846435547 2.3756716251373291016 2.1425797939300537109 2.0951392650604248047 2.0510294437408447266 1.3621605634689331055 2.5353093147277832031 1.9776413440704345703 1.5908772945404052734 2.5280606746673583984 2.4359037876129150391 1.8507487773895263672 2.0317661762237548828 1.196744084358215332 1.8201344013214111328 1.7553807497024536133 1.8671159744262695313 1 1 1.0510660409927368164 1.585139155387878418 1.2756310701370239258 1.2446159124374389648 1.3545812368392944336 1.4728384017944335938 1.5863332748413085938 1.3870488405227661133 1.2907662391662597656 1.200487971305847168 1.3342070579528808594 1.3406233787536621094 1.3674852848052978516 1.7091065645217895508 1.6666361093521118164 1.7300379276275634766 
2.6101429462432861328 2.3857252597808837891 2.57073974609375 1.9269258975982666016 2.3022077083587646484 2.5227725505828857422 3.8004977703094482422 1.9970772266387939453 2.8948428630828857422 2.4286732673645019531 1.7426352500915527344 1.9743123054504394531 2.0768861770629882813 2.2712442874908447266 1.6091022491455078125 1.5328737497329711914 1.9379003047943115234 1.9755736589431762695 1.5553046464920043945 2.1348252296447753906 1.8884768486022949219 2.2724242210388183594 2.0565123558044433594 2.0752496719360351563 1.909402012825012207 1.6520071029663085938 1.8141307830810546875 1.5612479448318481445 1.5839948654174804688 1.2127435207366943359 1.8932750225067138672 1.5098427534103393555 1.5823358297348022461 1.2831346988677978516 1.5392447710037231445 1.7071197032928466797 2.2785143852233886719 1.7372078895568847656 2.0751581192016601563 1.6436278820037841797 2.52704620361328125 1.9507888555526733398 2.1849865913391113281 1.6282304525375366211 2.5481586456298828125 2.1554558277130126953 1.4080414772033691406 2.0778193473815917969 1.7781118154525756836 2.2430865764617919922 2.0894415378570556641 4.4517731666564941406 2.7375283241271972656 2.5142002105712890625 2.4184234142303466797 2.4039309024810791016 2.7315800189971923828 4.0656857490539550781 4.4451589584350585938 5.521820068359375 3.7803235054016113281 6.5124840736389160156 5.5752558708190917969 8.3820981979370117188 9.597766876220703125 7.0394573211669921875 3.7590823173522949219 2.9856214523315429688 4.7786173820495605469 2.3822491168975830078 3.3250644207000732422 2.8897206783294677734 4.5126891136169433594 2.1783413887023925781 3.6760182380676269531 4.1092085838317871094 3.0322649478912353516 4.8519153594970703125 3.8032622337341308594 2.7716357707977294922 3.0099813938140869141 3.5772099494934082031 2.1266472339630126953 1.9315727949142456055 2.166667938232421875 2.3817725181579589844 1.6998300552368164063 2.3899910449981689453 1.8596795797348022461 1.6034179925918579102 1.6247323751449584961 1.8897392749786376953 1.8963919878005981445 1.4925690889358520508 1.5720682144165039063 1.4359292984008789063 1.349141240119934082 1.781975865364074707 1.037596583366394043 1.8291460275650024414 1.7183032035827636719 2.0933463573455810547 2.2968914508819580078 1.9640935659408569336 2.2981052398681640625 1.4625279903411865234 2.3682279586791992188 1.2206332683563232422 1.65161895751953125 2.0678441524505615234 1.9939734935760498047 1.4357928037643432617 1.3995263576507568359 1.6245728731155395508 2.2396402359008789063 1.9522573947906494141 2.5018537044525146484 1.9962444305419921875 1.6604801416397094727 1.5012228488922119141 2.1492850780487060547 2.1591947078704833984 2.5126664638519287109 1.7728054523468017578 2.6524863243103027344 2.6233048439025878906 2.9428286552429199219 3.3938627243041992188 2.9307477474212646484 3.0584316253662109375 3.2476663589477539063 3.0152904987335205078 3.2308216094970703125 3.481464385986328125 3.6714580059051513672 3.0201356410980224609 3.6743671894073486328 2.8299410343170166016 2.7878682613372802734 3.1563935279846191406 2.3955559730529785156 2.4334750175476074219 2.7054376602172851563 1.9086463451385498047 2.8816342353820800781 2.4582960605621337891 2.5199704170227050781 2.8910756111145019531 3.51627349853515625 3.3280088901519775391 3.5513904094696044922 3.1166839599609375 3.3360567092895507813 2.8840548992156982422 2.2315630912780761719 2.5586955547332763672 2.3965933322906494141 4.2502551078796386719 3.3238272666931152344 2.92673492431640625 3.4280042648315429688 2.3564167022705078125 2.0312926769256591797 2.0375161170959472656 2.9225087165832519531 2.233638763427734375 1.739190220832824707 1.8911077976226806641 2.0130634307861328125 1.8814153671264648438 2.0453629493713378906 1.3253164291381835938 1.7269239425659179688 1.4439955949783325195 2.3090708255767822266 1.1700071096420288086 1.9916509389877319336 2.6931071281433105469 1.4562430381774902344 1.4798073768615722656 1.5167735815048217773 1.827553868293762207 2.0710532665252685547 1.8796238899230957031 1.1836184263229370117 1.0910286903381347656 2.1134853363037109375 1.0948061943054199219 1.3005019426345825195 1.3879250288009643555 1.2562295198440551758 1.3753607273101806641 1.29033660888671875 1.3534210920333862305 1.5683399438858032227 1.326840519905090332 1.69728851318359375 1.5795731544494628906 1.322662353515625 1.3154693841934204102 
2.1568627357482910156 1.8394390344619750977 2.2458682060241699219 2.1861784458160400391 2.1358354091644287109 2.4471981525421142578 3.6009621620178222656 3.0200672149658203125 2.3371365070343017578 1.5379070043563842773 1.792682647705078125 1.8462896347045898438 2.0706307888031005859 2.2736077308654785156 2.0183374881744384766 1.6867086887359619141 1.8355873823165893555 2.1250982284545898438 1.880276799201965332 2.0937440395355224609 1.7973498106002807617 1.8414545059204101563 2.4911854267120361328 1.6959680318832397461 1.7910912036895751953 1.7704273462295532227 1.7059090137481689453 1.608071446418762207 1.7669506072998046875 1.5327070951461791992 1.9451233148574829102 1.4410530328750610352 1.2122477293014526367 1.6307382583618164063 1.4467016458511352539 1.6500641107559204102 2.1949832439422607422 1.5244287252426147461 1.287878870964050293 1.9398123025894165039 2.1886053085327148438 1.6666820049285888672 2.0138213634490966797 2.1853344440460205078 2.3868460655212402344 1.8133598566055297852 1.9451644420623779297 2.5369002819061279297 1.9924855232238769531 2.3462820053100585938 3.50450897216796875 2.9708132743835449219 2.3602061271667480469 2.176815032958984375 2.1471269130706787109 3.4029037952423095703 2.3249895572662353516 2.0349729061126708984 4.0012536048889160156 3.7270481586456298828 2.7778215408325195313 7.1864476203918457031 9.2494449615478515625 6.6191425323486328125 5.2028179168701171875 6.7405409812927246094 4.3802890777587890625 7.9282655715942382813 5.8073635101318359375 5.9845571517944335938 3.1438541412353515625 2.6539340019226074219 5.3317847251892089844 2.5077960491180419922 4.387966156005859375 3.1836178302764892578 6.3681240081787109375 2.7932565212249755859 3.6740286350250244141 4.0190262794494628906 2.38445281982421875 2.2023608684539794922 3.4485645294189453125 2.4168791770935058594 2.0983431339263916016 2.040058135986328125 2.0455973148345947266 1.6396137475967407227 1.8484636545181274414 1.6658768653869628906 1 1.7558069229125976563 1.6799159049987792969 1.7324455976486206055 1.2596313953399658203 2.2405598163604736328 2.0220117568969726563 1.8237229585647583008 1.5763287544250488281 1.5676881074905395508 1.1266958713531494141 1.6942102909088134766 1.6932499408721923828 1.7066336870193481445 1.6148151159286499023 1.5933359861373901367 1.8689643144607543945 2.1054394245147705078 1.7438793182373046875 1.8815921545028686523 2.4570760726928710938 2.3310401439666748047 2.0849027633666992188 2.6683890819549560547 1.8510379791259765625 2.5794935226440429688 1.9201607704162597656 2.4400656223297119141 2.2253439426422119141 2.0552468299865722656 2.4584670066833496094 2.4772665500640869141 2.2104158401489257813 1.9195904731750488281 1.7905249595642089844 2.2403714656829833984 2.6381552219390869141 2.9401917457580566406 3.4344017505645751953 2.9845213890075683594 3.0995275974273681641 3.2997181415557861328 3.1399855613708496094 3.9564695358276367188 3.3891818523406982422 3.848011016845703125 3.5441715717315673828 2.5835726261138916016 2.9117941856384277344 2.9253470897674560547 2.3461756706237792969 2.6086831092834472656 2.0904471874237060547 2.7410459518432617188 2.1421980857849121094 2.4037618637084960938 2.3567962646484375 2.5840268135070800781 3.158123016357421875 3.4425702095031738281 3.6460824012756347656 3.6745069026947021484 3.2467472553253173828 3.0653860569000244141 2.8973078727722167969 2.8645477294921875 3.6789965629577636719 3.7012810707092285156 3.1449141502380371094 3.2188074588775634766 2.6317265033721923828 2.3319683074951171875 2.2632069587707519531 2.5907320976257324219 1.5706186294555664063 2.1736724376678466797 2.2877800464630126953 2.3149237632751464844 2.0328347682952880859 1.5339488983154296875 1.0496490001678466797 1.7740235328674316406 1.5338217020034790039 1.6489924192428588867 1.0686365365982055664 1.7986890077590942383 2.2554404735565185547 2.4639227390289306641 2.1754252910614013672 1.612198948860168457 2.1864047050476074219 1.8768900632858276367 1.2625033855438232422 1.6003038883209228516 1.4415923357009887695 1.4650876522064208984 1.2691065073013305664 1.1112741231918334961 1.2535554170608520508 1.1957716941833496094 1.2987453937530517578 1.3829494714736938477 1.1295571327209472656 1.7687540054321289063 1.4778935909271240234 1.4450050592422485352 1.459279179573059082 1.6562024354934692383 1.3148047924041748047 1.5768134593963623047 
2.2726202011108398438 1.9771206378936767578 2.0672185420989990234 1.7127662897109985352 1.9975363016128540039 2.0801918506622314453 2.2732377052307128906 2.5656409263610839844 2.2612044811248779297 2.0668547153472900391 1.8318643569946289063 1.7475248575210571289 2.3513844013214111328 2.1439490318298339844 1.9428778886795043945 1.4670957326889038086 1.8503843545913696289 1.5981603860855102539 2.08089447021484375 2.4315688610076904297 2.1051909923553466797 2.3396060466766357422 1.8252494335174560547 2.1025011539459228516 1.851656794548034668 1.9088827371597290039 2.2272431850433349609 1.6989798545837402344 2.0802609920501708984 1.5699696540832519531 1.4467146396636962891 1.1395677328109741211 1.6393530368804931641 1.1616492271423339844 1.6443309783935546875 1.2403032779693603516 1.8235785961151123047 1.6877294778823852539 1.7823389768600463867 1.8915112018585205078 1.3475894927978515625 1.6347352266311645508 1.6689836978912353516 1.5107725858688354492 2.2730314731597900391 1.9288331270217895508 1.9146753549575805664 2.3838465213775634766 2.1617178916931152344 2.9191949367523193359 3.3605291843414306641 3.1563465595245361328 3.2988085746765136719 3.4823088645935058594 2.2553780078887939453 2.9261381626129150391 3.9210011959075927734 2.7989451885223388672 3.9208285808563232422 2.4463036060333251953 2.4656789302825927734 6.4969739913940429688 6.6141247749328613281 4.7335572242736816406 6.5847158432006835938 4.935298919677734375 7.5060143470764160156 4.7753272056579589844 2.629062652587890625 2.7428810596466064453 4.6100788116455078125 2.5065560340881347656 3.9889326095581054688 2.8362929821014404297 4.2521076202392578125 2.7364938259124755859 2.9986867904663085938 3.980480194091796875 2.8403272628784179688 4.2856669425964355469 3.6045889854431152344 2.7941119670867919922 2.3310532569885253906 2.5353512763977050781 1.4745947122573852539 1.5731301307678222656 2.1204702854156494141 1.8972622156143188477 1.3862742185592651367 1.9915127754211425781 1.8454914093017578125 1.5698961019515991211 2.0777306556701660156 1.4087795019149780273 1.5859748125076293945 1.6770612001419067383 1.9594180583953857422 1.6930872201919555664 1.9744051694869995117 2.0780482292175292969 1.1657290458679199219 1.7636035680770874023 1.9718204736709594727 2.0148396492004394531 1.9085195064544677734 1.804833531379699707 2.1041114330291748047 1.662144780158996582 1.8906402587890625 2.6571900844573974609 2.1653063297271728516 2.8144590854644775391 2.005626678466796875 2.3475279808044433594 1.8833233118057250977 3.3649334907531738281 2.6631653308868408203 2.9654757976531982422 2.3423700332641601563 2.3728096485137939453 2.3037168979644775391 2.0308935642242431641 2.0233225822448730469 1.9363437891006469727 2.3750455379486083984 2.5227324962615966797 2.5768411159515380859 2.6314101219177246094 3.5025510787963867188 3.7149269580841064453 2.7837123870849609375 3.6889100074768066406 3.6835720539093017578 3.7034046649932861328 4.00669097900390625 3.4588663578033447266 3.3100934028625488281 3.1871354579925537109 3.0199396610260009766 3.0481798648834228516 2.9032416343688964844 2.5107493400573730469 2.1602423191070556641 2.5838065147399902344 2.3328571319580078125 2.4415538311004638672 2.4146702289581298828 2.8349902629852294922 2.9109601974487304688 2.8706371784210205078 3.7385149002075195313 3.6149365901947021484 3.9416279792785644531 3.2045235633850097656 2.9507946968078613281 3.8783457279205322266 3.4660599231719970703 2.5840294361114501953 3.0994558334350585938 2.5603573322296142578 2.1151125431060791016 2.1037085056304931641 2.5013687610626220703 1.9119619131088256836 2.2459154129028320313 2.0248608589172363281 1.8132340908050537109 1.9446134567260742188 1.6830176115036010742 1.6785639524459838867 2.1760308742523193359 1.3562581539154052734 1.4694476127624511719 1.3376834392547607422 1.0974049568176269531 1.0748323202133178711 1.5134252309799194336 1.1392775774002075195 1.8663450479507446289 1.4313325881958007813 1.480377197265625 1.3039078712463378906 1.3505290746688842773 1.0327000617980957031 1.8807413578033447266 1.3559737205505371094 1.7324680089950561523 1.0933457612991333008 1.2204369306564331055 1.2868800163269042969 1.2553019523620605469 1.2089749574661254883 1.3898360729217529297 1.5016078948974609375 1.3967782258987426758 1.5878751277923583984 1.4392067193984985352 1.4236376285552978516 1.5769364833831787109 1.4407736063003540039 
2.3309273719787597656 2.5559003353118896484 2.4893810749053955078 2.6469976902008056641 2.9732711315155029297 2.0659475326538085938 2.0612318515777587891 1.9795315265655517578 1.9589997529983520508 1.8500468730926513672 2.1766099929809570313 1.9738445281982421875 1.9274562597274780273 1.7483755350112915039 1.5793479681015014648 1.7538024187088012695 1.6491785049438476563 2.2878649234771728516 1.4555798768997192383 1.8180068731307983398 2.3107547760009765625 2.0086390972137451172 1.9015878438949584961 2.0523550510406494141 1.7049436569213867188 2.0963776111602783203 2.3126952648162841797 2.1762492656707763672 1.9513368606567382813 1.7575235366821289063 1.4158867597579956055 1.5900378227233886719 1.0708013772964477539 2.1234142780303955078 1.7096207141876220703 1.6025993824005126953 1.9143368005752563477 1.407474517822265625 1.7071781158447265625 1.5886675119400024414 1.6820026636123657227 2.0478038787841796875 1.4071557521820068359 2.1460676193237304688 1.8278738260269165039 1.9568109512329101563 1.574313044548034668 2.0721762180328369141 2.6125173568725585938 1.8554612398147583008 2.6098234653472900391 1.6136751174926757813 2.6569871902465820313 1.8297991752624511719 2.303379058837890625 2.9730765819549560547 2.42359161376953125 2.6064207553863525391 2.6554584503173828125 2.9199535846710205078 4.0877447128295898438 5.2383246421813964844 7.4652733802795410156 4.2877345085144042969 8.5594806671142578125 5.6617903709411621094 4.8289237022399902344 4.5166401863098144531 5.9097218513488769531 3.8035309314727783203 2.3734085559844970703 3.6017448902130126953 5.0522470474243164063 2.8600811958312988281 3.1745755672454833984 3.9152121543884277344 2.8623137474060058594 2.6331944465637207031 4.5078105926513671875 3.0995800495147705078 2.3950693607330322266 2.101039886474609375 2.2419888973236083984 2.8847162723541259766 2.2331972122192382813 2.1151075363159179688 1.4707251787185668945 2.0242397785186767578 2.1666369438171386719 2.9292495250701904297 1.1995412111282348633 1.5121761560440063477 1.7613196372985839844 1.5877839326858520508 1.4454288482666015625 1.3060125112533569336 1.4452195167541503906 1.5955215692520141602 1.6394977569580078125 1.6922004222869873047 1.8317724466323852539 1.6507537364959716797 2.3493835926055908203 1.9278409481048583984 1.7000738382339477539 1.6562231779098510742 2.0408778190612792969 2.2208569049835205078 1.6563149690628051758 3.5562140941619873047 2.5056414604187011719 2.2934954166412353516 2.3055162429809570313 2.2615268230438232422 2.4950513839721679688 2.5301253795623779297 2.6959538459777832031 2.6434202194213867188 2.3046193122863769531 2.1934154033660888672 2.6304926872253417969 2.3946256637573242188 2.5340683460235595703 2.4540209770202636719 2.3596959114074707031 2.2639608383178710938 2.8571937084197998047 2.7372338771820068359 3.4640662670135498047 3.6134700775146484375 2.9247217178344726563 3.8071854114532470703 4.4448590278625488281 3.6127495765686035156 4.400543212890625 3.9179944992065429688 2.8684222698211669922 3.5780746936798095703 3.1478505134582519531 2.7683188915252685547 2.3733968734741210938 2.5566987991333007813 2.7435319423675537109 2.5598456859588623047 2.2301282882690429688 1.9375764131546020508 2.5946052074432373047 2.5740418434143066406 2.5871343612670898438 2.9636378288269042969 3.4511022567749023438 2.8772833347320556641 3.1772000789642333984 3.0865569114685058594 2.5704464912414550781 2.8161797523498535156 2.9339339733123779297 2.7373044490814208984 2.7376527786254882813 2.8332431316375732422 2.4191193580627441406 2.1560211181640625 2.4643607139587402344 1.386202692985534668 2.6558094024658203125 1.9491436481475830078 2.0877575874328613281 2.1364836692810058594 2.0952219963073730469 1.4952012300491333008 1 1.7715079784393310547 1.5803554058074951172 1 1.1135811805725097656 1.4759720563888549805 1.4865245819091796875 1.0685622692108154297 1.4673345088958740234 1.4137688875198364258 1.3366580009460449219 1.443964838981628418 1.3073954582214355469 1 1.3099995851516723633 1.2721464633941650391 1 1.3069387674331665039 1.3968683481216430664 1.320584416389465332 1.3111878633499145508 1.3243526220321655273 1.7468132972717285156 1.2459414005279541016 1.5142304897308349609 1.576747894287109375 1.4559195041656494141 1.3844143152236938477 1.4006674289703369141 1.5378794670104980469 
2.4264197349548339844 1.8169356584548950195 2.192638397216796875 2.5255703926086425781 3.0781464576721191406 2.1259005069732666016 1.7567901611328125 1.8478550910949707031 2.3489551544189453125 2.4840574264526367188 2.2047789096832275391 2.0490758419036865234 1.4517318010330200195 1.5941640138626098633 1.8211492300033569336 1.9777455329895019531 1.7885946035385131836 1.4662096500396728516 1.8233128786087036133 1.7589876651763916016 1.4514756202697753906 1.7923400402069091797 1.9337220191955566406 1.9466128349304199219 2.0800311565399169922 1.8668657541275024414 1.4628522396087646484 2.6092946529388427734 2.2869219779968261719 1.9110455513000488281 2.0072617530822753906 1.8136495351791381836 1.2335028648376464844 1.3262431621551513672 1.6797882318496704102 1.3799445629119873047 1.3339389562606811523 1.3470729589462280273 1.3615202903747558594 1.5057032108306884766 1.6433223485946655273 2.7063140869140625 1.1404267549514770508 1.6523140668869018555 1.500597834587097168 1.5932730436325073242 1.6061360836029052734 1.8899188041687011719 1.5945277214050292969 1.7908190488815307617 1.3294070959091186523 1.5721893310546875 2.5921192169189453125 2.4688384532928466797 2.9890332221984863281 2.7305130958557128906 5.059017181396484375 3.3035984039306640625 3.1583089828491210938 2.7991020679473876953 4.4701471328735351563 6.5073571205139160156 3.5380394458770751953 8.6598949432373046875 8.7387943267822265625 6.4062294960021972656 6.7960309982299804688 3.9392628669738769531 3.32257080078125 4.7391934394836425781 3.0435614585876464844 3.7108013629913330078 3.3615820407867431641 2.4813749790191650391 2.1489186286926269531 4.0898418426513671875 5.4980878829956054688 4.6975340843200683594 2.4464612007141113281 3.3621554374694824219 2.1801800727844238281 3.776508331298828125 2.3178598880767822266 2.0129420757293701172 1.7904758453369140625 1.8401188850402832031 1.823510289192199707 1.5185805559158325195 1.4790141582489013672 1.999176025390625 1.6567074060440063477 1.544598698616027832 1.9294931888580322266 2.3768453598022460938 1.4646660089492797852 1.2594248056411743164 1.9485059976577758789 2.0893256664276123047 1.6776278018951416016 1.5320019721984863281 2.1401283740997314453 2.0044627189636230469 1.5207283496856689453 1.1333220005035400391 2.1490941047668457031 2.1368198394775390625 2.0413649082183837891 1.874680638313293457 3.2442586421966552734 2.3996572494506835938 2.6728587150573730469 1.94348907470703125 2.5759389400482177734 2.5814883708953857422 2.5304765701293945313 2.8294253349304199219 3.0911195278167724609 1.9740095138549804688 2.9280455112457275391 2.7214443683624267578 2.4160187244415283203 2.1172268390655517578 2.3832082748413085938 2.6569244861602783203 2.7616136074066162109 2.72246551513671875 2.8891961574554443359 2.91564178466796875 3.6265425682067871094 2.9988467693328857422 3.4280652999877929688 4.2194609642028808594 4.4898705482482910156 4.3802728652954101563 4.3935365676879882813 4.6571450233459472656 4.3945775032043457031 3.7965388298034667969 3.604915618896484375 3.7251102924346923828 2.925701141357421875 2.6016192436218261719 3.2534902095794677734 2.3231089115142822266 3.0338397026062011719 2.4720959663391113281 2.2006993293762207031 2.1081879138946533203 2.5449786186218261719 2.6567034721374511719 2.5152161121368408203 2.6878042221069335938 2.9505434036254882813 2.6023719310760498047 2.6013274192810058594 3.233734130859375 2.4833734035491943359 2.5130569934844970703 2.5762307643890380859 2.5579264163970947266 2.0711872577667236328 1.5502514839172363281 1.5109351873397827148 1.2101205587387084961 1.4997092485427856445 1.5519975423812866211 1.7886571884155273438 1.2341411113739013672 1.1051899194717407227 1.5372757911682128906 1.5820194482803344727 1.3611203432083129883 1.1645547151565551758 1.1608842611312866211 1.1116878986358642578 1.2288887500762939453 1.6391758918762207031 1.9381077289581298828 1.4808065891265869141 1.2554062604904174805 1.99611663818359375 2.1001958847045898438 1.867049098014831543 1.5537137985229492188 1.1662248373031616211 2.0206298828125 1.2281955480575561523 1.1888746023178100586 1.3421653509140014648 1.3616969585418701172 1.8835799694061279297 1.0032918453216552734 1.0748373270034790039 1.2567772865295410156 1.5412888526916503906 1.3210992813110351563 1.5856451988220214844 1.6182676553726196289 1.3262099027633666992 1.3085297346115112305 
2.0027101039886474609 2.1158111095428466797 3.1753258705139160156 2.5757594108581542969 2.7033925056457519531 1.8522086143493652344 2.0726244449615478516 1.8803757429122924805 2.5652124881744384766 2.1594078540802001953 2.3466870784759521484 2.1823682785034179688 1.9118567705154418945 2.160369873046875 1.6176733970642089844 1.4930673837661743164 2.2566778659820556641 1.0988466739654541016 1.7764308452606201172 1.4266091585159301758 1.9937471151351928711 1.8962703943252563477 1.9935204982757568359 1.8433387279510498047 1.5035710334777832031 1.5021899938583374023 1.5365664958953857422 1.7013810873031616211 1.8730263710021972656 1.3902252912521362305 1.4999167919158935547 1.1643825769424438477 1.0905196666717529297 1.6086269617080688477 1.6116011142730712891 1.290088653564453125 2.4686362743377685547 1.5401844978332519531 1.4214484691619873047 1.8003252744674682617 1.4713608026504516602 1.3142777681350708008 1.0748507976531982422 1.0310583114624023438 1.8394391536712646484 2.1807978153228759766 1.6823476552963256836 1.4586771726608276367 1.9712105989456176758 1.864802241325378418 1.8241548538208007813 1.4499747753143310547 1.9654595851898193359 2.3313317298889160156 2.4970777034759521484 2.8541994094848632813 5.1907668113708496094 3.5917236804962158203 3.4806787967681884766 2.2845778465270996094 3.2358069419860839844 5.4390163421630859375 5.6504597663879394531 6.35770416259765625 6.487804412841796875 3.4694671630859375 5.1652050018310546875 5.5640501976013183594 3.0481109619140625 2.4966423511505126953 5.2610607147216796875 3.4360940456390380859 2.5608654022216796875 2.3168542385101318359 3.4743793010711669922 5.6069774627685546875 2.3973734378814697266 4.0526561737060546875 4.1316962242126464844 3.0744037628173828125 2.2600252628326416016 2.1521105766296386719 4.7210822105407714844 2.4079790115356445313 4.0902028083801269531 2.8097577095031738281 1.5655410289764404297 1.7024707794189453125 2.0006558895111083984 1.6105951070785522461 2.8280041217803955078 1.6307964324951171875 1.2621365785598754883 1.0560753345489501953 1.4254193305969238281 1.2540700435638427734 1.2425481081008911133 1.9977217912673950195 1.9252451658248901367 1.7044159173965454102 1.7906630039215087891 2.3882558345794677734 1.5975273847579956055 2.0481927394866943359 1.5603028535842895508 2.2581877708435058594 2.0412039756774902344 2.522975921630859375 2.4356601238250732422 1.7570393085479736328 2.2338685989379882813 1.9637117385864257813 2.8210361003875732422 2.5503950119018554688 2.8492195606231689453 2.4451050758361816406 2.5667767524719238281 3.2010071277618408203 2.8291394710540771484 2.558258056640625 2.6653947830200195313 2.8186247348785400391 2.4147627353668212891 2.6800653934478759766 2.1497428417205810547 2.9560949802398681641 3.0156869888305664063 3.5829641819000244141 3.57401275634765625 3.7190575599670410156 3.8518135547637939453 4.3055281639099121094 4.3354077339172363281 4.5495629310607910156 5.0124158859252929688 4.8363471031188964844 4.3706259727478027344 5.3492722511291503906 5.4709186553955078125 3.6106297969818115234 3.4243845939636230469 2.7300543785095214844 2.1702063083648681641 2.3940806388854980469 3.2086265087127685547 3.26238250732421875 2.2183170318603515625 2.8140587806701660156 2.2933757305145263672 2.430938720703125 2.8795459270477294922 2.1677007675170898438 2.3817851543426513672 2.3311138153076171875 2.5256335735321044922 3.299907684326171875 2.7457475662231445313 2.5558459758758544922 2.0656068325042724609 2.7761640548706054688 1.8742314577102661133 1.4267425537109375 2.1384766101837158203 1.7698874473571777344 2.5988492965698242188 1.3429797887802124023 1.7330760955810546875 1.2514177560806274414 1 1.5100328922271728516 1 1.4284312725067138672 1.1709434986114501953 1.366877436637878418 1.2805912494659423828 1.349995732307434082 1.0997967720031738281 1.2668308019638061523 1.3010648488998413086 1.3279320001602172852 1.1643251180648803711 2.7090101242065429688 1.462371826171875 1.144219517707824707 1.5369421243667602539 1.3741527795791625977 1.1628426313400268555 1.4451955556869506836 1.2584822177886962891 1.0513442754745483398 1.5953878164291381836 1.337796330451965332 1.217806696891784668 1.2957533597946166992 1.2050182819366455078 1.2223497629165649414 1.2548439502716064453 1.3159089088439941406 1.4831671714782714844 1.3443950414657592773 
2.0978724956512451172 2.4146637916564941406 2.3185296058654785156 1.8789540529251098633 2.5857906341552734375 2.397991180419921875 2.4257385730743408203 2.2828853130340576172 2.3204970359802246094 2.2605540752410888672 2.1217691898345947266 2.1365439891815185547 2.1153547763824462891 2.4012608528137207031 1.4148217439651489258 1.5109697580337524414 1.3029263019561767578 1.8953065872192382813 1.9740597009658813477 1.6493778228759765625 2.1790037155151367188 1.6459527015686035156 2.1835875511169433594 1.7760424613952636719 1.3328416347503662109 2.2820017337799072266 1.6081882715225219727 1.3967784643173217773 1.0355576276779174805 1.2942582368850708008 1.6640626192092895508 1.4374191761016845703 1.2008380889892578125 1.1959971189498901367 1.2751805782318115234 1.0933461189270019531 1.5292258262634277344 2.0164706707000732422 2.2434027194976806641 1.913158416748046875 1.1754475831985473633 1.7130006551742553711 1.5845351219177246094 1.1529474258422851563 1.5033866167068481445 1.8297150135040283203 1.9002302885055541992 1.4313032627105712891 2.1939001083374023438 2.2463843822479248047 2.5721402168273925781 1.8688218593597412109 1.7961244583129882813 3.1156990528106689453 2.2629578113555908203 3.8760700225830078125 3.0846486091613769531 3.673702239990234375 2.4186525344848632813 1.9664915800094604492 2.5210847854614257813 5.6494278907775878906 5.1793227195739746094 9.2439422607421875 9.0895671844482421875 11.715424537658691406 8.8976764678955078125 8.3624029159545898438 8.2209186553955078125 2.3272919654846191406 2.0949778556823730469 3.0945165157318115234 3.5737345218658447266 3.7905530929565429688 4.9870858192443847656 3.1324803829193115234 2.6197805404663085938 3.1116175651550292969 3.8974540233612060547 2.6185271739959716797 2.404170989990234375 2.2831547260284423828 3.7977404594421386719 3.9955575466156005859 4.3171987533569335938 3.4274170398712158203 1.8317111730575561523 2.6801893711090087891 1.6375817060470581055 1.4407994747161865234 1.6069962978363037109 1.2468538284301757813 1.0941547155380249023 1.3381681442260742188 1.1391284465789794922 1.5395182371139526367 1 1.522189021110534668 1.5623955726623535156 1.1230762004852294922 1.478638768196105957 1.873673558235168457 1.884765625 1.809956669807434082 1.5595709085464477539 1.5043720006942749023 2.3021485805511474609 2.0570991039276123047 2.1017754077911376953 2.4919621944427490234 2.1956608295440673828 1.915348052978515625 2.0806767940521240234 2.6656899452209472656 3.3770914077758789063 2.7889225482940673828 2.69412994384765625 3.3063604831695556641 3.0587015151977539063 2.4456098079681396484 2.3896002769470214844 2.5362558364868164063 2.4511721134185791016 2.6856276988983154297 2.6794505119323730469 3.2321324348449707031 3.6998631954193115234 3.3276431560516357422 3.4937679767608642578 3.8175308704376220703 4.4095158576965332031 4.1121549606323242188 4.2059025764465332031 4.4355015754699707031 4.6149058341979980469 4.2630009651184082031 4.1968164443969726563 3.8103051185607910156 3.5462577342987060547 3.7746112346649169922 3.0363490581512451172 2.6807968616485595703 2.7562587261199951172 2.7459046840667724609 2.6900668144226074219 2.2441146373748779297 2.1522700786590576172 2.0700244903564453125 2.6774132251739501953 2.5282528400421142578 2.9380934238433837891 2.9361844062805175781 2.2787489891052246094 2.7468695640563964844 2.0991644859313964844 2.9325110912322998047 1.9214931726455688477 2.1034040451049804688 2.4032671451568603516 2.3803234100341796875 1.2306528091430664063 1.8719210624694824219 1.2036565542221069336 2.1232154369354248047 1.9777868986129760742 1.6014729738235473633 1.4260202646255493164 1.3572001457214355469 1.215724945068359375 1 1.1366754770278930664 1.1366077661514282227 1.4875674247741699219 1.2855398654937744141 1.2743765115737915039 1.5528929233551025391 1.3374235630035400391 1.2207878828048706055 1.4316616058349609375 1.1858777999877929688 1.5212241411209106445 1.1899820566177368164 1.228094935417175293 1.1849983930587768555 1.1631350517272949219 1.0461735725402832031 1.1985782384872436523 1.1060544252395629883 1.2561964988708496094 1.2137922048568725586 1.952103734016418457 1.4229182004928588867 1.626036524772644043 1.5312602519989013672 1.2316741943359375 1.5948801040649414063 1.6786171197891235352 1.5405460596084594727 1.4412249326705932617 1.7107979059219360352 
1.6274853944778442383 2.8011620044708251953 2.4573442935943603516 2.2426764965057373047 3.4368364810943603516 2.3408160209655761719 2.3569149971008300781 2.1841740608215332031 2.8268845081329345703 2.3465299606323242188 2.0104022026062011719 2.0021479129791259766 2.0610625743865966797 1.6544499397277832031 1.5808004140853881836 1.9347448348999023438 1.4061433076858520508 1.4171460866928100586 2.1218793392181396484 1.7321181297302246094 1.877476811408996582 2.3482301235198974609 1.8216224908828735352 1 1.4739133119583129883 1.3529852628707885742 1.8032339811325073242 1.471631169319152832 2.0784213542938232422 1.4035181999206542969 1.6017454862594604492 1.2671830654144287109 1.4844295978546142578 1.6371848583221435547 1.9624143838882446289 1.6991075277328491211 2.5323064327239990234 1.4782125949859619141 1.5426988601684570313 1.1282192468643188477 1.333233952522277832 1.7340092658996582031 1.6235936880111694336 1.7986207008361816406 1.4274055957794189453 2.4277906417846679688 1.8282015323638916016 1.8470438718795776367 1.9220292568206787109 1.8900409936904907227 2.8643260002136230469 2.3822767734527587891 1.8036500215530395508 2.0769302845001220703 1.9527661800384521484 4.4312872886657714844 2.2553462982177734375 3.76061248779296875 3.7778332233428955078 2.0301411151885986328 4.0657076835632324219 6.2334589958190917969 6.0606923103332519531 6.73838043212890625 7.0642285346984863281 7.5576763153076171875 9.0115509033203125 6.0311279296875 4.4366302490234375 4.0589289665222167969 3.1940784454345703125 4.4200615882873535156 3.6526122093200683594 3.3228898048400878906 4.00974273681640625 3.4523732662200927734 3.1403074264526367188 2.6153509616851806641 4.1969285011291503906 4.0884137153625488281 4.5339217185974121094 1.9218460321426391602 1.5773767232894897461 2.1466999053955078125 2.4197721481323242188 2.0350229740142822266 1.6689277887344360352 1.9450439214706420898 1.286742091178894043 1.3168126344680786133 1.2071601152420043945 1.2086571455001831055 1.1172952651977539063 1.3450866937637329102 1.4908393621444702148 1.9940248727798461914 1.8842992782592773438 1.2647417783737182617 1.0213445425033569336 1.6123892068862915039 1.5749191045761108398 1.4209679365158081055 2.1663670539855957031 1.6751973628997802734 1.5701924562454223633 1.8898899555206298828 2.3779895305633544922 2.0219376087188720703 2.2758941650390625 1.7339088916778564453 2.345989227294921875 2.5178561210632324219 2.2047297954559326172 2.4217698574066162109 2.6365163326263427734 3.24151611328125 3.6302092075347900391 3.0999438762664794922 2.8053793907165527344 3.0516095161437988281 2.8039805889129638672 2.0980768203735351563 2.35889434814453125 2.5368018150329589844 3.1794786453247070313 3.1873536109924316406 3.4337980747222900391 4.1534876823425292969 4.6969122886657714844 4.3300933837890625 4.1459546089172363281 4.6929421424865722656 4.3006682395935058594 4.8322076797485351563 4.487964630126953125 4.2854504585266113281 5.5749707221984863281 4.7936406135559082031 4.5780134201049804688 4.4618349075317382813 3.6628241539001464844 2.9172954559326171875 3.4835331439971923828 2.5742139816284179688 3.8319425582885742188 2.4400739669799804688 2.4999394416809082031 2.5072908401489257813 3.3832490444183349609 3.0532650947570800781 2.2536494731903076172 2.2174584865570068359 1.5894118547439575195 1.3911118507385253906 1.8518265485763549805 2.0136132240295410156 2.1559462547302246094 1.7304629087448120117 2.3209421634674072266 1.877408146858215332 1.8617559671401977539 1.5334335565567016602 1.3353599309921264648 1.5928467512130737305 1.223575592041015625 1.2822893857955932617 1.3681746721267700195 1.4387320280075073242 1.0357733964920043945 1 1.0741442441940307617 1.3362214565277099609 1.133570551872253418 1.3894377946853637695 1.2725565433502197266 1.2071415185928344727 1.1258649826049804688 1.3610157966613769531 1.1571662425994873047 1.2057483196258544922 1.3377133607864379883 1.3323916196823120117 1.2846808433532714844 1.2092776298522949219 1.3605791330337524414 1.3163843154907226563 1.5264389514923095703 1.3940527439117431641 1.2977234125137329102 1.8024873733520507813 1 1.0698056221008300781 1 1.446219325065612793 2.0301752090454101563 1.1717926263809204102 1.1419775485992431641 1.6623276472091674805 1.4137425422668457031 1.3644478321075439453 
2.0199697017669677734 2.2790534496307373047 2.3150656223297119141 2.6791017055511474609 3.1373095512390136719 2.3620836734771728516 2.5308759212493896484 2.8592462539672851563 2.7584872245788574219 2.3956964015960693359 2.335079193115234375 1.6612869501113891602 2.1273169517517089844 2.1473028659820556641 1.8093714714050292969 1.7008993625640869141 1.6993422508239746094 1.467754364013671875 1.8933813571929931641 1.549416661262512207 1.7786737680435180664 1.4878945350646972656 1.1136547327041625977 1.5187467336654663086 1.08606719970703125 1.0094114542007446289 1.5934239625930786133 1.7205979824066162109 1.9397447109222412109 1.2901819944381713867 1.3189153671264648438 1.0926225185394287109 1.4516246318817138672 1.1359409093856811523 1.5062371492385864258 1.446284174919128418 1.3485807180404663086 1.4322144985198974609 1.7398322820663452148 1.1764428615570068359 1.9001215696334838867 1.5938081741333007813 1.5780253410339355469 1.8595709800720214844 2.1584465503692626953 1.9957492351531982422 1.9655170440673828125 2.0706591606140136719 2.118938446044921875 3.4768314361572265625 2.8607764244079589844 3.1247348785400390625 3.0692043304443359375 4.0620408058166503906 3.422290802001953125 3.2512385845184326172 3.7003333568572998047 1.9769022464752197266 2.1817553043365478516 3.4863774776458740234 2.7527477741241455078 5.65650177001953125 5.8592376708984375 4.7647223472595214844 9.3800725936889648438 6.0691728591918945313 5.0230302810668945313 3.3909535408020019531 3.0351583957672119141 2.1471264362335205078 1.8935943841934204102 3.7792115211486816406 3.2897078990936279297 2.1956562995910644531 3.8148572444915771484 3.1313488483428955078 4.6687951087951660156 2.7594683170318603516 4.32373046875 3.0423777103424072266 2.1269705295562744141 2.0262038707733154297 1.4009064435958862305 1.7505266666412353516 3.3789613246917724609 1.5342119932174682617 1.7127202749252319336 1.5961016416549682617 1.6427626609802246094 1.4580316543579101563 1.160617828369140625 1.4969452619552612305 1.8420040607452392578 1.3921213150024414063 1.4596310853958129883 2.1652579307556152344 1.5902074575424194336 1.3933660984039306641 1.361422419548034668 1.7313284873962402344 1.5838949680328369141 1.5387907028198242188 1.9678940773010253906 2.1164720058441162109 2.2955424785614013672 1.5645196437835693359 1.7788778543472290039 2.4708626270294189453 1.6728677749633789063 2.4262526035308837891 2.5296277999877929688 2.5880324840545654297 1.7884855270385742188 2.2181458473205566406 2.4495985507965087891 2.6870980262756347656 2.6022367477416992188 2.9173290729522705078 2.6293327808380126953 2.592197418212890625 2.4701890945434570313 2.0200443267822265625 2.5755858421325683594 2.7873749732971191406 3.1261425018310546875 3.3703694343566894531 4.0353956222534179688 4.5870270729064941406 4.7765326499938964844 3.8640084266662597656 4.3751635551452636719 3.998920440673828125 4.2230520248413085938 4.7586202621459960938 4.8792362213134765625 3.6069645881652832031 4.093067169189453125 4.2218728065490722656 4.4204859733581542969 4.586864471435546875 3.6203627586364746094 3.1703598499298095703 3.9257459640502929688 2.9047386646270751953 2.4543166160583496094 3.2487423419952392578 2.5831747055053710938 2.5445575714111328125 2.1552557945251464844 2.2741975784301757813 2.8792712688446044922 2.0137982368469238281 1.594561457633972168 1.698169708251953125 1.4679522514343261719 1.5302150249481201172 2.0992224216461181641 1.9247051477432250977 2.6367020606994628906 1.6922681331634521484 1.5578376054763793945 1.4897665977478027344 1.9928954839706420898 1.6455544233322143555 1.4733586311340332031 1.9705396890640258789 1.3190938234329223633 1.4501819610595703125 1.4738610982894897461 1.7526078224182128906 1.3725998401641845703 1.1905927658081054688 1.3792500495910644531 1.4368844032287597656 1.2495359182357788086 1.3977886438369750977 1.3190953731536865234 1.5127398967742919922 1.9893834590911865234 1.1302248239517211914 1.1214642524719238281 1.5188475847244262695 1.2002835273742675781 1.2141265869140625 1.6157088279724121094 1.4161497354507446289 1.2574546337127685547 1.3958036899566650391 1 1.0923331975936889648 1.0887644290924072266 1.3900370597839355469 1.5994967222213745117 1.67235565185546875 1.2318336963653564453 1.1458579301834106445 1.1776946783065795898 1.2532188892364501953 1.4347347021102905273 1.2980203628540039063 
2.0331962108612060547 2.1900744438171386719 2.3081524372100830078 2.7534227371215820313 3.1941347122192382813 3.13161468505859375 3.5159056186676025391 3.1690325736999511719 2.2467088699340820313 2.4845995903015136719 2.3798196315765380859 2.2349154949188232422 2.0841236114501953125 1.6838593482971191406 1.6955655813217163086 1.1131088733673095703 1.8559169769287109375 1.9785671234130859375 1.8769538402557373047 2.0856661796569824219 1.4309589862823486328 1.4797194004058837891 1.300632476806640625 1.6607710123062133789 1.4655028581619262695 1.5068807601928710938 2.0199291706085205078 1.884901881217956543 1.7969330549240112305 1.6040718555450439453 1.2187836170196533203 1.2861409187316894531 1.8074274063110351563 1.2107347249984741211 1.2958440780639648438 1.4008452892303466797 1.3799719810485839844 1.3101698160171508789 1.5615632534027099609 1.4489098787307739258 1.9460988044738769531 2.2115559577941894531 1.9321906566619873047 1.8567967414855957031 2.1062893867492675781 2.1732630729675292969 2.0936868190765380859 2.3538699150085449219 2.5375597476959228516 2.5660741329193115234 3.3292055130004882813 2.4550223350524902344 2.6525418758392333984 2.9673647880554199219 2.0107226371765136719 2.2762296199798583984 2.0763475894927978516 4.6766099929809570313 3.1638834476470947266 3.7244005203247070313 5.6117334365844726563 5.4736070632934570313 9.0790300369262695313 5.6729674339294433594 6.2440662384033203125 3.3854522705078125 4.0817098617553710938 2.6736950874328613281 2.7083849906921386719 4.0397648811340332031 4.4229922294616699219 2.5224018096923828125 3.1216647624969482422 3.0174093246459960938 5.3529682159423828125 3.6778697967529296875 3.2484233379364013672 2.7752451896667480469 3.9110429286956787109 4.7008481025695800781 2.1581118106842041016 2.6323800086975097656 1.4014453887939453125 1.6344230175018310547 3.3008451461791992188 1.8209331035614013672 1.1395219564437866211 1.288922429084777832 2.4188814163208007813 1.3348796367645263672 1.1381130218505859375 1.3688762187957763672 1.8164663314819335938 2.0846714973449707031 1.5382783412933349609 1.1992976665496826172 1.4508339166641235352 1.3643012046813964844 1.5441203117370605469 1.4743901491165161133 2.1798746585845947266 2.0621716976165771484 1.8621870279312133789 1.4635459184646606445 1.8923572301864624023 1.6693966388702392578 2.4607691764831542969 2.3156347274780273438 1.8627865314483642578 2.4864635467529296875 1.8961732387542724609 1.8529360294342041016 1.8299180269241333008 2.8531377315521240234 2.2346155643463134766 2.6351168155670166016 2.7483625411987304688 2.065521240234375 2.8392953872680664063 2.825321197509765625 2.1917014122009277344 1.8503155708312988281 2.6310577392578125 2.5422306060791015625 3.5299773216247558594 3.4487578868865966797 4.3766741752624511719 4.2601728439331054688 4.2346816062927246094 3.7778415679931640625 3.8824689388275146484 3.5771174430847167969 3.61905670166015625 3.8797001838684082031 3.7460482120513916016 3.7937595844268798828 3.8381159305572509766 4.1947603225708007813 4.2044014930725097656 3.937541961669921875 3.5807366371154785156 2.9720413684844970703 3.8023722171783447266 3.1475539207458496094 3.379032135009765625 3.8964009284973144531 2.3791904449462890625 2.02149200439453125 3.9583685398101806641 2.1958842277526855469 2.2456405162811279297 2.3767526149749755859 2.0916795730590820313 1.642893671989440918 2.2625415325164794922 1.7977883815765380859 1.6982657909393310547 1.5617355108261108398 1.7935554981231689453 2.2381772994995117188 1.6292165517807006836 1.2901477813720703125 1.4705917835235595703 1.4177445173263549805 1.2737542390823364258 1.4435781240463256836 1.2980316877365112305 1.572907567024230957 1.3375250101089477539 1 1.2703962326049804688 1.0577450990676879883 1.5929241180419921875 1.4996232986450195313 1.1722742319107055664 1.3399810791015625 1.4127745628356933594 1.6237614154815673828 1.2988805770874023438 1.3423191308975219727 1.3169727325439453125 1.253491520881652832 1.4771573543548583984 1.3118125200271606445 1.2677475214004516602 1.4538106918334960938 1.5565595626831054688 1.2736388444900512695 1.3615355491638183594 1.2263088226318359375 1.1303069591522216797 1.5202695131301879883 1.5192841291427612305 1.0140975713729858398 1.4306387901306152344 1.1237766742706298828 1.2254548072814941406 1.2862668037414550781 1.3070646524429321289 1.0673050880432128906 
1.7449992895126342773 2.5452964305877685547 1.8226151466369628906 2.7392108440399169922 2.8218936920166015625 2.5093884468078613281 2.7905216217041015625 2.4895074367523193359 2.1215116977691650391 2.4218010902404785156 2.0634133815765380859 2.0322237014770507813 2.7618916034698486328 1.9815065860748291016 1.6400203704833984375 2.0968916416168212891 1.5646024942398071289 1.7303111553192138672 1.5338213443756103516 1.5786449909210205078 1.9981161355972290039 1.5225279331207275391 1.4889330863952636719 1.4242507219314575195 2.6353726387023925781 1.4716230630874633789 1.3898276090621948242 1.2232743501663208008 1.7096791267395019531 1.6925634145736694336 1.6797626018524169922 1.3543329238891601563 1.2636275291442871094 1.5167357921600341797 1.7266620397567749023 2.0750570297241210938 1.8817815780639648438 1.7024891376495361328 2.00780487060546875 1.8071590662002563477 2.2012875080108642578 1.8505792617797851563 1.961722254753112793 1.6889292001724243164 1.9074395895004272461 2.7596302032470703125 2.4786055088043212891 2.4449841976165771484 2.5636665821075439453 3.2232818603515625 2.7030987739562988281 3.3762419223785400391 3.7067093849182128906 2.2440726757049560547 2.2461633682250976563 2.0748124122619628906 2.9641256332397460938 3.7453866004943847656 4.1257600784301757813 3.3436937332153320313 8.2978925704956054688 8.9285211563110351563 7.4706044197082519531 7.4049124717712402344 5.7038550376892089844 3.5490376949310302734 4.9339427947998046875 2.9097449779510498047 2.6605536937713623047 2.7818553447723388672 4.3126964569091796875 2.6723437309265136719 2.0854270458221435547 3.1453287601470947266 5.5674319267272949219 2.4179604053497314453 2.3819653987884521484 3.7354123592376708984 2.4562962055206298828 2.7282149791717529297 2.0173161029815673828 1.8482476472854614258 1.398283839225769043 1.6578692197799682617 1.4629340171813964844 1.640191197395324707 1.2794020175933837891 1.7220174074172973633 1.6275560855865478516 1.2567706108093261719 1.0590462684631347656 1.6101075410842895508 1.6845858097076416016 1.4815245866775512695 1.2130627632141113281 1 1.1994884014129638672 1.0551668405532836914 1.0100611448287963867 1.4629275798797607422 1 1.1793072223663330078 1.4753533601760864258 1.4897730350494384766 2.3598713874816894531 2.9639739990234375 2.2114493846893310547 2.1546254158020019531 2.7744417190551757813 2.6814901828765869141 2.6704916954040527344 1.9044770002365112305 2.3770232200622558594 1.5775710344314575195 2.5589592456817626953 2.5921204090118408203 2.8018777370452880859 2.3044519424438476563 2.5463423728942871094 2.7473139762878417969 2.5013358592987060547 2.5156373977661132813 2.7022266387939453125 2.8106303215026855469 3.1405315399169921875 3.9278922080993652344 4.075618743896484375 3.9554443359375 4.1773834228515625 3.7674968242645263672 3.8106677532196044922 3.7327623367309570313 3.2655851840972900391 3.4429347515106201172 3.76776123046875 3.7306184768676757813 3.7799236774444580078 3.7945840358734130859 4.9455409049987792969 3.5084040164947509766 4.4005970954895019531 2.9948761463165283203 3.5524888038635253906 3.1254341602325439453 2.667415618896484375 2.18682861328125 2.0415401458740234375 3.0910115242004394531 2.3836314678192138672 2.1640875339508056641 1.3723021745681762695 1.945919036865234375 1.9366377592086791992 1.527281641960144043 1.9009008407592773438 1.5703178644180297852 1.1259380578994750977 1.2325005531311035156 1.4987274408340454102 1.6308180093765258789 1.5419342517852783203 1.2568566799163818359 1.8304358720779418945 1.196132659912109375 1.5550067424774169922 1.4423135519027709961 1.4999964237213134766 1.2016786336898803711 1.1806347370147705078 1.1921020746231079102 1.5123233795166015625 1.3152483701705932617 1.5277261734008789063 1.4069278240203857422 1.4772554636001586914 1.4726285934448242188 1.4835771322250366211 1.3420958518981933594 1.4560130834579467773 1.4911454916000366211 1.3418966531753540039 1.3655570745468139648 1.4737272262573242188 1.5052220821380615234 1.4857355356216430664 1.6543241739273071289 1.3935084342956542969 1.3372513055801391602 1.2794378995895385742 1.2584096193313598633 1.0418047904968261719 1.1104209423065185547 1.8949921131134033203 1.2745676040649414063 1.5486799478530883789 1.2842959165573120117 1.339434504508972168 1.3587163686752319336 1.2516055107116699219 1.1464051008224487305 
1.8005408048629760742 1.7191233634948730469 1.747509002685546875 2.4366910457611083984 2.0351216793060302734 2.7779755592346191406 2.4527840614318847656 2.3711287975311279297 2.7001199722290039063 2.4848129749298095703 2.1164219379425048828 1.9056388139724731445 1.9856818914413452148 1.7146432399749755859 2.1685321331024169922 2.2419488430023193359 2.1254410743713378906 1.7290121316909790039 1.6871633529663085938 1.4061384201049804688 1.3822429180145263672 1.8565195798873901367 1.6659274101257324219 2.1417393684387207031 1.9890029430389404297 1.6647144556045532227 1.6257179975509643555 1.6834414005279541016 1.668346405029296875 1.3974874019622802734 1.5509350299835205078 1.4338200092315673828 1.3866201639175415039 1.5745813846588134766 1.2625755071640014648 1.6971399784088134766 1.3606699705123901367 1.6356536149978637695 1.635001063346862793 1.7101888656616210938 1.3780944347381591797 1.8527334928512573242 1.7114903926849365234 1.9914982318878173828 1.5033758878707885742 1.786572575569152832 1.8733260631561279297 2.97495269775390625 2.3749642372131347656 2.4055697917938232422 2.1359896659851074219 2.5827968120574951172 2.2332782745361328125 2.8180575370788574219 4.8288478851318359375 3.4919846057891845703 2.6247293949127197266 2.3817017078399658203 4.7713494300842285156 5.5091414451599121094 9.04296112060546875 6.5332498550415039063 7.9659910202026367188 3.9641938209533691406 4.2346634864807128906 3.7412135601043701172 3.0112369060516357422 4.7055802345275878906 2.7360298633575439453 4.514739990234375 3.1110682487487792969 2.2679007053375244141 2.1737046241760253906 2.2940471172332763672 3.2532675266265869141 2.2382693290710449219 2.4804940223693847656 2.5124437808990478516 2.1886639595031738281 1.7695864439010620117 2.1018812656402587891 2.3464882373809814453 1.7024750709533691406 1.8540133237838745117 1.6688042879104614258 1.8159338235855102539 1.3455368280410766602 1.4645415544509887695 1.2833874225616455078 1.630633234977722168 1.7882046699523925781 1.3263220787048339844 1.4631234407424926758 1.4633022546768188477 1.1018311977386474609 1.2118642330169677734 1.1674268245697021484 1.8619610071182250977 1.5655692815780639648 1.5829508304595947266 1.3131796121597290039 1.310240626335144043 1.1179262399673461914 2.6469697952270507813 2.1176717281341552734 2.0320987701416015625 1.5815252065658569336 2.1804320812225341797 2.8006770610809326172 1.9706423282623291016 1.7675721645355224609 2.2397263050079345703 1.7916667461395263672 2.2641124725341796875 2.5770871639251708984 2.2314679622650146484 2.0825850963592529297 2.5239558219909667969 2.2561936378479003906 2.6419146060943603516 2.9803013801574707031 2.6548604965209960938 2.7323770523071289063 3.4846241474151611328 3.0185441970825195313 3.8095886707305908203 3.5877523422241210938 3.4534201622009277344 3.8570880889892578125 3.7107183933258056641 4.5105905532836914063 3.3835365772247314453 3.7256608009338378906 3.9267146587371826172 3.6496512889862060547 4.0785613059997558594 3.8433756828308105469 4.1243691444396972656 3.3326141834259033203 3.7064023017883300781 3.2116265296936035156 3.0554187297821044922 3.0155003070831298828 3.4378864765167236328 2.5080442428588867188 2.6094994544982910156 2.6821742057800292969 2.6134843826293945313 1.9328625202178955078 2.2814116477966308594 2.067707061767578125 1.3486833572387695313 1.3189719915390014648 1.2819069623947143555 1.5975345373153686523 1.0983904600143432617 1.6404670476913452148 1.1732437610626220703 1.1615995168685913086 1.0695151090621948242 1.6762291193008422852 1.101329803466796875 1.4778916835784912109 1.4506067037582397461 1.1327260732650756836 1.1693053245544433594 1.1642980575561523438 1.4851943254470825195 1.1141641139984130859 1.2191063165664672852 1.1674134731292724609 1.4837734699249267578 1.6100429296493530273 1.543313145637512207 1.5718564987182617188 1.4350886344909667969 1.5065659284591674805 1.1855074167251586914 1.4280352592468261719 1.489832758903503418 1.4629054069519042969 1.3507933616638183594 1.3596174716949462891 1.3861906528472900391 1.5542129278182983398 1.3685094118118286133 1.157910466194152832 1.1384154558181762695 1.2138960361480712891 1 1.4439791440963745117 1.4320672750473022461 1.5319216251373291016 1.4670953750610351563 1.1418381929397583008 1.2157329320907592773 2.2440702915191650391 1.5993508100509643555 1.0881712436676025391 1.2736895084381103516 
2.3967387676239013672 1.9584653377532958984 2.1776232719421386719 2.0874874591827392578 2.6568574905395507813 2.3448014259338378906 2.8896968364715576172 2.1701641082763671875 2.4119136333465576172 2.3916604518890380859 1.6990611553192138672 1.6328862905502319336 2.0613455772399902344 2.0275509357452392578 2.1183352470397949219 2.1129026412963867188 1.8836877346038818359 2.042308807373046875 1.91622161865234375 2.7997324466705322266 1.569697260856628418 1.9503588676452636719 1.7972502708435058594 1.7775435447692871094 1.9156558513641357422 1.6685217618942260742 2.6410510540008544922 1.5814447402954101563 1.8414162397384643555 2.0039103031158447266 1.6743811368942260742 1.6293913125991821289 1.2201894521713256836 1.3896636962890625 1.4958525896072387695 1.2059760093688964844 1.5243573188781738281 1.4312160015106201172 1.7799422740936279297 1.7930607795715332031 1.8231959342956542969 1.9545029401779174805 1.5063562393188476563 1.7923054695129394531 1.4147651195526123047 1.4598019123077392578 2.1716315746307373047 2.0430321693420410156 2.2290782928466796875 2.8997075557708740234 2.0112011432647705078 2.9129204750061035156 3.0229959487915039063 1.9119751453399658203 2.4983432292938232422 2.2156229019165039063 3.0642406940460205078 2.4063079357147216797 3.9124369621276855469 6.9246973991394042969 8.6384944915771484375 6.5493793487548828125 9.0759897232055664063 6.328701019287109375 5.277385711669921875 6.7088017463684082031 2.3490424156188964844 4.3490543365478515625 3.9389083385467529297 2.2250058650970458984 2.6700866222381591797 2.2439062595367431641 2.1592860221862792969 2.3212287425994873047 2.1689856052398681641 2.2428476810455322266 2.2357175350189208984 2.4122824668884277344 2.3080091476440429688 2.6898336410522460938 2.5037901401519775391 2.8726851940155029297 2.3782515525817871094 1.7251946926116943359 2.2773826122283935547 1.4566433429718017578 1.7562888860702514648 1.8853185176849365234 1.7855042219161987305 1.8086239099502563477 1.5870082378387451172 1.1457077264785766602 1.6925803422927856445 1.5467206239700317383 1.7393571138381958008 1.7600374221801757813 1 1.2222433090209960938 1.0163072347640991211 2.1306130886077880859 1.4619028568267822266 1.6862999200820922852 1.7531801462173461914 1.7446897029876708984 1.4670079946517944336 1.7142568826675415039 2.2089836597442626953 1.9528497457504272461 2.0459642410278320313 2.0576324462890625 3.0336835384368896484 2.7516071796417236328 1.6146847009658813477 2.1271281242370605469 1.6275327205657958984 1.6526842117309570313 2.7358462810516357422 1.9400140047073364258 2.1651837825775146484 2.7518832683563232422 2.4620313644409179688 1.8719185590744018555 2.4065268039703369141 3.0133600234985351563 3.0978026390075683594 3.4768373966217041016 3.4965112209320068359 3.2560374736785888672 3.0023920536041259766 3.5269212722778320313 4.0367670059204101563 4.0315260887145996094 3.4354221820831298828 3.2952735424041748047 3.8674514293670654297 4.1960096359252929688 4.3339495658874511719 3.5297119617462158203 3.4202930927276611328 3.2348601818084716797 3.9185292720794677734 3.2512884140014648438 2.5924398899078369141 2.5699160099029541016 2.6077380180358886719 3.102733612060546875 1.7181274890899658203 2.0192699432373046875 1.9701899290084838867 1.1550003290176391602 1.7951695919036865234 1.4930671453475952148 1.0539379119873046875 1.4584625959396362305 1.6247953176498413086 2.6295158863067626953 2.0457103252410888672 1.5766921043395996094 1.4095859527587890625 1.4354224205017089844 1.3847508430480957031 1.5554103851318359375 1.2617452144622802734 1.630992889404296875 1.6641646623611450195 1.4274744987487792969 1.6346356868743896484 1.3806819915771484375 1.322153925895690918 1.4039899110794067383 1.3019660711288452148 1.6452773809432983398 1.5752991437911987305 1.4082219600677490234 1.4389758110046386719 1.2292357683181762695 1.3886982202529907227 1.2576124668121337891 1.3718715906143188477 1.2785483598709106445 1.4906314611434936523 1.2465424537658691406 1.4335585832595825195 1.4419802427291870117 1.3776177167892456055 1.2826404571533203125 1.4144093990325927734 1.3287298679351806641 1.1091248989105224609 1.1113436222076416016 1.4463169574737548828 2.1405348777770996094 1.061223149299621582 1.4017213582992553711 1.4604101181030273438 1.0247375965118408203 1 1.4252644777297973633 1.5338263511657714844 1.3396440744400024414 
1.7661904096603393555 2.1990449428558349609 2.0542571544647216797 1.8798007965087890625 2.1747410297393798828 2.2340919971466064453 2.1750569343566894531 2.6105675697326660156 2.3829808235168457031 2.4184141159057617188 1.9704561233520507813 1.8725485801696777344 2.1188685894012451172 2.2662503719329833984 2.8745768070220947266 2.3888366222381591797 2.0151674747467041016 2.6151332855224609375 2.1101796627044677734 1.9894435405731201172 1.7723932266235351563 2.1785736083984375 1.7745916843414306641 1.5239769220352172852 1.4922641515731811523 1.3595690727233886719 1.7119138240814208984 1.9375615119934082031 2.2449374198913574219 2.0536949634552001953 1.685704350471496582 2.05059814453125 1.6479357481002807617 1.1956526041030883789 1.0822777748107910156 1.2904981374740600586 1.3145616054534912109 1.4623116254806518555 1.5299291610717773438 1.4834749698638916016 1.7325286865234375 1.6987458467483520508 1.1253888607025146484 1.5227276086807250977 1.3917249441146850586 1.5288298130035400391 1.340561985969543457 1.91275787353515625 1.8764575719833374023 1.6112691164016723633 2.6788740158081054688 2.4690418243408203125 2.2978160381317138672 3.7598764896392822266 3.9561469554901123047 2.0651562213897705078 4.2692990303039550781 4.0442724227905273438 3.4286758899688720703 4.6954326629638671875 5.6289200782775878906 6.2575740814208984375 5.7625513076782226563 5.4568486213684082031 5.4982862472534179688 5.9671826362609863281 3.2314181327819824219 2.7829549312591552734 4.1321816444396972656 3.6702413558959960938 3.6682584285736083984 4.1291871070861816406 2.1989979743957519531 2.4985547065734863281 3.1533052921295166016 3.3371133804321289063 2.3355913162231445313 2.5173468589782714844 2.6620600223541259766 2.3904933929443359375 1.8597031831741333008 1.9831330776214599609 2.4214403629302978516 1.9733269214630126953 1.974633336067199707 1.7327516078948974609 1.8343453407287597656 2.0768249034881591797 2.1074640750885009766 1.3674287796020507813 1.831050872802734375 1.1884971857070922852 1.4570566415786743164 1.615610957145690918 1.4748950004577636719 1.2715926170349121094 1.196225285530090332 1.536641240119934082 1.1602460145950317383 1.0885639190673828125 1.392368316650390625 1.421896815299987793 1.0373605489730834961 1.2667289972305297852 1.5683366060256958008 1.479458928108215332 1.4383072853088378906 2.1336421966552734375 2.0507700443267822266 1.6101155281066894531 1.2471401691436767578 2.0809702873229980469 2.1492450237274169922 2.2928013801574707031 2.7156784534454345703 1.8748584985733032227 1.8554784059524536133 2.3166012763977050781 2.0835716724395751953 2.278575897216796875 2.3458554744720458984 2.4045734405517578125 2.2542576789855957031 3.1383240222930908203 2.824687957763671875 3.9514830112457275391 3.4161784648895263672 3.7804400920867919922 3.5352032184600830078 3.3557298183441162109 3.8024256229400634766 3.9714369773864746094 4.0493750572204589844 4.0830059051513671875 3.8485841751098632813 4.8862385749816894531 3.6261138916015625 3.5905330181121826172 3.0264842510223388672 2.7143006324768066406 2.6882681846618652344 2.3426418304443359375 2.3727183341979980469 3.5338447093963623047 1.7627604007720947266 3.0192768573760986328 2.1690297126770019531 2.1187937259674072266 1.9171317815780639648 1.2608276605606079102 1.2696322202682495117 1.6591104269027709961 1.3968251943588256836 1.4747118949890136719 1.4963994026184082031 1.6852860450744628906 1.1379554271697998047 1.4203668832778930664 1.5748844146728515625 1.1395353078842163086 1.3420917987823486328 1.4127943515777587891 1.3812891244888305664 1.3551166057586669922 1.4784991741180419922 1.5318733453750610352 1.3444038629531860352 1.4838488101959228516 1.796197056770324707 1.2712662220001220703 1.3392615318298339844 1.2396664619445800781 1.2562153339385986328 1.2341042757034301758 1.155768275260925293 1.7251696586608886719 1.284496307373046875 1.0122147798538208008 1.2516968250274658203 1.2855386734008789063 1.2398340702056884766 1.189952850341796875 1.4568004608154296875 1.2081389427185058594 1.4995304346084594727 1.2004210948944091797 1.0553750991821289063 1.3354034423828125 1.1923604011535644531 1.7641236782073974609 2.0218856334686279297 1.4188200235366821289 1.857667088508605957 2.1787331104278564453 2.0404784679412841797 2.2030658721923828125 1.0954498052597045898 1.1561065912246704102 1.7302398681640625 1.0751973390579223633 
2.2745087146759033203 2.4407703876495361328 1.9219262599945068359 1.8582695722579956055 2.56972503662109375 2.0391387939453125 2.4367430210113525391 2.7313716411590576172 2.0497694015502929688 2.7359735965728759766 2.3606212139129638672 2.6527607440948486328 2.7542436122894287109 2.5719442367553710938 2.2939748764038085938 3.0197350978851318359 2.2646253108978271484 1.9991140365600585938 1.9467045068740844727 1.9693037271499633789 1.4280463457107543945 2.1615822315216064453 1.7103761434555053711 1.7152969837188720703 1.9360011816024780273 2.187145233154296875 2.2586705684661865234 2.1910359859466552734 2.3397996425628662109 1.7952491044998168945 1.7997186183929443359 2.0226240158081054688 1.2049689292907714844 1.311320185661315918 1.1162153482437133789 1.4439383745193481445 1.313442230224609375 1.2949690818786621094 1.6000621318817138672 1.6134603023529052734 1.7234807014465332031 1.673581242561340332 1.3353676795959472656 1.3214210271835327148 1.2165138721466064453 1.5142630338668823242 1.1933683156967163086 1.2670071125030517578 1.6205458641052246094 1.8132078647613525391 2.7543034553527832031 2.2607893943786621094 3.3075191974639892578 2.1050469875335693359 4.0322003364562988281 2.4653916358947753906 2.7215275764465332031 3.8365421295166015625 3.6500732898712158203 4.4127750396728515625 4.6873826980590820313 4.6998071670532226563 3.2839324474334716797 5.7033905982971191406 2.7883918285369873047 5.2558512687683105469 3.4902713298797607422 3.0365190505981445313 2.0525307655334472656 5.0868043899536132813 2.5477821826934814453 2.3764512538909912109 3.3440670967102050781 2.9322271347045898438 2.6125166416168212891 2.7909877300262451172 4.3935861587524414063 3.1769270896911621094 2.5463559627532958984 1.9163904190063476563 2.1273007392883300781 1.9629054069519042969 2.3385243415832519531 2.1395106315612792969 1.6628785133361816406 1.5910843610763549805 1.455302119255065918 1.6966058015823364258 1.1281399726867675781 1.9585003852844238281 1.5501644611358642578 1.5894113779067993164 1.7088845968246459961 1.6640146970748901367 1 1.0644948482513427734 1.4369460344314575195 1 1.6982276439666748047 1.1754575967788696289 1.4269179105758666992 1.5053457021713256836 1.7655075788497924805 1.0561999082565307617 1.3851177692413330078 2.2149484157562255859 1.9581946134567260742 2.1336476802825927734 1.5458726882934570313 1.9631404876708984375 2.2461225986480712891 2.326244354248046875 2.2285594940185546875 2.2368783950805664063 2.2086517810821533203 1.8721801042556762695 2.2709367275238037109 1.9315179586410522461 1.9753272533416748047 2.6786382198333740234 2.4896402359008789063 2.6355061531066894531 2.5590856075286865234 2.3602356910705566406 2.6502978801727294922 2.7963593006134033203 2.8160421848297119141 3.0539584159851074219 3.4988915920257568359 3.1386983394622802734 3.7374637126922607422 3.7138702869415283203 3.9314506053924560547 3.8425939083099365234 3.911441802978515625 4.0388741493225097656 3.41493988037109375 3.3430800437927246094 2.4738180637359619141 2.5574619770050048828 3.5414767265319824219 1.8989555835723876953 2.0887751579284667969 1.98159027099609375 2.0072093009948730469 2.2049858570098876953 1.6920843124389648438 1.7612563371658325195 1.5178655385971069336 1.7557305097579956055 1.9446794986724853516 3.2803750038146972656 1.527493596076965332 1.3096625804901123047 1.0446801185607910156 1.3813070058822631836 1.8829628229141235352 1.31678009033203125 1.6585325002670288086 1.442656397819519043 1.5162374973297119141 1.4260318279266357422 1.2064119577407836914 1.7452018260955810547 1.3999477624893188477 1.966589808464050293 1.5124136209487915039 1.6811597347259521484 1.3345906734466552734 1.1044974327087402344 1.196351170539855957 1.4969543218612670898 1.3281917572021484375 1.4701312780380249023 1.6633652448654174805 1.1788860559463500977 1.1335581541061401367 1.2445359230041503906 1.3698078393936157227 1.1824507713317871094 1.1617174148559570313 1.0160655975341796875 1.3856846094131469727 1.229910731315612793 1.3171044588088989258 1.393482208251953125 1.3645579814910888672 1.1030951738357543945 1.0478535890579223633 1.1826729774475097656 1.4703936576843261719 1.3442522287368774414 1.9988006353378295898 2.6111223697662353516 1.6391810178756713867 1.7504678964614868164 2.0267689228057861328 1.8846161365509033203 1.4172961711883544922 1.1313338279724121094 
1.9062187671661376953 1.7365261316299438477 2.1345665454864501953 1.8795675039291381836 2.030834197998046875 2.1170697212219238281 3.0746750831604003906 2.2778415679931640625 2.0787560939788818359 1.9652788639068603516 2.0160501003265380859 2.2148058414459228516 2.6601505279541015625 2.4760844707489013672 2.2246601581573486328 2.6998028755187988281 2.1972706317901611328 1.8488265275955200195 1.7316467761993408203 1.6782155036926269531 1.8587607145309448242 1.1645663976669311523 1.4607318639755249023 1.4474047422409057617 1.4056700468063354492 2.0411508083343505859 1.8124698400497436523 1.9204618930816650391 2.0163850784301757813 1.6219972372055053711 1.8051216602325439453 1.9843323230743408203 1.4328809976577758789 1.9062476158142089844 1.653399348258972168 1.2385698556900024414 1.2832233905792236328 1.3773260116577148438 1.7038499116897583008 1.8204538822174072266 1.7260429859161376953 1.486180424690246582 1.4454096555709838867 1.37245941162109375 1.3007647991180419922 1.4481995105743408203 1.3140341043472290039 1.7707222700119018555 1.709574580192565918 1.9614098072052001953 2.35224151611328125 2.9991927146911621094 2.0255246162414550781 2.5431559085845947266 2.5253739356994628906 5.768291473388671875 4.0709400177001953125 3.5695018768310546875 3.0282459259033203125 2.6592259407043457031 4.6203351020812988281 4.59055328369140625 5.4891018867492675781 4.0862288475036621094 3.1897134780883789063 2.4778909683227539063 3.7199790477752685547 2.4832167625427246094 3.8576021194458007813 2.9443328380584716797 2.8159251213073730469 2.4208261966705322266 2.6002733707427978516 3.1664242744445800781 2.7862896919250488281 2.6198384761810302734 2.6511402130126953125 2.7650790214538574219 1.9936181306838989258 1.9418028593063354492 2.3517565727233886719 2.5177531242370605469 2.2971127033233642578 2.5469806194305419922 2.2433300018310546875 2.0363104343414306641 1.6301473379135131836 1.521046757698059082 1.3837838172912597656 1.9694764614105224609 1.3992333412170410156 1.5840755701065063477 1.7828012704849243164 1.0394563674926757813 2.0990004539489746094 1.4629205465316772461 1.3439546823501586914 1.03189849853515625 1.4684380292892456055 1.1841619014739990234 1.7063899040222167969 1.4055855274200439453 1.05785369873046875 2.0468320846557617188 1.3239752054214477539 1.3254320621490478516 2.1913471221923828125 1.9934974908828735352 1.7324767112731933594 1.4670231342315673828 2.16954803466796875 2.5034542083740234375 1.774914860725402832 1.9205355644226074219 2.6708369255065917969 1.9458553791046142578 1.9455773830413818359 2.5323927402496337891 3.2527894973754882813 2.5982162952423095703 2.5675370693206787109 2.498340606689453125 2.8687365055084228516 2.4223134517669677734 2.6490614414215087891 2.6268076896667480469 3.4889214038848876953 2.8363535404205322266 2.8654134273529052734 3.0415310859680175781 2.8913598060607910156 2.9112160205841064453 3.2881057262420654297 4.8886737823486328125 3.4686970710754394531 3.7935469150543212891 3.5398244857788085938 4.0765557289123535156 2.9718220233917236328 2.3122837543487548828 2.5566196441650390625 3.7714598178863525391 2.0609126091003417969 1.5475721359252929688 1.8936390876770019531 1.7034126520156860352 2.0564131736755371094 1.9116206169128417969 1.4879969358444213867 1.7008749246597290039 2.2090430259704589844 1.954686284065246582 1.3444156646728515625 1.2259762287139892578 1.2231909036636352539 1.1688731908798217773 1.5314601659774780273 1.5219681262969970703 1.2629801034927368164 1.3182202577590942383 1.4263019561767578125 1.3417469263076782227 1.3804262876510620117 1.6971317529678344727 1.8776460886001586914 1.6608080863952636719 1.529362797737121582 1.491100311279296875 1.8260444402694702148 1.7481925487518310547 1.4201151132583618164 1.3080480098724365234 1.2339113950729370117 1.2618416547775268555 1.1193001270294189453 1.3272790908813476563 1.4201247692108154297 1.3724052906036376953 1.6394016742706298828 1.1949822902679443359 1.1529841423034667969 1.476660609245300293 1.040339350700378418 1.1076486110687255859 1.4038748741149902344 1.3022361993789672852 1.2489259243011474609 1.3398679494857788086 1.1634404659271240234 1 1.8537774085998535156 2.1218056678771972656 1.5333932638168334961 1.9563119411468505859 1.7810465097427368164 1.8265815973281860352 2.0716831684112548828 1.9530586004257202148 1.3057891130447387695 1.2171018123626708984 
1.6655454635620117188 2.1068525314331054688 1.7710716724395751953 2.8395082950592041016 2.3902010917663574219 3.0177466869354248047 2.0313637256622314453 2.8419055938720703125 2.4141581058502197266 1.9115281105041503906 1.9684461355209350586 2.9809613227844238281 2.8243739604949951172 2.3834209442138671875 2.4297397136688232422 1.9399052858352661133 1.8239401578903198242 2.2322487831115722656 1.9102405309677124023 2.3106253147125244141 2.5629808902740478516 1.9762597084045410156 1.639849543571472168 1.7073793411254882813 1.8915565013885498047 1.5431233644485473633 2.3498609066009521484 2.1116764545440673828 1.5918793678283691406 1.2639597654342651367 1.569698333740234375 1.2435108423233032227 1.710425257682800293 1.4139794111251831055 1.2192872762680053711 1.2508224248886108398 1.2832673788070678711 1.5128670930862426758 1.3633418083190917969 1.4274053573608398438 1.4526926279067993164 1.7790200710296630859 1.6694382429122924805 1.7347389459609985352 1.4477940797805786133 1.1534444093704223633 1.689547419548034668 1.8462903499603271484 2.2460756301879882813 1.9972597360610961914 2.0593271255493164063 1.7913683652877807617 2.7453749179840087891 3.3873727321624755859 2.7393898963928222656 4.1396045684814453125 4.8089952468872070313 4.2021427154541015625 5.876728057861328125 2.8531515598297119141 6.0860433578491210938 3.9429516792297363281 4.7478222846984863281 4.2105617523193359375 2.9548814296722412109 4.1251044273376464844 3.9663643836975097656 3.2325835227966308594 2.7358870506286621094 2.1792705059051513672 4.0098662376403808594 1.9959318637847900391 2.6693120002746582031 2.7927861213684082031 2.8806424140930175781 2.3720071315765380859 2.7416563034057617188 2.4448747634887695313 2.3628284931182861328 2.0358841419219970703 2.3371372222900390625 2.2608754634857177734 2.0642156600952148438 1.9752341508865356445 2.9193203449249267578 2.5274949073791503906 1.8932529687881469727 1.9668896198272705078 1.6785773038864135742 1.5932019948959350586 1.5438321828842163086 1.3230860233306884766 1.796665191650390625 1.3577468395233154297 1.9215345382690429688 2.0391819477081298828 1.6375977993011474609 1.289654850959777832 1.3145651817321777344 1.2588232755661010742 1.7188296318054199219 2.1320440769195556641 1.9080737829208374023 1.1308562755584716797 1.134400486946105957 1.4574087858200073242 2.0979561805725097656 1.2974410057067871094 1.2767363786697387695 1.3337006568908691406 1.5818891525268554688 2.2108418941497802734 2.1881241798400878906 2.1087789535522460938 2.1072814464569091797 2.0166428089141845703 2.4054777622222900391 2.2564737796783447266 2.3172574043273925781 1.9192483425140380859 2.1174433231353759766 2.1371583938598632813 2.4980947971343994141 2.8503086566925048828 3.2261102199554443359 2.7196829319000244141 2.6397256851196289063 3.4189434051513671875 2.4151813983917236328 2.7231662273406982422 2.9001288414001464844 2.5821807384490966797 3.1061518192291259766 3.7719097137451171875 4.55530548095703125 4.6215853691101074219 3.3645951747894287109 3.2153120040893554688 3.1232278347015380859 2.8707702159881591797 2.8102719783782958984 2.6926925182342529297 2.0973601341247558594 1.7290550470352172852 1.2535485029220581055 1.5817008018493652344 1.5674022436141967773 1.7904865741729736328 2.5111434459686279297 2.3270039558410644531 1.4687982797622680664 2.1069819927215576172 1.2125887870788574219 1.0902147293090820313 1.1529633998870849609 1.0589206218719482422 1.3460053205490112305 1.2722345590591430664 1.3408566713333129883 1.4390268325805664063 1.3981291055679321289 1.4661383628845214844 1.5099415779113769531 1.4370985031127929688 1.7561806440353393555 1.8166738748550415039 1.5402286052703857422 1.5528243780136108398 1.3573086261749267578 2.0446438789367675781 1.4597959518432617188 1.3433398008346557617 1.5154901742935180664 1.4984086751937866211 1.7313258647918701172 1.6189813613891601563 1.3069179058074951172 1.1884824037551879883 1.1430860757827758789 1.2445064783096313477 1.2491514682769775391 1.6461975574493408203 1.0742838382720947266 1.2712430953979492188 1.3728520870208740234 1.3588356971740722656 1.4780106544494628906 1.1445908546447753906 1.3499673604965209961 1.0034279823303222656 1.2707341909408569336 1 1.7247791290283203125 1.3737294673919677734 1.4977228641510009766 1.3480322360992431641 2.2307991981506347656 1.3346757888793945313 1.3730529546737670898 2.0166187286376953125 
2.2569277286529541016 1.404992222785949707 2.1241350173950195313 2.1275019645690917969 2.5914123058319091797 3.2532205581665039063 2.5735120773315429688 2.7144932746887207031 2.3769748210906982422 2.3241755962371826172 2.4665403366088867188 2.6826579570770263672 2.4835321903228759766 2.4576694965362548828 2.7864890098571777344 2.7458317279815673828 2.8260757923126220703 2.8822977542877197266 2.2649543285369873047 2.7651548385620117188 2.2599813938140869141 2.4518439769744873047 1.4662942886352539063 1.6754223108291625977 2.2215857505798339844 2.1814377307891845703 1.7864013910293579102 1.8077107667922973633 1.1272473335266113281 1.3028415441513061523 1.5687487125396728516 1.3465950489044189453 1.5529882907867431641 1.5393455028533935547 1.4055083990097045898 1.3230183124542236328 1.4172347784042358398 1.3305174112319946289 1.4326739311218261719 1.4871445894241333008 1.3383194208145141602 1.5932736396789550781 1.6661939620971679688 1.71190643310546875 1.6462243795394897461 1.4362645149230957031 1.9433459043502807617 1.5617432594299316406 2.8316204547882080078 2.3448302745819091797 2.0654346942901611328 1.8635532855987548828 1.969765782356262207 3.5372486114501953125 2.3081200122833251953 4.0900311470031738281 2.9150760173797607422 4.5709929466247558594 4.3817362785339355469 4.8887348175048828125 4.2800884246826171875 4.3105220794677734375 2.8633236885070800781 2.6552536487579345703 4.1574482917785644531 3.8305318355560302734 2.3003790378570556641 5.1770200729370117188 2.7759935855865478516 3.9423303604125976563 2.4112372398376464844 2.3559701442718505859 2.4828655719757080078 3.325771331787109375 2.5602297782897949219 2.7456138134002685547 2.9431600570678710938 2.7894482612609863281 2.8264644145965576172 2.3884799480438232422 1.8553996086120605469 2.4027128219604492188 2.1276829242706298828 2.5584430694580078125 2.504245758056640625 2.7080411911010742188 2.2892246246337890625 2.5669224262237548828 1.1967335939407348633 1.5226386785507202148 1.335772395133972168 2.0204670429229736328 1.8194854259490966797 2.0077924728393554688 1.8144762516021728516 1.6589943170547485352 1.2747356891632080078 1.0327993631362915039 1.298004150390625 1.4412291049957275391 1.3430962562561035156 1.426495671272277832 1.3508728742599487305 1.7038049697875976563 1.6690026521682739258 1.0811808109283447266 1.1061062812805175781 1.5557700395584106445 1.247342228889465332 1.1020483970642089844 1.8256542682647705078 1.8025889396667480469 1.8796116113662719727 2.6401195526123046875 2.5390219688415527344 2.7374095916748046875 2.2699685096740722656 2.1463212966918945313 2.3831973075866699219 2.2220003604888916016 2.6893811225891113281 2.1415777206420898438 2.2377710342407226563 2.5222823619842529297 2.7424027919769287109 2.6010036468505859375 2.180042266845703125 2.8622567653656005859 2.15316009521484375 2.8706068992614746094 2.6624057292938232422 2.6398510932922363281 2.7768962383270263672 3.4124932289123535156 3.8218505382537841797 3.959842681884765625 4.0256829261779785156 3.8008000850677490234 3.6168975830078125 3.5471193790435791016 2.7206716537475585938 3.358562469482421875 2.2337660789489746094 2.2800922393798828125 2.9505052566528320313 1.6702202558517456055 1.8163135051727294922 1.8124564886093139648 1.5498147010803222656 2.1071157455444335938 1.4174023866653442383 1.8080834150314331055 1.0900274515151977539 1.0426769256591796875 1.2151643037796020508 1.1140697002410888672 1.3006013631820678711 1.1796827316284179688 1.237389683723449707 1.2107757329940795898 1.3718616962432861328 1.2128256559371948242 1.4661992788314819336 1.5453020334243774414 1.6059710979461669922 1.7297157049179077148 1.2200696468353271484 1.5319555997848510742 1.4273678064346313477 1.663829803466796875 1.2094979286193847656 1.33045196533203125 1.345110774040222168 1.544971466064453125 1.5834906101226806641 1.3566129207611083984 1.4017280340194702148 1.4771053791046142578 1 1.069588780403137207 1.2988823652267456055 1.4156584739685058594 1.374203801155090332 1.109827876091003418 1.4542548656463623047 1.2979589700698852539 1.0312649011611938477 1.1846617460250854492 1.500508427619934082 1.0972056388854980469 1 1.3789119720458984375 1.2879835367202758789 2.3489139080047607422 2.1827113628387451172 1.6083569526672363281 1.571305394172668457 1.5572086572647094727 1.4927396774291992188 1.3245816230773925781 
1.6468344926834106445 2.0850415229797363281 2.2544434070587158203 2.0772707462310791016 2.239734649658203125 3.008007049560546875 2.5988559722900390625 2.6138908863067626953 2.3614683151245117188 2.2514336109161376953 2.8215565681457519531 2.7438073158264160156 2.864948272705078125 3.3372919559478759766 2.9589369297027587891 3.3307967185974121094 2.8083736896514892578 2.6513104438781738281 2.4141433238983154297 3.2834033966064453125 2.6223950386047363281 1.7727614641189575195 1.8251392841339111328 1.8966544866561889648 1.6416566371917724609 1.7275711297988891602 1.9368671178817749023 1.8195612430572509766 1.6898223161697387695 1.1723984479904174805 1.4578326940536499023 1.7448458671569824219 1.5424033403396606445 1.3762365579605102539 1.5929796695709228516 1.5729919672012329102 1.4571020603179931641 1.8715581893920898438 1.46002960205078125 1.4563921689987182617 1.5469865798950195313 1.7256884574890136719 1.6937050819396972656 1.5252438783645629883 1.8095204830169677734 1.4635149240493774414 1.7754242420196533203 2.6790437698364257813 2.2597985267639160156 2.6996717453002929688 3.5548527240753173828 2.4831476211547851563 2.2726304531097412109 2.3857824802398681641 2.523044586181640625 3.7116131782531738281 3.5877850055694580078 2.8802139759063720703 2.7027881145477294922 4.0780286788940429688 3.0909473896026611328 3.3005044460296630859 4.3540730476379394531 3.0010206699371337891 3.037670135498046875 3.9565412998199462891 2.9100034236907958984 3.6640682220458984375 2.621852874755859375 2.9590675830841064453 2.8584465980529785156 3.0572342872619628906 2.9789383411407470703 3.0014138221740722656 2.4098577499389648438 2.5514957904815673828 2.5286388397216796875 2.1055316925048828125 2.6361494064331054688 2.4195654392242431641 2.1330046653747558594 1.8381741046905517578 2.4260041713714599609 2.2729883193969726563 3.0093643665313720703 2.5012300014495849609 2.8625328540802001953 2.3774673938751220703 1.8722666501998901367 1.9166551828384399414 1.6534361839294433594 1.7881432771682739258 1.6928267478942871094 1.8771874904632568359 1.5841886997222900391 1.6900779008865356445 1.7416706085205078125 2.0831916332244873047 1.1751904487609863281 1.5358392000198364258 1.1026357412338256836 1.209357142448425293 2.2886962890625 1.3302494287490844727 1.9764839410781860352 1.2430732250213623047 1.0052821636199951172 1.0186227560043334961 1.256195068359375 1.0093710422515869141 1.7076590061187744141 1.4214454889297485352 1.903278350830078125 1.9503383636474609375 2.1176977157592773438 2.4479339122772216797 2.4244678020477294922 2.64923095703125 2.7429232597351074219 2.5471155643463134766 2.3546435832977294922 2.4201288223266601563 2.9626939296722412109 1.9210962057113647461 2.0899245738983154297 2.7971236705780029297 1.7442296743392944336 2.1469559669494628906 2.8196997642517089844 3.6214709281921386719 3.6759080886840820313 3.1025176048278808594 3.2944278717041015625 3.9811031818389892578 3.4662990570068359375 4.9711675643920898438 3.8134706020355224609 3.8283112049102783203 3.1412117481231689453 2.6160304546356201172 2.3995416164398193359 3.2363729476928710938 2.4974961280822753906 2.6140789985656738281 2.9804816246032714844 2.2387058734893798828 1.8702425956726074219 1.717131495475769043 1.4455208778381347656 1.6759964227676391602 1.953007817268371582 1.3537935018539428711 1.1301510334014892578 1.1432541608810424805 1.4123475551605224609 1 1.0669404268264770508 1.2487084865570068359 1.3574838638305664063 1.1920114755630493164 1.221197962760925293 1.144166111946105957 1.1679383516311645508 1.2593282461166381836 1.360680699348449707 1.4104207754135131836 1.453327178955078125 1.4743599891662597656 1.3143582344055175781 1.6326107978820800781 1.7394303083419799805 1.2284542322158813477 1.3267418146133422852 1.5389668941497802734 1.3058438301086425781 1.2310123443603515625 1.3721877336502075195 1.1525564193725585938 1.0412725210189819336 1.0378334522247314453 1.3944437503814697266 1.0066977739334106445 1.025902867317199707 1.7769035100936889648 1.1352876424789428711 1.3872495889663696289 1.4560565948486328125 1.4460045099258422852 1.0945873260498046875 1.0451980829238891602 1.1754175424575805664 1.0507166385650634766 1.7028657197952270508 1.5936441421508789063 1.4691487550735473633 1.9813712835311889648 1.5684821605682373047 1.6878752708435058594 1.1625936031341552734 1.6260168552398681641 
1.9003036022186279297 1.953606724739074707 1.8516975641250610352 2.1392605304718017578 2.5653488636016845703 2.794544219970703125 2.3553249835968017578 2.1190094947814941406 2.0644171237945556641 2.4480974674224853516 2.7695901393890380859 2.9709737300872802734 3.0984196662902832031 3.5595979690551757813 3.1701002120971679688 3.3569693565368652344 3.5082287788391113281 3.0811402797698974609 2.7387280464172363281 2.3038537502288818359 2.5650470256805419922 2.0936686992645263672 2.4967908859252929688 1.9321494102478027344 2.2155246734619140625 1.7737239599227905273 1.2357269525527954102 1.3116570711135864258 1.5753616094589233398 1.4265102148056030273 1.5070627927780151367 1.6880382299423217773 1.1463752985000610352 1.2315943241119384766 1.154183506965637207 1.4000281095504760742 1.1338303089141845703 1.3319909572601318359 1.3954036235809326172 1.2406988143920898438 1.4212560653686523438 1.2840849161148071289 1.4504053592681884766 1.2620846033096313477 1.5177413225173950195 1.8894268274307250977 2.1880629062652587891 2.1769516468048095703 2.3074293136596679688 2.676540374755859375 2.5268652439117431641 2.4553012847900390625 3.9502079486846923828 3.0406658649444580078 2.3148014545440673828 2.3706951141357421875 2.929035186767578125 2.6378459930419921875 3.0232174396514892578 3.3826277256011962891 4.1076021194458007813 3.6848733425140380859 4.0369257926940917969 4.2538933753967285156 2.9974365234375 3.3935756683349609375 4.406154632568359375 3.7778093814849853516 2.9361078739166259766 3.0199139118194580078 3.0336596965789794922 3.2525186538696289063 2.7341310977935791016 2.92507171630859375 2.8245787620544433594 3.0065062046051025391 3.8806767463684082031 2.7041099071502685547 2.697856903076171875 2.6307909488677978516 2.8667812347412109375 2.4443640708923339844 1.773746490478515625 2.6733899116516113281 2.8770270347595214844 2.4623360633850097656 3.015460968017578125 2.335277557373046875 2.6476297378540039063 1.9854351282119750977 1.229862213134765625 1.4333755970001220703 1.5454125404357910156 1.6151854991912841797 2.505886077880859375 1.7502988576889038086 1.3220659494400024414 1.4953446388244628906 1.4094041585922241211 2.2532560825347900391 1.7837417125701904297 1.569195866584777832 1.6149344444274902344 1.2245111465454101563 2.0009925365447998047 1.5962781906127929688 1.0696064233779907227 1.425742030143737793 1.5757690668106079102 1.9998613595962524414 1.4803205728530883789 1.7130767107009887695 1.8411965370178222656 2.3356709480285644531 2.1015632152557373047 2.2686665058135986328 2.6711394786834716797 2.3914771080017089844 2.2141871452331542969 2.2213683128356933594 2.3068273067474365234 2.2022409439086914063 2.5836911201477050781 2.0822756290435791016 1.913363337516784668 2.3106467723846435547 2.2439043521881103516 2.1201887130737304688 2.7072269916534423828 2.8517644405364990234 2.9413735866546630859 2.9243857860565185547 4.219470977783203125 3.4408960342407226563 4.0585765838623046875 4.073322296142578125 3.9614911079406738281 3.5429139137268066406 2.691791534423828125 2.3444888591766357422 2.2592868804931640625 2.6474554538726806641 2.6594753265380859375 2.0110261440277099609 1.9324421882629394531 3.4736475944519042969 1.9843518733978271484 2.2835242748260498047 1.8294626474380493164 2.4371628761291503906 1.4948047399520874023 1.1239447593688964844 1.3750401735305786133 1.1855026483535766602 1.5297170877456665039 1.0013161897659301758 1.0755789279937744141 1.195940852165222168 1.362110137939453125 1.2919421195983886719 1.5189777612686157227 1.2625521421432495117 1.209395289421081543 1.7064335346221923828 1.3102886676788330078 1.2772735357284545898 1.3525662422180175781 1.4218903779983520508 1.5999090671539306641 1.280691981315612793 1.2814918756484985352 1.6888217926025390625 1.3907641172409057617 1.3890790939331054688 1.4229156970977783203 1.5661374330520629883 1 1.3337314128875732422 1.2678915262222290039 1.2630019187927246094 1.1275188922882080078 1.8410717248916625977 1 1.0516999959945678711 1.4926968812942504883 1.2422667741775512695 1.5908060073852539063 1.381328582763671875 2.0219502449035644531 1.2345976829528808594 1.0727736949920654297 1 1.3622728586196899414 1.5545364618301391602 1.5014499425888061523 1.8252193927764892578 2.1422855854034423828 1.569865107536315918 1.2899271249771118164 1.3660552501678466797 
1.9367909431457519531 1.6669446229934692383 2.0868887901306152344 1.7983245849609375 2.1809086799621582031 2.0601582527160644531 2.0808327198028564453 2.5245058536529541016 2.8370835781097412109 2.0883505344390869141 2.7598402500152587891 2.3840310573577880859 3.078823089599609375 3.4631667137145996094 3.4480178356170654297 3.1347687244415283203 3.0623559951782226563 3.1091883182525634766 2.8535151481628417969 2.2983746528625488281 2.7506444454193115234 2.3370499610900878906 2.3150703907012939453 1.8436315059661865234 2.3741486072540283203 1.7554014921188354492 1.3235641717910766602 1.5059467554092407227 1.191495060920715332 1.6865522861480712891 1.7592977285385131836 1.4606708288192749023 1.2634049654006958008 1.3404605388641357422 1.0677726268768310547 1.4136919975280761719 1.3821197748184204102 1.5804338455200195313 1.3058484792709350586 1.6757255792617797852 1.5214495658874511719 1.4161210060119628906 1.5417683124542236328 1.4670370817184448242 1.6423308849334716797 1.6934111118316650391 2.0779197216033935547 3.0264019966125488281 2.6245303153991699219 2.9631049633026123047 3.5479266643524169922 3.7786507606506347656 2.7121951580047607422 2.7616217136383056641 3.9607613086700439453 3.6550264358520507813 2.4972651004791259766 3.2527623176574707031 2.8865966796875 3.0807635784149169922 4.2955980300903320313 3.6524629592895507813 2.9817779064178466797 2.8695199489593505859 2.7008371353149414063 2.8271694183349609375 2.9833827018737792969 2.9642643928527832031 2.4159715175628662109 2.8683009147644042969 2.6971347332000732422 2.9017679691314697266 2.8102209568023681641 2.9517672061920166016 2.8861820697784423828 2.9792723655700683594 2.8813524246215820313 2.9770464897155761719 2.9914009571075439453 2.7003633975982666016 2.4151196479797363281 2.0873765945434570313 2.62985992431640625 2.775173187255859375 2.9826490879058837891 3.0312926769256591797 3.3976466655731201172 3.1121315956115722656 2.6418840885162353516 2.3918120861053466797 1.9589912891387939453 1.9124786853790283203 1.9077397584915161133 1.7048560380935668945 1.8824330568313598633 1.7132043838500976563 1.8348942995071411133 1.6881116628646850586 2.3658466339111328125 2.3211069107055664063 1.7062084674835205078 1.6860289573669433594 1.8479223251342773438 1.9249823093414306641 1.9632592201232910156 1.3397498130798339844 1.5563026666641235352 1 1.1445853710174560547 1.3498506546020507813 1.5306904315948486328 2.4734466075897216797 1.8060437440872192383 2.0430023670196533203 2.3683197498321533203 2.6199851036071777344 2.2198984622955322266 2.7418425083160400391 1.9684417247772216797 2.4630098342895507813 2.5042276382446289063 2.0511121749877929688 2.2216944694519042969 1.9348938465118408203 2.5499403476715087891 2.716335296630859375 2.136608123779296875 2.2809436321258544922 2.3295624256134033203 2.8479321002960205078 3.2609529495239257813 3.1138770580291748047 3.2568938732147216797 3.2016847133636474609 3.2024514675140380859 3.7748036384582519531 3.4182221889495849609 2.8460109233856201172 2.7711865901947021484 2.4704287052154541016 3.4020619392395019531 2.1234104633331298828 2.4683635234832763672 1.9596197605133056641 2.2275364398956298828 2.0185527801513671875 2.2201547622680664063 1.6686375141143798828 1.7490227222442626953 1.5431916713714599609 1.3831979036331176758 1.4276024103164672852 1.2612206935882568359 1.1309589147567749023 1.8202687501907348633 1.0090309381484985352 1.5518124103546142578 1.8649040460586547852 1.4570213556289672852 1.2518540620803833008 1.7255418300628662109 1.6214926242828369141 1.2489583492279052734 1.2102969884872436523 1.2921626567840576172 1.464572906494140625 1.4709700345993041992 1.3226339817047119141 1.7217718362808227539 1.5864558219909667969 1.5584291219711303711 1.4406621456146240234 1.5132441520690917969 1.2843517065048217773 1.3562835454940795898 2.0134892463684082031 1 2.3489897251129150391 1.1318032741546630859 1 1 1.6182149648666381836 1.5649061203002929688 1 1.6133788824081420898 1.1747595071792602539 1.5329735279083251953 1.5616728067398071289 1.46160125732421875 1.0472239255905151367 1.0836777687072753906 1 1.1540282964706420898 1.7218801975250244141 1.8498243093490600586 1.7799284458160400391 1.4176738262176513672 1.4724171161651611328 1.6508861780166625977 1.4630875587463378906 
2.3945410251617431641 2.1738235950469970703 2.1442983150482177734 2.8445367813110351563 2.2217016220092773438 2.5071861743927001953 2.6368203163146972656 2.523685455322265625 2.3893113136291503906 2.4251451492309570313 2.8441653251647949219 2.8634393215179443359 3.3689293861389160156 3.4590547084808349609 3.4567446708679199219 3.4171340465545654297 3.5369229316711425781 3.0688707828521728516 2.7406659126281738281 2.9624032974243164063 2.1377620697021484375 2.6951794624328613281 1.8825383186340332031 2.36406707763671875 1.707916259765625 1.8425710201263427734 1.4539409875869750977 1.4559605121612548828 1.2026801109313964844 1.1661084890365600586 1.7629761695861816406 1.32993316650390625 1.5924582481384277344 1.257048487663269043 1.3882944583892822266 1.3567440509796142578 1.5019576549530029297 1.5146671533584594727 1.4933526515960693359 1.4332715272903442383 1.5242314338684082031 1.4495663642883300781 1.8321765661239624023 2.0011448860168457031 1.6773827075958251953 1.8606760501861572266 2.1132435798645019531 2.0177197456359863281 3.2114632129669189453 2.1409304141998291016 2.3321435451507568359 3.3178269863128662109 4.0740613937377929688 2.5711474418640136719 4.2854709625244140625 2.9441139698028564453 3.0871098041534423828 2.8304932117462158203 3.7324223518371582031 3.0582036972045898438 6.3733644485473632813 3.0563454627990722656 4.4647421836853027344 2.7194516658782958984 2.4823760986328125 2.7220883369445800781 2.4543194770812988281 2.6693265438079833984 2.637767791748046875 2.8517289161682128906 4.2499456405639648438 3.0373382568359375 3.0358822345733642578 2.5888171195983886719 2.5544154644012451172 2.7635853290557861328 2.9638807773590087891 3.4991605281829833984 2.8154313564300537109 3.2405936717987060547 3.0013277530670166016 2.4311318397521972656 2.448764801025390625 2.7635397911071777344 3.0977356433868408203 2.9262173175811767578 2.9865334033966064453 2.3554799556732177734 3.1913406848907470703 2.4163625240325927734 1.9476014375686645508 2.3598480224609375 2.0919492244720458984 1.9629143476486206055 1.6309485435485839844 1.7683728933334350586 1.8956792354583740234 1.8788725137710571289 1.6380047798156738281 2.12068939208984375 2.4389660358428955078 2.0556111335754394531 1.6256750822067260742 1.7413486242294311523 1.7746573686599731445 1.4849847555160522461 1.1665973663330078125 1.5950605869293212891 1.7383644580841064453 1.0575900077819824219 1.7125504016876220703 1.8244065046310424805 2.4042444229125976563 2.4001817703247070313 2.2279875278472900391 2.4265604019165039063 2.0359911918640136719 2.8583579063415527344 2.6388332843780517578 3.0728707313537597656 3.1393220424652099609 2.6829504966735839844 2.2159912586212158203 2.2021305561065673828 2.5358664989471435547 2.2737903594970703125 2.2756659984588623047 2.2371072769165039063 2.2583599090576171875 2.1265246868133544922 2.42208099365234375 2.8409111499786376953 3.9536261558532714844 3.0335924625396728516 2.7589497566223144531 3.2406179904937744141 3.2939970493316650391 2.7704269886016845703 2.6747560501098632813 2.77812957763671875 2.0049960613250732422 2.3588030338287353516 1.783344268798828125 1.645806431770324707 2.3286709785461425781 1.984640955924987793 2.5691931247711181641 1.7131731510162353516 2.6841328144073486328 1.2296053171157836914 1.150669097900390625 1.2072046995162963867 1.1105706691741943359 1.12872314453125 1.4769645929336547852 2.3193516731262207031 1.6453332901000976563 2.5420687198638916016 1.6025519371032714844 1.2609750032424926758 1.6782625913619995117 1.6500393152236938477 1.6061451435089111328 1.4203839302062988281 1.267994999885559082 1.3036410808563232422 1.3843330144882202148 1.2597185373306274414 1.3113785982131958008 1.3328533172607421875 1.3240932226181030273 1.2637014389038085938 1.5280083417892456055 1.2780137062072753906 1.1116849184036254883 1.7203813791275024414 1.2619179487228393555 1.1391742229461669922 1.140282750129699707 1.0474408864974975586 1.5081574916839599609 1.0877829790115356445 1 1.272520899772644043 1.1292531490325927734 1.2241563796997070313 1.0079038143157958984 1.1185674667358398438 1.2599625587463378906 1.0694462060928344727 1.5580592155456542969 1.2205262184143066406 1.4264389276504516602 1.6490638256072998047 2.8103883266448974609 2.5513184070587158203 2.2185797691345214844 1.9823464155197143555 2.3998308181762695313 1.2498793601989746094 
1.9304219484329223633 2.2583696842193603516 2.0941567420959472656 2.1245491504669189453 2.5604269504547119141 2.5724718570709228516 2.5277030467987060547 2.8342769145965576172 2.8792097568511962891 2.7465524673461914063 3.4439153671264648438 3.2263810634613037109 3.3359427452087402344 2.9863941669464111328 2.9231159687042236328 2.8544249534606933594 3.0014045238494873047 2.8830816745758056641 2.6915962696075439453 2.5577852725982666016 2.7046768665313720703 2.3987030982971191406 2.2895388603210449219 1.7182592153549194336 2.32408905029296875 2.0374376773834228516 1.8395487070083618164 1.4916737079620361328 1.3871632814407348633 1.2843997478485107422 1.7354298830032348633 1.9539979696273803711 1.6488153934478759766 1.5104882717132568359 1.3192523717880249023 1.7464039325714111328 1.3606102466583251953 1.2403187751770019531 1.466797947883605957 1.4439204931259155273 1.6244800090789794922 1.5921773910522460938 1.9173417091369628906 2.1629080772399902344 2.0877158641815185547 1.9329355955123901367 2.6247491836547851563 3.1453022956848144531 3.5547595024108886719 3.31327056884765625 3.9261174201965332031 2.7911145687103271484 2.5228343009948730469 2.5192036628723144531 2.9322917461395263672 4.8164801597595214844 2.8681852817535400391 2.9183762073516845703 4.9632945060729980469 3.5821313858032226563 3.7606742382049560547 4.3448457717895507813 3.1710796356201171875 2.7591540813446044922 2.3331484794616699219 3.1296660900115966797 2.4114942550659179688 2.7486896514892578125 2.1657199859619140625 3.0463759899139404297 3.2039470672607421875 2.9776985645294189453 3.4602510929107666016 2.8852248191833496094 3.0996751785278320313 2.8282740116119384766 2.4578044414520263672 3.0031976699829101563 3.4385051727294921875 3.4264018535614013672 3.0915796756744384766 2.4711937904357910156 2.02198028564453125 2.4840307235717773438 2.6716945171356201172 3.0288360118865966797 2.6334028244018554688 2.5424928665161132813 2.7001767158508300781 2.369720458984375 2.7894728183746337891 2.1834726333618164063 2.6129403114318847656 2.3487181663513183594 2.1674809455871582031 1.9834461212158203125 1.5612105131149291992 1.6631708145141601563 1.5956737995147705078 2.0403223037719726563 1.7576074600219726563 1.591280817985534668 1.4865494966506958008 1.8721332550048828125 1.8202778100967407227 1.628872990608215332 1.9185588359832763672 2.2086689472198486328 1.9533245563507080078 2.1430115699768066406 1.7242542505264282227 2.1793580055236816406 2.2007317543029785156 1.8223961591720581055 1.9983608722686767578 2.5535511970520019531 3.0028424263000488281 2.6328198909759521484 3.1259143352508544922 3.0596399307250976563 2.2442657947540283203 1.9368697404861450195 2.5229730606079101563 2.2236170768737792969 2.7415153980255126953 2.0900552272796630859 3.1866555213928222656 2.3474068641662597656 2.4394986629486083984 2.9481551647186279297 2.5860815048217773438 2.8507938385009765625 2.3948469161987304688 2.9291579723358154297 2.6774892807006835938 3.2066330909729003906 3.5795450210571289063 2.9366803169250488281 2.3995015621185302734 2.8726568222045898438 2.0932252407073974609 2.7918734550476074219 2.0845315456390380859 2.1569240093231201172 2.5909075736999511719 2.6617388725280761719 2.3217206001281738281 2.6551737785339355469 1.1123535633087158203 1.093609929084777832 1.2213625907897949219 1.2228561639785766602 1.3600118160247802734 1 1.5063904523849487305 1.8838437795639038086 1.7542948722839355469 1.7362107038497924805 1.8031507730484008789 1.1076178550720214844 1.300662994384765625 1.6173387765884399414 1.8698735237121582031 1.6740326881408691406 1.2577478885650634766 1.3399397134780883789 1.2730060815811157227 1.0216430425643920898 1.1545417308807373047 1.1607222557067871094 1.1101174354553222656 2.1534404754638671875 1.2761909961700439453 1.4754862785339355469 1.8236535787582397461 1.1269917488098144531 1.2189635038375854492 1.3858560323715209961 1.409108281135559082 1.4054428339004516602 1.4381185770034790039 1.2623139619827270508 1.2091251611709594727 1.3785179853439331055 1.1970199346542358398 1 1.1587585210800170898 1.1272952556610107422 1.3191858530044555664 1.067128300666809082 1.2641110420227050781 1.3325428962707519531 1.4901274442672729492 1.8979321718215942383 1.8907607793807983398 2.2347872257232666016 1.8948369026184082031 2.040348052978515625 1.5556688308715820313 1.6348485946655273438 
2.3205194473266601563 1.9496589899063110352 2.6431396007537841797 2.2190570831298828125 3.1014204025268554688 2.5250265598297119141 2.72603607177734375 2.4611372947692871094 2.4566476345062255859 2.7990851402282714844 3.3922133445739746094 3.6109347343444824219 3.8595807552337646484 3.2226192951202392578 2.9116163253784179688 2.78806304931640625 2.8883960247039794922 2.6881654262542724609 2.9686734676361083984 2.9349911212921142578 2.3991653919219970703 2.7028024196624755859 2.5010061264038085938 2.2620706558227539063 2.0484590530395507813 2.0828785896301269531 1.5166721343994140625 1.7853569984436035156 1.4938477277755737305 1.5146491527557373047 1.7102929353713989258 2.1325469017028808594 1.6892961263656616211 1.8349769115447998047 1.4964469671249389648 1.5077714920043945313 1.4741127490997314453 1.5925325155258178711 1.3902175426483154297 1.5007899999618530273 1.5298955440521240234 1.7775404453277587891 1.6778428554534912109 1.8194588422775268555 2.055973052978515625 2.3234589099884033203 2.4153029918670654297 2.035251617431640625 3.6713962554931640625 3.0379242897033691406 1.6183917522430419922 2.5016398429870605469 2.7542290687561035156 2.7830550670623779297 4.2016472816467285156 3.2515647411346435547 4.7104034423828125 3.0683171749114990234 3.4882464408874511719 5.0940012931823730469 3.0199217796325683594 2.9287064075469970703 2.9615578651428222656 3.6370728015899658203 2.5411627292633056641 2.3518691062927246094 2.2924301624298095703 2.3734645843505859375 2.5832448005676269531 2.8942360877990722656 3.1917951107025146484 3.5379264354705810547 3.2569434642791748047 3.1898341178894042969 2.9657914638519287109 2.563106536865234375 2.7072894573211669922 3.0290217399597167969 3.1972963809967041016 3.4050157070159912109 2.9887850284576416016 2.2351503372192382813 2.5543375015258789063 2.6965680122375488281 2.9090890884399414063 3.4717583656311035156 2.9377114772796630859 2.7542622089385986328 3.4970812797546386719 2.9356362819671630859 2.9621207714080810547 2.7453932762145996094 2.7725408077239990234 2.1666748523712158203 2.4531545639038085938 2.7213945388793945313 1.5944430828094482422 2.0382986068725585938 1.7322849035263061523 1.985248565673828125 1.7646489143371582031 2.3078565597534179688 1.3624558448791503906 1.8038200139999389648 1.3908789157867431641 1.6803406476974487305 1.5401937961578369141 1.6574236154556274414 2.5943830013275146484 2.0516440868377685547 2.7304749488830566406 2.2819943428039550781 1.8845237493515014648 2.0449864864349365234 2.1841580867767333984 2.4116609096527099609 2.8403301239013671875 2.5558617115020751953 2.6592485904693603516 2.5382394790649414063 2.9521107673645019531 2.707973480224609375 2.9237391948699951172 2.6248936653137207031 2.6337282657623291016 2.1618058681488037109 2.45587921142578125 2.5270214080810546875 2.0920169353485107422 2.0347383022308349609 2.0720827579498291016 2.3474965095520019531 1.9472298622131347656 2.1801345348358154297 2.3256871700286865234 3.2018578052520751953 3.3640923500061035156 2.4405391216278076172 3.4264807701110839844 2.5770025253295898438 3.1374413967132568359 1.916217803955078125 2.1789848804473876953 2.3668980598449707031 2.1651985645294189453 2.2831065654754638672 2.4390265941619873047 2.51811981201171875 2.0878822803497314453 1.2087459564208984375 1.1926348209381103516 1.0936940908432006836 1.1516288518905639648 2.2977023124694824219 1.812147974967956543 1.8710505962371826172 1.7386162281036376953 1.7462391853332519531 1.8287448883056640625 1.2352354526519775391 1.2633490562438964844 1.3943285942077636719 1.7812203168869018555 1.258101344108581543 1.3213727474212646484 1.3757610321044921875 1.4480468034744262695 1.1825108528137207031 1 1 1.1836949586868286133 1.1619827747344970703 1.1393679380416870117 1.5147920846939086914 1.8167437314987182617 1.5047450065612792969 1.6162801980972290039 2.4254975318908691406 1.6322034597396850586 1.0580267906188964844 1 1.2199953794479370117 1.53948974609375 1.4939010143280029297 1.3627245426177978516 1.3873870372772216797 1.220057368278503418 1.4066998958587646484 1.5734082460403442383 1.5994846820831298828 1.3511080741882324219 1.7895525693893432617 1.7817529439926147461 1.9603136777877807617 1.8586210012435913086 2.299304962158203125 2.0752205848693847656 1.8013350963592529297 1.6074942350387573242 1.4439518451690673828 
2.0071194171905517578 1.6512392759323120117 2.4315276145935058594 2.3882958889007568359 2.400821685791015625 2.8094875812530517578 2.7628381252288818359 2.5094940662384033203 2.4649269580841064453 3.5488791465759277344 3.0798056125640869141 3.1817779541015625 3.4009468555450439453 3.5799338817596435547 3.1265587806701660156 3.0042181015014648438 2.8509995937347412109 2.8329560756683349609 2.9862158298492431641 2.9338967800140380859 2.4637100696563720703 2.7401168346405029297 2.8601319789886474609 2.2123320102691650391 2.5469961166381835938 1.7434231042861938477 2.0644519329071044922 1.7694375514984130859 2.1377959251403808594 1.6746973991394042969 2.5154287815093994141 1.7775709629058837891 1.8160202503204345703 1.9512712955474853516 1.5899691581726074219 1.7487145662307739258 1.5632331371307373047 1.7522072792053222656 1.8174661397933959961 1.3632444143295288086 1.8067415952682495117 1.4604327678680419922 1.640232086181640625 2.0073587894439697266 2.0866701602935791016 2.1516435146331787109 2.0395188331604003906 2.2546529769897460938 2.772716522216796875 3.2586138248443603516 1.9280078411102294922 2.2161958217620849609 2.8249087333679199219 5.70124053955078125 4.0936560630798339844 2.9667177200317382813 5.406497955322265625 3.9699459075927734375 3.4405364990234375 3.8325242996215820313 2.6393516063690185547 3.1555535793304443359 3.0519495010375976563 2.5011413097381591797 2.4772274494171142578 2.3581845760345458984 2.4086568355560302734 2.2208096981048583984 2.9871070384979248047 2.7611382007598876953 2.493343353271484375 2.9076290130615234375 3.3031840324401855469 3.5990569591522216797 2.7234966754913330078 3.5378077030181884766 3.2727494239807128906 2.9794712066650390625 3.3389301300048828125 2.9492692947387695313 3.1234354972839355469 2.4869477748870849609 2.2945799827575683594 2.2703120708465576172 2.9642229080200195313 3.119800567626953125 2.7853119373321533203 3.3500924110412597656 3.162494659423828125 3.2999794483184814453 3.1751644611358642578 3.1508872509002685547 2.4798331260681152344 2.4914605617523193359 2.2649321556091308594 2.1217033863067626953 1.9728394746780395508 2.3551394939422607422 2.0480656623840332031 1.7936218976974487305 2.2882263660430908203 2.0763103961944580078 2.5108850002288818359 1.2449244260787963867 2.0841569900512695313 1.6290718317031860352 1.8891814947128295898 1.7657215595245361328 2.0527429580688476563 1.8909124135971069336 2.1795554161071777344 2.2562220096588134766 1.7811954021453857422 2.0862360000610351563 2.1466207504272460938 2.2795839309692382813 2.7846546173095703125 2.6753337383270263672 2.9398927688598632813 2.5755264759063720703 2.933132171630859375 3.2285377979278564453 3.1589651107788085938 2.9274013042449951172 2.9494235515594482422 2.3121163845062255859 2.3205242156982421875 2.1641552448272705078 2.0095882415771484375 2.1465017795562744141 1.8177192211151123047 2.2920765876770019531 2.3639349937438964844 1.9396073818206787109 2.1853811740875244141 2.6480226516723632813 2.3385043144226074219 3.1819112300872802734 3.2940664291381835938 4.017913818359375 2.8975710868835449219 2.3083515167236328125 2.50809478759765625 2.2300722599029541016 2.3180041313171386719 2.7624614238739013672 3.0303494930267333984 1.4393215179443359375 2.0612406730651855469 1.2584906816482543945 1.3655220270156860352 1.1997227668762207031 1.2434720993041992188 1.4178185462951660156 1.7323386669158935547 1.5655938386917114258 2.0093853473663330078 1.5936678647994995117 1.4641579389572143555 1.5543041229248046875 1.4051744937896728516 1.3670667409896850586 1.4106994867324829102 1.2765038013458251953 1.1919519901275634766 1.3009778261184692383 1.2503453493118286133 1.4610716104507446289 1.1199398040771484375 1.1017297506332397461 1.0205215215682983398 1.3552672863006591797 1.3764483928680419922 1.4803719520568847656 1.8352603912353515625 1.5475842952728271484 1.9542241096496582031 1.5496854782104492188 1.2490824460983276367 1.1321060657501220703 1.1912705898284912109 1.5894538164138793945 1.4853082895278930664 1.6659088134765625 1.6189305782318115234 1.1965861320495605469 1.4828599691390991211 1.3145806789398193359 1.7363318204879760742 2.0228853225708007813 1.285887598991394043 1.6218448877334594727 1.5500621795654296875 1.6951568126678466797 2.20594024658203125 2.0485715866088867188 2.6241886615753173828 1.9809709787368774414 1.5568015575408935547 1.3928741216659545898 
1.7499704360961914063 2.1748900413513183594 1.8095161914825439453 2.3882272243499755859 2.147037506103515625 2.4735851287841796875 2.5704596042633056641 2.5234019756317138672 2.5321054458618164063 2.4057993888854980469 3.2074708938598632813 3.3688628673553466797 2.8196308612823486328 3.0976643562316894531 3.3422493934631347656 3.3841123580932617188 3.2031044960021972656 3.1920998096466064453 2.7971074581146240234 2.7171754837036132813 2.3659026622772216797 2.4702651500701904297 2.6110503673553466797 2.2524631023406982422 2.7211968898773193359 1.8263684511184692383 1.5399258136749267578 2.0687530040740966797 1.988114476203918457 2.029327392578125 1.9435334205627441406 2.1821777820587158203 2.4572031497955322266 2.3575208187103271484 1.6745445728302001953 1.7517020702362060547 1.5538476705551147461 2.0067074298858642578 1.7840710878372192383 1.8735114336013793945 1.6281167268753051758 1.6250061988830566406 2.0494952201843261719 1.547471165657043457 2.2162110805511474609 1.8062896728515625 2.4157042503356933594 2.0766825675964355469 2.5522353649139404297 1.8939505815505981445 2.5894544124603271484 2.0410380363464355469 3.1690709590911865234 2.7623732089996337891 2.4137377738952636719 2.2505846023559570313 2.1965553760528564453 2.6425328254699707031 2.8955998420715332031 2.7230813503265380859 3.8760268688201904297 3.3038830757141113281 2.7883176803588867188 2.7185947895050048828 2.8154313564300537109 2.6449530124664306641 2.1177103519439697266 2.4846158027648925781 2.7638840675354003906 2.7879657745361328125 2.9178860187530517578 3.6573574542999267578 3.0637004375457763672 4.2172656059265136719 3.4628698825836181641 3.5248968601226806641 3.6010072231292724609 3.1465189456939697266 3.3186650276184082031 3.0152850151062011719 3.2161946296691894531 2.6427910327911376953 2.8010461330413818359 2.370754241943359375 3.1754405498504638672 2.8875820636749267578 3.0753748416900634766 3.6038124561309814453 2.9356386661529541016 2.8466570377349853516 2.8476119041442871094 2.9755904674530029297 2.3642358779907226563 2.2013535499572753906 1.9057629108428955078 2.1525168418884277344 2.0388708114624023438 1.9643900394439697266 2.2377820014953613281 2.2848527431488037109 2.3637840747833251953 1.752039790153503418 2.2485983371734619141 1.5205403566360473633 1.7739760875701904297 2.3642425537109375 1.9310129880905151367 2.5639512538909912109 2.9427125453948974609 2.3696920871734619141 2.3228042125701904297 2.2430536746978759766 2.0915665626525878906 2.3864309787750244141 2.3286104202270507813 2.2057967185974121094 2.5485978126525878906 2.6790232658386230469 2.7757968902587890625 2.1449468135833740234 2.879016876220703125 3.1157348155975341797 2.9474079608917236328 2.7679030895233154297 2.6648645401000976563 2.4914669990539550781 1.8706235885620117188 2.4409198760986328125 2.2771413326263427734 2.7105205059051513672 2.8459379673004150391 1.8544882535934448242 2.4526991844177246094 2.0907328128814697266 2.1171851158142089844 1.9786280393600463867 2.1258099079132080078 3.0771000385284423828 3.6946942806243896484 2.1535482406616210938 2.1649844646453857422 2.0623230934143066406 3.2541327476501464844 3.92456817626953125 3.2625222206115722656 3.3513467311859130859 2.2296192646026611328 1.841479182243347168 1.8883150815963745117 1.1872975826263427734 1.2210241556167602539 1.3338242769241333008 1.7666044235229492188 1.1870164871215820313 2.3813486099243164063 1.471777796745300293 1.8149640560150146484 1.6312587261199951172 1.2486249208450317383 1.511826634407043457 1.3839113712310791016 1.4413959980010986328 1.2192231416702270508 1.3691812753677368164 1.2344926595687866211 1.1337075233459472656 1.0055619478225708008 1.0895391702651977539 1 1 1.6667804718017578125 1.1138024330139160156 1.5904918909072875977 1.6074575185775756836 1.8274602890014648438 1.8869748115539550781 1.2120835781097412109 1.0112301111221313477 1.76111602783203125 1.0439504384994506836 1.4559321403503417969 1.3889003992080688477 1.7021287679672241211 1.6077618598937988281 1.4808439016342163086 1.4427644014358520508 1.4846301078796386719 1.4846116304397583008 1.6225539445877075195 1.510609745979309082 1.5483789443969726563 1.3680064678192138672 1.6697653532028198242 1.689145207405090332 1.6354619264602661133 1.7665755748748779297 1.8940212726593017578 1.6375145912170410156 1.4710459709167480469 1.8632771968841552734 
2.5500469207763671875 2.0554282665252685547 1.8960421085357666016 2.36589813232421875 2.4430871009826660156 2.5222370624542236328 2.7379994392395019531 3.0190412998199462891 2.6207063198089599609 3.5176863670349121094 2.9382441043853759766 2.9555132389068603516 2.4791703224182128906 2.8780570030212402344 2.7008256912231445313 3.3150084018707275391 3.1067719459533691406 3.3103227615356445313 3.5476861000061035156 2.7397043704986572266 2.6521151065826416016 2.6776998043060302734 2.5360543727874755859 2.6965219974517822266 1.8185085058212280273 2.4536309242248535156 1.8986090421676635742 1.9325289726257324219 2.1781075000762939453 1.9666237831115722656 2.1525363922119140625 2.3581938743591308594 1.8577417135238647461 2.0258226394653320313 1.6236698627471923828 1.7448873519897460938 1.8879884481430053711 1.4906651973724365234 1.9472937583923339844 1.5596650838851928711 1.3395524024963378906 1.4805395603179931641 1.9641324281692504883 2.32032012939453125 1.9438903331756591797 2.4119865894317626953 3.4066827297210693359 2.1411533355712890625 2.8853580951690673828 1.9900963306427001953 1.9411345720291137695 2.7227954864501953125 1.8694856166839599609 2.2073583602905273438 2.0626816749572753906 2.5534138679504394531 1.6887297630310058594 2.4700031280517578125 2.1645720005035400391 2.6560139656066894531 2.6772599220275878906 2.3482139110565185547 2.6606698036193847656 2.6899495124816894531 3.0300164222717285156 2.9071559906005859375 2.6355943679809570313 2.7058384418487548828 2.9114906787872314453 2.8433611392974853516 3.4136528968811035156 3.1832327842712402344 3.5407891273498535156 3.6791372299194335938 3.9064390659332275391 3.7186350822448730469 4.0237164497375488281 3.8004910945892333984 3.2057123184204101563 3.4245524406433105469 3.0471465587615966797 2.8481259346008300781 2.9391095638275146484 3.2625501155853271484 3.3747627735137939453 3.0729105472564697266 3.3863086700439453125 3.4371862411499023438 3.0008122920989990234 3.0159139633178710938 2.9324748516082763672 3.6269536018371582031 2.6429080963134765625 2.1834027767181396484 2.2827842235565185547 2.0301337242126464844 2.1036896705627441406 1.8909907341003417969 2.0061628818511962891 1.9677635431289672852 2.3000292778015136719 1.7430150508880615234 2.1206817626953125 2.0424745082855224609 2.0897126197814941406 2.2313289642333984375 2.8340129852294921875 2.4965746402740478516 2.6575362682342529297 2.4702289104461669922 2.8858788013458251953 2.3107492923736572266 2.1479332447052001953 2.2845339775085449219 2.2312276363372802734 2.4599308967590332031 2.2285406589508056641 1.8604815006256103516 1.7832273244857788086 2.1185727119445800781 2.2680518627166748047 2.7168772220611572266 2.9124510288238525391 2.3977997303009033203 1.809084773063659668 2.5312511920928955078 2.0093317031860351563 2.1775612831115722656 1.9988305568695068359 2.8116240501403808594 2.7059137821197509766 2.573978424072265625 2.3080122470855712891 1.8496307134628295898 2.1922218799591064453 2.1789727210998535156 2.5801272392272949219 2.3294663429260253906 2.7125287055969238281 2.7851831912994384766 3.9521343708038330078 2.9273068904876708984 2.6692934036254882813 2.4301998615264892578 3.4445645809173583984 2.16822052001953125 1.7131814956665039063 1.5061542987823486328 1.1858301162719726563 1.3612703084945678711 1.3622788190841674805 1.2295721769332885742 1.5360900163650512695 1.4393377304077148438 1.6694958209991455078 1.3649313449859619141 1.6928790807723999023 1.2100340127944946289 1.2531352043151855469 1.564509272575378418 1.2622545957565307617 1.1812844276428222656 1.3607745170593261719 1.1595374345779418945 1.3409727811813354492 1.5173740386962890625 1.3191182613372802734 1.1367796659469604492 1.2130594253540039063 1.2471102476119995117 1.7594984769821166992 1.3167244195938110352 1.8895623683929443359 1.8056892156600952148 1.9459526538848876953 1.2959755659103393555 1.0948712825775146484 1.3412855863571166992 1.1759275197982788086 1.2521464824676513672 1.2335021495819091797 1.2759089469909667969 1.5673656463623046875 2.0863482952117919922 1.6281908750534057617 1.6515899896621704102 1.6449702978134155273 1.4861301183700561523 2.3145110607147216797 1.5914236307144165039 1.5649406909942626953 1.4365156888961791992 1.346911311149597168 1.1896990537643432617 2.2210066318511962891 1.7229822874069213867 1.342123866081237793 1.3674589395523071289 1.5282945632934570313 1.3743577003479003906 
2.3287515640258789063 1.8608090877532958984 2.6224088668823242188 2.4720935821533203125 2.88213348388671875 2.4867188930511474609 2.5472016334533691406 2.8241963386535644531 2.9195303916931152344 2.4721524715423583984 3.1897692680358886719 3.0333733558654785156 2.8621189594268798828 2.7543792724609375 2.4127686023712158203 2.6159944534301757813 2.8160045146942138672 3.5597450733184814453 3.5708231925964355469 3.4187870025634765625 2.6408822536468505859 3.0163438320159912109 3.1405320167541503906 2.3312373161315917969 1.797200322151184082 2.3196756839752197266 2.1453382968902587891 2.0078785419464111328 1.7293328046798706055 1.9225357770919799805 1.920457005500793457 1.8022203445434570313 1.663654327392578125 1.4038034677505493164 1.7586154937744140625 1.9266917705535888672 2.2175128459930419922 1.9044195413589477539 1.6337591409683227539 1.772103428840637207 1.7137223482131958008 1.8344221115112304688 1.8938922882080078125 1.7801365852355957031 1.4746664762496948242 2.1650907993316650391 2.1463549137115478516 2.0230340957641601563 1.8045386075973510742 3.0161895751953125 2.8033447265625 1.7940880060195922852 2.2233774662017822266 2.7589273452758789063 2.6080789566040039063 1.5091331005096435547 1.3318740129470825195 1.2625948190689086914 1.8870260715484619141 2.7850971221923828125 2.3673005104064941406 2.5547411441802978516 2.4480326175689697266 2.8107135295867919922 3.0502803325653076172 2.7650396823883056641 2.6523013114929199219 2.5782821178436279297 3.0128819942474365234 2.9285607337951660156 3.4061009883880615234 3.6112730503082275391 3.8802721500396728516 3.7991428375244140625 3.9043247699737548828 3.8110044002532958984 4.1242218017578125 3.2636315822601318359 3.3104078769683837891 3.2281336784362792969 2.9993078708648681641 3.4651114940643310547 2.7224047183990478516 3.1768648624420166016 3.1270844936370849609 2.7854776382446289063 3.2598555088043212891 3.1337654590606689453 2.7829294204711914063 2.5889191627502441406 2.4088170528411865234 2.5080497264862060547 2.0279519557952880859 1.8374391794204711914 2.0335814952850341797 1.8865606784820556641 2.0937137603759765625 2.28279876708984375 2.4644212722778320313 1.6938619613647460938 2.1524596214294433594 2.1367259025573730469 2.6676251888275146484 2.0368342399597167969 2.2125437259674072266 2.2279231548309326172 2.2740864753723144531 2.1823148727416992188 2.9351713657379150391 2.56076812744140625 2.9604046344757080078 2.2659711837768554688 2.3663196563720703125 2.4979696273803710938 2.2227437496185302734 1.9672348499298095703 1.9293001890182495117 2.0977697372436523438 1.4934799671173095703 1.9025785923004150391 1.6970412731170654297 2.1276316642761230469 2.2420971393585205078 2.0534119606018066406 2.0605170726776123047 2.1867275238037109375 2.5985360145568847656 2.1496095657348632813 2.5258438587188720703 2.7649209499359130859 2.8271853923797607422 2.9278593063354492188 2.3524999618530273438 2.0031952857971191406 1.9507659673690795898 2.585224151611328125 2.5555768013000488281 2.4234867095947265625 2.8482043743133544922 2.7402172088623046875 2.7161540985107421875 3.3700656890869140625 2.9062397480010986328 2.7775981426239013672 3.0082273483276367188 2.2414534091949462891 1.8771030902862548828 1.6613253355026245117 1.4689011573791503906 1.3155158758163452148 1.2674269676208496094 1.5428793430328369141 1.2301695346832275391 1.4029231071472167969 1.2402986288070678711 1.3798400163650512695 1.5276503562927246094 1.5474048852920532227 1.5849014520645141602 1.419049382209777832 1.5163465738296508789 1.6201019287109375 1.6538296937942504883 1.4917256832122802734 1.2313097715377807617 1 1.4057029485702514648 1.172253727912902832 1.0383665561676025391 1.3570032119750976563 1.3885136842727661133 1.7515884637832641602 2.0356621742248535156 1.5426276922225952148 1.6752525568008422852 1.6181844472885131836 1.2491104602813720703 1.8114987611770629883 1.4264284372329711914 1.1948382854461669922 1.1501922607421875 1.1297158002853393555 1.504506230354309082 1.6039934158325195313 1.8912301063537597656 2.0043814182281494141 2.0435564517974853516 2.0405178070068359375 1.7973052263259887695 1.6589572429656982422 1.4099292755126953125 1.9114682674407958984 1.8489056825637817383 1.3187184333801269531 1.3635549545288085938 1.2203165292739868164 1.7016125917434692383 1.0067571401596069336 1.5003782510757446289 1.6408047676086425781 
2.0974583625793457031 2.3113169670104980469 2.4999406337738037109 2.4805483818054199219 2.3951859474182128906 2.94719696044921875 2.8040156364440917969 2.8948285579681396484 2.6655466556549072266 2.8077664375305175781 2.4966192245483398438 3.3213973045349121094 2.99179840087890625 2.6380503177642822266 3.0059113502502441406 2.9201877117156982422 2.9901099205017089844 3.3349792957305908203 2.6129162311553955078 2.8153233528137207031 2.5608837604522705078 2.9069833755493164063 2.2388272285461425781 1.8396271467208862305 1.9043840169906616211 2.1737139225006103516 1.7857931852340698242 1.9857075214385986328 1.7881890535354614258 2.0814981460571289063 1.648524165153503418 1.9932880401611328125 1.4903697967529296875 1.7220975160598754883 1.5318691730499267578 1.5847777128219604492 1.7451170682907104492 1.8452630043029785156 1.6049015522003173828 1.8648456335067749023 1.805727839469909668 1.5027778148651123047 1.543851017951965332 1.5841825008392333984 1.790131688117980957 1.9440839290618896484 2.0551226139068603516 1.8339225053787231445 1.6602933406829833984 2.3013558387756347656 2.2576105594635009766 1.9079873561859130859 1.8619396686553955078 1.7366485595703125 1.6573408842086791992 1.5590932369232177734 1.5069265365600585938 1.296404719352722168 1.6363301277160644531 2.4673464298248291016 2.3890898227691650391 2.8513021469116210938 2.2273423671722412109 2.4190080165863037109 2.4602861404418945313 2.8014330863952636719 3.1472690105438232422 2.5071763992309570313 2.6004073619842529297 3.5606815814971923828 2.8792121410369873047 3.3778903484344482422 3.4176630973815917969 4.0154843330383300781 3.8009715080261230469 3.7848188877105712891 3.9104106426239013672 3.4378125667572021484 2.9381663799285888672 3.7227106094360351563 3.1550288200378417969 3.1606607437133789063 2.3584415912628173828 2.8719968795776367188 2.8269655704498291016 2.9308481216430664063 3.1814358234405517578 3.51483917236328125 3.0256826877593994141 3.0954444408416748047 2.6942095756530761719 2.5413558483123779297 2.8806462287902832031 2.3046548366546630859 2.0558905601501464844 2.2731235027313232422 2.4148564338684082031 2.1554448604583740234 2.0472047328948974609 1.9410009384155273438 1.8981248140335083008 2.3399167060852050781 2.8729445934295654297 2.356487274169921875 2.8010518550872802734 3.0117418766021728516 2.4224574565887451172 2.9860990047454833984 2.5969703197479248047 2.3221316337585449219 2.6417963504791259766 2.5051467418670654297 2.0371549129486083984 2.2337219715118408203 2.4422664642333984375 2.2405142784118652344 3.1493444442749023438 2.1800770759582519531 1.2826414108276367188 1.4709929227828979492 1.713504791259765625 1.9999294281005859375 2.2999854087829589844 2.0826742649078369141 1.9411902427673339844 2.6241092681884765625 2.353069305419921875 2.5734724998474121094 2.4441580772399902344 2.2852296829223632813 1.6867364645004272461 2.4775404930114746094 2.3318877220153808594 1.6950185298919677734 1.6238807439804077148 1.8992605209350585938 2.1660978794097900391 2.7059717178344726563 2.0277216434478759766 2.1924445629119873047 2.6699049472808837891 2.9438374042510986328 3.4643149375915527344 4.2370996475219726563 2.2270460128784179688 2.2921280860900878906 1.8032740354537963867 1.5392037630081176758 1.7376571893692016602 1.2689616680145263672 1.2256453037261962891 1.3645844459533691406 1.3375319242477416992 1.3440206050872802734 1.1570986509323120117 2.5543346405029296875 2.1080975532531738281 1.4188288450241088867 1.5144147872924804688 1.4279395341873168945 1.3682750463485717773 1.187138676643371582 1.188232421875 1.474290013313293457 1.3687453269958496094 1.1223267316818237305 1.2435765266418457031 1.0233423709869384766 1.0533137321472167969 1.5106769800186157227 1.37894439697265625 1.5178813934326171875 1.4864405393600463867 1.5919367074966430664 1.639752507209777832 1.7408559322357177734 1.7604243755340576172 1.573830723762512207 1 1 1.7674292325973510742 1.4301658868789672852 1.3673306703567504883 2.3612565994262695313 1.8563163280487060547 1.9959582090377807617 1.6873381137847900391 1.8671294450759887695 2.1708559989929199219 1.8943601846694946289 1.7951769828796386719 1.475890040397644043 1.5480499267578125 1.3198505640029907227 1.2103226184844970703 1.3005223274230957031 2.3965175151824951172 1.0390998125076293945 1 1.1495852470397949219 
1.9536100625991821289 2.1950047016143798828 2.5348968505859375 2.5074036121368408203 2.4725818634033203125 2.7767491340637207031 2.9855816364288330078 3.1241717338562011719 3.0472993850708007813 2.3815348148345947266 3.2333786487579345703 2.5894036293029785156 2.8396642208099365234 2.4459469318389892578 2.6325891017913818359 2.8139140605926513672 2.6652348041534423828 2.3608582019805908203 2.5332279205322265625 2.5334992408752441406 2.5262861251831054688 2.4165585041046142578 2.2836058139801025391 2.1202294826507568359 1.9870961904525756836 1.8264238834381103516 2.0608572959899902344 2.2274215221405029297 2.0989565849304199219 1.8505510091781616211 2.1415472030639648438 1.8275254964828491211 1.4723618030548095703 1.2762683629989624023 1.3562428951263427734 1.8070785999298095703 1.7089085578918457031 1.7131270170211791992 1.5555467605590820313 1.7489078044891357422 1.7468712329864501953 1.6908743381500244141 1.5508872270584106445 1.6732513904571533203 1.4459167718887329102 2.2657740116119384766 2.2852008342742919922 3.0272290706634521484 1.8430094718933105469 1.6056593656539916992 1.6408360004425048828 1.9273734092712402344 2.0939707756042480469 2.0134792327880859375 2.1667008399963378906 1.7996422052383422852 1.6026160717010498047 1.472811579704284668 1.9013478755950927734 2.4072365760803222656 2.2583372592926025391 2.3630218505859375 2.4391536712646484375 2.8540847301483154297 3.0364201068878173828 2.3412802219390869141 1.9153347015380859375 2.4889042377471923828 2.3122880458831787109 2.4656512737274169922 2.5399904251098632813 2.8243680000305175781 3.4770553112030029297 3.3366260528564453125 3.2728135585784912109 3.5481474399566650391 3.6361920833587646484 3.2292726039886474609 2.8858177661895751953 3.2039716243743896484 3.4560763835906982422 3.0223851203918457031 2.6137406826019287109 2.7542877197265625 3.2205862998962402344 2.9217894077301025391 2.4845604896545410156 3.1929993629455566406 3.2569782733917236328 3.4456341266632080078 2.5497813224792480469 1.9133757352828979492 1.6835097074508666992 2.0516071319580078125 2.1235909461975097656 2.4568114280700683594 2.2136702537536621094 2.5684192180633544922 2.3373355865478515625 2.4478807449340820313 2.3017914295196533203 2.2489721775054931641 2.3535571098327636719 2.3043162822723388672 2.8849232196807861328 2.6811432838439941406 2.5947511196136474609 2.6792583465576171875 2.5512897968292236328 2.1760220527648925781 2.3548822402954101563 2.0190148353576660156 2.8079516887664794922 2.1830213069915771484 2.1744039058685302734 2.119449615478515625 2.4823067188262939453 2.4897284507751464844 1.7776172161102294922 1.4177631139755249023 1.5216443538665771484 1.4045283794403076172 1.8415755033493041992 1.8422433137893676758 2.0105435848236083984 2.4679005146026611328 2.58414459228515625 2.2689266204833984375 1.7585436105728149414 2.3188154697418212891 2.1508529186248779297 1.6480803489685058594 1.6171252727508544922 1.641434788703918457 1.892918705940246582 1.4937906265258789063 1.9873201847076416016 2.4007477760314941406 2.3153462409973144531 2.2087461948394775391 2.3923871517181396484 2.6160807609558105469 2.7232499122619628906 2.753307342529296875 2.2738473415374755859 2.4108526706695556641 1.6380003690719604492 1.7421339750289916992 1.3897994756698608398 1.5655810832977294922 1.2301175594329833984 1.2665461301803588867 1.2609348297119140625 1.9901148080825805664 1.1721239089965820313 1.2018818855285644531 1.6336905956268310547 1.6938326358795166016 2.1182126998901367188 1.6188253164291381836 1.5440560579299926758 1.2296204566955566406 1.15361785888671875 1.1645059585571289063 1.2506208419799804688 1.47512054443359375 1.3020011186599731445 1.1778857707977294922 1.1351597309112548828 1.0401986837387084961 1.2825313806533813477 1.2553564310073852539 1.6710307598114013672 1.309550166130065918 1.7833794355392456055 1.8767703771591186523 1.808993220329284668 1.3722494840621948242 1.043216705322265625 2.0393750667572021484 1.2211513519287109375 1.8823820352554321289 2.1102426052093505859 1.6575032472610473633 1.8554276227951049805 2.7125542163848876953 2.25266265869140625 2.5182328224182128906 1.7950230836868286133 1.9061400890350341797 2.3737547397613525391 2.0210783481597900391 2.3660845756530761719 1.7988027334213256836 1.1731244325637817383 1.1731700897216796875 1.487580418586730957 1.4166966676712036133 1 1.5401086807250976563 
2.2394497394561767578 2.2925381660461425781 2.5155744552612304688 2.8339681625366210938 2.7621426582336425781 2.9673247337341308594 3.22884368896484375 2.7751798629760742188 2.5894248485565185547 2.8809146881103515625 2.5422277450561523438 2.3474574089050292969 2.4710240364074707031 2.3385756015777587891 2.6277062892913818359 2.6806600093841552734 2.4422430992126464844 1.999937891960144043 2.0816352367401123047 1.9495661258697509766 2.1705694198608398438 1.8935416936874389648 1.8479175567626953125 1.8321301937103271484 1.8226445913314819336 1.8749003410339355469 1.7872688770294189453 2.1700015068054199219 1.7565937042236328125 1.9791640043258666992 1.978242039680480957 2.0390362739562988281 1.7085568904876708984 1.2784391641616821289 1.543427586555480957 1.7230358123779296875 1.8898617029190063477 1.9060295820236206055 1.4775214195251464844 1.7893403768539428711 1.5811660289764404297 1.6148990392684936523 2.1064321994781494141 1.7805227041244506836 1.6864862442016601563 2.0630381107330322266 2.1602323055267333984 1.9575667381286621094 1.8677208423614501953 1.8397758007049560547 1.4591250419616699219 1.6711573600769042969 1.7173043489456176758 1.8740265369415283203 1.6786024570465087891 1.4779682159423828125 1.4385446310043334961 1.300324559211730957 1.7034300565719604492 2.1137492656707763672 2.3135602474212646484 2.2011606693267822266 2.4729321002960205078 2.8605065345764160156 2.2673375606536865234 2.7039384841918945313 2.4387519359588623047 1.9646993875503540039 1.3115721940994262695 1.8963543176651000977 1.9709395170211791992 2.8656136989593505859 2.8550200462341308594 2.9555008411407470703 3.0997004508972167969 3.1063022613525390625 3.0516874790191650391 3.0250382423400878906 3.0737824440002441406 2.9092838764190673828 3.0016701221466064453 3.0036344528198242188 3.2478199005126953125 3.0121016502380371094 2.6744928359985351563 2.5830676555633544922 2.5718505382537841797 2.7662103176116943359 2.6776258945465087891 2.5126595497131347656 2.2272129058837890625 2.2567338943481445313 2.1246962547302246094 2.2070751190185546875 2.0084583759307861328 2.2958617210388183594 2.4519014358520507813 2.5776314735412597656 2.7997062206268310547 2.0561718940734863281 2.6932904720306396484 2.5853183269500732422 2.2176787853240966797 2.1512534618377685547 3.0652832984924316406 2.3366274833679199219 2.1331083774566650391 2.8957028388977050781 2.1737933158874511719 2.0552561283111572266 1.9531881809234619141 1.9570415019989013672 1.96257781982421875 2.3867285251617431641 3.2989969253540039063 2.0855207443237304688 1.9381182193756103516 1.726660609245300293 2.0311143398284912109 2.4179415702819824219 1.7446568012237548828 1.6510541439056396484 1.7765015363693237305 1.6835143566131591797 1.9556678533554077148 2.7257063388824462891 1.8261504173278808594 2.2195870876312255859 1.6052644252777099609 2.3121500015258789063 2.5788400173187255859 2.391887664794921875 2.275608062744140625 2.3601343631744384766 2.1027417182922363281 1.9298253059387207031 2.3176543712615966797 2.2068829536437988281 2.0283823013305664063 2.2384228706359863281 2.3719542026519775391 2.4970180988311767578 2.4696702957153320313 3.79323577880859375 2.3457477092742919922 2.1205744743347167969 2.4694166183471679688 2.6722779273986816406 1.4635791778564453125 1.3376243114471435547 1.3225246667861938477 1.3737283945083618164 1.4467566013336181641 1.303891301155090332 1.6132816076278686523 2.2483844757080078125 2.5995011329650878906 3.1613392829895019531 1.904240727424621582 2.0623383522033691406 1.5142682790756225586 1.2124264240264892578 1.0698888301849365234 1.3137984275817871094 1.3420542478561401367 1.114720463752746582 1.2069613933563232422 1.2755842208862304688 1.0863987207412719727 1.2831776142120361328 1 1.1514359712600708008 1.4564523696899414063 1.5405050516128540039 1.7545170783996582031 1.7633520364761352539 1.53609466552734375 1.5049937963485717773 1.0786408185958862305 1.0170563459396362305 1.4065643548965454102 1.8434926271438598633 2.3670017719268798828 2.1640534400939941406 2.0125474929809570313 2.1327097415924072266 2.6827247142791748047 3.4186663627624511719 1.9510382413864135742 1.7140624523162841797 2.3884005546569824219 1.9441491365432739258 1.9117236137390136719 1.404627680778503418 1.3649233579635620117 1.2532122135162353516 1.2249062061309814453 1.21262359619140625 1.9280594587326049805 1.3584651947021484375 
2.2175924777984619141 2.5858442783355712891 2.663890838623046875 2.88860321044921875 2.5458085536956787109 2.8497514724731445313 2.8564221858978271484 2.3042635917663574219 2.3426899909973144531 2.6181344985961914063 1.9357253313064575195 2.0207004547119140625 2.1555440425872802734 2.3495929241180419922 2.2868695259094238281 2.5503916740417480469 2.5416238307952880859 2.1362235546112060547 2.085475921630859375 2.3348891735076904297 1.8634138107299804688 2.0302183628082275391 1.9312055110931396484 1.8547023534774780273 1.8899606466293334961 2.0194303989410400391 1.85137939453125 2.2285583019256591797 2.0671048164367675781 1.6848151683807373047 1.7291762828826904297 1.8372822999954223633 1.503171086311340332 1.4092861413955688477 1.3254120349884033203 1.2949646711349487305 1.8155839443206787109 1.8033539056777954102 1.4957528114318847656 2.079692840576171875 1.5444501638412475586 1.5147354602813720703 1.6576185226440429688 1.6688684225082397461 1.5488965511322021484 1.7333788871765136719 1.8084497451782226563 1.644448399543762207 1.996191859245300293 1.5226812362670898438 1.8140479326248168945 1.7444437742233276367 1.4912381172180175781 1.6710126399993896484 1.3996376991271972656 1.4825682640075683594 1.3888623714447021484 1.4450372457504272461 1.9436031579971313477 1.791823267936706543 3.1780247688293457031 2.35526275634765625 2.4364607334136962891 3.1201977729797363281 3.0604655742645263672 1.7835481166839599609 1.435176849365234375 1.0527942180633544922 2.4412398338317871094 1.6427218914031982422 2.2803659439086914063 2.5883367061614990234 2.6233606338500976563 2.5888319015502929688 2.9828913211822509766 2.7847056388854980469 2.7800161838531494141 2.9353642463684082031 3.2378609180450439453 2.8592584133148193359 3.36461639404296875 3.6165764331817626953 3.2863345146179199219 3.2930238246917724609 2.7889997959136962891 2.7579224109649658203 1.9741947650909423828 2.7553625106811523438 2.8445048332214355469 2.2928833961486816406 2.1062533855438232422 1.9654842615127563477 1.8934557437896728516 2.2110283374786376953 2.0452265739440917969 2.2292177677154541016 2.3106055259704589844 2.0476536750793457031 2.1348519325256347656 2.3034977912902832031 1.7756018638610839844 2.5033550262451171875 2.5446765422821044922 1.8877530097961425781 2.7834856510162353516 2.9761812686920166016 2.3088932037353515625 2.2672755718231201172 2.2476067543029785156 2.8145890235900878906 2.4143116474151611328 2.31282806396484375 2.0181512832641601563 2.3323836326599121094 2.2060923576354980469 2.8325126171112060547 2.1316733360290527344 1.9209522008895874023 1.6331632137298583984 1.6177779436111450195 1.7060440778732299805 1.5879572629928588867 1.7441036701202392578 1.9352283477783203125 1.8268870115280151367 1.8809896707534790039 1.8382806777954101563 1.5419608354568481445 2.0978999137878417969 2.3649544715881347656 1.9716241359710693359 2.10025787353515625 2.3048105239868164063 2.0593478679656982422 2.3088896274566650391 3.2944600582122802734 2.2733678817749023438 2.9009144306182861328 2.3303322792053222656 2.7175009250640869141 2.2870562076568603516 2.1329684257507324219 2.5162029266357421875 2.713382720947265625 2.8622877597808837891 3.1393573284149169922 2.4233632087707519531 1.9338829517364501953 1.8342759609222412109 1.6173523664474487305 1.399279475212097168 1.4564110040664672852 1.2785899639129638672 1.4039590358734130859 1.4203395843505859375 1.2402213811874389648 2.2726535797119140625 1.2840518951416015625 2.1836106777191162109 1.6604410409927368164 1.5229270458221435547 1.2883710861206054688 1.248928070068359375 1.2485045194625854492 1.2025619745254516602 1.1419948339462280273 1.317358851432800293 1.0670047998428344727 1.0584809780120849609 1.1118505001068115234 1.1829648017883300781 1.1100295782089233398 1.2663098573684692383 1.8515329360961914063 1.8293960094451904297 1.7030810117721557617 1.9915164709091186523 1.5620284080505371094 1.2678419351577758789 1.4546377658843994141 1.2681908607482910156 1.3867124319076538086 1.6831780672073364258 1.9701391458511352539 2.3492031097412109375 2.5019421577453613281 2.0884580612182617188 2.3011100292205810547 2.5031788349151611328 2.4466497898101806641 2.2252485752105712891 1.7217421531677246094 1.9770026206970214844 1.5709038972854614258 1.3898291587829589844 1.4809451103210449219 1.5027407407760620117 1.5963752269744873047 1.2655649185180664063 1.1199387311935424805 
2.4047067165374755859 2.4850552082061767578 2.2902503013610839844 2.6911492347717285156 2.1812920570373535156 2.5606944561004638672 2.3520328998565673828 2.5887269973754882813 2.6451780796051025391 2.7504496574401855469 2.0109755992889404297 2.139461517333984375 1.8249887228012084961 1.9538030624389648438 2.0281178951263427734 2.3565676212310791016 2.8846836090087890625 2.33370208740234375 2.0707824230194091797 2.2157638072967529297 1.6962208747863769531 1.7487097978591918945 1.8380864858627319336 1.6139836311340332031 1.5654195547103881836 1.8690164089202880859 1.8292535543441772461 1.9628796577453613281 1.6217314004898071289 1.54735565185546875 1.379399418830871582 1.6151821613311767578 1.5913354158401489258 1.54888916015625 1.330394744873046875 1.4528169631958007813 1.7344228029251098633 2.1730458736419677734 2.0785608291625976563 2.1552121639251708984 1.7222523689270019531 1.5064766407012939453 2.0248508453369140625 1.5351505279541015625 1.6787532567977905273 1.5338271856307983398 1.5265640020370483398 1.7208257913589477539 2.1811571121215820313 1.8313460350036621094 1.8152947425842285156 2.2076485157012939453 1.8153004646301269531 1.9374678134918212891 1.4925920963287353516 1.3439387083053588867 1.3488215208053588867 1.398196101188659668 1.6810743808746337891 1.3929767608642578125 1.875939488410949707 1.9215905666351318359 1.640147089958190918 1.8506608009338378906 1.8354620933532714844 1.1362988948822021484 1.1106312274932861328 1.4486409425735473633 1.5851624011993408203 2.12119293212890625 1.9891556501388549805 2.7244360446929931641 2.199581146240234375 2.2241408824920654297 2.3570704460144042969 2.53147125244140625 3.1116549968719482422 3.0407223701477050781 2.96247100830078125 3.4801399707794189453 3.9813961982727050781 3.2128043174743652344 3.5110001564025878906 3.5769355297088623047 3.4226942062377929688 2.9489884376525878906 2.1992697715759277344 2.2329561710357666016 1.9603505134582519531 2.4840996265411376953 2.11527252197265625 2.0315067768096923828 1.9658485651016235352 2.1479101181030273438 1.9965802431106567383 2.7586846351623535156 2.3936932086944580078 2.0102257728576660156 2.0797240734100341797 2.0952658653259277344 2.8525340557098388672 2.5617237091064453125 2.3716666698455810547 2.2851734161376953125 2.3914563655853271484 3.0757801532745361328 2.5194201469421386719 2.3203680515289306641 2.1803226470947265625 2.1876041889190673828 2.6436161994934082031 3.3661601543426513672 2.1208286285400390625 2.91521453857421875 2.1457686424255371094 2.2032818794250488281 1.6735956668853759766 1.7935723066329956055 1.5493826866149902344 2.0547778606414794922 1.4456260204315185547 1.7329066991806030273 1.6726746559143066406 1.6516855955123901367 1.6586638689041137695 1.6181926727294921875 1.7462308406829833984 2.2591021060943603516 1.7628586292266845703 1.9108060598373413086 2.1581058502197265625 1.6822818517684936523 1.9625934362411499023 2.3038146495819091797 2.5718557834625244141 3.0935649871826171875 2.818927764892578125 2.8410320281982421875 3.1151022911071777344 2.1621429920196533203 2.4277472496032714844 2.1240863800048828125 3.1120924949645996094 3.4707775115966796875 2.6020767688751220703 2.5409200191497802734 3.4076230525970458984 2.0852143764495849609 1.7791296243667602539 1.7879436016082763672 2.6773869991302490234 1.7363809347152709961 1.4001353979110717773 1.2758430242538452148 1.3897144794464111328 1.3689116239547729492 1.6228594779968261719 1.7557805776596069336 3.3291246891021728516 1.4681655168533325195 1.5406706333160400391 1.5007435083389282227 1.4298728704452514648 1.1469247341156005859 1.1629086732864379883 1.0631411075592041016 1.1148382425308227539 1 1.0466960668563842773 1.0164225101470947266 1.0954883098602294922 1.6656651496887207031 1 1.6702404022216796875 1.6672840118408203125 1.6836780309677124023 2.0574131011962890625 2.0291857719421386719 1.4664287567138671875 1.3170065879821777344 1.5466250181198120117 1.5105569362640380859 1.6623231172561645508 2.2903585433959960938 2.1227555274963378906 2.3899590969085693359 2.6766731739044189453 2.4092228412628173828 2.4511559009552001953 1.9451768398284912109 1.8286097049713134766 1.7191451787948608398 2.1987509727478027344 1.6039162874221801758 1.5835700035095214844 1.5900123119354248047 1.5620229244232177734 1.1477301120758056641 1.5471251010894775391 2.1017260551452636719 
1.8248894214630126953 2.1268608570098876953 2.4012660980224609375 1.8988509178161621094 2.8673980236053466797 2.3925771713256835938 2.7018885612487792969 2.6245434284210205078 2.220951080322265625 2.3895714282989501953 2.2881815433502197266 2.4813330173492431641 2.0576982498168945313 1.964342951774597168 2.2356650829315185547 2.6193892955780029297 2.5102427005767822266 1.9089887142181396484 1.9246228933334350586 2.5550439357757568359 1.7534770965576171875 1.9606899023056030273 1.5362906455993652344 1.6512594223022460938 1.3676202297210693359 2.1247084140777587891 1.4078933000564575195 1.4491553306579589844 1.3199663162231445313 1.2383630275726318359 1.3202866315841674805 1.2679222822189331055 1.2612146139144897461 1.2891459465026855469 1.2846444845199584961 1.500616908073425293 1.5774114131927490234 1.7638876438140869141 1.9088523387908935547 1.8682870864868164063 1.7926970720291137695 1.7165147066116333008 1.6948045492172241211 1.7409821748733520508 1.6802326440811157227 1.5926080942153930664 1.5783410072326660156 1.6664141416549682617 1.9652842283248901367 1.7851365804672241211 1.8111803531646728516 1.924368739128112793 1.50298309326171875 1.8705626726150512695 2.0322849750518798828 1.4986307621002197266 1.4527909755706787109 1.5491070747375488281 1.4382579326629638672 1.2910547256469726563 1.6415431499481201172 1.8989671468734741211 1.8901882171630859375 1.5764963626861572266 1.2836399078369140625 1.1693810224533081055 1.1547170877456665039 1.3490381240844726563 1 1.7504428625106811523 1.882390141487121582 2.2624304294586181641 2.1614699363708496094 2.0528874397277832031 2.2525231838226318359 2.6121079921722412109 2.3489708900451660156 2.6642725467681884766 3.2236561775207519531 3.4743971824645996094 3.7683401107788085938 3.5288543701171875 3.9043939113616943359 3.4420750141143798828 2.5574092864990234375 2.7406721115112304688 3.2569818496704101563 2.9408910274505615234 2.2030739784240722656 2.3512597084045410156 2.283039093017578125 2.3479990959167480469 2.2968769073486328125 2.0041253566741943359 2.1862812042236328125 2.0056622028350830078 2.1581664085388183594 2.2528514862060546875 2.3404929637908935547 2.2179698944091796875 2.5063517093658447266 2.3693723678588867188 2.3187870979309082031 2.3898828029632568359 2.3619296550750732422 2.2132675647735595703 1.7990808486938476563 3.0088648796081542969 2.637531280517578125 2.1000263690948486328 2.2123420238494873047 2.0021216869354248047 2.2650542259216308594 2.1053109169006347656 2.0959410667419433594 2.0105354785919189453 1.8940447568893432617 1.8014967441558837891 1.607361912727355957 1.9143227338790893555 1.7181872129440307617 1.4016199111938476563 1.290789484977722168 1.4565343856811523438 1.6824188232421875 1.5636448860168457031 1.6211905479431152344 1.8497765064239501953 2.8470900058746337891 2.2786128520965576172 2.1883766651153564453 1.6713989973068237305 1.9458693265914916992 1.9040176868438720703 2.2815721035003662109 3.2310061454772949219 2.5810215473175048828 2.5014240741729736328 2.2203910350799560547 1.841048121452331543 2.2212495803833007813 1.5508857965469360352 2.4584529399871826172 2.5433719158172607422 2.9034187793731689453 3.1076202392578125 2.2943756580352783203 3.3679058551788330078 1.9054340124130249023 1.6765453815460205078 1.806927800178527832 2.6597428321838378906 2.8544416427612304688 1.5240421295166015625 1.3569502830505371094 1.5466226339340209961 2.4387221336364746094 2.5406479835510253906 1.2748966217041015625 1.2132587432861328125 1.498288273811340332 1.2080599069595336914 1.63167572021484375 1.1712795495986938477 1.1834334135055541992 1.1103334426879882813 1.0290068387985229492 1.0151374340057373047 1 1.2147107124328613281 1.6395637989044189453 1.1124174594879150391 1.2950382232666015625 1.7173440456390380859 1.367894291877746582 1.8275349140167236328 1.5225081443786621094 1.7156798839569091797 1.3488337993621826172 1.6160366535186767578 1.4747835397720336914 2.319183349609375 2.1821246147155761719 2.0750348567962646484 2.2554795742034912109 3.0209763050079345703 2.7955396175384521484 2.2708389759063720703 2.9868807792663574219 2.0172882080078125 2.0966947078704833984 1.8708118200302124023 1.5760177373886108398 1.7388719320297241211 1.9358245134353637695 1.8758107423782348633 1.4479682445526123047 1.3351686000823974609 1.6911168098449707031 1.5999927520751953125 
2.5115070343017578125 2.4474415779113769531 2.3060338497161865234 2.2451281547546386719 2.0974817276000976563 1.9265418052673339844 2.4473032951354980469 2.7674715518951416016 2.7172014713287353516 2.1403777599334716797 2.7737371921539306641 2.3291072845458984375 2.1907663345336914063 2.3522422313690185547 2.4654204845428466797 2.1216609477996826172 2.0528430938720703125 2.455303192138671875 1.3770927190780639648 1.7911121845245361328 1.5514206886291503906 1.8418544530868530273 1.4882315397262573242 1.560366511344909668 1.5629709959030151367 1.3921769857406616211 1.2166974544525146484 1.3163192272186279297 1.3696370124816894531 1.2505559921264648438 1.4416134357452392578 1.3790580034255981445 1.1718441247940063477 1.2789853811264038086 1.1787954568862915039 1.5335212945938110352 1.7561879158020019531 1.7457153797149658203 1.4655244350433349609 1.6115533113479614258 1.7359756231307983398 1.6966747045516967773 1.7653697729110717773 2.0043582916259765625 1.5698523521423339844 1.7719507217407226563 1.9848949909210205078 1.7553869485855102539 1.769438624382019043 1.6670514345169067383 1.9970350265502929688 1.5375901460647583008 1.7040098905563354492 1.8443622589111328125 1.8208572864532470703 1.646526336669921875 1.931525111198425293 1.7909947633743286133 1.4801051616668701172 1.5091000795364379883 1.3599487543106079102 1.7407162189483642578 1.8550722599029541016 1.5101667642593383789 1.1630827188491821289 1.0583214759826660156 1.1398568153381347656 1 1.0921627283096313477 1.2861781120300292969 2.0984487533569335938 1.7322946786880493164 2.0831854343414306641 2.1976463794708251953 2.2548320293426513672 2.5359892845153808594 2.8920817375183105469 2.1291549205780029297 2.2720844745635986328 2.8880009651184082031 2.5954844951629638672 3.4288761615753173828 2.9808847904205322266 2.8926239013671875 2.8371093273162841797 3.1640372276306152344 3.354694366455078125 2.9583828449249267578 2.3706452846527099609 2.1869261264801025391 2.3502318859100341797 2.3852872848510742188 1.9652298688888549805 2.7886602878570556641 2.2333979606628417969 2.8051207065582275391 2.0020906925201416016 2.1730182170867919922 2.2201488018035888672 2.6783635616302490234 2.5862362384796142578 2.1402628421783447266 2.0607137680053710938 2.2035238742828369141 2.1219127178192138672 2.6171734333038330078 2.8919177055358886719 2.7807316780090332031 2.1433823108673095703 2.2161512374877929688 1.7668471336364746094 1.8176381587982177734 1.9117554426193237305 1.7185916900634765625 1.7972899675369262695 2.045135498046875 2.1349997520446777344 1.9166476726531982422 2.4522659778594970703 1.8927087783813476563 1.632414698600769043 1.9220899343490600586 1.2507619857788085938 1.6592502593994140625 1.1349776983261108398 1.0730870962142944336 1.9210056066513061523 1.2707471847534179688 1.4451867341995239258 1.4556494951248168945 1.0204181671142578125 1.2781358957290649414 1.2888445854187011719 1.5688098669052124023 1.7582298517227172852 2.6933753490447998047 2.6852571964263916016 2.4518308639526367188 2.2965533733367919922 1.9726312160491943359 1.9739868640899658203 2.2009150981903076172 2.4914991855621337891 2.4523041248321533203 2.5969650745391845703 3.9380443096160888672 2.9145505428314208984 2.3883953094482421875 2.3400793075561523438 2.2512609958648681641 1.7627197504043579102 1.8134605884552001953 3.0545992851257324219 1.5661029815673828125 1.4986042976379394531 1.4612199068069458008 2.7779047489166259766 2.5448992252349853516 3.0454013347625732422 1.7758240699768066406 1.4741262197494506836 1.4015671014785766602 1.4134377241134643555 1.4136201143264770508 1.3963599205017089844 1.3486173152923583984 1.1357287168502807617 1.175513148307800293 1.1531709432601928711 1.174069523811340332 1.2502367496490478516 1 1.0827457904815673828 1.5554450750350952148 1.633471369743347168 1.4764292240142822266 1.7035369873046875 1.5185806751251220703 2.4468455314636230469 1.4452991485595703125 1.6445496082305908203 1.848589777946472168 2.0196664333343505859 2.1644916534423828125 2.398342132568359375 2.4544036388397216797 2.5655679702758789063 2.3072714805603027344 2.08487701416015625 2.7460744380950927734 2.0357620716094970703 1.9458791017532348633 2.0348997116088867188 2.1308600902557373047 2.2478711605072021484 1.989712834358215332 1.6831573247909545898 2.069904327392578125 1.2985098361968994141 1.6665065288543701172 
1.9193021059036254883 2.9130558967590332031 2.4225251674652099609 2.5274398326873779297 2.0520522594451904297 2.1601874828338623047 2.7306284904479980469 2.5743761062622070313 2.6078634262084960938 2.3658251762390136719 2.8940160274505615234 2.0399591922760009766 2.2398533821105957031 2.395198822021484375 2.2251012325286865234 2.3685996532440185547 1.773659825325012207 2.1269125938415527344 1.7749364376068115234 1.4265512228012084961 1.3199895620346069336 1.3546197414398193359 1.4283938407897949219 1.4451007843017578125 1.4174176454544067383 1.2809838056564331055 1.4436771869659423828 1.2609053850173950195 1.6094473600387573242 1.5916128158569335938 1.4010379314422607422 1.2556691169738769531 1.4006645679473876953 1.270270228385925293 1.1850665807723999023 1.296639561653137207 1.7021808624267578125 1.9736239910125732422 1.7439402341842651367 1.6715062856674194336 1.9948271512985229492 1.8003702163696289063 1.7133629322052001953 1.7798131704330444336 1.8249627351760864258 2.1669187545776367188 2.0288386344909667969 1.798304438591003418 1.4576230049133300781 1.7546112537384033203 1.6457046270370483398 1.5224596261978149414 1.6001305580139160156 1.4985578060150146484 1.8870697021484375 1.8753837347030639648 2.13941192626953125 1.9743715524673461914 1.7002395391464233398 1.5146527290344238281 1.1918865442276000977 1.2678968906402587891 1.0594754219055175781 1.3952523469924926758 1.1056649684906005859 1.1530110836029052734 1.12284088134765625 1.1211245059967041016 1.0857187509536743164 1.1628853082656860352 1.9624701738357543945 1.7394286394119262695 2.2371017932891845703 2.4424152374267578125 2.2695407867431640625 2.5595657825469970703 2.0124945640563964844 2.5553581714630126953 2.6083531379699707031 2.4828517436981201172 2.9233596324920654297 2.9312653541564941406 2.7522633075714111328 2.9762623310089111328 2.4318883419036865234 2.9970319271087646484 2.7249722480773925781 2.69110870361328125 2.0706720352172851563 2.0873925685882568359 2.4573428630828857422 2.2600796222686767578 2.2683246135711669922 2.2055859565734863281 2.0501453876495361328 2.4060885906219482422 2.0908992290496826172 2.4195199012756347656 2.2447707653045654297 3.6097404956817626953 2.7057390213012695313 2.7031331062316894531 2.7902233600616455078 2.5787441730499267578 2.4784679412841796875 2.8428757190704345703 2.7425580024719238281 2.5120892524719238281 2.2675433158874511719 2.0163123607635498047 2.3682496547698974609 2.6512660980224609375 2.2044670581817626953 2.5188055038452148438 1.8688493967056274414 2.0071630477905273438 1.849593043327331543 1.5513803958892822266 1.617386937141418457 2.0666196346282958984 1.3882111310958862305 1.4660065174102783203 1.5266351699829101563 1.2467979192733764648 1.5674387216567993164 1.0652143955230712891 1.3863499164581298828 1.3804148435592651367 1.4719542264938354492 1.2121726274490356445 1.3957436084747314453 1.1808916330337524414 1.4192403554916381836 1.9344969987869262695 2.7940447330474853516 2.8271930217742919922 2.5736458301544189453 2.2114117145538330078 1.9714813232421875 2.4130997657775878906 2.3338923454284667969 2.0714221000671386719 2.1282618045806884766 1.9379541873931884766 2.2151458263397216797 2.8731150627136230469 2.7673187255859375 3.3970606327056884766 3.8120443820953369141 2.4587056636810302734 2.0138661861419677734 1.8791788816452026367 2.6128191947937011719 3.8686780929565429688 2.4968097209930419922 1.4111803770065307617 3.7339947223663330078 2.8408048152923583984 3.18294525146484375 3.4220016002655029297 1.2844141721725463867 2.0096607208251953125 1.3601322174072265625 1.7576797008514404297 1.72599029541015625 1.4268136024475097656 1.0859375 1.0188641548156738281 1.127613067626953125 1.6372594833374023438 1.0611655712127685547 1.0015797615051269531 1.3165292739868164063 1.3133456707000732422 1.4532539844512939453 2.0071880817413330078 1.9491603374481201172 2.1554582118988037109 1.4472851753234863281 1.4271069765090942383 1.6797630786895751953 1.6027797460556030273 2.0385887622833251953 2.2848758697509765625 2.5587241649627685547 2.5630040168762207031 2.5089497566223144531 2.9149508476257324219 2.2120425701141357422 2.3496489524841308594 2.1397185325622558594 2.6948895454406738281 2.2727200984954833984 2.2908725738525390625 2.4414858818054199219 2.1162509918212890625 1.5257202386856079102 1.4019521474838256836 1.5712817907333374023 1.4136141538619995117 
1.9981682300567626953 1.8469716310501098633 2.7848615646362304688 2.7187860012054443359 1.8686075210571289063 2.2116436958312988281 2.3331551551818847656 2.7011854648590087891 2.5218098163604736328 2.027782440185546875 1.9561672210693359375 1.8819818496704101563 1.7882829904556274414 2.0822460651397705078 2.1529157161712646484 2.0925920009613037109 2.1699376106262207031 1.6651762723922729492 1.6947388648986816406 1.1614571809768676758 1.8764917850494384766 1.2907048463821411133 1.3665280342102050781 1.1663484573364257813 1.4193990230560302734 1.2095848321914672852 1.4028444290161132813 1.5502772331237792969 1.4762697219848632813 1.4951434135437011719 1.3414399623870849609 1.3080058097839355469 1.0691343545913696289 1.3924146890640258789 1.2501392364501953125 1.2120474576950073242 1.4158884286880493164 1.5975776910781860352 2.2157089710235595703 2.0623447895050048828 1.9711805582046508789 2.0448195934295654297 1.7646509408950805664 1.7699990272521972656 2.3742964267730712891 1.9002798795700073242 2.3854417800903320313 1.8174555301666259766 1.5918527841567993164 1.6247678995132446289 1.7008596658706665039 1.6838545799255371094 1.990306854248046875 1.5673534870147705078 1.4365026950836181641 1.9396888017654418945 1.9064919948577880859 1.8466955423355102539 1.8707387447357177734 2.0882649421691894531 1.7883915901184082031 1.1380021572113037109 1.0304005146026611328 1.1364432573318481445 1 1.2277990579605102539 1.7579177618026733398 1.0538398027420043945 1 1.526700139045715332 1.8510910272598266602 2.1902313232421875 2.3954846858978271484 2.0567712783813476563 2.1873960494995117188 2.4399678707122802734 2.063262939453125 2.1046481132507324219 2.31842803955078125 2.5688970088958740234 2.6031067371368408203 2.8756899833679199219 2.9014236927032470703 3.0049359798431396484 2.8444316387176513672 2.4681708812713623047 2.7326085567474365234 2.60870361328125 2.3155243396759033203 2.2183926105499267578 2.2773020267486572266 2.2944371700286865234 2.3767123222351074219 2.1293673515319824219 2.1312124729156494141 2.4765045642852783203 2.3949785232543945313 2.8698697090148925781 2.2111811637878417969 2.9531388282775878906 2.72481536865234375 2.7842745780944824219 2.5037486553192138672 2.3035864830017089844 2.2866766452789306641 2.4982469081878662109 1.8065415620803833008 2.5773470401763916016 1.9402472972869873047 2.1798596382141113281 2.4132425785064697266 1.9808408021926879883 2.4555852413177490234 2.2173702716827392578 1.7727706432342529297 1.892174839973449707 1.7141506671905517578 2.1390967369079589844 1.6386618614196777344 1.7546136379241943359 1.9190825223922729492 1.6783286333084106445 1.4897898435592651367 1.2810562849044799805 1.4798021316528320313 1.3677089214324951172 1 1.2249240875244140625 1.3754718303680419922 1.6501115560531616211 1.7713149785995483398 1.3575323820114135742 2.0023324489593505859 1.7102651596069335938 2.2001271247863769531 2.7248890399932861328 1.8241732120513916016 2.1617715358734130859 2.3548488616943359375 1.8773405551910400391 2.4393088817596435547 1.9943969249725341797 1.909527897834777832 1.6698215007781982422 2.3749608993530273438 2.3739631175994873047 2.7793524265289306641 2.6014461517333984375 2.7212603092193603516 1.977522730827331543 1.9508315324783325195 1.4560568332672119141 2.5406696796417236328 1.6516684293746948242 2.3593666553497314453 2.2380406856536865234 3.2287676334381103516 4.1265935897827148438 3.7322983741760253906 1.8129942417144775391 2.3930971622467041016 1.5642399787902832031 1.8430585861206054688 1.5015369653701782227 1.4802458286285400391 1.5556986331939697266 1.0402328968048095703 1.1633716821670532227 1.4832636117935180664 1 1.1376260519027709961 1.1502428054809570313 1.11141204833984375 1.2894780635833740234 1.5557960271835327148 1.6941214799880981445 1.6778299808502197266 1.5867027044296264648 1.4895775318145751953 1.6262024641036987305 2.3753917217254638672 2.0994184017181396484 1.8977972269058227539 2.4252574443817138672 2.304111480712890625 2.4651637077331542969 2.7857277393341064453 2.4342877864837646484 2.3175454139709472656 2.3565905094146728516 2.6718792915344238281 2.2235696315765380859 2.2080986499786376953 2.4598751068115234375 2.5299565792083740234 2.2138698101043701172 1.6773027181625366211 1.3599110841751098633 1.2566448450088500977 1.3335051536560058594 
3.0679197311401367188 2.8758475780487060547 2.1781346797943115234 1.9182522296905517578 1.9607731103897094727 2.2544569969177246094 2.3754374980926513672 3.2799229621887207031 2.5349712371826171875 2.5560140609741210938 1.8754127025604248047 2.0954422950744628906 2.4356133937835693359 2.3247408866882324219 2.0909593105316162109 1.7708632946014404297 1.8842904567718505859 1.8320651054382324219 1.6982170343399047852 1.2243859767913818359 1.3723050355911254883 1.3419686555862426758 1.1897162199020385742 1.3756996393203735352 1.2599537372589111328 1.4059798717498779297 1.376025080680847168 1.3537802696228027344 1.3310689926147460938 1.5792129039764404297 1.5192835330963134766 1.5179347991943359375 1.3668239116668701172 1.2709815502166748047 1.3101781606674194336 1.5651116371154785156 1.3685964345932006836 1.4305894374847412109 1.6279181241989135742 1.990187525749206543 2.0008063316345214844 2.2862298488616943359 2.5183656215667724609 1.7706117630004882813 2.5311291217803955078 1.9880670309066772461 2.0357930660247802734 1.4797927141189575195 1.733630061149597168 1.800993800163269043 1.7784115076065063477 1.4898954629898071289 1.5618846416473388672 1.7533890008926391602 1.4672350883483886719 1.7409305572509765625 1.7638971805572509766 2.2107183933258056641 1.9984614849090576172 2.1127588748931884766 1.3953644037246704102 1.1532223224639892578 1.084381103515625 1.4920670986175537109 1.5052896738052368164 1.2708736658096313477 1.9420562982559204102 1.8765410184860229492 1.7217111587524414063 1.3811748027801513672 1.7493225336074829102 2.3145997524261474609 1.9458959102630615234 2.2155468463897705078 2.1818487644195556641 2.7847661972045898438 2.7322716712951660156 2.0216233730316162109 2.5975985527038574219 2.4358453750610351563 2.543636322021484375 3.0506253242492675781 2.6296329498291015625 2.8910360336303710938 3.0309042930603027344 2.9075772762298583984 2.361454010009765625 2.7427916526794433594 2.3165907859802246094 2.3880398273468017578 2.3239712715148925781 2.0065732002258300781 2.6984720230102539063 2.3163855075836181641 2.22560882568359375 1.9254907369613647461 2.2267584800720214844 2.6043112277984619141 2.4367890357971191406 2.8228471279144287109 2.5991435050964355469 3.4097278118133544922 2.9676973819732666016 2.7169013023376464844 2.6977262496948242188 2.7755553722381591797 2.4021868705749511719 2.1783127784729003906 2.0972106456756591797 2.0745084285736083984 2.2638869285583496094 2.1045534610748291016 2.7103686332702636719 1.8271962404251098633 2.6537501811981201172 1.7992370128631591797 1.5344345569610595703 2.2769060134887695313 2.3597743511199951172 1.6841411590576171875 1.6631368398666381836 1.5106161832809448242 1.6409929990768432617 1.3371632099151611328 1.89935302734375 1 1 1.3337438106536865234 1.0794082880020141602 1.0541186332702636719 1.0680865049362182617 1.4179096221923828125 2.0540168285369873047 1.723986506462097168 1.7249885797500610352 2.7486240863800048828 2.0830445289611816406 1.9428580999374389648 1.493770599365234375 1.6722794771194458008 1.9159342050552368164 1.447373509407043457 1.6246545314788818359 2.0048019886016845703 1.8297796249389648438 2.2046427726745605469 2.7924230098724365234 2.6609883308410644531 2.2279562950134277344 2.0116543769836425781 3.2424981594085693359 2.0430791378021240234 1.926058650016784668 1.6520200967788696289 1.5680321455001831055 2.6900429725646972656 5.3290600776672363281 4.0967683792114257813 4.2443642616271972656 2.3251261711120605469 2.449947357177734375 1.8143612146377563477 1.7143914699554443359 1.8676967620849609375 1.0786689519882202148 1.4348390102386474609 1.7049779891967773438 1.1085814237594604492 1.5332560539245605469 1.1503647565841674805 1.6771216392517089844 1.4664286375045776367 1 1.1991759538650512695 1.3042593002319335938 1.1588504314422607422 2.2861735820770263672 1.6361447572708129883 1.5829426050186157227 2.0481166839599609375 2.2579858303070068359 2.0750212669372558594 2.62602996826171875 2.2629485130310058594 2.1869807243347167969 2.1992125511169433594 2.2813873291015625 2.8474204540252685547 2.2353699207305908203 2.1433734893798828125 2.1668710708618164063 2.3348405361175537109 2.3381683826446533203 2.5397486686706542969 2.3993802070617675781 2.468952178955078125 1.8941425085067749023 1.7221490144729614258 2.0236575603485107422 1.7584999799728393555 
3.2313680648803710938 2.3186221122741699219 2.4010007381439208984 2.8030250072479248047 2.1745123863220214844 2.47068023681640625 2.5859866142272949219 2.4219696521759033203 1.7688429355621337891 2.1115057468414306641 2.4377911090850830078 2.0416016578674316406 2.1228742599487304688 1.7953124046325683594 2.0528550148010253906 2.4155371189117431641 1.9186700582504272461 1.3459308147430419922 1.624426722526550293 1.0198245048522949219 1.3030306100845336914 1.4972901344299316406 1.5564017295837402344 1.4097152948379516602 1.3868000507354736328 1.4806642532348632813 1.2733476161956787109 1.3277627229690551758 1.3036469221115112305 1.2482868432998657227 1.8952205181121826172 1.6868979930877685547 1.3866522312164306641 1.3088136911392211914 1.2327398061752319336 1.4503053426742553711 1.4619975090026855469 1.6663947105407714844 1.9215824604034423828 1.8346195220947265625 1.5715471506118774414 1.6132533550262451172 2.3273701667785644531 1.8039520978927612305 1.9279968738555908203 2.1827540397644042969 2.2548770904541015625 1.7493946552276611328 1.606526494026184082 1.8469684123992919922 1.7507014274597167969 1.9127192497253417969 1.367401123046875 1.7364327907562255859 1.3844314813613891602 1.9187908172607421875 2.0031924247741699219 2.3692896366119384766 2.1807138919830322266 1.6371961832046508789 1.7013643980026245117 1.0156960487365722656 1.3845837116241455078 1.7121824026107788086 1.6038759946823120117 1.0735417604446411133 1.3312457799911499023 1.843509674072265625 1.4341788291931152344 2.3887662887573242188 1.8567368984222412109 2.0324776172637939453 2.6843211650848388672 2.6961181163787841797 2.6069967746734619141 2.668117523193359375 2.5506882667541503906 2.2278490066528320313 2.5732312202453613281 2.6990337371826171875 3.1127004623413085938 2.7982838153839111328 2.1457071304321289063 2.2963445186614990234 2.5937628746032714844 2.7813220024108886719 2.4270088672637939453 2.3964753150939941406 2.4002296924591064453 2.3201279640197753906 2.3784441947937011719 2.4969589710235595703 2.8901059627532958984 2.7237107753753662109 2.3336672782897949219 2.3433098793029785156 2.2104105949401855469 2.4353442192077636719 2.6068401336669921875 2.5134122371673583984 2.4176676273345947266 2.7083547115325927734 2.8898673057556152344 2.6957948207855224609 2.3580458164215087891 2.4280836582183837891 2.0932013988494873047 2.2794880867004394531 2.3522555828094482422 2.8297383785247802734 2.3014416694641113281 1.9107053279876708984 2.1272673606872558594 2.2259268760681152344 2.3671200275421142578 2.0783898830413818359 1.8623714447021484375 2.0145676136016845703 2.0853278636932373047 2.3293254375457763672 1.5042169094085693359 1.5044270753860473633 1.2154958248138427734 1.3138908147811889648 1.2290940284729003906 1.2399584054946899414 1.1725472211837768555 1.0896619558334350586 1.0749628543853759766 1.2204163074493408203 1.0598669052124023438 1.3155145645141601563 1.4312102794647216797 1.2576302289962768555 1.2058389186859130859 1.3828264474868774414 1.8629621267318725586 1.9585123062133789063 2.0785596370697021484 1.6972407102584838867 1.7625217437744140625 1.5056111812591552734 1.5984617471694946289 1.8218315839767456055 2.7390468120574951172 2.7317173480987548828 2.5587794780731201172 2.5599522590637207031 2.2700774669647216797 2.0181705951690673828 2.9032511711120605469 3.6910092830657958984 3.0822167396545410156 1.8860782384872436523 2.1665699481964111328 2.2357976436614990234 5.21216583251953125 3.9213228225708007813 5.0961818695068359375 2.1175184249877929688 1.7025064229965209961 1.3833439350128173828 1.5516097545623779297 1.6236717700958251953 1.6978549957275390625 1.7796437740325927734 1.7378866672515869141 1.1960049867630004883 1.812020421028137207 1.6407330036163330078 1 1.5675183534622192383 1.020747065544128418 1.403303980827331543 1.1388403177261352539 1.0888221263885498047 1.3595378398895263672 1.4027184247970581055 1.729388117790222168 1.6567686796188354492 1.9257190227508544922 2.1835050582885742188 2.7463896274566650391 1.9699039459228515625 1.9009782075881958008 2.438556671142578125 2.3055295944213867188 2.7336738109588623047 2.3727266788482666016 2.4570279121398925781 2.3950169086456298828 2.6399931907653808594 2.5256915092468261719 2.9333219528198242188 2.4940125942230224609 2.4393749237060546875 1.9378563165664672852 2.1654331684112548828 2.1370899677276611328 2.1554770469665527344 
3.2465674877166748047 2.6958932876586914063 2.6879172325134277344 2.5067510604858398438 2.4642908573150634766 2.6742646694183349609 2.3405935764312744141 2.3759667873382568359 2.3268117904663085938 1.925051569938659668 2.0767617225646972656 1.98099517822265625 2.1685986518859863281 2.6506812572479248047 2.2973880767822265625 2.1835267543792724609 2.1983716487884521484 2.0850801467895507813 1.8710880279541015625 1.4643255472183227539 1.3356277942657470703 1.5377374887466430664 1.6330693960189819336 1.7236936092376708984 1.7056347131729125977 1.4736436605453491211 1.4426289796829223633 1.3729091882705688477 1.2420706748962402344 1.658272862434387207 1.3200621604919433594 1.3826476335525512695 1.6074179410934448242 1.1963230371475219727 1.2058033943176269531 1.6621730327606201172 1.8614217042922973633 1.549183964729309082 1.5701797008514404297 1.8169397115707397461 2.001468658447265625 2.2262365818023681641 2.0380649566650390625 2.0822503566741943359 2.275661468505859375 2.1756136417388916016 2.1207294464111328125 2.1091809272766113281 1.7682250738143920898 1.7501586675643920898 1.7717041969299316406 1.7413049936294555664 1.4797230958938598633 1.5275313854217529297 1.3253421783447265625 1.6786022186279296875 1.7946494817733764648 1.3666577339172363281 1.8139650821685791016 1.6198161840438842773 1.9735279083251953125 1.6638406515121459961 1.3688726425170898438 1.742873072624206543 1.6527422666549682617 1.1774690151214599609 1.6518919467926025391 1.3456470966339111328 1.1158456802368164063 1.3530290126800537109 1.692128300666809082 1.8434154987335205078 2.4675757884979248047 2.5126767158508300781 2.4989409446716308594 2.4352078437805175781 2.5466921329498291016 2.1621239185333251953 2.59647369384765625 2.6703732013702392578 2.9480478763580322266 3.1325023174285888672 2.8400580883026123047 3.2382931709289550781 2.6542623043060302734 2.2482893466949462891 2.2180528640747070313 2.2931976318359375 2.3537237644195556641 2.5289340019226074219 2.7095966339111328125 2.6092386245727539063 2.6901957988739013672 3.2221605777740478516 2.3518531322479248047 2.1876401901245117188 2.7342529296875 2.5730292797088623047 2.3921444416046142578 2.4186627864837646484 2.6331703662872314453 3.2953388690948486328 2.9016702175140380859 2.5605194568634033203 2.9901273250579833984 2.7486951351165771484 2.4562816619873046875 1.8264703750610351563 2.6784799098968505859 1.5519598722457885742 1.8594106435775756836 2.6274383068084716797 2.0929863452911376953 2.3222799301147460938 2.0818011760711669922 1.8335359096527099609 2.0418748855590820313 1.8013592958450317383 2.5371472835540771484 1.8711819648742675781 1.5272476673126220703 1.6761125326156616211 1.6141045093536376953 1.2198415994644165039 1.0640779733657836914 1 1.1400846242904663086 1.1332879066467285156 1.1890161037445068359 1.0440549850463867188 1.2258437871932983398 1.1295573711395263672 1.0937294960021972656 1.1018311977386474609 1.1114237308502197266 1.0545771121978759766 1.2807906866073608398 1.2274850606918334961 1.6794567108154296875 1.4906581640243530273 1.6343414783477783203 1.7587136030197143555 1.5822571516036987305 1.446524500846862793 1.9773697853088378906 3.7458939552307128906 2.1582148075103759766 2.7180478572845458984 2.3376419544219970703 1.833403468132019043 2.0274245738983154297 2.2449741363525390625 2.557891845703125 1.9605413675308227539 2.3467514514923095703 2.7945642471313476563 3.768421173095703125 5.2553434371948242188 4.175373077392578125 2.1622247695922851563 1.6211035251617431641 1.3555572032928466797 1.4540450572967529297 2.1995115280151367188 1.4796792268753051758 1.3113102912902832031 1.9386203289031982422 1.6073203086853027344 1.7953609228134155273 1.9898173809051513672 2.2044878005981445313 1.0735422372817993164 1.6073234081268310547 1 1.3568724393844604492 1.9043552875518798828 1.2187551259994506836 2.0277919769287109375 1.9069825410842895508 1.6997488737106323242 1.8832714557647705078 2.2441186904907226563 2.0258634090423583984 2.0317111015319824219 2.1042716503143310547 1.9194219112396240234 2.0117616653442382813 2.0074441432952880859 2.3580939769744873047 2.7092278003692626953 2.5343294143676757813 2.5019428730010986328 2.5124018192291259766 2.6732625961303710938 2.4354913234710693359 2.5350632667541503906 2.5014142990112304688 3.0281519889831542969 2.5364472866058349609 2.1248593330383300781 
2.5594458580017089844 2.9927976131439208984 2.3744673728942871094 2.7063899040222167969 2.1048462390899658203 2.2295589447021484375 2.4325859546661376953 2.8146638870239257813 2.3220963478088378906 1.9205224514007568359 2.1739892959594726563 1.9976735115051269531 2.0281836986541748047 2.4550652503967285156 2.3383307456970214844 1.8023021221160888672 2.4295332431793212891 2.008602142333984375 1.9300442934036254883 1.2681069374084472656 1.40512847900390625 1.3173985481262207031 1.3532737493515014648 1.7637804746627807617 1.8242286443710327148 1.6393092870712280273 1.2638995647430419922 1.4865770339965820313 1.1928203105926513672 1.269484400749206543 1.1447762250900268555 1.5547231435775756836 1.1435295343399047852 1.3697874546051025391 1.6248364448547363281 1.417858123779296875 1.5119092464447021484 1.6800894737243652344 1.5068058967590332031 1.9069827795028686523 2.0967352390289306641 2.1669936180114746094 1.98828125 1.8895789384841918945 2.2905514240264892578 2.2540109157562255859 2.1384913921356201172 1.9748096466064453125 1.6497949361801147461 1.941111445426940918 1.9204021692276000977 1.8332645893096923828 1.8765625953674316406 1.597787022590637207 1.755593419075012207 1.379761815071105957 1.4052183628082275391 1.1923892498016357422 1.8140982389450073242 1.7070415019989013672 2.2196700572967529297 1.8037753105163574219 2.0635516643524169922 1.5545392036437988281 1.8996791839599609375 1.5693073272705078125 1.484837651252746582 1.6451321840286254883 1.5383182764053344727 1.3309245109558105469 2.0501723289489746094 2.0467987060546875 2.1063144207000732422 2.8020851612091064453 2.8146479129791259766 2.5483655929565429688 2.3185172080993652344 2.0718328952789306641 2.2806518077850341797 2.4609816074371337891 2.5525536537170410156 3.2100815773010253906 2.8126609325408935547 3.3057775497436523438 2.7564225196838378906 2.7821886539459228516 2.0949690341949462891 2.3306126594543457031 2.9418857097625732422 2.5495541095733642578 2.6066486835479736328 2.5211732387542724609 2.5651676654815673828 2.6680474281311035156 2.6699545383453369141 2.3338298797607421875 2.1589400768280029297 1.9712812900543212891 2.3530435562133789063 2.6655595302581787109 2.8603157997131347656 2.9607226848602294922 2.9975965023040771484 2.6482160091400146484 3.0568597316741943359 2.4377884864807128906 2.2726061344146728516 2.1534795761108398438 1.816859126091003418 1.9092823266983032227 2.6584150791168212891 2.4337193965911865234 2.3509845733642578125 1.827378392219543457 1.7709167003631591797 2.2144360542297363281 2.2936787605285644531 2.4980530738830566406 2.1198878288269042969 2.0357348918914794922 1.6549351215362548828 1.6093268394470214844 1.444325566291809082 1.8906202316284179688 1.3608951568603515625 1.0509072542190551758 1.0087144374847412109 1.0799541473388671875 1.0947606563568115234 1.2997531890869140625 1.0974183082580566406 1.0183250904083251953 1 1.1671819686889648438 1.0901159048080444336 1.2066289186477661133 1.1482710838317871094 1.4570927619934082031 1.420930027961730957 1.419295191764831543 1.7294907569885253906 1.2641204595565795898 1.413311004638671875 1.6928116083145141602 1.5898890495300292969 3.0835511684417724609 2.739154815673828125 2.3754217624664306641 2.1190369129180908203 2.16605377197265625 2.4413652420043945313 2.6268892288208007813 2.4763498306274414063 2.3296198844909667969 2.1136796474456787109 2.6808819770812988281 2.8442049026489257813 3.3724122047424316406 2.2747991085052490234 2.0355603694915771484 2.2393646240234375 1.4802421331405639648 1.5993006229400634766 1.6862294673919677734 1.7595425844192504883 2.0196793079376220703 1.428458094596862793 1.4793527126312255859 2.0517859458923339844 2.3679168224334716797 1.6322942972183227539 1.6868520975112915039 1.3693587779998779297 1.3094828128814697266 1.7599045038223266602 1.3223078250885009766 1.2740701436996459961 1.2974061965942382813 2.0290231704711914063 2.2988717555999755859 2.0923266410827636719 2.3451502323150634766 2.6474354267120361328 2.2278916835784912109 2.5661072731018066406 2.3769581317901611328 2.1442234516143798828 1.8958183526992797852 2.3734579086303710938 2.3647749423980712891 2.5375645160675048828 2.43964385986328125 2.5370726585388183594 2.6577367782592773438 2.2929606437683105469 2.4399724006652832031 2.7813563346862792969 2.8038375377655029297 2.4607450962066650391 2.4455590248107910156 
3.1585474014282226563 3.0964863300323486328 2.5034415721893310547 2.5256743431091308594 3.0055940151214599609 2.7222266197204589844 2.5668351650238037109 2.71846771240234375 2.1710937023162841797 2.1243655681610107422 2.2849986553192138672 2.1041171550750732422 2.6143901348114013672 2.4805827140808105469 2.5201385021209716797 2.3523418903350830078 2.0484077930450439453 1.9288347959518432617 1.9441825151443481445 1.5431035757064819336 1.2924834489822387695 1.1110984086990356445 1.271325230598449707 1.6130491495132446289 1.4348843097686767578 1.2833623886108398438 1.3716799020767211914 1.3337434530258178711 1.24733734130859375 1.3047358989715576172 1.3745809793472290039 1.4926381111145019531 1.1152393817901611328 1.1458359956741333008 1.1394852399826049805 1.2726998329162597656 1.4536224603652954102 1.6816178560256958008 1.5483505725860595703 1.6029150485992431641 1.5913350582122802734 2.2054624557495117188 1.7847689390182495117 2.4904241561889648438 1.9816555976867675781 2.27564239501953125 2.3087685108184814453 1.7229193449020385742 1.8261994123458862305 2.1037509441375732422 1.9252176284790039063 2.1139342784881591797 1.8220453262329101563 1.6055853366851806641 1.5776461362838745117 1.4538767337799072266 1.4043247699737548828 1.3245486021041870117 1.340816497802734375 1.2770065069198608398 1.4793109893798828125 1.7310588359832763672 1.7288084030151367188 1.97418975830078125 1.6416971683502197266 1.6148428916931152344 2.1014425754547119141 1.9616568088531494141 1.3545361757278442383 1.3990154266357421875 1.4812029600143432617 2.1677408218383789063 2.3672978878021240234 2.6788163185119628906 3.1378960609436035156 2.5043809413909912109 2.2703754901885986328 2.064792633056640625 1.9863742589950561523 2.1685893535614013672 2.4310984611511230469 2.8669400215148925781 3.1242096424102783203 2.861972808837890625 2.6710834503173828125 2.7331342697143554688 2.262195587158203125 2.7969994544982910156 2.4045670032501220703 2.4611387252807617188 2.5633192062377929688 2.6879029273986816406 3.7349033355712890625 2.8087041378021240234 2.4849541187286376953 2.4142432212829589844 2.1548893451690673828 2.0748200416564941406 2.4513912200927734375 2.4302258491516113281 2.5240457057952880859 2.7569658756256103516 2.6568505764007568359 2.7581973075866699219 3.0809023380279541016 2.5867156982421875 2.4679546356201171875 2.1870830059051513672 2.1416177749633789063 3.0185170173645019531 2.0960149765014648438 1.9286152124404907227 2.4613575935363769531 2.0677771568298339844 1.8616220951080322266 2.4425029754638671875 2.0663228034973144531 2.4425613880157470703 2.0873925685882568359 1.786113739013671875 1.6516374349594116211 1.8872549533843994141 1.3572340011596679688 1.4743384122848510742 1.2737317085266113281 1.2666023969650268555 1 1.064486384391784668 1.1954288482666015625 1.0606553554534912109 1.0724923610687255859 1.1264483928680419922 1.0059900283813476563 1.4681824445724487305 1 1.1211432218551635742 1.1367096900939941406 1.2639173269271850586 1.0751968622207641602 1.3536072969436645508 1.4418600797653198242 1.3147966861724853516 1.702414393424987793 1.3283232450485229492 1.843766331672668457 1.7374048233032226563 2.4366617202758789063 2.2373750209808349609 2.1840333938598632813 1.8521621227264404297 2.1092498302459716797 2.5685901641845703125 2.0330133438110351563 1.8892441987991333008 2.5179259777069091797 2.8730485439300537109 2.4524998664855957031 2.5520451068878173828 2.6639082431793212891 2.0138201713562011719 1.6254389286041259766 1.3699545860290527344 1.6501631736755371094 1.7289993762969970703 1.4477939605712890625 1.2249447107315063477 1.5150630474090576172 1.6732558012008666992 2.1739087104797363281 2.3022224903106689453 1.8808369636535644531 1.4742419719696044922 1.7723468542098999023 1.3918746709823608398 1.2908873558044433594 1.1781334877014160156 1.7422292232513427734 1.7584716081619262695 1.7298272848129272461 1.8844153881072998047 2.5402266979217529297 2.7794241905212402344 2.2875115871429443359 2.4421164989471435547 2.5324308872222900391 2.3405318260192871094 2.0391380786895751953 1.9681001901626586914 2.5686845779418945313 2.1792128086090087891 1.8547875881195068359 2.1108500957489013672 2.6401605606079101563 2.3580465316772460938 2.1475391387939453125 1.9614689350128173828 2.3454508781433105469 2.4059383869171142578 2.6623363494873046875 2.5486092567443847656 
3.1841855049133300781 2.7986896038055419922 2.6228647232055664063 3.1445014476776123047 3.1760740280151367188 3.2219448089599609375 2.9463336467742919922 2.6403591632843017578 2.2815566062927246094 2.4007005691528320313 2.2649693489074707031 2.5298686027526855469 2.5650103092193603516 2.919586181640625 2.7101600170135498047 2.4156544208526611328 1.8822828531265258789 2.1252677440643310547 1.9615257978439331055 1.4664305448532104492 1.6517082452774047852 1.1846218109130859375 1.5510491132736206055 1.3264869451522827148 1.5493322610855102539 1.1341439485549926758 1.6113939285278320313 1.4879056215286254883 1.4716727733612060547 1.3343541622161865234 1.4782581329345703125 1.483997344970703125 1.0888320207595825195 1.0939819812774658203 1.3364317417144775391 1.2800991535186767578 1.5049811601638793945 1.2850966453552246094 1.4410072565078735352 1.6489292383193969727 1.4479910135269165039 1.7117720842361450195 2.1088845729827880859 2.2813050746917724609 2.0216438770294189453 2.1360979080200195313 2.1126666069030761719 2.0002963542938232422 1.8978790044784545898 2.1968150138854980469 2.3035762310028076172 2.4836254119873046875 1.6647742986679077148 1.9141029119491577148 1.6705644130706787109 1.4151741266250610352 1.6724175214767456055 1.3577470779418945313 1.2709331512451171875 1.3616136312484741211 1.5944141149520874023 1.9072306156158447266 1.5509879589080810547 1.7299202680587768555 1.7319591045379638672 1.3831667900085449219 1.7204065322875976563 1.0525357723236083984 1.8082149028778076172 1.5565880537033081055 1.9246386289596557617 2.1891837120056152344 2.1820325851440429688 2.8429722785949707031 3.2424395084381103516 2.5024304389953613281 2.5801815986633300781 2.3476195335388183594 2.2296876907348632813 2.4647812843322753906 2.5254228115081787109 2.7473974227905273438 2.3317744731903076172 2.7899868488311767578 2.4938285350799560547 2.3564937114715576172 2.6096901893615722656 1.9986413717269897461 2.1533188819885253906 2.3229148387908935547 2.5014874935150146484 2.7998795509338378906 2.7647302150726318359 2.7184379100799560547 2.5797069072723388672 2.5336155891418457031 2.1888148784637451172 2.4672245979309082031 2.4688684940338134766 2.6083950996398925781 2.6271114349365234375 2.9095056056976318359 2.7765944004058837891 2.8256595134735107422 2.7540886402130126953 2.7754037380218505859 2.6478633880615234375 2.6339335441589355469 2.2924718856811523438 2.2765445709228515625 2.0040552616119384766 2.3827488422393798828 2.2371611595153808594 1.9813086986541748047 1.8087258338928222656 1.947388768196105957 1.771645665168762207 2.0815596580505371094 2.1019570827484130859 1.686982274055480957 2.2215716838836669922 1.8868863582611083984 1.9441655874252319336 1.3027431964874267578 1.2275260686874389648 1.1328053474426269531 1 1.13819122314453125 1.0641609430313110352 1.1851530075073242188 1.5670930147171020508 1.3450353145599365234 1.0307977199554443359 1.0970125198364257813 1.1221671104431152344 1.0292184352874755859 1.0041050910949707031 1.2441910505294799805 1.4349716901779174805 1.2899312973022460938 1.3336098194122314453 1.2712032794952392578 1.2543389797210693359 1.695359349250793457 1.9235781431198120117 2.1004579067230224609 2.2130401134490966797 2.3892352581024169922 2.6467337608337402344 2.5391528606414794922 2.6204657554626464844 2.0982692241668701172 1.8496334552764892578 2.2610697746276855469 2.9246680736541748047 2.4863448143005371094 2.7142112255096435547 3.9650318622589111328 2.8308537006378173828 1.6553606986999511719 1.9148881435394287109 1.831017613410949707 1.5518671274185180664 1.481327056884765625 1.5544850826263427734 1.0127569437026977539 1.0298644304275512695 1.7889447212219238281 1.3931366205215454102 1.9664320945739746094 1.6034336090087890625 1.7308847904205322266 1.6031349897384643555 1.5143280029296875 1.6913177967071533203 1.4554345607757568359 1.5862151384353637695 1.9637414216995239258 1.9803923368453979492 2.1885976791381835938 2.1385982036590576172 2.5142993927001953125 2.3441560268402099609 2.1474330425262451172 2.3791174888610839844 2.0445210933685302734 2.3225054740905761719 1.8277113437652587891 2.2438957691192626953 2.0802500247955322266 2.2044832706451416016 2.1784315109252929688 2.2387857437133789063 2.0686321258544921875 1.9600727558135986328 1.9256471395492553711 2.46877288818359375 2.0594813823699951172 2.5812866687774658203 2.5809524059295654297 
2.9784708023071289063 2.8914194107055664063 2.9844174385070800781 2.7002344131469726563 2.9781675338745117188 3.2120108604431152344 2.8514854907989501953 2.5030519962310791016 2.3417136669158935547 2.4140419960021972656 2.4970808029174804688 2.4789621829986572266 2.8070857524871826172 2.5401527881622314453 2.6613957881927490234 2.3111593723297119141 2.4493694305419921875 2.09882354736328125 2.6262714862823486328 2.0438930988311767578 2.0444512367248535156 1.7554399967193603516 1.3621797561645507813 1.6386886835098266602 1.6177959442138671875 1.7680019140243530273 1.6981712579727172852 1.4467557668685913086 1.2561593055725097656 1.2896772623062133789 1.2182177305221557617 1.305812835693359375 1.3699318170547485352 1.4079060554504394531 1.7750393152236938477 1.3557354211807250977 1.286894679069519043 1.348664402961730957 1.5194718837738037109 1.5989443063735961914 1.7353638410568237305 1.6792665719985961914 1.697331547737121582 1.8840668201446533203 2.2467803955078125 2.500888824462890625 2.3114364147186279297 1.9406468868255615234 1.9824110269546508789 2.1430394649505615234 2.1437900066375732422 1.910323023796081543 2.4596924781799316406 1.6721605062484741211 2.1931145191192626953 1.4890912771224975586 1.5795296430587768555 1.6210600137710571289 1.4819104671478271484 1.8634361028671264648 1.7641363143920898438 1.441594243049621582 1.4835602045059204102 1.6741566658020019531 1.7466922998428344727 1.3933117389678955078 2.4887616634368896484 2.6963477134704589844 1.8238286972045898438 1.9951450824737548828 1.9942137002944946289 2.7825305461883544922 2.6214554309844970703 2.7198443412780761719 2.3184704780578613281 2.3413155078887939453 2.5273833274841308594 2.1582713127136230469 2.2499816417694091797 2.2394301891326904297 2.6402683258056640625 2.742961883544921875 2.6131072044372558594 2.0888111591339111328 2.0820438861846923828 2.4355344772338867188 2.3926019668579101563 2.3485002517700195313 2.4335477352142333984 2.5815627574920654297 2.4663245677947998047 2.5801987648010253906 2.5999004840850830078 2.6272683143615722656 2.4155335426330566406 2.3208568096160888672 2.8801963329315185547 2.5121672153472900391 2.7085084915161132813 2.5331304073333740234 2.3944115638732910156 2.6043276786804199219 2.7277891635894775391 2.6376643180847167969 2.6980199813842773438 2.7391333580017089844 2.7265210151672363281 2.4948699474334716797 2.27675628662109375 2.2473037242889404297 2.3944144248962402344 3.1101346015930175781 2.0094199180603027344 2.1926581859588623047 1.8089861869812011719 1.8853851556777954102 2.3602683544158935547 1.9497923851013183594 2.5239672660827636719 1.8088463544845581055 2.3691496849060058594 1.2280668020248413086 1.2174941301345825195 1.34952545166015625 1.1540033817291259766 1.1794183254241943359 1 1 1.151934504508972168 1.1465616226196289063 1.1407289505004882813 1.1638602018356323242 1.0837687253952026367 1.0056185722351074219 1 1 1.0458674430847167969 1.1545174121856689453 1.2433222532272338867 1.25063323974609375 1.225493311882019043 1.1230242252349853516 1.1142129898071289063 1.1388776302337646484 1.3338123559951782227 1.5056796073913574219 2.8088915348052978516 2.468288421630859375 2.5554776191711425781 3.0171964168548583984 3.0230486392974853516 2.2129838466644287109 2.2566244602203369141 2.5649523735046386719 2.3236162662506103516 2.2349226474761962891 2.0726222991943359375 2.2381770610809326172 2.1348104476928710938 1.6360987424850463867 2.1283173561096191406 1.4037415981292724609 1.5434229373931884766 1.4894260168075561523 1.2104905843734741211 1.4695121049880981445 1.4769558906555175781 1.1357275247573852539 1.2250387668609619141 1.3870224952697753906 1.6228549480438232422 1.3571892976760864258 2.4019937515258789063 1.7413066625595092773 1.5738244056701660156 1.5079405307769775391 1.7031446695327758789 1.9498451948165893555 1.9774876832962036133 2.1366963386535644531 2.6100606918334960938 2.2864985466003417969 2.6352896690368652344 2.0949189662933349609 1.7636352777481079102 1.624613642692565918 2.0948472023010253906 1.6310470104217529297 1.7818602323532104492 1.7629606723785400391 1.7172924280166625977 1.5234007835388183594 1.7554394006729125977 2.09421539306640625 1.6238034963607788086 1.743298649787902832 1.9654010534286499023 1.8230196237564086914 2.4507973194122314453 2.5213255882263183594 
3.2557103633880615234 3.3622510433197021484 2.9753394126892089844 2.5350501537322998047 2.746822357177734375 2.9167885780334472656 2.6953296661376953125 2.2637658119201660156 2.6797525882720947266 2.3162837028503417969 2.7522897720336914063 2.6489369869232177734 2.9109652042388916016 3.3608770370483398438 3.2081286907196044922 2.3735783100128173828 2.3765583038330078125 2.2763881683349609375 2.2772047519683837891 2.0988299846649169922 2.1512610912322998047 1.6655794382095336914 2.2068207263946533203 1.5191318988800048828 1.5194965600967407227 1.5492377281188964844 1.1265711784362792969 1.5095014572143554688 1.5926499366760253906 1.2623604536056518555 1.2647453546524047852 1.1813896894454956055 1.6220071315765380859 1.5099365711212158203 1.3910964727401733398 1.556634068489074707 1.7098423242568969727 1.2694094181060791016 1.4426834583282470703 1.3972476720809936523 1.4718425273895263672 1.7855677604675292969 1.6180131435394287109 1.7967103719711303711 1.9797791242599487305 2.1998856067657470703 2.0302770137786865234 1.9377168416976928711 2.1824932098388671875 2.111614227294921875 2.1247966289520263672 1.7939847707748413086 1.7753046751022338867 1.7439768314361572266 1.6612842082977294922 1.5867643356323242188 1.5903328657150268555 1.6051632165908813477 1.6183644533157348633 1.8457822799682617188 2.204753875732421875 1.6370182037353515625 1.3278806209564208984 1.775708317756652832 1.2216286659240722656 1.2040692567825317383 2.2383818626403808594 1.9741715192794799805 2.1615114212036132813 2.2810995578765869141 2.4475805759429931641 2.8540503978729248047 2.8585143089294433594 2.9533784389495849609 2.2981190681457519531 2.6147093772888183594 2.3117811679840087891 2.4470019340515136719 2.3707101345062255859 2.3018591403961181641 2.5879616737365722656 2.8574678897857666016 2.7103128433227539063 2.2735469341278076172 2.1748876571655273438 2.3605978488922119141 2.4129550457000732422 2.2579758167266845703 2.2333223819732666016 2.5615499019622802734 2.3942363262176513672 2.8696701526641845703 2.2255337238311767578 2.5138173103332519531 2.2898743152618408203 2.2044131755828857422 2.5696101188659667969 2.4804580211639404297 2.5901420116424560547 2.8252301216125488281 2.5160937309265136719 2.4121522903442382813 2.4605348110198974609 2.8144781589508056641 2.6331498622894287109 2.746585845947265625 2.5816042423248291016 2.6527986526489257813 2.1587464809417724609 2.6421370506286621094 2.092044830322265625 2.2559583187103271484 2.1332967281341552734 1.9269448518753051758 1.8909270763397216797 1.9844350814819335938 2.7358179092407226563 1.9281142950057983398 2.2157347202301025391 2.3704309463500976563 1.6745702028274536133 1.1070603132247924805 1.0918871164321899414 1.8782647848129272461 1.1971809864044189453 1 1.0543895959854125977 1.069241642951965332 1.1054787635803222656 1.1522030830383300781 1.0712094306945800781 1.0192188024520874023 1 1.1169065237045288086 1.0654898881912231445 1.3169633150100708008 1.0991237163543701172 1.2066007852554321289 1.3637802600860595703 1.4164054393768310547 1.2070654630661010742 1.0701358318328857422 1.5115925073623657227 1.2208474874496459961 1.2111477851867675781 1.4438513517379760742 1.9409382343292236328 2.3304736614227294922 2.2818825244903564453 2.7605791091918945313 3.1506974697113037109 2.0442004203796386719 1.7025307416915893555 1.8117974996566772461 2.4361696243286132813 2.0138864517211914063 3.0673527717590332031 1.3998293876647949219 1.7924939393997192383 2.3551080226898193359 1.9703116416931152344 1.8217473030090332031 1.8628324270248413086 1.5262303352355957031 1.3616764545440673828 1.4135560989379882813 1.7463377714157104492 1.4416060447692871094 1.2400648593902587891 1.6841887235641479492 1.4101300239562988281 1.4809305667877197266 1.4154644012451171875 1.5045695304870605469 1.4404690265655517578 2.0826194286346435547 1.8892874717712402344 2.0655064582824707031 2.0417046546936035156 2.0116262435913085938 2.6972522735595703125 2.4239964485168457031 2.3982715606689453125 2.3795955181121826172 1.8144649267196655273 1.7701032161712646484 1.8084151744842529297 1.6491407155990600586 1.6989665031433105469 1.3863623142242431641 1.9935284852981567383 1.2179195880889892578 1.6024127006530761719 1.635346531867980957 1.3402147293090820313 1.6700263023376464844 1.781119227409362793 1.9133332967758178711 1.9545286893844604492 2.0377635955810546875 
3.1858205795288085938 2.8502066135406494141 2.7592585086822509766 2.8727879524230957031 2.8669185638427734375 2.8607351779937744141 2.9404802322387695313 2.5897991657257080078 2.3739869594573974609 2.5551009178161621094 2.4237394332885742188 2.7606499195098876953 3.2084326744079589844 2.8732459545135498047 3.1962060928344726563 2.7359144687652587891 2.6669697761535644531 2.6145162582397460938 1.9885753393173217773 2.2054548263549804688 2.0471818447113037109 2.3048384189605712891 1.9521512985229492188 1.6727565526962280273 1.4715925455093383789 1.3824441432952880859 1.3719277381896972656 1.4785015583038330078 1.6131302118301391602 1.2093021869659423828 1.3637846708297729492 1.8733112812042236328 1.6111527681350708008 1.0469300746917724609 1.6336994171142578125 1.2191997766494750977 1.5232580900192260742 1.4662265777587890625 1.4123408794403076172 1.4120824337005615234 1.3492978811264038086 1.3707145452499389648 1.5626461505889892578 2.156047821044921875 2.1019530296325683594 2.032199859619140625 1.5844615697860717773 2.0677239894866943359 2.0444598197937011719 1.9962508678436279297 2.403942108154296875 2.0279078483581542969 2.0729553699493408203 1.8549239635467529297 1.7024996280670166016 1.5636861324310302734 1.6368676424026489258 1.4782969951629638672 1.7894120216369628906 2.1267321109771728516 3.0819735527038574219 1.3712964057922363281 1.29677581787109375 1.2528829574584960938 1.8768398761749267578 1.6643564701080322266 3.9853327274322509766 2.1624987125396728516 2.5803840160369873047 2.9725754261016845703 2.5195183753967285156 2.7261164188385009766 2.9160034656524658203 2.2846739292144775391 2.6945333480834960938 2.5802750587463378906 2.7705972194671630859 2.58899688720703125 2.5484161376953125 2.1227426528930664063 2.5386471748352050781 2.6754136085510253906 2.5234658718109130859 2.3541042804718017578 2.2347774505615234375 2.4911782741546630859 2.0114388465881347656 2.2602350711822509766 2.3640217781066894531 2.5154254436492919922 2.4686095714569091797 2.3292651176452636719 2.7948906421661376953 2.1334521770477294922 2.3480553627014160156 2.3902328014373779297 2.5186738967895507813 2.6458311080932617188 2.61283111572265625 2.385486602783203125 2.4061763286590576172 2.4798839092254638672 2.4870896339416503906 2.5490987300872802734 2.5845561027526855469 2.3834075927734375 2.4031112194061279297 2.7897040843963623047 2.8014628887176513672 2.8808541297912597656 2.4100742340087890625 2.4070978164672851563 2.1935935020446777344 2.1946132183074951172 2.0414376258850097656 1.9154506921768188477 2.1176755428314208984 2.1334075927734375 2.30937957763671875 1.9416373968124389648 1.4281508922576904297 1 1.0311986207962036133 1 1 1 1.0596064329147338867 1 1.109615325927734375 1.0088064670562744141 1.1795879602432250977 1.1104295253753662109 1 1.0468758344650268555 1.2639311552047729492 1.0415489673614501953 1.1103794574737548828 1.2928854227066040039 1.3038529157638549805 1.2271645069122314453 1.3255000114440917969 1.2245813608169555664 1.157115936279296875 1.1049151420593261719 1.2683289051055908203 1.1747215986251831055 2.1013917922973632813 1.8821529150009155273 2.6809046268463134766 2.3353183269500732422 1.9607012271881103516 1.8252795934677124023 1.5518441200256347656 1.260262608528137207 1.5864797830581665039 1.8570619821548461914 2.8299455642700195313 2.7952122688293457031 1.8789919614791870117 2.1938741207122802734 3.2370657920837402344 2.0834360122680664063 1.9516643285751342773 1.6489554643630981445 1.1900440454483032227 1.4039702415466308594 1.5505813360214233398 1.7773649692535400391 1.7664678096771240234 1.4050655364990234375 1.5766842365264892578 1.2707092761993408203 1.0699344873428344727 1.461503148078918457 1.7331697940826416016 1.6585049629211425781 1.9465583562850952148 2.1810460090637207031 2.6458673477172851563 2.1917879581451416016 2.4016389846801757813 2.3337254524230957031 2.5399255752563476563 2.2227931022644042969 1.6204028129577636719 2.0380311012268066406 1.7166998386383056641 1.7577216625213623047 1.3031257390975952148 1.343407750129699707 1.3290380239486694336 1.3367679119110107422 1.4534697532653808594 1.3943983316421508789 1.8726851940155029297 1.5796182155609130859 1.7076358795166015625 1.7315738201141357422 1.6351404190063476563 1.5978248119354248047 
2.8049461841583251953 2.7431447505950927734 2.3266859054565429688 2.2347760200500488281 2.8815271854400634766 2.5220167636871337891 2.4244053363800048828 2.9441804885864257813 2.6066899299621582031 2.9249181747436523438 2.8876423835754394531 2.8240170478820800781 2.9500451087951660156 3.0452144145965576172 3.039630889892578125 3.1093325614929199219 3.3664681911468505859 2.6610672473907470703 2.2637925148010253906 2.0110476016998291016 2.0775392055511474609 2.4159312248229980469 2.0457189083099365234 1.5844000577926635742 1.16796875 1.1648504734039306641 1.2021801471710205078 1.2071434259414672852 1.1716116666793823242 1.147003173828125 1.3806018829345703125 1.5587437152862548828 1.7150093317031860352 1.4493438005447387695 1.2356665134429931641 1.4937759637832641602 1.2736016511917114258 1.1987928152084350586 1.2494009733200073242 1.3435462713241577148 1.2062934637069702148 1.5491185188293457031 1.3941609859466552734 1.5536736249923706055 1.8808145523071289063 1.6848111152648925781 2.0308701992034912109 2.0288107395172119141 1.8221919536590576172 1.9105113744735717773 1.7953726053237915039 1.7710978984832763672 2.0386364459991455078 1.5754984617233276367 2.5251467227935791016 1.8404002189636230469 2.4538083076477050781 1.7450081110000610352 2.3390815258026123047 2.0891523361206054688 2.7442719936370849609 3.3883635997772216797 1.6295763254165649414 1.4283940792083740234 1.7828921079635620117 1.7986044883728027344 2.4362561702728271484 1.6880066394805908203 2.5872256755828857422 3.1811316013336181641 2.782466888427734375 2.1567223072052001953 2.3182644844055175781 2.335071563720703125 2.4260835647583007813 2.7715916633605957031 2.6369671821594238281 2.9735178947448730469 2.581974029541015625 2.4987239837646484375 2.5813074111938476563 2.6921620368957519531 2.1441333293914794922 2.5633747577667236328 2.5673618316650390625 2.1186971664428710938 2.0251133441925048828 2.0614223480224609375 2.2172343730926513672 2.3313124179840087891 2.3290510177612304688 2.3462877273559570313 2.3600497245788574219 2.2005388736724853516 2.5030231475830078125 2.4263377189636230469 2.5744378566741943359 2.5087311267852783203 2.6305551528930664063 2.4722330570220947266 2.5919086933135986328 2.5186898708343505859 2.6016147136688232422 2.5417146682739257813 2.2069845199584960938 2.6478526592254638672 2.4089479446411132813 2.3767907619476318359 2.337390899658203125 2.6563074588775634766 2.5163056850433349609 2.19731903076171875 2.3504691123962402344 2.2252016067504882813 2.0370671749114990234 1.6674008369445800781 2.0928971767425537109 1.9351308345794677734 1.9095284938812255859 1.6982150077819824219 1.5911706686019897461 1.2534968852996826172 1.2695039510726928711 1.069080352783203125 1.0042480230331420898 1 1.1177476644515991211 1 1 1.2359519004821777344 1.1695297956466674805 1.039999842643737793 1.0310587882995605469 1.1115579605102539063 1.0608742237091064453 1.0429141521453857422 1.0893079042434692383 1.3725556135177612305 1.4133139848709106445 1.1967356204986572266 1.2776933908462524414 1.1533321142196655273 1.2165517807006835938 1.1589744091033935547 1.34546661376953125 1.6042284965515136719 1.2224546670913696289 1.2762137651443481445 1.4716607332229614258 1.9170260429382324219 1.5330103635787963867 1.6277711391448974609 1.4174430370330810547 1.4753426313400268555 1.4863778352737426758 1.4976985454559326172 2.2588951587677001953 1.511685490608215332 1.5731352567672729492 2.5970044136047363281 1.4292303323745727539 2.2712321281433105469 1.6177324056625366211 1.444916844367980957 1.3031231164932250977 1.3824785947799682617 1.813393712043762207 1.3770605325698852539 1.1305677890777587891 1.0599422454833984375 1.2246221303939819336 1 1.215890049934387207 1.5584766864776611328 1.5065777301788330078 1.5877802371978759766 1.862910151481628418 2.3210282325744628906 2.2005000114440917969 2.2600502967834472656 2.1421678066253662109 2.1987309455871582031 2.3351500034332275391 2.3689634799957275391 2.0962247848510742188 1.8852483034133911133 1.6144107580184936523 1.4107036590576171875 1.2422275543212890625 1.3171988725662231445 1.3025004863739013672 1.2391002178192138672 1.4605755805969238281 1.5715003013610839844 1.3934209346771240234 1.3024272918701171875 1.0412750244140625 1.8151040077209472656 1.2092983722686767578 1 
2.9704792499542236328 2.8187642097473144531 2.5127248764038085938 2.0252110958099365234 2.2375004291534423828 2.6427257061004638672 2.4732401371002197266 2.9980092048645019531 2.4671158790588378906 2.5972449779510498047 3.0276782512664794922 3.0013518333435058594 2.7696688175201416016 3.2364890575408935547 2.8861727714538574219 2.8081357479095458984 3.0206484794616699219 2.4979205131530761719 2.6375632286071777344 2.0509884357452392578 1.4775485992431640625 2.395679473876953125 2.0288155078887939453 1.8538630008697509766 1.5630533695220947266 1.1800018548965454102 1.0633056163787841797 1.1020267009735107422 1.2407516241073608398 1.1487030982971191406 1.4970325231552124023 2.0359311103820800781 1.3815020322799682617 1.6112753152847290039 1.2996017932891845703 1.2644367218017578125 1.3731521368026733398 1.2214432954788208008 1.3710355758666992188 1.1637952327728271484 1.2552862167358398438 1.3767848014831542969 2.0681393146514892578 1.6977421045303344727 2.2375371456146240234 2.8206934928894042969 1.9342658519744873047 2.5261595249176025391 1.7985962629318237305 2.1877202987670898438 2.3715319633483886719 1.8332276344299316406 1.6665040254592895508 1.6799620389938354492 1.6773124933242797852 1.6888478994369506836 1.5457122325897216797 3.2076613903045654297 2.1084451675415039063 2.2289221286773681641 3.2651374340057373047 2.9454410076141357422 3.1172633171081542969 2.4567496776580810547 1.8330873250961303711 1.4218791723251342773 1.4000257253646850586 1.4815174341201782227 2.0297200679779052734 2.5219926834106445313 2.6136903762817382813 2.2186334133148193359 2.0767772197723388672 2.0139176845550537109 2.5392756462097167969 2.7234873771667480469 3.0378370285034179688 2.1989347934722900391 2.3560016155242919922 2.2995724678039550781 2.3528914451599121094 2.5499322414398193359 2.4352235794067382813 2.0324184894561767578 2.4576609134674072266 2.1552357673645019531 2.0964303016662597656 2.3169963359832763672 2.1055152416229248047 2.187351226806640625 2.4036884307861328125 2.4641737937927246094 2.3223683834075927734 2.5245347023010253906 2.2820360660552978516 2.3254518508911132813 2.4033880233764648438 2.4762189388275146484 2.5862009525299072266 2.4360802173614501953 2.2211256027221679688 2.5717294216156005859 2.4522838592529296875 2.4962112903594970703 2.4698097705841064453 2.2900350093841552734 2.43749237060546875 2.7288515567779541016 2.4274184703826904297 2.4851877689361572266 2.8529202938079833984 2.6944756507873535156 2.1534121036529541016 2.217525482177734375 2.1553599834442138672 1.8983379602432250977 2.0404043197631835938 1.6215763092041015625 1.7644454240798950195 1.8184952735900878906 1.3734515905380249023 1.2560968399047851563 1.320574641227722168 1.0221959352493286133 1 1.4354113340377807617 1.0633376836776733398 1.2573163509368896484 1.0499806404113769531 1 1.210291743278503418 1.127587437629699707 1.1740255355834960938 1.1224942207336425781 1.1278512477874755859 1.0951809883117675781 1.027810215950012207 1.1641517877578735352 1.2271602153778076172 1.2030218839645385742 1.2213184833526611328 1.3862737417221069336 1.2261478900909423828 1.2176797389984130859 1.3681058883666992188 1.1444855928421020508 1.2302258014678955078 1.1815019845962524414 1.4050844907760620117 1.4882029294967651367 1.34499359130859375 1.6313995122909545898 1.4135948419570922852 1.5615317821502685547 1.3627219200134277344 1.4214080572128295898 1.3981682062149047852 1.4015060663223266602 1.4286323785781860352 1.2778508663177490234 1.3553891181945800781 1.8233058452606201172 1.6811784505844116211 1.6673877239227294922 1.116471409797668457 1.3934125900268554688 1.2104724645614624023 1.2517501115798950195 1.2135219573974609375 1.0625197887420654297 1 1.1780040264129638672 1.1659718751907348633 1.3344777822494506836 1.3247647285461425781 1.5950587987899780273 2.0956368446350097656 2.2665493488311767578 2.1731975078582763672 2.1114821434020996094 1.8519588708877563477 2.1061391830444335938 2.1318476200103759766 2.0219664573669433594 2.3956398963928222656 1.7335463762283325195 1.4715703725814819336 1.3041614294052124023 1.0794641971588134766 1.2610248327255249023 1.3980985879898071289 1.4274963140487670898 1.5260663032531738281 1.6209092140197753906 1.5034699440002441406 1.3641680479049682617 1.4394140243530273438 1 1 1.06232452392578125 
3.3901948928833007813 2.8846366405487060547 2.2883665561676025391 2.3520467281341552734 2.3307287693023681641 2.1744163036346435547 2.4994902610778808594 2.5937867164611816406 2.4903447628021240234 2.9492197036743164063 3.1900527477264404297 2.9098849296569824219 2.7749447822570800781 3.0080783367156982422 2.77197265625 2.9156343936920166016 2.7913215160369873047 2.5377030372619628906 2.6268541812896728516 2.2798609733581542969 2.1314370632171630859 2.2407007217407226563 1.8958295583724975586 1.8175911903381347656 1.7239093780517578125 1.2687811851501464844 1.2498861551284790039 1.0397202968597412109 1.369320988655090332 1.3215928077697753906 1.1526153087615966797 1.3461356163024902344 1.7789450883865356445 1.8803756237030029297 1.2983881235122680664 1.3286058902740478516 1.508496403694152832 1.2806488275527954102 1.3343112468719482422 1.4747039079666137695 1.3924994468688964844 1.3685783147811889648 1.6563621759414672852 1.8821618556976318359 2.7556834220886230469 1.5615876913070678711 1.7325446605682373047 2.2629315853118896484 2.6114866733551025391 2.1919853687286376953 2.5608386993408203125 2.1714334487915039063 1.7104539871215820313 1.5498349666595458984 2.5942349433898925781 1.9578195810317993164 3.6482000350952148438 2.4682018756866455078 1.6785082817077636719 1.851043701171875 3.6597952842712402344 1.3343524932861328125 2.2985081672668457031 1.3881115913391113281 1.7310695648193359375 1.6447423696517944336 1.9341827630996704102 2.9156293869018554688 2.0945386886596679688 2.4099504947662353516 2.5246872901916503906 2.1593770980834960938 2.0992288589477539063 2.1227216720581054688 2.6407332420349121094 2.487087249755859375 2.6521918773651123047 2.2159779071807861328 2.9626634120941162109 2.0435178279876708984 2.2131214141845703125 2.5813474655151367188 2.1293163299560546875 2.4056973457336425781 2.3473212718963623047 2.390712738037109375 2.2556872367858886719 2.5608763694763183594 1.6555107831954956055 1.9236162900924682617 2.061279296875 2.2967410087585449219 2.3133544921875 2.3041231632232666016 2.0483369827270507813 2.1644546985626220703 2.4121813774108886719 2.3118164539337158203 2.2899892330169677734 2.4262588024139404297 2.541210174560546875 2.6975405216217041016 3.2281305789947509766 2.9184715747833251953 2.5750448703765869141 2.2585453987121582031 2.3287460803985595703 2.5444147586822509766 2.2720875740051269531 2.6999228000640869141 2.6490662097930908203 2.9189171791076660156 2.3401274681091308594 2.3905634880065917969 2.0734322071075439453 2.1548023223876953125 1.7074072360992431641 1.7183684110641479492 1.781830906867980957 2.2479186058044433594 1.614069819450378418 1.4371893405914306641 1.3174040317535400391 1.0152736902236938477 1.0135855674743652344 1 1 1 1 1.1067433357238769531 1.1994004249572753906 1.1550955772399902344 1.348443150520324707 1.0758757591247558594 1.1269041299819946289 1.1470818519592285156 1.050113677978515625 1.2037274837493896484 1.1867297887802124023 1.3344848155975341797 1.2211825847625732422 1.3238799571990966797 1.5701328516006469727 1.6519297361373901367 1.4418016672134399414 1.1347663402557373047 1.1560180187225341797 1.2602756023406982422 1.3036341667175292969 1.436504364013671875 1.1483616828918457031 1.1826272010803222656 1.3169678449630737305 1.6464728116989135742 1.3506412506103515625 1.4289796352386474609 1.4070450067520141602 1.3601889610290527344 1.7056061029434204102 1.4164644479751586914 1.4110053777694702148 2.1389620304107666016 2.3674783706665039063 1.841143488883972168 1.4723236560821533203 1.3970444202423095703 1.2051185369491577148 1.3196284770965576172 1.1580005884170532227 1.1086274385452270508 1.0065444707870483398 1.4283491373062133789 1.1613512039184570313 1.3358981609344482422 1.4095531702041625977 1.5496581792831420898 1.9546844959259033203 1.9087398052215576172 2.5231502056121826172 1.9723583459854125977 2.7552247047424316406 1.7282828092575073242 2.3187804222106933594 2.3196051120758056641 2.4503688812255859375 1.6286311149597167969 1.6025679111480712891 1.4451905488967895508 1.2405989170074462891 1.4750201702117919922 1.4626822471618652344 1.539127349853515625 1.5321710109710693359 1.6982374191284179688 1.4879214763641357422 1.0895990133285522461 1.0887032747268676758 1.2261158227920532227 1 1.1506408452987670898 
3.2201683521270751953 3.0594692230224609375 2.3972451686859130859 2.7069623470306396484 2.5196332931518554688 2.4377238750457763672 2.1046929359436035156 2.2546939849853515625 2.7983598709106445313 3.0801336765289306641 3.3159089088439941406 3.1311542987823486328 2.9435596466064453125 2.7847516536712646484 2.7626633644104003906 2.7825682163238525391 2.7456266880035400391 2.4410796165466308594 2.4730794429779052734 2.4865021705627441406 2.2540566921234130859 2.1895239353179931641 2.0236585140228271484 1.7132298946380615234 1.7354336977005004883 1.5616642236709594727 1.3567588329315185547 1.0920821428298950195 1.0466353893280029297 1.072620391845703125 1.3742308616638183594 1.4289709329605102539 1.7864403724670410156 1.4467072486877441406 1.4248690605163574219 1.507573246955871582 1.4461650848388671875 1.5701564550399780273 1.3895879983901977539 1.3263894319534301758 1.1774450540542602539 1.3256173133850097656 1.7022310495376586914 1.9237788915634155273 1.7244561910629272461 1.7267295122146606445 1.9709471464157104492 1.8271222114562988281 1.8502490520477294922 2.2007694244384765625 2.0718524456024169922 3.7905302047729492188 1.8866236209869384766 2.5135068893432617188 2.9680721759796142578 2.4211647510528564453 2.1882846355438232422 1.9445906877517700195 2.1433861255645751953 2.2115719318389892578 1.5769450664520263672 1.4311236143112182617 1.9694181680679321289 1.2554694414138793945 2.5805177688598632813 1.6461428403854370117 1.3487706184387207031 3.281787872314453125 2.1591942310333251953 2.1532886028289794922 2.4898254871368408203 2.5339515209197998047 2.5349342823028564453 1.9664083719253540039 2.3507466316223144531 2.9880347251892089844 2.9497327804565429688 2.9560954570770263672 2.3333170413970947266 2.6165692806243896484 2.4643154144287109375 2.9500899314880371094 2.2049093246459960938 2.2033345699310302734 2.8011260032653808594 2.5488672256469726563 2.6279528141021728516 2.6930625438690185547 1.9324704408645629883 2.2743768692016601563 2.1097967624664306641 2.1423771381378173828 2.4146349430084228516 2.0989441871643066406 2.1484370231628417969 2.1108820438385009766 2.3481867313385009766 2.4091944694519042969 2.5159237384796142578 2.5783040523529052734 2.8796794414520263672 2.8001146316528320313 3.2469756603240966797 2.7237100601196289063 2.6463885307312011719 2.5336170196533203125 2.5271179676055908203 2.5025894641876220703 2.6431870460510253906 2.8448047637939453125 2.6451990604400634766 2.4630625247955322266 2.63544464111328125 2.3861541748046875 2.2664961814880371094 2.0948987007141113281 1.7914670705795288086 1.4520566463470458984 1.5023779869079589844 1.9086111783981323242 1.3821142911911010742 1.4144525527954101563 1.096239924430847168 1 1.040717005729675293 1.0224223136901855469 1.0086687803268432617 1.0309721231460571289 1.0453048944473266602 1.153496861457824707 1.105408787727355957 1.1517269611358642578 1.1222088336944580078 1.0881541967391967773 1.2117251157760620117 1 1.1019361019134521484 1.2346037626266479492 1.3807878494262695313 1.2501479387283325195 1.3498662710189819336 1.2724574804306030273 1.2787193059921264648 1.356671452522277832 1.3751376867294311523 1.2603284120559692383 1.2577824592590332031 1.1190626621246337891 1.1878054141998291016 1.1719880104064941406 1.4134012460708618164 1.5553756952285766602 1.3954716920852661133 1.4673174619674682617 1.4926894903182983398 1.4528396129608154297 1.5327296257019042969 2.226963043212890625 1.6388790607452392578 1.5254951715469360352 1.7847732305526733398 2.8028838634490966797 1.4164470434188842773 2.3972730636596679688 1.7504618167877197266 1.3079551458358764648 1.3945770263671875 1.0782846212387084961 1.1194945573806762695 1.1693730354309082031 1 1 1.1892145872116088867 1.533804774284362793 1.3958659172058105469 1.5095726251602172852 1.5092749595642089844 1.5166023969650268555 1.8518830537796020508 1.8158507347106933594 2.0352227687835693359 2.1970512866973876953 2.1002299785614013672 2.3405351638793945313 2.7601380348205566406 2.1601526737213134766 1.7050950527191162109 1.5357214212417602539 1.5045542716979980469 1.4623290300369262695 1.3626824617385864258 2.0661692619323730469 2.1079468727111816406 2.1400053501129150391 1.228781580924987793 1.3333364725112915039 1.0592073202133178711 1.3238610029220581055 1.0839705467224121094 1.2789222002029418945 
3.3798084259033203125 3.0130815505981445313 2.6352288722991943359 2.5636551380157470703 2.7380392551422119141 2.0421912670135498047 2.0485010147094726563 2.4512987136840820313 2.4540810585021972656 2.6382362842559814453 3.1966507434844970703 3.092342376708984375 2.9078259468078613281 3.0077803134918212891 2.8369593620300292969 2.8083956241607666016 2.8508594036102294922 2.4259078502655029297 2.0485565662384033203 2.7598700523376464844 2.2056419849395751953 2.2852077484130859375 2.3792133331298828125 1.6637742519378662109 1.59806060791015625 1.1121565103530883789 1.4731982946395874023 1.2189123630523681641 1.4775717258453369141 1.6651016473770141602 1.5180027484893798828 1.9404343366622924805 1.9340569972991943359 1.6578059196472167969 1.6322177648544311523 1.7173275947570800781 1.606547236442565918 1.4852684736251831055 1.6971760988235473633 1.2794167995452880859 1.7551847696304321289 1.636345982551574707 1.5058889389038085938 1.6148192882537841797 2.0282268524169921875 3.1006464958190917969 1.483416438102722168 2.1704113483428955078 3.5716624259948730469 2.215381622314453125 2.1874659061431884766 1.9331443309783935547 2.9261615276336669922 2.35282135009765625 2.1405777931213378906 2.3447308540344238281 2.0905427932739257813 3.2797753810882568359 2.6462869644165039063 1.7564120292663574219 1.4826166629791259766 1.3509613275527954102 1.4002737998962402344 3.1923897266387939453 1.7458769083023071289 1.9218831062316894531 1.4847708940505981445 1.983462214469909668 2.5972239971160888672 2.6518158912658691406 2.3459582328796386719 1.8391135931015014648 2.2295527458190917969 2.0105791091918945313 2.5422077178955078125 2.1620912551879882813 2.3064098358154296875 2.8815402984619140625 2.7371554374694824219 3.0502202510833740234 2.4946188926696777344 2.3511896133422851563 2.6993107795715332031 2.6972043514251708984 2.2624957561492919922 2.4914143085479736328 2.4461717605590820313 2.493930816650390625 2.2653386592864990234 2.2461154460906982422 2.0994629859924316406 2.2644393444061279297 2.3235802650451660156 2.1857626438140869141 2.4833288192749023438 2.2846174240112304688 2.2233061790466308594 2.0933125019073486328 2.2847549915313720703 2.3038680553436279297 2.8169341087341308594 2.5921788215637207031 2.4888350963592529297 2.8311777114868164063 2.8910927772521972656 2.5307383537292480469 2.5949797630310058594 2.4389641284942626953 2.4629540443420410156 2.5512757301330566406 2.6959671974182128906 2.5272822380065917969 2.3110711574554443359 2.3460700511932373047 2.316425323486328125 2.3136193752288818359 2.5682840347290039063 1.4364132881164550781 1.2833653688430786133 1.5707111358642578125 1.1650485992431640625 1 1 1.0103290081024169922 1.1651897430419921875 1.0161981582641601563 1 1 1.2557351589202880859 1 1.1074713468551635742 1.1399921178817749023 1.0465288162231445313 1.0437606573104858398 1.1608109474182128906 1.1379610300064086914 1 1.1376936435699462891 1.2334703207015991211 1.1921961307525634766 1.1799657344818115234 1.256997227668762207 1.3613249063491821289 1.3761590719223022461 1.3546563386917114258 1.3262546062469482422 1.1982812881469726563 1.2341672182083129883 1.2019203901290893555 1.3047996759414672852 1.3043427467346191406 1.328267216682434082 1.2587313652038574219 1.2539434432983398438 1.3089977502822875977 1.3724157810211181641 1.4353630542755126953 1.5767815113067626953 1.3352034091949462891 1.606404423713684082 1.5530399084091186523 1.7622044086456298828 1.8782202005386352539 1.7850261926651000977 1.8454265594482421875 1.6378651857376098633 1.189052581787109375 1.2942267656326293945 1.2068269252777099609 1.2479460239410400391 1 1.3203198909759521484 1.2838671207427978516 1.6530985832214355469 1.3987745046615600586 1.3205425739288330078 1.4612637758255004883 1.0940556526184082031 1.4989882707595825195 1.8180962800979614258 2.1705808639526367188 2.3270280361175537109 2.0807666778564453125 2.9821431636810302734 1.9686416387557983398 2.3468761444091796875 1.5163357257843017578 1.3535392284393310547 1.5291068553924560547 1.3613699674606323242 1.2798485755920410156 1.6664156913757324219 2.1534047126770019531 2.0594305992126464844 1.3980780839920043945 1.2708626985549926758 1.0225708484649658203 1.1336190700531005859 1.142687678337097168 1.0930472612380981445 
3.0002195835113525391 2.9815843105316162109 2.2512149810791015625 2.6333854198455810547 2.3821861743927001953 2.0094082355499267578 2.3094241619110107422 2.4899921417236328125 2.4725413322448730469 2.5177607536315917969 2.7398960590362548828 2.830623626708984375 2.6424505710601806641 3.3989946842193603516 3.2723202705383300781 3.1708254814147949219 3.1738152503967285156 2.5800149440765380859 2.1326274871826171875 1.7311627864837646484 1.8779658079147338867 1.8811491727828979492 1.8915938138961791992 1.7197386026382446289 1.4200605154037475586 1.2659384012222290039 1.211106419563293457 1.7080578804016113281 1.3628348112106323242 1.3179466724395751953 1.8880815505981445313 1.9928618669509887695 2.4541988372802734375 2.1644606590270996094 2.1691739559173583984 1.6027281284332275391 1.5986255407333374023 1.5000681877136230469 1.5311872959136962891 1.9060752391815185547 1.2742308378219604492 1.2683504819869995117 1.6304045915603637695 1.820630192756652832 2.0262715816497802734 2.9232728481292724609 1.8211328983306884766 2.3063747882843017578 2.40100860595703125 2.4467244148254394531 2.5238554477691650391 2.127838134765625 2.2298116683959960938 2.9121227264404296875 2.3429739475250244141 2.9296996593475341797 2.0284023284912109375 2.2059681415557861328 2.2988803386688232422 1.5154634714126586914 1.4670424461364746094 1.3584274053573608398 1.9567418098449707031 1.6271497011184692383 2.1988053321838378906 1.7470613718032836914 1.8793984651565551758 2.1429708003997802734 2.4686708450317382813 2.5328955650329589844 2.5527307987213134766 2.4867165088653564453 2.1326344013214111328 1.8096996545791625977 2.3559165000915527344 2.9822428226470947266 3.0181095600128173828 2.4593658447265625 2.7838132381439208984 2.8911499977111816406 3.2969112396240234375 2.8864045143127441406 2.8004813194274902344 2.5190231800079345703 2.37493896484375 2.0765850543975830078 2.4155550003051757813 2.7802190780639648438 2.3938333988189697266 2.5752131938934326172 2.3990812301635742188 2.2267601490020751953 2.6866235733032226563 2.2567598819732666016 2.3901791572570800781 2.0356004238128662109 2.2754197120666503906 2.3692951202392578125 2.7861611843109130859 2.4503848552703857422 2.5611472129821777344 2.6816229820251464844 2.3203840255737304688 2.5319182872772216797 2.7860314846038818359 2.8935086727142333984 2.5447666645050048828 2.73252105712890625 2.5075774192810058594 2.4334428310394287109 2.5754184722900390625 2.5094215869903564453 2.6945364475250244141 2.5839836597442626953 2.5109059810638427734 2.1542806625366210938 1.9577769041061401367 1.7735232114791870117 1.4651612043380737305 1.2683627605438232422 1.1482484340667724609 1 1.0588703155517578125 1.0406318902969360352 1.0901250839233398438 1.0259987115859985352 1 1.3412768840789794922 1.2918460369110107422 1.0019701719284057617 1 1.0697460174560546875 1.071497797966003418 1.0519251823425292969 1.1138677597045898438 1.1493014097213745117 1.2202666997909545898 1.1512205600738525391 1.2160049676895141602 1.1692745685577392578 1.1710867881774902344 1.3065110445022583008 1.1349718570709228516 1.2920590639114379883 1.504119873046875 1.2578251361846923828 1.420167088508605957 1.121829986572265625 1.1260116100311279297 1.3675645589828491211 1.2188105583190917969 1.4155677556991577148 1.3847414255142211914 1.2541096210479736328 1.2723050117492675781 1.4312311410903930664 1.4941250085830688477 1.4657052755355834961 1.4559445381164550781 1.9590829610824584961 2.2027387619018554688 1.6521461009979248047 1.3571404218673706055 2.0235660076141357422 1.6022473573684692383 1.550267338752746582 1.1055563688278198242 1.2629818916320800781 1.1621201038360595703 1.0560486316680908203 1.1556394100189208984 1.2158540487289428711 1.4876637458801269531 1.4722713232040405273 1.2366293668746948242 1.4254723787307739258 1.3323194980621337891 1.083832859992980957 2.1504464149475097656 1.9654877185821533203 2.3606715202331542969 2.1113612651824951172 3.1033830642700195313 2.1933574676513671875 2.0521781444549560547 1.6033656597137451172 2.0793564319610595703 2.1998112201690673828 1.6481015682220458984 1.5053670406341552734 1.7009621858596801758 1.4891203641891479492 2.2243373394012451172 1.8093340396881103516 1.7239377498626708984 1.407683253288269043 1.1209191083908081055 1.1316143274307250977 1.146578669548034668 1.4683129787445068359 
2.6767585277557373047 3.2259426116943359375 3.0733239650726318359 2.1990160942077636719 2.4904909133911132813 2.1094496250152587891 2.1817655563354492188 1.9521346092224121094 2.4857976436614990234 3.2286856174468994141 2.6592850685119628906 2.1468899250030517578 2.8403084278106689453 3.0253782272338867188 3.1052429676055908203 3.1232781410217285156 2.8360300064086914063 2.7394237518310546875 2.2692692279815673828 2.4205081462860107422 1.6629444360733032227 2.2410006523132324219 1.5279126167297363281 1.7795112133026123047 1.3686680793762207031 1.3217210769653320313 1.5660142898559570313 1.8094823360443115234 1.5858021974563598633 1.3264400959014892578 1.5419001579284667969 2.228786468505859375 2.5492889881134033203 2.116550445556640625 2.3135273456573486328 1.8060169219970703125 1.8127224445343017578 1.9866490364074707031 1.3555963039398193359 1.6921010017395019531 1.2185950279235839844 1.3870871067047119141 2.0537464618682861328 2.6293420791625976563 3.4564805030822753906 2.0994956493377685547 3.2358281612396240234 1.6321176290512084961 2.4868032932281494141 3.4742836952209472656 4.4911718368530273438 3.7430913448333740234 2.4360113143920898438 3.9637782573699951172 2.4747512340545654297 2.6457200050354003906 2.0681722164154052734 2.2723753452301025391 2.5954113006591796875 1.8149044513702392578 2.0607714653015136719 1.4330261945724487305 2.6854574680328369141 2.0359673500061035156 1.3925316333770751953 1.8636329174041748047 1.7832468748092651367 2.0993351936340332031 1.908939361572265625 2.3571822643280029297 1.9815064668655395508 2.3238294124603271484 1.8589529991149902344 2.0477507114410400391 2.3077917098999023438 2.4830958843231201172 2.6130123138427734375 2.7498641014099121094 2.9453608989715576172 2.8462214469909667969 2.4102799892425537109 2.7599856853485107422 2.4231493473052978516 2.3385603427886962891 2.0383727550506591797 2.2660460472106933594 2.3620517253875732422 2.5496141910552978516 2.2028009891510009766 2.5719921588897705078 2.4114475250244140625 2.2476391792297363281 2.4213588237762451172 2.3248357772827148438 2.2545704841613769531 2.3177337646484375 2.1610510349273681641 2.2932500839233398438 2.2270298004150390625 1.9811449050903320313 2.1639127731323242188 2.6020855903625488281 2.5709795951843261719 2.5429844856262207031 2.4513535499572753906 2.8373062610626220703 2.8098194599151611328 2.7413525581359863281 2.5572223663330078125 2.5482890605926513672 2.6531925201416015625 2.7346174716949462891 2.6724462509155273438 2.5216045379638671875 2.3582308292388916016 2.1736240386962890625 1.7882231473922729492 1.8765693902969360352 1.4374959468841552734 1.1782115697860717773 1.1661393642425537109 1.1398290395736694336 1 1.1324353218078613281 1.1472412347793579102 1.0874468088150024414 1.0526672601699829102 1.1077176332473754883 1.1925511360168457031 1.0331461429595947266 1 1.0336693525314331055 1.1299307346343994141 1 1.061322331428527832 1.1855319738388061523 1.3137296438217163086 1.2680027484893798828 1.1874426603317260742 1.2408318519592285156 1.2531478404998779297 1.1659189462661743164 1.1997768878936767578 1.1209843158721923828 1.2265048027038574219 1.3488065004348754883 1.2856749296188354492 1.1322737932205200195 1.2997914552688598633 1.4534168243408203125 1.3621566295623779297 1.2950556278228759766 1.3186525106430053711 1.2819402217864990234 1.3870167732238769531 1.3148871660232543945 1.3456337451934814453 1.5219104290008544922 1.4971630573272705078 2.0206212997436523438 1.8181805610656738281 1.6098425388336181641 1.3355450630187988281 1.3032377958297729492 1.4159047603607177734 1.3929817676544189453 1.1720697879791259766 1.240599513053894043 1.2210564613342285156 1.3154416084289550781 1.0241466760635375977 1.2758147716522216797 1.3596776723861694336 1.3347200155258178711 1.8075554370880126953 1.8303539752960205078 1.8170366287231445313 1.9987081289291381836 1.6757898330688476563 1.9435454607009887695 2.2221281528472900391 2.1488904953002929688 2.2824811935424804688 2.4617440700531005859 2.9628689289093017578 1.9883273839950561523 2.2967729568481445313 2.1362755298614501953 1.7148497104644775391 1.5793964862823486328 1.5325499773025512695 1.70687103271484375 1.7162947654724121094 1.9720320701599121094 1.6108348369598388672 1.4991214275360107422 1.0978990793228149414 1.4580342769622802734 1.4619461297988891602 1.4066544771194458008 
2.2549812793731689453 2.6369996070861816406 2.5696818828582763672 2.626880645751953125 2.2730927467346191406 2.3095731735229492188 2.3127663135528564453 2.2088348865509033203 2.3510403633117675781 2.6352732181549072266 2.6766200065612792969 3.0240106582641601563 2.6152083873748779297 2.9417052268981933594 2.7109653949737548828 2.7770764827728271484 2.9041047096252441406 2.5926024913787841797 2.1640131473541259766 2.3146760463714599609 2.1046228408813476563 1.9822497367858886719 1.661610722541809082 1.1323444843292236328 1.2199305295944213867 1.098200678825378418 1.4426343441009521484 1.1103584766387939453 1.2946846485137939453 1.5090947151184082031 1.3990927934646606445 2.5650973320007324219 2.4672923088073730469 2.2596867084503173828 1.872717738151550293 2.4989480972290039063 1.7598122358322143555 1.8481963872909545898 1.6709750890731811523 1.9329739809036254883 1.1896405220031738281 2.0221569538116455078 2.0477850437164306641 2.1011760234832763672 3.7582221031188964844 2.9415614604949951172 2.8147971630096435547 2.8351581096649169922 2.7168619632720947266 3.109455108642578125 4.5019879341125488281 2.2916536331176757813 2.5068066120147705078 3.9158418178558349609 2.0895702838897705078 2.8219118118286132813 1.9819310903549194336 1.7832698822021484375 2.8116064071655273438 2.4303796291351318359 3.4903011322021484375 2.4737861156463623047 1.7301051616668701172 1.8055722713470458984 1.4425742626190185547 1.4043292999267578125 1.4226250648498535156 1.5240838527679443359 1.6058253049850463867 1.6783239841461181641 1.6427090167999267578 2.2530128955841064453 2.0818691253662109375 2.4916951656341552734 2.6528537273406982422 2.9093661308288574219 3.2648079395294189453 3.0354599952697753906 2.5037541389465332031 2.9198210239410400391 3.368976593017578125 3.353633880615234375 2.6937716007232666016 2.2911167144775390625 2.3736367225646972656 1.9940876960754394531 2.3767981529235839844 2.5306231975555419922 2.5929594039916992188 2.4866847991943359375 2.4788751602172851563 1.9448696374893188477 2.3015768527984619141 2.7218761444091796875 2.026836395263671875 2.3018274307250976563 2.1070537567138671875 2.0114016532897949219 2.2935352325439453125 2.0747528076171875 2.1530086994171142578 2.6033513545989990234 2.7882950305938720703 2.6551570892333984375 2.1787362098693847656 2.5496709346771240234 2.7939956188201904297 2.6602587699890136719 2.332080841064453125 2.6784410476684570313 2.5605893135070800781 2.5724642276763916016 2.6958575248718261719 2.4550542831420898438 2.2291445732116699219 1.6631681919097900391 1.6040047407150268555 1.5881344079971313477 1.4106202125549316406 1.5604950189590454102 1.4762284755706787109 1.2845703363418579102 1.0614830255508422852 1.0488628149032592773 1 1.0989996194839477539 1.096116185188293457 1.1826909780502319336 1 1.0640679597854614258 1 1.3735800981521606445 1.1491625308990478516 1.0490152835845947266 1 1.175627589225769043 1.1165492534637451172 1.1714979410171508789 1.1978386640548706055 1.2291871309280395508 1.3313039541244506836 1.2731041908264160156 1.2683113813400268555 1.3110051155090332031 1.1958245038986206055 1.3070437908172607422 1.2839984893798828125 1.3872549533843994141 1.3413105010986328125 1.384981989860534668 1.3642425537109375 1.3343602418899536133 1.3134132623672485352 1.338284611701965332 1.3977942466735839844 1.3416762351989746094 1.5356553792953491211 1.3951772451400756836 1.3993763923645019531 1.5144848823547363281 1.4851578474044799805 1.5752644538879394531 1.8271300792694091797 1.5780096054077148438 1.7531142234802246094 1.1529703140258789063 1.1407144069671630859 1.2395677566528320313 1.2103048563003540039 1.2647643089294433594 1.0971829891204833984 1.577395319938659668 1.9537901878356933594 1.584660649299621582 2.1608788967132568359 1.83907318115234375 2.5262429714202880859 1.9779877662658691406 1.7573791742324829102 2.273929595947265625 2.2261025905609130859 2.4837687015533447266 2.0191214084625244141 2.3291866779327392578 2.4129476547241210938 1.497142791748046875 1.8572065830230712891 1.8624248504638671875 1.778133392333984375 1.7771161794662475586 1.7025994062423706055 1.7488088607788085938 1.6578691005706787109 1.7401641607284545898 1.524897456169128418 1.816823124885559082 1.5034036636352539063 1.7191842794418334961 1.6778299808502197266 1.4008331298828125 
2.2979590892791748047 2.5773005485534667969 2.5865571498870849609 2.4181916713714599609 2.1486506462097167969 2.4033684730529785156 1.8028995990753173828 2.3012936115264892578 2.2667136192321777344 2.5886971950531005859 3.0745110511779785156 2.8035047054290771484 2.6745221614837646484 2.8656561374664306641 3.0462756156921386719 2.5641756057739257813 2.5689718723297119141 2.3153853416442871094 2.2372565269470214844 2.2093715667724609375 1.9885135889053344727 1.7441178560256958008 1.5079731941223144531 1.2480945587158203125 1.452341914176940918 1.2419679164886474609 1.1593147516250610352 1.8677214384078979492 1.1490435600280761719 2.0149855613708496094 2.1265780925750732422 2.5573210716247558594 2.4489235877990722656 2.4585886001586914063 2.3875200748443603516 1.6106854677200317383 1.8890330791473388672 1.9427468776702880859 1.6823536157608032227 1.4621208906173706055 1.3334082365036010742 2.1636309623718261719 1.8967872858047485352 3.4490010738372802734 2.1881597042083740234 1.8155312538146972656 2.1716172695159912109 2.8390347957611083984 3.4585127830505371094 3.7779629230499267578 5.1165289878845214844 4.5287051200866699219 3.2422230243682861328 3.0538437366485595703 2.3304510116577148438 2.1113920211791992188 2.1718680858612060547 2.2599918842315673828 2.7612378597259521484 2.4778473377227783203 2.2735178470611572266 1.8214025497436523438 1.7523019313812255859 1.7394558191299438477 1.7600765228271484375 1.8460928201675415039 1.7294553518295288086 1.5636081695556640625 1.7858842611312866211 1.9933148622512817383 2.1072933673858642578 2.2052123546600341797 2.8020198345184326172 2.8020670413970947266 2.9388880729675292969 2.7496662139892578125 2.8459076881408691406 3.220123291015625 3.3319342136383056641 3.6421961784362792969 3.1813406944274902344 3.4808418750762939453 3.0951666831970214844 2.3503365516662597656 2.5298726558685302734 2.4476492404937744141 2.1856522560119628906 2.2302734851837158203 2.3630218505859375 2.3730142116546630859 2.40966033935546875 2.1589064598083496094 2.4396722316741943359 2.5678465366363525391 2.0499601364135742188 2.4197027683258056641 2.1727848052978515625 1.9560793638229370117 1.8918291330337524414 2.1075890064239501953 2.3275361061096191406 2.7679908275604248047 2.7742869853973388672 1.9623683691024780273 2.1976759433746337891 2.2770092487335205078 2.52831268310546875 2.7322118282318115234 2.4388613700866699219 2.9089858531951904297 2.3790538311004638672 2.4974596500396728516 2.3365890979766845703 2.3466951847076416016 2.04351043701171875 1.599532008171081543 1.5322797298431396484 1.3645787239074707031 1.3569298982620239258 1.2792646884918212891 1.3851366043090820313 1 1 1.1119774580001831055 1.0308469533920288086 1.0325284004211425781 1 1.0376328229904174805 1.0836769342422485352 1.0691570043563842773 1.2434298992156982422 1.1230581998825073242 1.2375677824020385742 1.063388824462890625 1.0045177936553955078 1.2514188289642333984 1.0523445606231689453 1.1433129310607910156 1.2647665739059448242 1.1177190542221069336 1.0690999031066894531 1.1961414813995361328 1.1285407543182373047 1.2880420684814453125 1.1708157062530517578 1.3011380434036254883 1.2778226137161254883 1.3225295543670654297 1.5327432155609130859 1.4191280603408813477 1.4013063907623291016 1.3188266754150390625 1.2991634607315063477 1.626591801643371582 1.2742714881896972656 1.2239108085632324219 1.2092989683151245117 1.6004495620727539063 1.6986168622970581055 1.2691212892532348633 1.7756150960922241211 1.6497719287872314453 2.0088646411895751953 1.5316753387451171875 1.6109871864318847656 1.1429518461227416992 1.1264852285385131836 1.6000680923461914063 1.2687666416168212891 1.2142858505249023438 1.1502889394760131836 1.1443505287170410156 1.7821198701858520508 2.2327313423156738281 1.9235314130783081055 2.0522749423980712891 2.2621624469757080078 2.1346902847290039063 1.9768748283386230469 2.4018242359161376953 2.5134363174438476563 1.8613644838333129883 2.1684315204620361328 1.7445131540298461914 1.8682835102081298828 1.5962871313095092773 1.4700608253479003906 1.6945548057556152344 1.79345703125 1.8226277828216552734 1.7273988723754882813 1.5759578943252563477 1.7272374629974365234 1.8610759973526000977 1.5159441232681274414 1.2873855829238891602 1.9006531238555908203 1.6396011114120483398 1.8186510801315307617 1.7815972566604614258 
2.1336581707000732422 2.4460494518280029297 2.3775718212127685547 2.3016314506530761719 2.2414782047271728516 2.4833054542541503906 2.2007210254669189453 2.1151564121246337891 2.8229358196258544922 2.67529296875 2.8387854099273681641 2.6155323982238769531 2.6912374496459960938 2.5824794769287109375 2.9523990154266357422 2.6768615245819091797 2.7928071022033691406 2.091732025146484375 2.5821063518524169922 2.3045275211334228516 2.3383476734161376953 2.1732614040374755859 2.0503590106964111328 1.6053752899169921875 1.5100955963134765625 1.8212760686874389648 1.3612242937088012695 1.3793764114379882813 1.6172857284545898438 1.7689406871795654297 2.4452526569366455078 3.0464761257171630859 2.7659289836883544922 2.5550417900085449219 2.1986737251281738281 1.7817269563674926758 1.8418173789978027344 2.1154754161834716797 2.0777039527893066406 1.4673098325729370117 1.7298201322555541992 2.4483950138092041016 3.2021541595458984375 3.7602989673614501953 3.7431726455688476563 2.0500743389129638672 1.8355526924133300781 2.0575716495513916016 2.3180842399597167969 5.5330343246459960938 3.0196092128753662109 4.5138297080993652344 3.330432891845703125 1.9312468767166137695 2.1834938526153564453 3.3145632743835449219 2.7587206363677978516 3.8206834793090820313 2.5031340122222900391 2.5844879150390625 2.5094957351684570313 2.0899031162261962891 1.8415192365646362305 1.8701977729797363281 1.9953447580337524414 1.9464899301528930664 1.8767476081848144531 2.1277110576629638672 2.1980690956115722656 2.1817646026611328125 2.1265516281127929688 2.3860745429992675781 2.4940822124481201172 2.4186260700225830078 2.8239126205444335938 3.2689225673675537109 3.3908407688140869141 3.4985709190368652344 3.1621050834655761719 3.5323872566223144531 3.5670034885406494141 3.0354983806610107422 3.6419751644134521484 2.9673306941986083984 2.7833826541900634766 2.9941279888153076172 2.5317208766937255859 2.5882430076599121094 1.9013577699661254883 2.0971727371215820313 2.1887886524200439453 2.3404383659362792969 2.2308514118194580078 2.2113144397735595703 2.2434406280517578125 2.4203739166259765625 2.0526239871978759766 2.0535640716552734375 2.1156797409057617188 2.2849690914154052734 2.54192352294921875 2.4406657218933105469 2.3292386531829833984 2.1819319725036621094 2.5320808887481689453 2.6211278438568115234 2.5155968666076660156 2.2558224201202392578 2.2639038562774658203 2.5817966461181640625 2.3321869373321533203 2.3974301815032958984 2.3257639408111572266 1.8684622049331665039 1.5008674860000610352 1.3256670236587524414 1.3454569578170776367 1.3419502973556518555 1.1158503293991088867 1.3772273063659667969 1.3577278852462768555 1.0037409067153930664 1.0674308538436889648 1.053135991096496582 1.1201664209365844727 1.1412634849548339844 1 1 1.1027352809906005859 1 1.123259425163269043 1.0152835845947265625 1.1101367473602294922 1 1.0993486642837524414 1.1186357736587524414 1.1395020484924316406 1.1589567661285400391 1.1821858882904052734 1.1623455286026000977 1.1977562904357910156 1.2903717756271362305 1.0797530412673950195 1.1644322872161865234 1.1256024837493896484 1.3201067447662353516 1.3608024120330810547 1.6395174264907836914 1.4002519845962524414 1.4356067180633544922 1.5427956581115722656 1.4371637105941772461 1.4967875480651855469 1.2783944606781005859 1.3387691974639892578 1.1782610416412353516 1.1619691848754882813 1.4163177013397216797 2.0650475025177001953 1.5548723936080932617 1.0305396318435668945 1.7668352127075195313 1.5820485353469848633 1.6156601905822753906 1.6313952207565307617 1.2477667331695556641 1.859100341796875 1.207401275634765625 1.260345458984375 1.070509791374206543 1.5770595073699951172 1.1214841604232788086 1.6298301219940185547 1.6834123134613037109 1.806613922119140625 2.1450266838073730469 1.9694696664810180664 2.0363445281982421875 2.1147649288177490234 2.0360801219940185547 2.0625281333923339844 2.221805572509765625 1.655176997184753418 1.6542724370956420898 1.5556826591491699219 1.4012994766235351563 1.3566318750381469727 1.5129704475402832031 1.7754563093185424805 1.4496982097625732422 1.777657628059387207 1.8378031253814697266 1.400754094123840332 1.5747776031494140625 1.989672541618347168 1.5264221429824829102 1.464501500129699707 1.45879364013671875 2.0498993396759033203 1.9232623577117919922 
2.2597105503082275391 1.8865158557891845703 2.0113711357116699219 2.0957219600677490234 2.2524969577789306641 2.0107858180999755859 1.9178049564361572266 2.4147484302520751953 2.1079871654510498047 2.6555190086364746094 2.855747222900390625 2.1722545623779296875 2.37862396240234375 2.7229375839233398438 2.7440602779388427734 2.2457308769226074219 2.5068950653076171875 2.6343145370483398438 2.0862269401550292969 2.4258062839508056641 2.7597577571868896484 2.4811398983001708984 2.1211767196655273438 1.7275910377502441406 1.2396597862243652344 1.7468665838241577148 1.498058319091796875 1.5745966434478759766 1.811991572380065918 2.0770852565765380859 2.1573848724365234375 2.4095594882965087891 2.8500721454620361328 2.6291460990905761719 2.4634349346160888672 1.8876568078994750977 2.1881635189056396484 2.1679151058197021484 2.1051282882690429688 1.9372570514678955078 3.7563104629516601563 2.5826587677001953125 2.0984845161437988281 2.2033751010894775391 3.2410414218902587891 1.8943765163421630859 2.1166586875915527344 2.3073930740356445313 3.484218597412109375 2.7197642326354980469 4.9988589286804199219 4.3726429939270019531 2.2975041866302490234 2.7275142669677734375 2.0921609401702880859 2.3846487998962402344 2.2355477809906005859 2.3537435531616210938 2.3642086982727050781 2.5765223503112792969 2.2428317070007324219 2.6036562919616699219 1.7070515155792236328 2.1359815597534179688 1.8118871450424194336 2.3402967453002929688 2.4307880401611328125 2.4886519908905029297 2.3027591705322265625 1.883978724479675293 2.3890106678009033203 2.3409023284912109375 2.1581575870513916016 2.27154541015625 3.0966882705688476563 3.0702257156372070313 2.5454239845275878906 2.7309134006500244141 3.3039138317108154297 3.37702178955078125 3.5372419357299804688 3.3143737316131591797 3.1963965892791748047 2.5720102787017822266 2.5658206939697265625 2.8457348346710205078 2.3777730464935302734 2.3571133613586425781 2.3034796714782714844 2.1530575752258300781 2.0980861186981201172 2.3004775047302246094 2.6192071437835693359 2.0788211822509765625 2.0628314018249511719 2.221469879150390625 2.2878928184509277344 2.0470879077911376953 2.1034340858459472656 2.3229358196258544922 2.6270046234130859375 2.7159833908081054688 2.6143622398376464844 2.256378173828125 2.1254475116729736328 2.3390176296234130859 2.2105734348297119141 1.8886543512344360352 2.0623791217803955078 2.2586901187896728516 1.9544231891632080078 1.7898111343383789063 1.8103041648864746094 1.9608020782470703125 2.1130244731903076172 1.4929748773574829102 1.4724413156509399414 1.4157282114028930664 1.3838913440704345703 1.3582276105880737305 1.2282007932662963867 1.5093294382095336914 1.1061837673187255859 1.1916304826736450195 1.1206395626068115234 1.2596044540405273438 1 1 1.0245525836944580078 1.0758969783782958984 1 1 1.1161783933639526367 1 1 1.0208616256713867188 1.02489471435546875 1.1537415981292724609 1.084910273551940918 1.2602782249450683594 1.2076660394668579102 1.0351617336273193359 1.2209088802337646484 1.0472077131271362305 1.2989007234573364258 1.240512847900390625 1.522586822509765625 1.2909349203109741211 1.6135801076889038086 1.3545486927032470703 1.4940705299377441406 1.3230979442596435547 1.285985112190246582 1.2275518178939819336 1.2292859554290771484 1.1803127527236938477 1.3853175640106201172 1.5312600135803222656 1.6965038776397705078 1.5464849472045898438 1.5816867351531982422 1.7789046764373779297 1.1936224699020385742 1.2369468212127685547 1.2258458137512207031 1.1356893777847290039 1.5142138004302978516 1.0976860523223876953 1.2153002023696899414 1.1257264614105224609 1.2217261791229248047 1.3473645448684692383 1.5553668737411499023 1.4068251848220825195 1.6302716732025146484 1.7345044612884521484 2.1620359420776367188 2.201873779296875 1.8731235265731811523 2.3545725345611572266 2.4031739234924316406 1.8911126852035522461 2.0981562137603759766 1.5037276744842529297 1.0909056663513183594 1.3795328140258789063 1.5341122150421142578 1.759976506233215332 1.8583769798278808594 1.9407273530960083008 2.0476744174957275391 2.1003639698028564453 2.1800823211669921875 1.7088940143585205078 1.6675469875335693359 1.5998072624206542969 1.923234105110168457 1.6471468210220336914 1.6897832155227661133 1.8230597972869873047 
2.1313588619232177734 1.9576807022094726563 2.0865015983581542969 1.9680812358856201172 2.4300394058227539063 2.3532609939575195313 2.0956244468688964844 2.3111734390258789063 2.458744049072265625 2.8525907993316650391 2.7717030048370361328 2.4504442214965820313 2.57798004150390625 2.5473124980926513672 2.7131559848785400391 2.2246799468994140625 2.6395063400268554688 2.1779561042785644531 2.1758623123168945313 2.5775971412658691406 2.1751856803894042969 1.9030650854110717773 2.0711624622344970703 1.7701615095138549805 1.9030301570892333984 1.4659523963928222656 1.6475678682327270508 1.2654833793640136719 1.2597446441650390625 2.0941483974456787109 2.38788604736328125 2.8519773483276367188 2.4787809848785400391 2.5679140090942382813 2.3139548301696777344 2.1449863910675048828 1.6274558305740356445 2.015106201171875 2.1343929767608642578 2.3061077594757080078 2.37490081787109375 2.6712160110473632813 2.4431450366973876953 1.6830371618270874023 2.7479240894317626953 1.772868037223815918 2.1933274269104003906 2.8880829811096191406 4.0242204666137695313 2.5652229785919189453 3.1825604438781738281 5.6719908714294433594 4.2737212181091308594 1.8516930341720581055 2.3507618904113769531 2.4022321701049804688 2.0097627639770507813 2.8850319385528564453 3.0644824504852294922 2.9577353000640869141 2.4254484176635742188 2.4270129203796386719 2.1645486354827880859 1.6427836418151855469 1.8179262876510620117 2.0681242942810058594 2.608188629150390625 2.7601029872894287109 2.5975248813629150391 2.7309870719909667969 1.9617697000503540039 2.0276484489440917969 2.3194048404693603516 2.2554373741149902344 2.6651990413665771484 2.5395548343658447266 2.0441858768463134766 2.2345030307769775391 2.7778551578521728516 3.1744124889373779297 3.1873445510864257813 3.29875946044921875 3.0326650142669677734 2.9303424358367919922 2.6067018508911132813 2.3994252681732177734 2.0215609073638916016 2.5240628719329833984 2.3137276172637939453 1.8931419849395751953 1.9891159534454345703 2.2558557987213134766 2.2342803478240966797 1.9894018173217773438 2.2852132320404052734 2.0327315330505371094 2.2494113445281982422 2.3358476161956787109 2.25521087646484375 2.1470296382904052734 2.2424120903015136719 2.5472919940948486328 2.1586081981658935547 1.8900231122970581055 1.6490991115570068359 1.8748829364776611328 2.1106128692626953125 1.8445165157318115234 1.7460780143737792969 1.7881661653518676758 1.572845458984375 1.861288905143737793 1.6471294164657592773 1.6432471275329589844 1.4690688848495483398 1.445942997932434082 1.4859509468078613281 1.4252839088439941406 1.6491000652313232422 1.5729945898056030273 2.2386443614959716797 1.1831804513931274414 1.3942011594772338867 1.1379575729370117188 1.0781986713409423828 1.2489806413650512695 1.0712828636169433594 1.02496337890625 1 1.0746016502380371094 1.1036906242370605469 1 1.1353451013565063477 1 1.0804504156112670898 1.0326774120330810547 1 1.1435576677322387695 1.1723463535308837891 1.2143797874450683594 1.2445586919784545898 1.0597168207168579102 1.1882575750350952148 1.0990326404571533203 1.1938912868499755859 1.229756474494934082 1.3587996959686279297 1.5763512849807739258 1.4150961637496948242 1.3809375762939453125 1.4205344915390014648 1.2734100818634033203 1.3014957904815673828 1.247539520263671875 1.2989988327026367188 1.2082854509353637695 1.5176172256469726563 1.0734541416168212891 1.677722930908203125 1.6753687858581542969 1.3396654129028320313 1.377690434455871582 1.3137871026992797852 1.5137190818786621094 1.5105336904525756836 1.7772127389907836914 1.1446502208709716797 1.0824352502822875977 1.0543954372406005859 1.2910549640655517578 1.2509168386459350586 1.3553569316864013672 1.6226769685745239258 1.3239589929580688477 1.2808127403259277344 1.272395014762878418 1.6406942605972290039 1.7229071855545043945 2.1731579303741455078 2.4073016643524169922 1.8972494602203369141 1.8214929103851318359 1.3380776643753051758 1.2128380537033081055 1.1748241186141967773 1.491764068603515625 1.9348311424255371094 1.6495213508605957031 2.0936844348907470703 2.0310125350952148438 1.8497126102447509766 1.9707733392715454102 1.7134976387023925781 1.7734687328338623047 1.7532639503479003906 1.9454864263534545898 2.0398530960083007813 1.6030771732330322266 1.6030840873718261719 1.5537171363830566406 
2.0267999172210693359 2.0735135078430175781 2.3728613853454589844 2.3282647132873535156 1.9793839454650878906 2.28564453125 1.7870867252349853516 2.2290427684783935547 2.8695292472839355469 2.7271754741668701172 2.4354798793792724609 2.3135218620300292969 2.2735400199890136719 2.3524715900421142578 2.3174414634704589844 1.7619425058364868164 2.3487021923065185547 2.4654638767242431641 2.3221857547760009766 1.9177721738815307617 2.1154940128326416016 1.971165776252746582 1.6969275474548339844 1.5152536630630493164 1.7487981319427490234 1.7941672801971435547 1.9559423923492431641 1.6419979333877563477 1.5991787910461425781 1.4180116653442382813 2.2614011764526367188 3.1112489700317382813 2.5768651962280273438 2.5754735469818115234 2.4920232295989990234 2.0676867961883544922 2.2825398445129394531 1.6125810146331787109 2.0888426303863525391 2.4335846900939941406 2.124866485595703125 1.9537968635559082031 1.5427548885345458984 1.6767731904983520508 1.590076446533203125 1.4875406026840209961 2.4222884178161621094 3.6198742389678955078 3.5718176364898681641 2.55438232421875 3.2271420955657958984 2.4111092090606689453 2.0421063899993896484 2.2924044132232666016 2.5547263622283935547 1.8061999082565307617 1.5665847063064575195 2.6845407485961914063 2.2226529121398925781 2.3206870555877685547 1.8991712331771850586 2.1242346763610839844 1.7244710922241210938 1.6137310266494750977 1.6463308334350585938 2.1241698265075683594 2.1956064701080322266 2.4532644748687744141 2.0510630607604980469 2.1546580791473388672 2.1280996799468994141 2.0634951591491699219 1.740874171257019043 1.9049010276794433594 1.8034349679946899414 2.4010319709777832031 1.8690568208694458008 1.9700016975402832031 2.7370691299438476563 2.8920142650604248047 2.9018082618713378906 2.9018306732177734375 2.9018340110778808594 2.8852410316467285156 2.8600287437438964844 2.5533883571624755859 2.5248425006866455078 2.3199529647827148438 1.9459520578384399414 2.0596189498901367188 2.1349520683288574219 2.2138605117797851563 2.1637518405914306641 2.2746195793151855469 2.2784037590026855469 2.0174028873443603516 2.2219383716583251953 2.4808259010314941406 2.4149997234344482422 1.7576463222503662109 1.9926999807357788086 2.1641740798950195313 2.580074310302734375 1.870583653450012207 1.5530704259872436523 1.4921928644180297852 1.4361377954483032227 1.5065268278121948242 1.4405319690704345703 1.6101495027542114258 1.7132997512817382813 1.7893503904342651367 1.9829578399658203125 1.6058884859085083008 1.3967164754867553711 1.3708260059356689453 1.7169212102890014648 1.5384050607681274414 1.8214114904403686523 3.2314100265502929688 2.0393226146697998047 1.2802126407623291016 1.2518621683120727539 1.5213303565979003906 1.2139230966567993164 1.1079525947570800781 1.2786054611206054688 1.1797393560409545898 1.0143086910247802734 1.0276508331298828125 1 1.0444102287292480469 1 1 1 1 1.0022258758544921875 1.0416277647018432617 1.1554517745971679688 1.3447145223617553711 1.1664475202560424805 1.1981476545333862305 1.1746056079864501953 1.0611360073089599609 1.3565632104873657227 1.1432034969329833984 1.2844089269638061523 1.1850451231002807617 1.4050394296646118164 1.2931830883026123047 1.3695464134216308594 1.2918255329132080078 1.311740875244140625 1.2798134088516235352 1.2177582979202270508 1.1966272592544555664 1.0770987272262573242 1.260661005973815918 1 1.3483736515045166016 1.2604578733444213867 1.5275086164474487305 1.3161439895629882813 1.2660396099090576172 1.206679224967956543 1.4949017763137817383 1.1177791357040405273 1.1004183292388916016 1.0104243755340576172 1.2499310970306396484 1.3533436059951782227 1.5386044979095458984 1.4308754205703735352 1.3144301176071166992 1.0651912689208984375 1.5484458208084106445 1.5574764013290405273 2.1220493316650390625 1.9173737764358520508 1.6164491176605224609 1.5192446708679199219 1.4384206533432006836 1.4965510368347167969 1.6399023532867431641 1.4006227254867553711 1.7441563606262207031 1.8882077932357788086 1.794781804084777832 1.8496469259262084961 2.3307127952575683594 2.0109243392944335938 1.8368880748748779297 1.6703828573226928711 1.6049661636352539063 1.6690253019332885742 1.524602055549621582 1.7291443347930908203 1.5905663967132568359 1.7359880208969116211 1.6749418973922729492 
2.0549986362457275391 2.0937926769256591797 1.9727013111114501953 2.1656122207641601563 2.1054873466491699219 2.2107293605804443359 2.1899209022521972656 2.1243801116943359375 3.1375155448913574219 2.8474986553192138672 2.7265079021453857422 2.4756476879119873047 2.6898198127746582031 2.0351233482360839844 2.2139794826507568359 1.3708881139755249023 1.8419780731201171875 2.0386385917663574219 2.1426281929016113281 2.1678340435028076172 1.7359122037887573242 2.0937151908874511719 1.92440032958984375 2.0774967670440673828 2.6368718147277832031 2.1578192710876464844 1.3909916877746582031 1.343334197998046875 1.3369414806365966797 1.5528157949447631836 1.541210174560546875 2.4768164157867431641 2.8584547042846679688 2.5027906894683837891 2.4372179508209228516 2.5663969516754150391 2.4027512073516845703 2.0953843593597412109 2.1353847980499267578 1.9959249496459960938 1.6086788177490234375 2.1575276851654052734 1.9158465862274169922 2.7019736766815185547 2.9166109561920166016 2.2966451644897460938 3.0968546867370605469 4.0890307426452636719 4.9794969558715820313 2.0975534915924072266 2.2018702030181884766 2.2709996700286865234 2.2127525806427001953 1.8450999259948730469 2.1265962123870849609 1.5232778787612915039 2.0237796306610107422 2.0973336696624755859 1.8752121925354003906 1.7200160026550292969 1.6197985410690307617 1.560344696044921875 1.4078553915023803711 1.5273230075836181641 2.3315918445587158203 1.8599396944046020508 1.7013305425643920898 1.910164952278137207 1.9339565038681030273 1.9388017654418945313 2.1927175521850585938 2.0102155208587646484 1.6593251228332519531 1.8044530153274536133 1.6703534126281738281 1.6552585363388061523 1.7897036075592041016 1.7299159765243530273 2.1922776699066162109 3.0332677364349365234 2.9005031585693359375 3.1056852340698242188 2.7122795581817626953 3.0515229701995849609 2.9761371612548828125 2.9672291278839111328 2.6634957790374755859 2.238368988037109375 1.9727393388748168945 1.9648445844650268555 1.7190687656402587891 1.9988729953765869141 1.9599758386611938477 1.890153050422668457 2.1558828353881835938 1.7644945383071899414 1.8899093866348266602 1.9450258016586303711 2.0443983078002929688 1.6393780708312988281 1.9188112020492553711 2.1017899513244628906 2.1041579246520996094 2.0777659416198730469 1.6318322420120239258 1.4820502996444702148 1.3101035356521606445 1.3004316091537475586 1.5648721456527709961 1.2561362981796264648 1.6221917867660522461 1.2634456157684326172 1.82944488525390625 1.5193480253219604492 1.5189225673675537109 1.6380703449249267578 2.0133185386657714844 1.7185500860214233398 2.3055222034454345703 2.1242449283599853516 1.9999450445175170898 1.4160413742065429688 1.4588840007781982422 1.6483922004699707031 1.7269766330718994141 1.667035222053527832 1.2004259824752807617 1 1 1.0024065971374511719 1 1 1 1 1.2828680276870727539 1 1.1752775907516479492 1.0373345613479614258 1.1106357574462890625 1.0786672830581665039 1.0658096075057983398 1.225391387939453125 1.0435311794281005859 1.1576707363128662109 1.1624085903167724609 1.1013891696929931641 1.1241320371627807617 1.3216184377670288086 1.3051605224609375 1.2709854841232299805 1.314745783805847168 1.2517716884613037109 1.2170079946517944336 1.311176300048828125 1.2464134693145751953 1.2179740667343139648 1.0457893610000610352 1 1.3420405387878417969 1.7195482254028320313 1.4357396364212036133 1.3801409006118774414 1.3332790136337280273 1.2885897159576416016 1.1830399036407470703 1 1.0580451488494873047 1.0811123847961425781 1.0993765592575073242 1.7309502363204956055 1.5271837711334228516 1.362603306770324707 1.3950016498565673828 1.4744436740875244141 1.3687560558319091797 1.5484927892684936523 1.7576105594635009766 1.7572840452194213867 1.3222670555114746094 1.2091310024261474609 1.3496522903442382813 1.2943465709686279297 1.6570808887481689453 1.8934578895568847656 1.5749818086624145508 1.9927699565887451172 1.9171656370162963867 2.0632898807525634766 1.8818427324295043945 1.8270063400268554688 1.6508052349090576172 1.9443719387054443359 1.7343895435333251953 1.9578833580017089844 1.4114849567413330078 1.7553229331970214844 2.2216646671295166016 1.5016731023788452148 1.6488862037658691406 1.5519039630889892578 
2.1131269931793212891 2.3359868526458740234 2.095653533935546875 2.0376791954040527344 2.6281170845031738281 2.2390046119689941406 2.0302557945251464844 2.2808766365051269531 2.9339122772216796875 2.3651320934295654297 2.9428527355194091797 2.6630754470825195313 2.1519293785095214844 2.5530383586883544922 1.9974526166915893555 1.6945328712463378906 2.1064860820770263672 2.3305118083953857422 1.8284517526626586914 1.7916786670684814453 2.2897400856018066406 1.663837432861328125 2.1129729747772216797 2.2883646488189697266 2.1477191448211669922 2.0656805038452148438 1.6032907962799072266 1.320542454719543457 1.1350066661834716797 1.2208240032196044922 1.8273539543151855469 2.3028392791748046875 2.3223431110382080078 2.5560500621795654297 2.5175228118896484375 2.5817136764526367188 2.4570989608764648438 2.2611646652221679688 2.4275918006896972656 1.864218592643737793 2.2841522693634033203 2.7431786060333251953 2.4351265430450439453 3.4285302162170410156 3.5069131851196289063 1.9647377729415893555 3.7145054340362548828 2.7550854682922363281 2.6292438507080078125 2.5539429187774658203 2.1403028964996337891 2.6251254081726074219 3.9197583198547363281 2.0436513423919677734 1.4194103479385375977 1.3019927740097045898 1.3728935718536376953 1.3827204704284667969 1.9144260883331298828 1.5040403604507446289 1.346201777458190918 1.5817106962203979492 1.5184000730514526367 1.6766567230224609375 1.5069632530212402344 1.8965425491333007813 2.2406227588653564453 2.0385584831237792969 1.8078470230102539063 1.8531278371810913086 1.6264997720718383789 1.4795430898666381836 1.523671269416809082 1.9252074956893920898 1.6967134475708007813 1.7584098577499389648 1.4035916328430175781 1.5268245935440063477 1.852151036262512207 2.4115417003631591797 2.468303680419921875 2.4034032821655273438 2.9212677478790283203 3.2452940940856933594 2.9792027473449707031 3.1414752006530761719 2.4717187881469726563 2.6276357173919677734 2.1953213214874267578 1.7517185211181640625 1.7965941429138183594 1.8313163518905639648 1.913285374641418457 1.7238231897354125977 1.6352616548538208008 1.6972146034240722656 1.680004119873046875 1.9840743541717529297 1.7922035455703735352 1.9369739294052124023 1.5569348335266113281 1.9577641487121582031 1.9642680883407592773 1.860228419303894043 1.4499156475067138672 1.4325679540634155273 1.4823094606399536133 1.7542562484741210938 1.3063180446624755859 1.3559938669204711914 1.3511750698089599609 1.3700262308120727539 1.8595825433731079102 1.6017030477523803711 1.3254941701889038086 1.2530481815338134766 1.4067926406860351563 1.8611867427825927734 1.3981177806854248047 2.8317620754241943359 1.7066681385040283203 1.3789688348770141602 1.6439687013626098633 1.7828488349914550781 1.4820666313171386719 1.4775279760360717773 1 1.0136114358901977539 1.0851253271102905273 1.0541064739227294922 1 1 1.0033838748931884766 1 1.1437671184539794922 1.03729248046875 1.042115330696105957 1.1050614118576049805 1.089150547981262207 1.2648155689239501953 1.0982195138931274414 1.1052297353744506836 1.1025000810623168945 1.139376521110534668 1.0627577304840087891 1.2547250986099243164 1.1237764358520507813 1.2666205167770385742 1.306889653205871582 1.3027234077453613281 1.2853795289993286133 1.518448948860168457 1.1395620107650756836 1.2495360374450683594 1.2518515586853027344 1.233275294303894043 1.2390050888061523438 1.0586431026458740234 1 1.3534624576568603516 1.6004540920257568359 1.5513459444046020508 1.2789416313171386719 1.0504834651947021484 1.4384745359420776367 1.5621049404144287109 1.3506951332092285156 1.2376482486724853516 1.4265341758728027344 1.5494611263275146484 1.6880934238433837891 1.387929081916809082 1.4805234670639038086 1.4653484821319580078 1.4450640678405761719 1.4379924535751342773 1.4466822147369384766 1.3418403863906860352 1.2734977006912231445 1.1706317663192749023 1.1553941965103149414 1.5499564409255981445 1.3231282234191894531 1.6477743387222290039 1.6183106899261474609 1.9624981880187988281 1.932761073112487793 1.7977219820022583008 2.0210103988647460938 1.8915965557098388672 1.733180999755859375 1.9142473936080932617 1.5308742523193359375 1.3605419397354125977 1.6392349004745483398 1.4024443626403808594 1.7122142314910888672 1.8444378376007080078 1.599437713623046875 1.5049912929534912109 
1.7991040945053100586 1.3284161090850830078 2.1803317070007324219 2.5076222419738769531 2.162822723388671875 1.8357640504837036133 2.3888812065124511719 2.3982911109924316406 2.6093370914459228516 2.2433762550354003906 2.4634747505187988281 2.597255706787109375 2.09295654296875 2.3490343093872070313 2.1737263202667236328 2.0588488578796386719 1.9593036174774169922 1.7094756364822387695 1.7973780632019042969 1.4936306476593017578 1.7985537052154541016 2.0385832786560058594 2.0153646469116210938 2.0691194534301757813 2.5613250732421875 1.8439614772796630859 1.7977058887481689453 1.2867190837860107422 1.3790456056594848633 1.1344101428985595703 1.4313002824783325195 1.5800060033798217773 2.5046937465667724609 2.3921434879302978516 2.8137648105621337891 2.8798666000366210938 2.8099148273468017578 2.9245226383209228516 2.2620482444763183594 1.8551179170608520508 1.8475850820541381836 2.4076378345489501953 2.2194347381591796875 2.7648744583129882813 1.9599716663360595703 1.8917291164398193359 2.1137015819549560547 2.8781230449676513672 2.8724644184112548828 3.8832166194915771484 3.5796301364898681641 2.8666107654571533203 2.5236983299255371094 2.1371877193450927734 1.7944996356964111328 1.5574047565460205078 1.6486350297927856445 1.5452834367752075195 1.4102647304534912109 1.2494623661041259766 1.2831915616989135742 1.1955012083053588867 1.4901137351989746094 1.3592734336853027344 1.3904043436050415039 1.1928440332412719727 1.3902024030685424805 1.258429408073425293 1.6411882638931274414 1.7903139591217041016 1.8856892585754394531 1.8155649900436401367 1.6201322078704833984 1.5885462760925292969 1.8687555789947509766 1.3271269798278808594 1.6718665361404418945 1.4392429590225219727 2.0653793811798095703 2.2261877059936523438 2.5408835411071777344 2.6785380840301513672 2.5678524971008300781 2.7080326080322265625 2.4462034702301025391 2.7571032047271728516 2.5948908329010009766 2.6352772712707519531 2.2575345039367675781 1.9217607975006103516 1.7697720527648925781 1.6945400238037109375 1.6406431198120117188 2.0959827899932861328 1.7014943361282348633 1.7164849042892456055 1.4708449840545654297 1.7263141870498657227 1.5265485048294067383 1.7974687814712524414 1.691945195198059082 1.8239911794662475586 1.8421909809112548828 1.8064190149307250977 1.5985426902770996094 1.1162993907928466797 1.4463558197021484375 1.4518774747848510742 1.2773945331573486328 1.1139385700225830078 1.2728855609893798828 1.4567650556564331055 1.8883355855941772461 1.3770909309387207031 1.3946584463119506836 1.1783254146575927734 1.5399664640426635742 1.7560065984725952148 2.2239146232604980469 2.0506200790405273438 1.6616234779357910156 1.1545549631118774414 1.0672332048416137695 1.7384601831436157227 1.4520347118377685547 1.3819767236709594727 1.0631437301635742188 1.1947174072265625 1.0708543062210083008 1.0891448259353637695 1 1 1.1447787284851074219 1.0093908309936523438 1.0597603321075439453 1.0539691448211669922 1 1.2608814239501953125 1.1103818416595458984 1.1019928455352783203 1.1272748708724975586 1.0553435087203979492 1.2906950712203979492 1.1316602230072021484 1.1714318990707397461 1.1699975728988647461 1.1365056037902832031 1.0479148626327514648 1.1880396604537963867 1.2393939495086669922 1.3619711399078369141 1.234775543212890625 1.0802131891250610352 1.113741755485534668 1.0239905118942260742 1.1004124879837036133 1.2724204063415527344 1.2530194520950317383 1.2174626588821411133 1.349282383918762207 1.7089211940765380859 1.8743604421615600586 1.4024739265441894531 1.3031218051910400391 1.2592827081680297852 1.3279476165771484375 1.4435369968414306641 1.4315068721771240234 1.657123565673828125 1.6907598972320556641 1.4150035381317138672 1.3270570039749145508 1.5712678432464599609 1.7132896184921264648 1.4799144268035888672 1.2570171356201171875 1.3231066465377807617 1.3276060819625854492 1.2929586172103881836 1.2563731670379638672 1.4759467840194702148 1.5641996860504150391 1.3831660747528076172 1.6276072263717651367 2.2746343612670898438 2.1116976737976074219 3.0243005752563476563 1.7278664112091064453 2.0927236080169677734 1.8454906940460205078 1.7487298250198364258 1.7321491241455078125 1.4533567428588867188 1.4320658445358276367 1.5063080787658691406 1.4209737777709960938 1.7517600059509277344 1.8260557651519775391 1.629735112190246582 1.4436588287353515625 
1.8394235372543334961 1.64733123779296875 2.1517126560211181641 2.3551011085510253906 2.1178116798400878906 1.9731897115707397461 1.8468455076217651367 2.3081829547882080078 2.2484343051910400391 2.278133392333984375 2.2853605747222900391 1.6826413869857788086 2.0329573154449462891 2.3931794166564941406 1.8393861055374145508 1.7973759174346923828 2.0994000434875488281 2.0212557315826416016 1.6156153678894042969 1.9378392696380615234 1.7269948720932006836 2.0789229869842529297 2.4255743026733398438 2.0642192363739013672 2.1868133544921875 2.2984836101531982422 1.6064873933792114258 1.5094277858734130859 1.0967906713485717773 1.1939474344253540039 1.4166748523712158203 1.9826320409774780273 2.2005279064178466797 2.6037709712982177734 2.5623362064361572266 2.6709780693054199219 2.8145363330841064453 3.0642180442810058594 3.5107724666595458984 2.2549316883087158203 1.6938270330429077148 1.7229431867599487305 2.6487753391265869141 2.2080147266387939453 2.662639617919921875 1.7783216238021850586 1.9135003089904785156 2.0798494815826416016 2.2866623401641845703 2.1240234375 3.0055878162384033203 2.756072998046875 2.2476053237915039063 1.7766985893249511719 1.9636571407318115234 1.5648540258407592773 1.0851635932922363281 1.5281369686126708984 1.3287683725357055664 1.3344031572341918945 1.3497370481491088867 1.2954556941986083984 1.2759878635406494141 1.1974433660507202148 1.2220971584320068359 1.2459008693695068359 1.3234697580337524414 1.2720640897750854492 1.3017420768737792969 1.4538968801498413086 1.5574681758880615234 1.2759951353073120117 1.0022072792053222656 1.1538336277008056641 1.2309908866882324219 1.2890017032623291016 1.3518428802490234375 1.6745280027389526367 1.7968924045562744141 2.0912661552429199219 2.0975260734558105469 2.2980847358703613281 2.6489975452423095703 2.4805583953857421875 2.4421839714050292969 2.5314314365386962891 2.3371331691741943359 2.2284684181213378906 2.478794097900390625 2.1114633083343505859 1.6692230701446533203 2.2247476577758789063 1.6760396957397460938 1.3538103103637695313 1.4707787036895751953 1.4625946283340454102 1.4361627101898193359 1.7577573060989379883 1.5987466573715209961 1.5822019577026367188 1.5905431509017944336 1.8926815986633300781 1.9323985576629638672 1.5787221193313598633 1.324042201042175293 1.1432085037231445313 1.3055444955825805664 1.4129376411437988281 1.3555023670196533203 1.2195875644683837891 1.2389603853225708008 1.2198673486709594727 1.1864168643951416016 1.3401226997375488281 1.1739335060119628906 1.18891143798828125 1.3004010915756225586 1.9718508720397949219 1.6317878961563110352 1.6324464082717895508 1.6140816211700439453 1.3042219877243041992 1.6419672966003417969 1.2766309976577758789 1.0007723569869995117 1.2144800424575805664 1.415684819221496582 1.5038727521896362305 1.1489548683166503906 1.07556915283203125 1.0062806606292724609 1 1.1330829858779907227 1.1276609897613525391 1 1.0567785501480102539 1 1.0095796585083007813 1 1.1832545995712280273 1.1378345489501953125 1.1747303009033203125 1.1103576421737670898 1 1.0975631475448608398 1.0941802263259887695 1.1865735054016113281 1.1949533224105834961 1.0255035161972045898 1.1688399314880371094 1.2184952497482299805 1.0481299161911010742 1.0573339462280273438 1.0813145637512207031 1.0788782835006713867 1.7896130084991455078 1.50116729736328125 1.1519173383712768555 1.1881500482559204102 2.0907247066497802734 1.3785295486450195313 1.6649118661880493164 1.4781827926635742188 1.4498379230499267578 1.5012788772583007813 1.5911577939987182617 1.5885611772537231445 1.7491232156753540039 1.9829343557357788086 1.894739985466003418 1.5066339969635009766 1.4529299736022949219 1.4441152811050415039 1.6851933002471923828 1.1959021091461181641 1.3944669961929321289 1.4750661849975585938 1.6512218713760375977 1.4793044328689575195 1.5108053684234619141 1.6391236782073974609 1.2806627750396728516 1.4737128019332885742 1.6074675321578979492 1.8245935440063476563 1.7350331544876098633 1.6752462387084960938 1.9739166498184204102 2.1262898445129394531 2.3275461196899414063 1.4787297248840332031 1.5379433631896972656 1.6333384513854980469 1.2162395715713500977 1.335476994514465332 1.6975690126419067383 1.434264063835144043 1.519504547119140625 1.5179389715194702148 1.5870108604431152344 
1.6424585580825805664 1.901467442512512207 2.2544138431549072266 2.1876010894775390625 1.9660363197326660156 1.9278451204299926758 1.9398500919342041016 2.0683622360229492188 2.4735622406005859375 2.4939382076263427734 1.6177699565887451172 1.6511657238006591797 1.9372609853744506836 2.0908050537109375 2.3288934230804443359 1.9271262884140014648 1.9488033056259155273 1.5823993682861328125 1.7075620889663696289 1.3384565114974975586 1.7685174942016601563 1.3323787450790405273 1.9609930515289306641 1.7721799612045288086 2.2514576911926269531 2.0313358306884765625 2.0709021091461181641 1.4576193094253540039 1.5221344232559204102 1.8155013322830200195 1.7613339424133300781 2.2630717754364013672 2.0489161014556884766 2.0788443088531494141 2.2877764701843261719 2.4077703952789306641 3.4489185810089111328 2.5257012844085693359 3.1010136604309082031 2.2506318092346191406 2.0162005424499511719 1.6354622840881347656 1.7949380874633789063 2.7025203704833984375 1.6432919502258300781 2.1552093029022216797 1.6834936141967773438 1.8231301307678222656 1.9990799427032470703 3.2484567165374755859 2.7465498447418212891 2.3622150421142578125 2.2360787391662597656 2.103382110595703125 2.3675129413604736328 1.258675694465637207 1.3291698694229125977 1.146372675895690918 1.2703725099563598633 1.3690973520278930664 1.3172276020050048828 1.2817895412445068359 1.2428840398788452148 1.1792919635772705078 1.1797600984573364258 1.0634437799453735352 1.2805713415145874023 1.1290832757949829102 1.3105226755142211914 1.6735477447509765625 1.1674780845642089844 1.3088213205337524414 1 1.009676814079284668 1.0733700990676879883 1.4806028604507446289 1.8995565176010131836 1.6664556264877319336 1.9752752780914306641 1.976807713508605957 1.8793971538543701172 2.3094439506530761719 2.4319264888763427734 2.5348393917083740234 2.6870377063751220703 2.3731358051300048828 2.3221600055694580078 2.4859828948974609375 2.0622017383575439453 1.9211319684982299805 1.4220292568206787109 1.5833784341812133789 1.2148755788803100586 1.1646163463592529297 1.0900759696960449219 1.1800787448883056641 1.4133200645446777344 1.2538031339645385742 1.3404761552810668945 1.5662778615951538086 1.8855403661727905273 1.6035810708999633789 1.5589286088943481445 1.5816808938980102539 1.2440006732940673828 1.1956067085266113281 1.5388579368591308594 1.6064827442169189453 1.4185812473297119141 1.7213685512542724609 1.279561161994934082 1.4641256332397460938 1.3974039554595947266 1.3387920856475830078 1.6820114850997924805 1.6046514511108398438 1.5473244190216064453 1.6761544942855834961 1.8919777870178222656 2.0958325862884521484 1.4451504945755004883 1.5908087491989135742 1.365833282470703125 1.3206374645233154297 1.5922523736953735352 1.6049480438232421875 1.5289127826690673828 2.668598175048828125 1.2337319850921630859 1.1233820915222167969 1.424319148063659668 1.0864664316177368164 1 1.0531445741653442383 1.0243418216705322266 1 1.0905144214630126953 1 1 1.0565919876098632813 1.0468164682388305664 1.0695405006408691406 1.1044486761093139648 1.1967903375625610352 1 1.0391891002655029297 1.0032180547714233398 1.067101597785949707 1.0281044244766235352 1.1048736572265625 1.0935858488082885742 1 1 1.1082460880279541016 1.3218114376068115234 1.8317456245422363281 1.7220101356506347656 1.2414890527725219727 1.5026865005493164063 1.6103912591934204102 1.2027869224548339844 1.3682423830032348633 1.4158864021301269531 1.3552757501602172852 1.9700959920883178711 1.961535334587097168 1.7500308752059936523 1.6346846818923950195 1.7798886299133300781 2.0499858856201171875 1.8489981889724731445 1.5445909500122070313 1.4077923297882080078 1.3594034910202026367 1.4972198009490966797 1.4009276628494262695 1.3709430694580078125 1.4260245561599731445 1.3965094089508056641 1.3977277278900146484 1.4551012516021728516 1.6021418571472167969 1.6362966299057006836 1.5191509723663330078 1.7581553459167480469 1.9516426324844360352 1.8837891817092895508 2.0184304714202880859 1.9999121427536010742 1.5752388238906860352 2.0291843414306640625 1.5595949888229370117 1.3240300416946411133 1.0919387340545654297 1.4122567176818847656 1.7571291923522949219 1.6073540449142456055 2.0694508552551269531 2.1766822338104248047 2.4359290599822998047 
1.995287775993347168 2.1285786628723144531 2.3047096729278564453 2.0992670059204101563 2.0703411102294921875 1.8246910572052001953 2.1416058540344238281 2.1479785442352294922 1.9923988580703735352 1.9352884292602539063 2.4834814071655273438 1.9887669086456298828 2.4004895687103271484 2.1289637088775634766 2.5016307830810546875 1.9252680540084838867 1.6700676679611206055 1.3692241907119750977 1.1835857629776000977 1.5885765552520751953 1.1279628276824951172 1.3978444337844848633 1.8910253047943115234 2.1500990390777587891 2.2552807331085205078 1.938180088996887207 2.6644117832183837891 2.0403246879577636719 1.9454262256622314453 2.2222065925598144531 1.7030352354049682617 2.1368188858032226563 2.716461181640625 2.5816788673400878906 2.2090029716491699219 2.7078733444213867188 2.56867218017578125 2.9672822952270507813 2.7926161289215087891 2.3127171993255615234 1.9757632017135620117 1.5775750875473022461 2.1288759708404541016 1.9535772800445556641 1.5214041471481323242 1.2655696868896484375 1.1368238925933837891 1.371368408203125 1.8561040163040161133 2.3096742630004882813 2.3997235298156738281 2.0063405036926269531 1.9975831508636474609 1.9644219875335693359 1.9711382389068603516 1.7440001964569091797 1.1822147369384765625 1.5447031259536743164 1.3607407808303833008 1.3064334392547607422 1.5481288433074951172 1.5021785497665405273 1.2779853343963623047 1.2917542457580566406 1.3352619409561157227 1.4845585823059082031 1.1270569562911987305 1.2603951692581176758 1.5269626379013061523 1.6768786907196044922 1.3546648025512695313 1.0738642215728759766 1 1.0411098003387451172 1.2589150667190551758 1.3171695470809936523 1.5550845861434936523 1.9548293352127075195 1.6172279119491577148 1.9928995370864868164 2.2561554908752441406 2.116817474365234375 2.1615798473358154297 2.2081301212310791016 2.4069039821624755859 2.0673122406005859375 2.0778653621673583984 1.908433079719543457 1.8837373256683349609 1.943400263786315918 1.2183535099029541016 1.2566316127777099609 1.1016757488250732422 1.357848048210144043 1 1 1.3725817203521728516 1.1930490732192993164 1.0638689994812011719 1.6205481290817260742 1.3122793436050415039 1.0763547420501708984 1.201756596565246582 1.2608234882354736328 1.176921844482421875 1.1652768850326538086 1.3762896060943603516 1.3577765226364135742 1.4428324699401855469 1.3447000980377197266 1.3211066722869873047 1.8398151397705078125 1.4083392620086669922 2.0555272102355957031 1.8310217857360839844 1.6908223628997802734 1.9248510599136352539 1.9264421463012695313 2.2075207233428955078 2.0350377559661865234 1.9085907936096191406 1.9635415077209472656 1.6363598108291625977 1.3703801631927490234 1.4409452676773071289 1.5258175134658813477 1.1936399936676025391 1.380669713020324707 1.2890611886978149414 1.3396650552749633789 1 1.3116853237152099609 1.2224456071853637695 1.1579041481018066406 1.1693977117538452148 1.0573289394378662109 1.0050297975540161133 1 1 1 1.0303056240081787109 1.0016186237335205078 1 1.9412174224853515625 1 1.0831867456436157227 1.0035953521728515625 1 1.0768526792526245117 1 1 1.0778105258941650391 1 1 1.1576514244079589844 1 1.3553689718246459961 1.4395185708999633789 1.570496678352355957 1.3439153432846069336 1.815279841423034668 1.3636376857757568359 1.71201324462890625 2.0634639263153076172 1.8572615385055541992 2.2669794559478759766 1.8350229263305664063 1.7688590288162231445 1.4795588254928588867 2.1088631153106689453 2.2429969310760498047 1.6580231189727783203 2.0572621822357177734 1.7421059608459472656 1.463353276252746582 1.7213835716247558594 1.5286773443222045898 1.3714243173599243164 1.5307452678680419922 1.6578444242477416992 1.6302264928817749023 1.7985830307006835938 1.6370106935501098633 1.7172842025756835938 1.8750922679901123047 1.6931295394897460938 1.9843550920486450195 2.2965617179870605469 1.9783480167388916016 1.9988194704055786133 1.8230003118515014648 1.6011139154434204102 1.5095801353454589844 1.4377095699310302734 1.3521341085433959961 1.3629198074340820313 1.9311681985855102539 1.8552325963973999023 1.9973968267440795898 2.0182354450225830078 
2.1285128593444824219 2.2949810028076171875 2.2880563735961914063 2.2521424293518066406 2.0309247970581054688 1.7394564151763916016 2.2835102081298828125 1.9338586330413818359 2.3741331100463867188 2.0533397197723388672 2.4357249736785888672 2.0291445255279541016 2.4607977867126464844 2.4627501964569091797 2.6363584995269775391 2.8492689132690429688 2.0422916412353515625 1.6786828041076660156 1.4484351873397827148 1.4452226161956787109 1.7194449901580810547 1.3262276649475097656 1.3465703725814819336 1.8549078702926635742 1.5432647466659545898 1.8856670856475830078 2.3890154361724853516 2.1008729934692382813 2.0884957313537597656 2.3061106204986572266 2.2906076908111572266 2.2819330692291259766 2.4964661598205566406 2.4213409423828125 2.16744232177734375 2.6000914573669433594 2.6616148948669433594 2.6723737716674804688 2.7429387569427490234 2.0008862018585205078 1.4942148923873901367 1.1627918481826782227 1.9683916568756103516 1.5955591201782226563 1.0752390623092651367 1 1.2288668155670166016 1.8199750185012817383 1.7388242483139038086 1.6887100934982299805 2.1285810470581054688 2.4920871257781982422 1.8197565078735351563 1.5128356218338012695 2.0271403789520263672 1.706457972526550293 1.5567216873168945313 1.5844669342041015625 1.5229624509811401367 1.6110755205154418945 1.606903076171875 1.2761511802673339844 1.1071817874908447266 1.3629682064056396484 1.3337261676788330078 1.3751288652420043945 1.2073163986206054688 1.5829094648361206055 1.0548890829086303711 1.4907137155532836914 1.1050122976303100586 1.189167022705078125 1.2321567535400390625 1.1774514913558959961 1.1758664846420288086 1.13842010498046875 1.4638036489486694336 1.8011702299118041992 1.8554739952087402344 2.2888817787170410156 2.5055253505706787109 2.1404166221618652344 2.5517632961273193359 2.7612116336822509766 2.0974471569061279297 2.0020391941070556641 1.9899866580963134766 2.0175821781158447266 1.8127143383026123047 1.6802227497100830078 1.3862043619155883789 1.2286885976791381836 1.5269210338592529297 1.5643200874328613281 1.1628267765045166016 1.014265894889831543 1 1.3259693384170532227 1.1257309913635253906 1.3094973564147949219 1 1 1 1.0870554447174072266 1 1.1214976310729980469 1.0737528800964355469 1.151581883430480957 1.3762431144714355469 1.3229305744171142578 1.4472421407699584961 1.4282827377319335938 1.3742443323135375977 1.6663482189178466797 1.870105743408203125 1.4823009967803955078 2.1569797992706298828 2.3623116016387939453 2.333003997802734375 1.8299677371978759766 1.6989245414733886719 1.4263880252838134766 1.677534937858581543 1.1732801198959350586 1.0446779727935791016 1.2973679304122924805 1.3662225008010864258 1.1412581205368041992 1.495308995246887207 1.2836019992828369141 1.1809198856353759766 1.1454288959503173828 1.0642774105072021484 1.073029637336730957 1.1222847700119018555 1.0620878934860229492 1.079172968864440918 1.0621885061264038086 1 1.0491155385971069336 1 1.0646413564682006836 1 1.1940506696701049805 1.0404894351959228516 1.0103862285614013672 1.0836409330368041992 1.2163633108139038086 1 1.2338280677795410156 1.3722269535064697266 1.0231593847274780273 1.1053538322448730469 1 1.1008087396621704102 1.4764512777328491211 1.5829873085021972656 1.6017544269561767578 1.5848343372344970703 1.8074097633361816406 1.6075600385665893555 1.6364537477493286133 2.1514618396759033203 2.1835348606109619141 2.2942049503326416016 2.1181690692901611328 2.1049392223358154297 1.7092298269271850586 1.7723040580749511719 2.1487762928009033203 2.1808254718780517578 2.2948129177093505859 2.1045963764190673828 1.8597227334976196289 1.6408897638320922852 1.4411783218383789063 1.5713784694671630859 1.3951654434204101563 1.465775609016418457 1.3276640176773071289 1.5204375982284545898 1.4495793581008911133 1.3125516176223754883 2.6283519268035888672 1.6631112098693847656 1.8198286294937133789 2.5946872234344482422 2.0142943859100341797 2.0765655040740966797 1.7638896703720092773 1.5924996137619018555 1.6834700107574462891 1.6161998510360717773 1.3086868524551391602 1.2070183753967285156 1.4085885286331176758 1.9903142452239990234 2.2856886386871337891 1.8214002847671508789 1.8126624822616577148 
2.3339550495147705078 2.0285248756408691406 2.3147423267364501953 1.712489008903503418 1.6865985393524169922 2.087337493896484375 2.1149654388427734375 1.7074189186096191406 1.7077770233154296875 2.2710168361663818359 2.1544964313507080078 2.6737368106842041016 2.6174840927124023438 2.9748280048370361328 3.0403318405151367188 3.0966277122497558594 2.4860455989837646484 1.9532597064971923828 1.1652203798294067383 1.3306204080581665039 1.372485041618347168 1.9622547626495361328 1.6083059310913085938 1.7055578231811523438 2.0456168651580810547 1.9076250791549682617 2.3291337490081787109 2.1409859657287597656 2.1761603355407714844 2.4115703105926513672 2.0801482200622558594 2.0974111557006835938 1.8569005727767944336 2.0063576698303222656 2.3991243839263916016 2.2624802589416503906 2.5346651077270507813 2.5461053848266601563 2.0251038074493408203 1.9571232795715332031 1.6434448957443237305 1.6661195755004882813 1.9744325876235961914 1.3198754787445068359 1.3645651340484619141 1.0390189886093139648 1.5954637527465820313 1.6079678535461425781 1.6377149820327758789 1.8744071722030639648 1.4800229072570800781 1.7041482925415039063 1.4843006134033203125 1.9603743553161621094 1.6592596769332885742 1.937325596809387207 1.6855034828186035156 1.6797202825546264648 1.6406779289245605469 1.6357374191284179688 1.8341312408447265625 1.7427419424057006836 1.3144345283508300781 1.3973577022552490234 1.3366849422454833984 1.3230646848678588867 1.2404676675796508789 1.2043468952178955078 1.4221479892730712891 1.2090667486190795898 1.6504949331283569336 1.1059201955795288086 1.1901565790176391602 1.0335540771484375 1.4921895265579223633 1.3772182464599609375 1.8125706911087036133 1.974605560302734375 2.2825846672058105469 2.1741666793823242188 2.4135067462921142578 2.3614709377288818359 2.0176942348480224609 2.5276567935943603516 2.4950554370880126953 2.2091267108917236328 2.14942169189453125 2.1848578453063964844 1.7531083822250366211 1.4172422885894775391 1.6307088136672973633 1.4934539794921875 1.7953091859817504883 1.8458219766616821289 1.0374343395233154297 1.0246233940124511719 1 1.0147305727005004883 1.062793731689453125 1 1 1 1 1 1.3601533174514770508 1.1127381324768066406 1.1006503105163574219 1 1.2218225002288818359 1.6704387664794921875 1.4959261417388916016 1.3077933788299560547 1.42545318603515625 1.3196046352386474609 1.4911477565765380859 1.6724395751953125 2.7983915805816650391 2.3419930934906005859 1.6498981714248657227 1.6455216407775878906 1.403002619743347168 1.521808624267578125 1.4258638620376586914 1.4240651130676269531 1.128490447998046875 1.2549628019332885742 1.5564233064651489258 1.3632217645645141602 1.1100611686706542969 1.3195096254348754883 1.2109299898147583008 1.2928133010864257813 1.0520174503326416016 1.0181869268417358398 1.0589587688446044922 1 1.3218529224395751953 1.4636484384536743164 1 1.1210106611251831055 1.1010645627975463867 1 1.4440550804138183594 1 1.170955657958984375 1 1 1.1149840354919433594 1 1.2745901346206665039 1.2148298025131225586 1.0372675657272338867 1.6715415716171264648 1.2813210487365722656 1.2016524076461791992 1.4621586799621582031 1.752472996711730957 1.7185105085372924805 2.0783655643463134766 1.7461657524108886719 1.7995152473449707031 2.0461795330047607422 1.8085540533065795898 2.1913390159606933594 2.2191278934478759766 2.4747407436370849609 1.9987760782241821289 1.8498644828796386719 1.9767241477966308594 1.917307734489440918 2.2776577472686767578 2.0228683948516845703 2.0111141204833984375 1.9307813644409179688 1.9610389471054077148 1.5735172033309936523 1.4113047122955322266 1.2015695571899414063 1.1177554130554199219 1.3420948982238769531 1.5685656070709228516 1.3623577356338500977 1.2163681983947753906 1.8677095174789428711 1.5817159414291381836 1.5336424112319946289 1.6929693222045898438 1.8461244106292724609 1.5867583751678466797 1.7119784355163574219 1.6405370235443115234 1.7217563390731811523 1.4323240518569946289 1.1788141727447509766 1.3014658689498901367 1.498852849006652832 1.8799352645874023438 2.224254608154296875 1.8688706159591674805 1.9743020534515380859 
2.2803673744201660156 1.8622705936431884766 1.7774556875228881836 1.8433337211608886719 1.6258140802383422852 2.2080357074737548828 2.3219130039215087891 2.4223408699035644531 2.5731673240661621094 2.5278515815734863281 2.5472846031188964844 3.0777084827423095703 2.8814547061920166016 3.2812726497650146484 3.5276319980621337891 2.9372279644012451172 2.3431668281555175781 2.2105906009674072266 1.9392096996307373047 1.3457615375518798828 1.1992751359939575195 1.9716385602951049805 1.5278346538543701172 1.6768196821212768555 1.7079052925109863281 2.0650465488433837891 2.4493377208709716797 2.2474679946899414063 1.8774330615997314453 1.7862715721130371094 1.7838648557662963867 1.6071376800537109375 1.8466140031814575195 2.1968128681182861328 2.6765515804290771484 2.0962941646575927734 2.0132386684417724609 2.5612833499908447266 2.3165686130523681641 1.8897761106491088867 1.6807579994201660156 1.6078822612762451172 1.7228049039840698242 1.3099309206008911133 1.2770407199859619141 1.1154969930648803711 1.2401165962219238281 1.1713511943817138672 1.490321040153503418 1.512984156608581543 1.5820081233978271484 1.036906123161315918 1.7578084468841552734 1.9195249080657958984 1.8773988485336303711 1.5522074699401855469 1.5711799860000610352 1.1842126846313476563 1.4024422168731689453 1.6929655075073242188 1.6045453548431396484 1.4508281946182250977 1.7178899049758911133 1.7146266698837280273 2.0576939582824707031 1.4141892194747924805 1 1.2092869281768798828 1.4539674520492553711 1.3516423702239990234 1.70154571533203125 1.8160974979400634766 1.306567072868347168 1.0495191812515258789 1.8603327274322509766 1.7676627635955810547 1.940091252326965332 2.2292647361755371094 2.4931180477142333984 2.4354958534240722656 2.5440034866333007813 2.5735590457916259766 2.2083432674407958984 2.7375323772430419922 2.6240797042846679688 2.4993424415588378906 2.0273537635803222656 2.0598688125610351563 1.9071719646453857422 1.7172702550888061523 1.7078890800476074219 1.3997066020965576172 1.441269993782043457 1.3389768600463867188 1 1.044524073600769043 1.1099230051040649414 1 1.006465911865234375 1.0717829465866088867 1.1753621101379394531 1.115813136100769043 1 1.0410647392272949219 1.041321873664855957 1 1 1.2401429414749145508 1.6295425891876220703 1.0354340076446533203 1.0983525514602661133 1.3542360067367553711 1.0778368711471557617 1.267020106315612793 1.3106769323348999023 1.4372353553771972656 1.6934577226638793945 1.8549582958221435547 1.6959158182144165039 1.4861762523651123047 1.5888855457305908203 1.7649642229080200195 1.6150089502334594727 1.6921156644821166992 1.2247856855392456055 1.3378138542175292969 1.6884199380874633789 1.6064039468765258789 1.4642426967620849609 1.9448647499084472656 1.2087937593460083008 1.177321314811706543 1.1823517084121704102 1.1173697710037231445 1.7550203800201416016 1.2146576642990112305 2.2354617118835449219 1.6867579221725463867 1 1.0010211467742919922 1 1.6264653205871582031 1.4251495599746704102 1.3236750364303588867 1.0560154914855957031 1 1.0539699792861938477 1 1.1980587244033813477 1.2694978713989257813 1.1072795391082763672 1.3028327226638793945 1.2780786752700805664 1.6112644672393798828 1.7067683935165405273 1.4477773904800415039 1.6824518442153930664 2.0250062942504882813 1.9864239692687988281 2.1066784858703613281 2.0670945644378662109 2.1618387699127197266 1.8093639612197875977 2.0983293056488037109 2.0069708824157714844 2.4446077346801757813 2.3767399787902832031 2.1982989311218261719 2.3183472156524658203 2.3508021831512451172 2.2414376735687255859 2.0418910980224609375 2.0770092010498046875 1.9805309772491455078 1.9640775918960571289 1.5534189939498901367 1.5896329879760742188 1.5885591506958007813 1.5528714656829833984 1.3905799388885498047 1.7723296880722045898 1.5404069423675537109 1.288468480110168457 1.512738347053527832 1.4111104011535644531 1.5407339334487915039 1.6904486417770385742 1.4661045074462890625 1.5656087398529052734 1.7266213893890380859 1.4780101776123046875 1.7824863195419311523 1.398711085319519043 1.456330418586730957 1.2485753297805786133 1.3235526084899902344 1.8133699893951416016 1.7884092330932617188 1.6656525135040283203 1.6989153623580932617 
1.6935591697692871094 1.5667272806167602539 1.4730603694915771484 1.1294832229614257813 1.5460740327835083008 1.7699258327484130859 2.3212010860443115234 2.4313025474548339844 2.3373301029205322266 2.5223891735076904297 2.6077833175659179688 3.2208044528961181641 2.7988359928131103516 3.5575103759765625 3.1543049812316894531 3.1917688846588134766 2.9997003078460693359 3.0997602939605712891 2.0607874393463134766 1.7055433988571166992 1.5743831396102905273 1.7022660970687866211 1.7312705516815185547 1.3172734975814819336 1.8465257883071899414 2.3903391361236572266 2.3792412281036376953 2.2156872749328613281 2.495403289794921875 2.1149182319641113281 2.1033911705017089844 1.9280111789703369141 2.1338376998901367188 2.4777605533599853516 2.5360448360443115234 2.2809331417083740234 1.9744389057159423828 2.0293891429901123047 2.5766973495483398438 1.9700822830200195313 1.5553454160690307617 1.6970937252044677734 1.5374205112457275391 1.1051549911499023438 1.2783565521240234375 1.1836647987365722656 1.2402005195617675781 1.0346989631652832031 1.119662165641784668 1.7153408527374267578 1.3655149936676025391 1.1764343976974487305 1.8766400814056396484 1.8163672685623168945 1.7331014871597290039 1.1082609891891479492 1.0205760002136230469 1.1336750984191894531 1.100152134895324707 1.1959173679351806641 1.2401418685913085938 1.5164036750793457031 1.437157750129699707 1.7513344287872314453 1.8492501974105834961 1.4125895500183105469 1.3597390651702880859 1.688300013542175293 1.2246065139770507813 1.5131051540374755859 1.6911630630493164063 1.6049258708953857422 1.4703955650329589844 1.5949463844299316406 1.4103673696517944336 1.6006665229797363281 2.5347659587860107422 2.1417245864868164063 2.6552302837371826172 2.8315615653991699219 2.4457330703735351563 2.5553901195526123047 2.4903204441070556641 2.3412182331085205078 3.0083112716674804688 2.5687186717987060547 2.3217062950134277344 2.0867676734924316406 1.6838276386260986328 1.7038727998733520508 1.5125062465667724609 1.4573615789413452148 1.2556431293487548828 1.1732878684997558594 1.0556141138076782227 1.1796792745590209961 1.0815815925598144531 1.0790741443634033203 1.0892422199249267578 1.0742522478103637695 1.1361780166625976563 1 1 1 1.2257519960403442383 1.0905160903930664063 1 1 1.2455214262008666992 1.2797778844833374023 1.2496484518051147461 1.2082722187042236328 1.5454878807067871094 1.2564411163330078125 1.5514081716537475586 1.5474718809127807617 1.5406436920166015625 2.3646426200866699219 1.271521449089050293 1.9568189382553100586 1.917331695556640625 1.7916965484619140625 1.5082246065139770508 1.6419757604598999023 1.3259569406509399414 1.303040623664855957 1.2939411401748657227 1.4558744430541992188 2.1558585166931152344 3.00677490234375 1.1356528997421264648 2.1265950202941894531 1.1856486797332763672 1.1225621700286865234 1 1.0465235710144042969 1.1963545083999633789 1.0580878257751464844 1.0181061029434204102 1.3722665309906005859 1.3117250204086303711 1.324473261833190918 1.6630128622055053711 1.5668545961380004883 1.0163208246231079102 1 1.240015864372253418 1.2402585744857788086 1.2277290821075439453 1.2837629318237304688 1.1324349641799926758 1.97544097900390625 1.2068200111389160156 1.3299226760864257813 1.7268425226211547852 2.0076668262481689453 2.2383577823638916016 2.153873443603515625 1.943566441535949707 1.7536294460296630859 2.0913512706756591797 2.0049951076507568359 2.0301387310028076172 2.3774340152740478516 2.02335357666015625 2.2094008922576904297 2.3488390445709228516 2.234592437744140625 2.1185438632965087891 2.1451230049133300781 1.9339146614074707031 1.8371360301971435547 2.0033674240112304688 1.8160544633865356445 1.5938143730163574219 1.8766028881072998047 2.0893096923828125 1.7958720922470092773 1.7001535892486572266 1.4775252342224121094 1.6700268983840942383 1.5199242830276489258 1.3730946779251098633 1.6440875530242919922 1.7124971151351928711 1.7434202432632446289 1.9216558933258056641 1.4907156229019165039 1.2529597282409667969 1.4454863071441650391 1.6689656972885131836 1.6694090366363525391 1.6067556142807006836 1.3416931629180908203 1.3485703468322753906 1.2878332138061523438 1.4412388801574707031 1.5482287406921386719 2.3462996482849121094 1.5456795692443847656 
2.1698846817016601563 2.0497250556945800781 1.854960322380065918 1.6744934320449829102 2.1241116523742675781 1.9285690784454345703 1.9826766252517700195 2.5411107540130615234 2.8014702796936035156 2.4509146213531494141 2.7542102336883544922 2.6357984542846679688 3.1155958175659179688 3.1033623218536376953 2.6931805610656738281 2.5705993175506591797 2.618198394775390625 2.8869121074676513672 2.2367265224456787109 2.1461076736450195313 1.7370371818542480469 1.8129777908325195313 2.1389167308807373047 1.776442408561706543 2.0595395565032958984 2.7155156135559082031 2.2669420242309570313 2.6419539451599121094 2.2425925731658935547 2.7995555400848388672 2.2504148483276367188 2.0174069404602050781 2.0211989879608154297 2.0342020988464355469 2.4360063076019287109 2.1674551963806152344 2.1944155693054199219 2.4473640918731689453 2.3176469802856445313 1.9312919378280639648 1.6343939304351806641 1.5698255300521850586 1.2398014068603515625 1.1210404634475708008 1.0265266895294189453 1.2921832799911499023 1.3386876583099365234 1.1368268728256225586 1.0398491621017456055 1.2082442045211791992 1.1338384151458740234 1.0926809310913085938 1 1.1186226606369018555 1.2448807954788208008 1.1111409664154052734 1.1302251815795898438 1.0171439647674560547 1.1554945707321166992 1.6152577400207519531 1.1433328390121459961 1.2110376358032226563 1.3406008481979370117 1.3916163444519042969 1.5070167779922485352 1.5545053482055664063 1.6245790719985961914 2.9227340221405029297 1.6933416128158569336 1.9187803268432617188 1.6766748428344726563 1.9289858341217041016 1.7283536195755004883 1.8569148778915405273 1.4323347806930541992 1.6596144437789916992 2.2980451583862304688 2.7382814884185791016 2.5318803787231445313 2.1137640476226806641 2.5481572151184082031 2.2868847846984863281 2.6838014125823974609 2.3883888721466064453 2.6864421367645263672 2.4900395870208740234 2.2787041664123535156 1.8449045419692993164 1.8652273416519165039 1.5557450056076049805 1.462116241455078125 1.3562633991241455078 1.0751971006393432617 1 1 1.1123915910720825195 1.1398828029632568359 1.1487144231796264648 1.2502005100250244141 1.2358582019805908203 1.2497813701629638672 1.0596969127655029297 1.073500514030456543 1.0077630281448364258 1.0895348787307739258 1.1748929023742675781 1.076441645622253418 1.0722839832305908203 1.0363386869430541992 1.010340571403503418 1 1 1.2569086551666259766 1 1.2178678512573242188 1.5907938480377197266 1.9823099374771118164 1.4263516664505004883 1.2080845832824707031 1.683115839958190918 1.934018254280090332 1.9050120115280151367 2.0185410976409912109 1.6366065740585327148 1.7271312475204467773 1.4992026090621948242 1.7113224267959594727 1.5506098270416259766 1.7955957651138305664 1.6155760288238525391 1.7345201969146728516 1.4742953777313232422 1.5476565361022949219 1.0488394498825073242 1.3832936286926269531 1.1909171342849731445 1.0122331380844116211 1.1462087631225585938 1.0478271245956420898 1.2271056175231933594 1.7407703399658203125 1.2470295429229736328 1.5130021572113037109 1.5270811319351196289 1.2901378870010375977 1.1684955358505249023 1.3292099237442016602 1.8343921899795532227 1.4622870683670043945 1.0345054864883422852 2.1379272937774658203 1.4253007173538208008 1.4295048713684082031 1.507349848747253418 1.7319543361663818359 2.0489194393157958984 2.8561191558837890625 1.9909394979476928711 2.2270352840423583984 2.3778119087219238281 2.4514720439910888672 2.0244412422180175781 1.9952344894409179688 2.4726662635803222656 2.0292408466339111328 2.0815582275390625 2.0180821418762207031 2.2590150833129882813 1.9363006353378295898 1.6484668254852294922 1.8321177959442138672 1.8160374164581298828 1.8364250659942626953 1.8643137216567993164 1.9960094690322875977 1.7664132118225097656 1.8412040472030639648 1.9321550130844116211 1.7575206756591796875 1.6366060972213745117 1.5997779369354248047 1.5550431013107299805 1.4786874055862426758 1.3179012537002563477 1.3928741216659545898 1.750652313232421875 2.3502559661865234375 1.30718994140625 1.4386425018310546875 1.4537231922149658203 1.6142146587371826172 1.5991799831390380859 1.5589506626129150391 1.6901584863662719727 1.7500646114349365234 1.4794737100601196289 1.5724356174468994141 1.6258203983306884766 1.7518020868301391602 1.4863910675048828125 
2.1880695819854736328 2.0483267307281494141 1.9648058414459228516 2.4697277545928955078 2.4871377944946289063 1.877896428108215332 2.4103176593780517578 2.9550309181213378906 2.8367159366607666016 3.1846148967742919922 2.7553772926330566406 2.9367041587829589844 2.9806089401245117188 2.5857508182525634766 2.2448143959045410156 2.6720790863037109375 2.3651130199432373047 2.5558347702026367188 2.5781846046447753906 2.7600896358489990234 2.2998385429382324219 2.6367032527923583984 2.4433968067169189453 2.1629137992858886719 2.5418486595153808594 2.4687983989715576172 2.7666890621185302734 2.7723252773284912109 2.52851104736328125 2.6042375564575195313 2.8446962833404541016 2.7329437732696533203 1.9814287424087524414 2.4979712963104248047 2.8707017898559570313 2.5055367946624755859 2.752349853515625 2.6859345436096191406 2.2707855701446533203 2.014980316162109375 1.7540082931518554688 1.7898057699203491211 1.5625593662261962891 1.6444804668426513672 1.1000955104827880859 1.203499913215637207 1.3058149814605712891 1.0976163148880004883 1 1.0744074583053588867 1.0826352834701538086 1.1045371294021606445 1.2178641557693481445 1 1 1.0589106082916259766 1.1482769250869750977 1.0019025802612304688 1.1196402311325073242 1.5476512908935546875 1.5914502143859863281 1.9862250089645385742 1.4723405838012695313 1.4906026124954223633 1.4064642190933227539 2.3470900058746337891 1.8182790279388427734 3.5278286933898925781 3.0267734527587890625 2.7138512134552001953 1.8554283380508422852 1.9258635044097900391 1.5263855457305908203 1.3870787620544433594 1.2724130153656005859 1.6068152189254760742 2.1724312305450439453 2.2423090934753417969 2.2741940021514892578 2.3491995334625244141 2.1845967769622802734 1.8793619871139526367 2.316623687744140625 1.9474384784698486328 2.2119023799896240234 1.9312225580215454102 2.1716821193695068359 1.8214460611343383789 1.6839646100997924805 1.8328620195388793945 1.7606017589569091797 1.6253601312637329102 1.0232001543045043945 1 1.0964953899383544922 1.034890294075012207 1.0937951803207397461 1.0992090702056884766 1.1831645965576171875 1.2601759433746337891 1.1435773372650146484 1.139426112174987793 1.1836452484130859375 1 1.0505923032760620117 1.1283400058746337891 1.0631250143051147461 1.1980412006378173828 1.0630426406860351563 1.0284799337387084961 1.1265494823455810547 1.119816899299621582 1.0665630102157592773 1.0884213447570800781 1.1621220111846923828 1.8348816633224487305 1.7673560380935668945 2.1381986141204833984 1.2816166877746582031 1.2363893985748291016 1.4062564373016357422 1.6509125232696533203 1.7803092002868652344 2.6296210289001464844 1.4651814699172973633 1.0816922187805175781 1.2171770334243774414 1.2693036794662475586 1.5481896400451660156 1.595827937126159668 1.7758729457855224609 1.2528299093246459961 1.3215537071228027344 1.1902711391448974609 1.1379762887954711914 1.1895000934600830078 1.1092891693115234375 1.1425012350082397461 1.0460067987442016602 1.3515497446060180664 1.4029649496078491211 1.8788193464279174805 1.6446403264999389648 2.0237820148468017578 1.7413103580474853516 1.4963899850845336914 1.4634189605712890625 1.9177449941635131836 1.7577621936798095703 1.4936720132827758789 1.41976165771484375 1.9583464860916137695 1.6615381240844726563 1.6376312971115112305 1.7831254005432128906 2.2345302104949951172 2.3384089469909667969 2.8347423076629638672 2.6064856052398681641 1.9469721317291259766 2.2311670780181884766 2.0352492332458496094 2.4162395000457763672 2.1507384777069091797 2.054286956787109375 2.0481498241424560547 1.9718747138977050781 1.3553225994110107422 1.4250316619873046875 1.54727935791015625 1.7676062583923339844 2.2599523067474365234 2.0641615390777587891 2.1804835796356201172 2.1803352832794189453 2.1679737567901611328 1.9740873575210571289 1.97476959228515625 1.8475644588470458984 1.7500613927841186523 1.4903950691223144531 2.0247240066528320313 1.7330174446105957031 1.1381973028182983398 1.7616527080535888672 1.9240381717681884766 1.5412623882293701172 1.7894237041473388672 1.4211517572402954102 1.5093190670013427734 1.6189405918121337891 1.4964979887008666992 1.7510658502578735352 1.6041625738143920898 1.5565923452377319336 1.527630925178527832 1.5625438690185546875 1.7656837701797485352 1.6338685750961303711 1.7768754959106445313 
2.5607161521911621094 2.8489949703216552734 2.6497926712036132813 2.6328234672546386719 2.6769695281982421875 2.4542267322540283203 2.9961047172546386719 2.7763316631317138672 2.7269394397735595703 3.2062997817993164063 3.4680118560791015625 2.6960299015045166016 2.8492376804351806641 2.8332278728485107422 2.6405656337738037109 2.1809597015380859375 2.4067323207855224609 2.5430123805999755859 2.8125753402709960938 2.6089887619018554688 2.0397067070007324219 2.8394732475280761719 2.8421111106872558594 2.1986463069915771484 2.6597266197204589844 2.6147637367248535156 2.7121036052703857422 2.2765088081359863281 2.4634866714477539063 2.2947680950164794922 2.6229815483093261719 2.8512146472930908203 2.8264887332916259766 2.7450897693634033203 2.7789671421051025391 2.6094257831573486328 2.6193685531616210938 2.3712389469146728516 2.0022604465484619141 2.0639996528625488281 1.8159633874893188477 1.5949611663818359375 1.6575217247009277344 1.526729583740234375 1.3640878200531005859 1.4180741310119628906 1.2940148115158081055 1.2126313447952270508 1 1.0281547307968139648 1.0974111557006835938 1.1084530353546142578 1 1.2093510627746582031 1.0450930595397949219 1.0846068859100341797 1 1.0947400331497192383 1.0853354930877685547 1.2217752933502197266 1.4139919281005859375 1.3420999050140380859 1.6508433818817138672 1.63181304931640625 1.6624130010604858398 1.9221230745315551758 1.9834905862808227539 2.9646427631378173828 1.7729772329330444336 2.5280814170837402344 4.2462339401245117188 1.9876284599304199219 3.3890902996063232422 2.3885359764099121094 1.3197394609451293945 1.5185648202896118164 1.5089381933212280273 1.909499049186706543 2.1975033283233642578 1.9479086399078369141 2.4404318332672119141 2.5143275260925292969 2.1872086524963378906 1.5429921150207519531 2.1425783634185791016 1.5438375473022460938 1.7990955114364624023 1.7314981222152709961 1.7819613218307495117 1.9292979240417480469 1.6446111202239990234 1.7233635187149047852 1.2786571979522705078 1 1.0590543746948242188 1.0597857236862182617 1.0938054323196411133 1.2283456325531005859 1.3438400030136108398 1.231578826904296875 1.1383424997329711914 1.2128746509552001953 1.1426002979278564453 1.1559096574783325195 1.0390181541442871094 1.0787307024002075195 1.1245957612991333008 1 1.0780178308486938477 1.1205723285675048828 1.0835779905319213867 1.0532040596008300781 1.034106135368347168 1.4130308628082275391 1.3419512510299682617 2.0851216316223144531 1.6590659618377685547 1.8593926429748535156 1.5366882085800170898 1.6941714286804199219 1.7795487642288208008 1.8960417509078979492 1.3381583690643310547 1.3385132551193237305 1.4973049163818359375 1.7076249122619628906 2.4431917667388916016 1.4161320924758911133 4.5184712409973144531 3.1598792076110839844 2.6057231426239013672 2.6837337017059326172 1.3162428140640258789 1.1267526149749755859 1.2153775691986083984 2.3560249805450439453 1.6003922224044799805 1.0712230205535888672 1.5665409564971923828 1.3325685262680053711 1.0923223495483398438 1.2450010776519775391 1.2620521783828735352 1.510724186897277832 1.4908066987991333008 1.302008509635925293 1.8378422260284423828 2.1123452186584472656 1.9727431535720825195 2.9002182483673095703 2.5856642723083496094 2.16603851318359375 2.5558550357818603516 2.7754259109497070313 2.2388684749603271484 2.7811603546142578125 2.2429547309875488281 2.1523277759552001953 2.4933867454528808594 2.2327294349670410156 2.2195525169372558594 2.3070840835571289063 2.6227507591247558594 2.2267992496490478516 2.0952649116516113281 2.0451595783233642578 1.8458664417266845703 1.5496927499771118164 1.6625047922134399414 1.7181314229965209961 1.6612163782119750977 1.8616816997528076172 2.1670961380004882813 2.2089531421661376953 2.0263218879699707031 2.1963741779327392578 2.4129455089569091797 2.0618124008178710938 2.1615152359008789063 2.1474661827087402344 1.8690335750579833984 1.5679900646209716797 1.5678442716598510742 1.5725101232528686523 1.7729687690734863281 1.6374694108963012695 1.621424555778503418 1.480757594108581543 1.8075501918792724609 1.6429246664047241211 1.7635291814804077148 1.5241171121597290039 1.5002378225326538086 1.3006992340087890625 1.512120366096496582 1.2509639263153076172 1.3485550880432128906 1.8804552555084228516 1.6132847070693969727 1.8253986835479736328 
2.9159152507781982422 2.452732086181640625 3.0998189449310302734 2.6739215850830078125 2.9409954547882080078 2.6224360466003417969 2.8589718341827392578 2.9106607437133789063 2.7348880767822265625 3.0254654884338378906 2.9938941001892089844 2.9352045059204101563 2.2340085506439208984 1.9116845130920410156 2.5854241847991943359 2.8437688350677490234 2.8908114433288574219 2.6224849224090576172 2.7627687454223632813 2.4163830280303955078 2.6389505863189697266 2.6324698925018310547 2.8331227302551269531 2.4231543540954589844 2.3471348285675048828 2.5910542011260986328 2.4058148860931396484 2.3713510036468505859 2.3622632026672363281 2.3812420368194580078 2.8705065250396728516 3.0558443069458007813 2.7499370574951171875 2.9927825927734375 3.1221861839294433594 3.0018274784088134766 3.0057101249694824219 2.3711545467376708984 2.0586771965026855469 1.8797435760498046875 2.1191442012786865234 2.1663925647735595703 1.686920166015625 1.583899378776550293 1.4343162775039672852 1.2228580713272094727 1.4647935628890991211 1.1909087896347045898 1.3025034666061401367 1 1.0018750429153442383 1.0654762983322143555 1.0374695062637329102 1 1.2387601137161254883 1.0058171749114990234 1.0263330936431884766 1 1.0335078239440917969 1.3853763341903686523 1.5534675121307373047 1.7612962722778320313 1.4823681116104125977 1.6301021575927734375 1.6781713962554931641 1.9412485361099243164 2.1821765899658203125 1.8601602315902709961 1.7983876466751098633 1.6138613224029541016 2.7518265247344970703 1.8196901082992553711 1.8706134557723999023 1.3008116483688354492 1.6539731025695800781 1.4901933670043945313 2.0888333320617675781 1.5492247343063354492 1.8305677175521850586 2.0264530181884765625 1.7338206768035888672 1.8310507535934448242 1.8896020650863647461 1.5689524412155151367 2.1601934432983398438 1.7517629861831665039 1.7506593465805053711 1.5848425626754760742 1.8250554800033569336 1.6740845441818237305 1.6222623586654663086 1.3259431123733520508 1.4980210065841674805 1.0449924468994140625 1.0291652679443359375 1.1063188314437866211 1.2150621414184570313 1.2826734781265258789 1.2785791158676147461 1.3113396167755126953 1.1268728971481323242 1.197238922119140625 1.1049367189407348633 1.0721895694732666016 1.1577706336975097656 1.2368973493576049805 1.2760399580001831055 1.0751636028289794922 1.1687803268432617188 1.096379399299621582 1.0461843013763427734 1.3138900995254516602 1.1995435953140258789 1.4213476181030273438 1.3678419589996337891 1.3231066465377807617 1.321133732795715332 1.8670064210891723633 1.5912098884582519531 1.6437398195266723633 1.8653577566146850586 1.4720474481582641602 2.4145674705505371094 1.5400501489639282227 1.3794020414352416992 1.0716807842254638672 1 4.3326969146728515625 2.0596446990966796875 5.08111572265625 1.7706865072250366211 1.7969634532928466797 2.0552868843078613281 1.4776880741119384766 1.7369347810745239258 1.8185083866119384766 1.9048770666122436523 1.2497786283493041992 1.3237447738647460938 1.2535347938537597656 1.556580662727355957 1.3208016157150268555 1.3170235157012939453 1.2173888683319091797 1.5534703731536865234 1.4502682685852050781 1.8304500579833984375 2.1012451648712158203 2.1620273590087890625 2.4863698482513427734 2.9389173984527587891 2.6236920356750488281 2.276031494140625 3.4855263233184814453 2.2663848400115966797 2.7288336753845214844 3.41582489013671875 2.768169403076171875 2.3701527118682861328 2.4702877998352050781 2.6016149520874023438 2.5561816692352294922 2.8022630214691162109 2.4746143817901611328 2.2144722938537597656 1.9207541942596435547 1.8396668434143066406 1.9531379938125610352 1.7452104091644287109 1.6337820291519165039 1.4978505373001098633 1.6125475168228149414 2.0088725090026855469 2.2804470062255859375 2.5073430538177490234 2.1492443084716796875 2.3776030540466308594 2.3085420131683349609 2.0521974563598632813 1.91756439208984375 2.0334088802337646484 1.4886013269424438477 1.7424436807632446289 1.5814384222030639648 1.4178301095962524414 1.7451717853546142578 1.9285798072814941406 1.6794984340667724609 1.5387876033782958984 1.4716798067092895508 1.2297787666320800781 1.6376361846923828125 1.6726872920989990234 1.3771927356719970703 1.4440371990203857422 1.5326768159866333008 1.546696782112121582 1.5685663223266601563 1.6011850833892822266 1.8507004976272583008 
3.2908320426940917969 3.1153194904327392578 3.0174057483673095703 2.9808857440948486328 3.3031613826751708984 2.6964402198791503906 2.8729050159454345703 3.2263684272766113281 3.0411553382873535156 3.5249123573303222656 3.0880265235900878906 2.5671851634979248047 2.5977694988250732422 2.5181069374084472656 2.5797491073608398438 2.6252112388610839844 2.8710324764251708984 2.7162501811981201172 2.5788044929504394531 2.1532719135284423828 2.6855113506317138672 3.0748953819274902344 2.8291482925415039063 2.5280697345733642578 2.5114724636077880859 2.7141797542572021484 2.5456225872039794922 2.4408662319183349609 2.8245787620544433594 3.1662657260894775391 2.7858369350433349609 2.8554511070251464844 3.0536482334136962891 3.1431238651275634766 3.5402538776397705078 3.3291125297546386719 3.0098311901092529297 2.7080266475677490234 2.1896448135375976563 1.8456623554229736328 1.8270905017852783203 2.5758261680603027344 2.5813786983489990234 2.0948057174682617188 1.660654902458190918 1.4478310346603393555 1.4953355789184570313 1.3469735383987426758 1.3012889623641967773 1.1376651525497436523 1.0083026885986328125 1.009273529052734375 1.0433733463287353516 1.0181728601455688477 1 1 1 1.0454721450805664063 1.0829682350158691406 1.2696965932846069336 1.4808830022811889648 1.0511585474014282227 1.2960197925567626953 1.372572779655456543 1.656103968620300293 1.5239517688751220703 1.9399764537811279297 2.0190439224243164063 1.7821317911148071289 1.3658990859985351563 2.0272643566131591797 1.7876336574554443359 3.0012223720550537109 1.7055175304412841797 1.7420139312744140625 1.5889728069305419922 1.5024551153182983398 1.3135107755661010742 1.717650294303894043 1.9915996789932250977 1.6394495964050292969 1.5976340770721435547 1.3385051488876342773 1.6124204397201538086 1.7752602100372314453 1.5697673559188842773 1.2947390079498291016 1.596861720085144043 1.8272836208343505859 1.8990024328231811523 1.3767824172973632813 1.3798940181732177734 1.3279606103897094727 1 1.1195001602172851563 1.1289778947830200195 1.1871787309646606445 1.2765811681747436523 1.2854171991348266602 1.3192801475524902344 1.1857455968856811523 1.1878300905227661133 1.1954859495162963867 1.1880702972412109375 1.1560770273208618164 1.0788682699203491211 1.2348657846450805664 1.1478259563446044922 1.1147330999374389648 1.1414003372192382813 1.1779425144195556641 1.2138062715530395508 1.1622332334518432617 1.5395147800445556641 1.8527754545211791992 1.4420279264450073242 1.4726941585540771484 1.4840445518493652344 1.5920374393463134766 1.9803212881088256836 1.8048191070556640625 1.6804735660552978516 1.7330830097198486328 1.8273320198059082031 1.4111726284027099609 1.7739140987396240234 2.3926248550415039063 1.1825734376907348633 1.5743994712829589844 3.1541626453399658203 3.0750148296356201172 3.0872139930725097656 2.9888815879821777344 2.1898922920227050781 1.9261361360549926758 1.7874500751495361328 1.8529201745986938477 1.6144342422485351563 1.5753982067108154297 1.3979233503341674805 1.6238709688186645508 1.7312139272689819336 1.1387364864349365234 1.4682210683822631836 1.7144122123718261719 1.6561646461486816406 2.3705129623413085938 2.3958239555358886719 2.2220618724822998047 2.7409389019012451172 2.6491336822509765625 2.6962175369262695313 2.6063978672027587891 2.563297271728515625 2.5303409099578857422 2.8889822959899902344 3.4724190235137939453 3.3354077339172363281 2.7183775901794433594 2.5988466739654541016 2.8129072189331054688 2.5715572834014892578 2.3107724189758300781 2.1594524383544921875 2.0473423004150390625 1.9474507570266723633 1.8640460968017578125 1.9018056392669677734 1.7093702554702758789 1.6083862781524658203 1.8751176595687866211 1.6985306739807128906 2.0510399341583251953 2.3562381267547607422 2.4584746360778808594 2.3776814937591552734 2.5428154468536376953 2.5361120700836181641 2.5152010917663574219 2.1874036788940429688 2.0399920940399169922 1.7698404788970947266 1.8947329521179199219 1.6953843832015991211 2.1233632564544677734 1.9056348800659179688 1.9612632989883422852 1.9555431604385375977 1.6892539262771606445 1.5322066545486450195 1.5008929967880249023 1.556267857551574707 1.4586896896362304688 1.3035244941711425781 1.3765236139297485352 1.5766849517822265625 1.5149309635162353516 1.4523180723190307617 1.7431344985961914063 1.8269668817520141602 
3.27753448486328125 3.2130773067474365234 3.4042599201202392578 3.7767791748046875 3.1825978755950927734 2.9676592350006103516 3.0367724895477294922 3.1178791522979736328 3.2903788089752197266 3.2087836265563964844 3.3145244121551513672 2.7319037914276123047 2.5716774463653564453 2.5507948398590087891 2.31662750244140625 2.6739759445190429688 2.8499515056610107422 2.2393198013305664063 2.6632282733917236328 2.654193878173828125 3.1398191452026367188 2.9807698726654052734 3.0954935550689697266 2.9906485080718994141 2.8766224384307861328 2.5890512466430664063 3.1483690738677978516 2.6310439109802246094 2.81591796875 3.3763470649719238281 3.2132420539855957031 3.4205613136291503906 3.7396459579467773438 3.3270680904388427734 3.1319410800933837891 2.8879644870758056641 2.5106549263000488281 2.407680511474609375 2.4273362159729003906 2.1184282302856445313 1.8250657320022583008 2.5576038360595703125 2.2591891288757324219 1.7976014614105224609 1.6321845054626464844 1.446770787239074707 1.6472953557968139648 1.4181320667266845703 1.1790505647659301758 1.0634635686874389648 1.0206539630889892578 1.0762807130813598633 1.4101966619491577148 1 1.0465748310089111328 1 1 1.0150499343872070313 1.1446926593780517578 1 1.1909385919570922852 1.2588533163070678711 1.4143270254135131836 1.3715181350708007813 1.4056026935577392578 1.0933684110641479492 1.2119525671005249023 1.6873205900192260742 1.5500136613845825195 1.1858007907867431641 1.1626238822937011719 1.8299349546432495117 2.1393511295318603516 1.3683556318283081055 1.6092711687088012695 1.4792932271957397461 1.5060716867446899414 1.0872188806533813477 1.461607813835144043 1.3133122920989990234 1.2136512994766235352 1.51311492919921875 1.5992887020111083984 1.484379887580871582 1.8140561580657958984 1.1202641725540161133 1.2177385091781616211 1.1556910276412963867 1.2327362298965454102 1.6624944210052490234 1.0395494699478149414 1.2294509410858154297 1.061076045036315918 1.054549098014831543 1.1166433095932006836 1.0952532291412353516 1.0968095064163208008 1.3781200647354125977 1.1920537948608398438 1.1513102054595947266 1.2278620004653930664 1.3066365718841552734 1.2143570184707641602 1.2127213478088378906 1.1345725059509277344 1.2547575235366821289 1.2327982187271118164 1.1394644975662231445 1.144394993782043457 1.1119937896728515625 1.2015756368637084961 1.0918042659759521484 1.3007408380508422852 1.7579253911972045898 2.0466849803924560547 1.8321318626403808594 1.5943477153778076172 1.8065336942672729492 1.8591589927673339844 1.7855093479156494141 2.1529934406280517578 1.6110062599182128906 1.5823255777359008789 1.9620518684387207031 2.1152298450469970703 2.8726096153259277344 1.5702232122421264648 1.6219366788864135742 1.7608739137649536133 2.8060522079467773438 2.8483066558837890625 2.7476401329040527344 2.2341153621673583984 4.7017359733581542969 1.9960550069808959961 1.7598806619644165039 1.9559910297393798828 1.6750316619873046875 1.6581025123596191406 1.9968694448471069336 2.0329730510711669922 1.9368624687194824219 1.474709630012512207 1.564158320426940918 2.0724282264709472656 1.7947117090225219727 2.3438653945922851563 2.5791621208190917969 2.2535061836242675781 2.7557175159454345703 2.4415493011474609375 2.6911065578460693359 2.690093994140625 2.5403218269348144531 2.6515460014343261719 2.9259238243103027344 4.3527846336364746094 3.2173140048980712891 2.8891963958740234375 2.6225633621215820313 2.8530974388122558594 2.4846904277801513672 2.3230926990509033203 2.0608944892883300781 1.9090790748596191406 2.0462119579315185547 1.9385812282562255859 2.021068572998046875 1.7816212177276611328 1.8645254373550415039 1.8966790437698364258 1.7401075363159179688 2.2736628055572509766 2.3357656002044677734 2.2332711219787597656 2.3320879936218261719 2.3101131916046142578 2.5955443382263183594 2.0066685676574707031 2.003406524658203125 1.9928452968597412109 1.74664306640625 2.0807263851165771484 2.0999443531036376953 1.6941304206848144531 1.9126647710800170898 1.6645551919937133789 1.7308778762817382813 1.3910795450210571289 1.2969604730606079102 1.34454345703125 1.4411944150924682617 1.3838770389556884766 1.3293094635009765625 1.380374908447265625 1.2893155813217163086 1.5504041910171508789 1.8639900684356689453 1.7734441757202148438 1.8906998634338378906 
3.4138031005859375 3.3921132087707519531 3.4079825878143310547 3.47527313232421875 3.43548583984375 3.5444197654724121094 3.3252673149108886719 3.2143433094024658203 3.6307513713836669922 3.218017578125 2.6512479782104492188 3.1000456809997558594 2.5208013057708740234 2.4050257205963134766 2.5570201873779296875 2.928676605224609375 2.4041864871978759766 2.3309552669525146484 2.4668049812316894531 2.7928247451782226563 2.7446131706237792969 2.3111171722412109375 3.1312053203582763672 2.7613201141357421875 2.9792091846466064453 2.8170921802520751953 2.7639355659484863281 2.6240110397338867188 2.88260650634765625 3.3891210556030273438 3.2588827610015869141 3.5263340473175048828 3.5622251033782958984 3.3778474330902099609 3.4316320419311523438 2.7804269790649414063 2.3868784904479980469 2.1860175132751464844 2.4424211978912353516 2.2359058856964111328 2.39986419677734375 2.0482718944549560547 2.1167645454406738281 2.0998489856719970703 1.8703109025955200195 1.6557422876358032227 1.2016812562942504883 1.5242475271224975586 1.3152108192443847656 1.3323050737380981445 1.2117550373077392578 1 1.2341650724411010742 1 1.0063376426696777344 1.0109502077102661133 1 1.0044475793838500977 1.1337398290634155273 1.1090766191482543945 1 1 1.0801292657852172852 1 1 1.0189037322998046875 1.2783224582672119141 1.3074492216110229492 1.4050900936126708984 1.0530261993408203125 1.1499482393264770508 1.7009923458099365234 1.2514452934265136719 1.8426537513732910156 1.2992855310440063477 1.5042173862457275391 2.0053925514221191406 1.7920738458633422852 1.4666800498962402344 1.2055321931838989258 1.8194010257720947266 1.460287928581237793 1.5487945079803466797 1.4828461408615112305 1.3441252708435058594 1.1582349538803100586 1 1.0167515277862548828 1.0298265218734741211 1.1382036209106445313 1.1677761077880859375 1 1 1 1.1257635354995727539 1.1423537731170654297 1.136515498161315918 1 1.2221915721893310547 1.0921187400817871094 1.3077636957168579102 1.2900193929672241211 1.1900154352188110352 1.1818479299545288086 1.1514751911163330078 1.083365321159362793 1.365349888801574707 1.0688619613647460938 1.2484968900680541992 1.260710597038269043 1.3087922334671020508 1.3088473081588745117 1.673853754997253418 1.3899427652359008789 1.4174889326095581055 1.464036107063293457 1.3650727272033691406 1.4617711305618286133 1.3764796257019042969 1.2641849517822265625 1.9284359216690063477 2.0287253856658935547 1.9067989587783813477 2.3523678779602050781 1.7244306802749633789 1.8214267492294311523 1.6675833463668823242 1.5701123476028442383 1.6952177286148071289 1.3746446371078491211 1.1412260532379150391 1.4273855686187744141 2.0522012710571289063 2.1173274517059326172 1.8872565031051635742 2.2114458084106445313 1.7818073034286499023 1.7854933738708496094 1.8450655937194824219 1.9613989591598510742 2.0507709980010986328 2.4120573997497558594 1.5362503528594970703 1.5871980190277099609 2.2287006378173828125 2.4590909481048583984 2.8575310707092285156 2.075641632080078125 2.9403009414672851563 2.7368574142456054688 2.5425143241882324219 3.2121622562408447266 2.7113676071166992188 2.6961398124694824219 2.2783429622650146484 2.3824758529663085938 3.3542625904083251953 3.0708477497100830078 3.2148303985595703125 3.1600708961486816406 2.8512163162231445313 2.5986964702606201172 2.4155228137969970703 2.1642358303070068359 2.0002055168151855469 1.884375452995300293 2.0334403514862060547 1.8614593744277954102 1.5508887767791748047 1.8613517284393310547 1.9225795269012451172 1.5686364173889160156 1.9174361228942871094 2.3212690353393554688 2.0899562835693359375 2.0460183620452880859 2.1567919254302978516 2.44907379150390625 1.9826347827911376953 2.0436851978302001953 2.4577045440673828125 1.9790543317794799805 1.8861814737319946289 1.6327648162841796875 1.7252629995346069336 1.6646338701248168945 1.4292899370193481445 1.4549711942672729492 1.5620450973510742188 1.2706705331802368164 1.3116455078125 1.2045320272445678711 1.2959159612655639648 1.3786309957504272461 1.4356046915054321289 1.0745649337768554688 1.1601642370223999023 1.5174202919006347656 1.6773904561996459961 1.9472227096557617188 
3.9784979820251464844 3.3439300060272216797 3.421665191650390625 3.0561962127685546875 3.1640295982360839844 3.1825110912322998047 3.0813078880310058594 3.5039992332458496094 3.2841322422027587891 3.0537302494049072266 3.2416384220123291016 3.1840775012969970703 2.9323091506958007813 2.5751271247863769531 2.6247613430023193359 2.2690808773040771484 2.2372529506683349609 2.005977630615234375 2.3847563266754150391 2.8619410991668701172 2.7419078350067138672 2.4726204872131347656 2.8212797641754150391 2.1704676151275634766 2.5969345569610595703 2.4103748798370361328 2.8457622528076171875 3.3993420600891113281 3.1846544742584228516 2.7709903717041015625 3.0872137546539306641 3.2489154338836669922 3.3931269645690917969 3.323467254638671875 3.6615412235260009766 3.01683807373046875 2.5618300437927246094 2.2905447483062744141 2.3000051975250244141 2.2522721290588378906 2.2079889774322509766 2.1784212589263916016 1.9922337532043457031 1.9340752363204956055 1.9411351680755615234 2.1064302921295166016 1.4631963968276977539 1.2991682291030883789 1.1797344684600830078 1 1.0965590476989746094 1 1.2944306135177612305 1 1.1103224754333496094 1.1731064319610595703 1.0951905250549316406 1.0861754417419433594 1 1.014812469482421875 1.0846236944198608398 1.0494477748870849609 1 1 1 1.0358084440231323242 1.1543861627578735352 1.1664917469024658203 1 1.8931834697723388672 1.058315277099609375 1 1.161579132080078125 1.6471942663192749023 1.9311355352401733398 1.2417509555816650391 1.1830956935882568359 1.1131299734115600586 1 1.2404601573944091797 1.5028746128082275391 1.2524807453155517578 1.5708475112915039063 1.2932633161544799805 1.2803755998611450195 1.655310511589050293 1.4108438491821289063 1.093024134635925293 1 1.0688998699188232422 1.0912454128265380859 1 1 1 1 1.0332049131393432617 1.0538671016693115234 1.1530438661575317383 1.2056523561477661133 1.2689417600631713867 1.2808432579040527344 1.2602728605270385742 1.2175353765487670898 1.2293889522552490234 1.2519190311431884766 1.2541557550430297852 1.2431570291519165039 1.3458942174911499023 1.2181093692779541016 1.159104466438293457 1.2614208459854125977 1.2279297113418579102 1.1768667697906494141 1.3388060331344604492 1.435618281364440918 1.3925837278366088867 1.1447709798812866211 1.4938842058181762695 1.2189099788665771484 1.8601115942001342773 1.9925293922424316406 2.1130080223083496094 2.0338611602783203125 2.6362605094909667969 2.8802435398101806641 3.2748029232025146484 1.4320200681686401367 2.3571076393127441406 2.9930844306945800781 2.5143964290618896484 2.5444881916046142578 2.4532251358032226563 1.7951679229736328125 1.7680132389068603516 2.1645491123199462891 1.6308890581130981445 1.838824152946472168 1.9006879329681396484 1.9991152286529541016 2.0280687808990478516 2.5599160194396972656 2.6820750236511230469 2.4729998111724853516 2.0842869281768798828 2.2252264022827148438 2.699520111083984375 2.6373424530029296875 2.4512305259704589844 2.5314812660217285156 2.8600857257843017578 2.7278988361358642578 2.675083160400390625 2.9796426296234130859 2.9305651187896728516 2.8046257495880126953 2.4020059108734130859 2.649776458740234375 2.565662384033203125 2.8479125499725341797 2.972309112548828125 2.7383096218109130859 2.7805726528167724609 2.1874825954437255859 1.8819239139556884766 1.8618904352188110352 2.0138356685638427734 1.9366279840469360352 1.9046027660369873047 1.6021528244018554688 1.7370826005935668945 1.8050484657287597656 1.9420973062515258789 2.2040276527404785156 1.8540401458740234375 2.0414421558380126953 2.0220482349395751953 1.8944038152694702148 2.1650643348693847656 1.8490221500396728516 2.1402444839477539063 2.0159587860107421875 1.9871231317520141602 2.0844800472259521484 2.1443789005279541016 1.6547263860702514648 1.7079771757125854492 1.5043451786041259766 1.5101593732833862305 1.5862100124359130859 1.3216981887817382813 1.3583388328552246094 1.3694700002670288086 1.4935740232467651367 1.417552947998046875 1.3471139669418334961 1.8667126893997192383 1.4160678386688232422 1.5695950984954833984 1.5656088590621948242 1.6337431669235229492 
3.3567187786102294922 3.7965040206909179688 3.6645896434783935547 3.6286554336547851563 3.1377058029174804688 3.5205235481262207031 3.2878496646881103516 2.9871795177459716797 3.0975444316864013672 3.4878087043762207031 3.2698099613189697266 3.0395576953887939453 2.964046478271484375 2.9990212917327880859 2.5514404773712158203 1.7922451496124267578 2.0786492824554443359 2.5433642864227294922 2.6797645092010498047 2.6915862560272216797 2.9997663497924804688 2.3325979709625244141 2.4456222057342529297 2.6909639835357666016 2.9480814933776855469 3.1598045825958251953 3.2993395328521728516 3.1670591831207275391 3.0461544990539550781 2.9891343116760253906 3.3811876773834228516 2.8587777614593505859 3.1617026329040527344 3.7921922206878662109 3.4397158622741699219 3.2787332534790039063 2.3752579689025878906 2.5143275260925292969 2.1561260223388671875 2.3099606037139892578 2.3132693767547607422 2.2537534236907958984 1.9076187610626220703 2.001544952392578125 1.6838428974151611328 1.4548608064651489258 1.6197923421859741211 1.6674898862838745117 1.1206830739974975586 1.1218820810317993164 1.2197117805480957031 1.0666965246200561523 1.2032403945922851563 1.2410168647766113281 1.1491969823837280273 1.3615906238555908203 1 1 1 1 1 1.087678074836730957 1 1.223116755485534668 1.1100068092346191406 1.2135318517684936523 1 1 1 1.1081017255783081055 1 1 1 1.0516272783279418945 1 1.6685469150543212891 1.4823691844940185547 1.4144518375396728516 1.0192151069641113281 1.1671776771545410156 1.3090742826461791992 2.0215857028961181641 2.1358184814453125 1.5466557741165161133 1 1 1.2685054540634155273 1.185664057731628418 1 1.1996004581451416016 1.1134827136993408203 1 1 1.0621514320373535156 1.0064538717269897461 1.1891216039657592773 1.1180567741394042969 1.0614922046661376953 1 1.174898982048034668 1.0957192182540893555 1.2131505012512207031 1.3854690790176391602 1.2044059038162231445 1.3330491781234741211 1.349961400032043457 1.3034087419509887695 1.4716246128082275391 1.2390404939651489258 1.148723602294921875 1.260039210319519043 1.3182139396667480469 1.2346376180648803711 1.3170348405838012695 1.442667841911315918 1.100958704948425293 1.6135529279708862305 1.3838351964950561523 1.1925377845764160156 1.670916438102722168 1.8594588041305541992 2.0916705131530761719 2.9789803028106689453 2.0043840408325195313 4.2459869384765625 3.3096914291381835938 1.6411112546920776367 2.6651949882507324219 2.5527813434600830078 2.2727274894714355469 2.5617733001708984375 1.289786219596862793 1.4523335695266723633 2.0168020725250244141 1.9249185323715209961 2.0491304397583007813 1.7896809577941894531 1.8788169622421264648 1.308258056640625 1.8815009593963623047 1.9769846200942993164 2.3636150360107421875 2.8143687248229980469 2.2813119888305664063 2.4017317295074462891 2.6093797683715820313 2.6696531772613525391 2.5753297805786132813 2.4472749233245849609 2.4920151233673095703 3.1176357269287109375 3.0958240032196044922 2.8515210151672363281 2.9577510356903076172 2.9500300884246826172 2.9095716476440429688 2.4588468074798583984 2.5424869060516357422 2.9117677211761474609 2.4909486770629882813 2.4410777091979980469 2.3333494663238525391 2.14389801025390625 2.2463119029998779297 2.02736663818359375 1.6618078947067260742 1.7595090866088867188 1.6201897859573364258 1.881024479866027832 1.5392203330993652344 1.5795580148696899414 1.5346181392669677734 1.7169165611267089844 2.1792781352996826172 2.0567939281463623047 1.7608610391616821289 1.8924403190612792969 1.90921783447265625 1.9119246006011962891 1.7732663154602050781 1.9438991546630859375 1.9248794317245483398 1.9719095230102539063 1.9151686429977416992 1.6936608552932739258 1.6271077394485473633 1.9151277542114257813 1.6404876708984375 1.4115326404571533203 1.603720545768737793 1.6435626745223999023 1.2886862754821777344 1.3989083766937255859 1.4429532289505004883 1.4488798379898071289 1.5088199377059936523 1.5027345418930053711 2.1627788543701171875 1.9300730228424072266 1.8277363777160644531 
3.5205183029174804688 3.4276425838470458984 3.6366486549377441406 3.7272272109985351563 3.5589020252227783203 3.0388579368591308594 3.0374166965484619141 3.0925288200378417969 2.7626430988311767578 3.0113506317138671875 2.7670028209686279297 2.8568999767303466797 2.7378683090209960938 2.7640755176544189453 2.0352101325988769531 2.0802633762359619141 2.4337916374206542969 2.3308718204498291016 3.2926349639892578125 3.0107491016387939453 2.7406303882598876953 2.2443735599517822266 2.5553834438323974609 2.8518290519714355469 2.862606048583984375 3.6568417549133300781 2.9426991939544677734 2.6329355239868164063 3.2321949005126953125 3.2310154438018798828 2.5090835094451904297 2.9841773509979248047 3.5821726322174072266 3.4450449943542480469 3.4823935031890869141 2.8893194198608398438 3.2634713649749755859 2.738800048828125 2.1793212890625 2.1931598186492919922 2.6672990322113037109 1.9513578414916992188 1.9854016304016113281 1.8833739757537841797 1.5127788782119750977 1.4009724855422973633 1.5547715425491333008 1.3539001941680908203 1.5004796981811523438 1.3989886045455932617 1.1228750944137573242 1.1664854288101196289 1.2933087348937988281 1.3722399473190307617 1.1453795433044433594 1.0719354152679443359 1.0984586477279663086 1 1.1450868844985961914 1 1 1 1.0924547910690307617 1.1526468992233276367 1.190537571907043457 1.0298361778259277344 1.2775043249130249023 1.0831032991409301758 1.1098599433898925781 1.0796031951904296875 1.0190851688385009766 1.0174202919006347656 1.0562535524368286133 1 1.0847412347793579102 1.2338898181915283203 1.0611799955368041992 1 1 1.7846699953079223633 2.3606414794921875 1.4090626239776611328 2.0504770278930664063 1 1 1 1.0170843601226806641 1 1.019794464111328125 1.0436532497406005859 1 1 1.0057654380798339844 1 1.721987605094909668 1.0492243766784667969 1 1 1.2540766000747680664 1.0341410636901855469 1.2000299692153930664 1.3162550926208496094 1.237387537956237793 1.2935236692428588867 1.3615324497222900391 1.2646856307983398438 1.221402287483215332 1.3168376684188842773 2.3651659488677978516 1.2662601470947265625 1.2320441007614135742 1.0151678323745727539 2.1153454780578613281 1.9216461181640625 2.0999741554260253906 2.4934444427490234375 1.5141003131866455078 1.8374210596084594727 1.5984888076782226563 2.1759409904479980469 2.1474883556365966797 2.0296688079833984375 3.9005346298217773438 3.26531219482421875 1.5371776819229125977 1.3407195806503295898 1.0205500125885009766 1.8988986015319824219 1 2.5089366436004638672 1.3418120145797729492 2.9560670852661132813 1.4387276172637939453 1.8225939273834228516 2.2837350368499755859 2.4928433895111083984 1.5287195444107055664 1.6598751544952392578 1.9287053346633911133 1.9471323490142822266 1.8636611700057983398 2.1238677501678466797 2.3853061199188232422 2.3476293087005615234 2.3275935649871826172 2.6309049129486083984 2.3142273426055908203 2.5697546005249023438 2.6801590919494628906 2.7210321426391601563 3.0930414199829101563 2.8430466651916503906 2.8907113075256347656 3.0705215930938720703 2.7668933868408203125 2.5544288158416748047 2.6289043426513671875 2.7960109710693359375 2.6153812408447265625 2.4166736602783203125 1.9862083196640014648 2.1719064712524414063 1.9070811271667480469 1.5755205154418945313 2.0573208332061767578 2.2511613368988037109 1.7333108186721801758 1.8617448806762695313 1.6905454397201538086 1.7550376653671264648 1.6948878765106201172 1.6729148626327514648 1.6978040933609008789 1.9202493429183959961 1.5794602632522583008 1.8968496322631835938 2.0180046558380126953 1.9559447765350341797 1.6977305412292480469 1.9834936857223510742 1.8203881978988647461 1.8936257362365722656 1.9450693130493164063 1.8352224826812744141 1.5734159946441650391 1.8193007707595825195 2.1999514102935791016 1.7302868366241455078 1.4769598245620727539 1.5347208976745605469 1.5795347690582275391 1.4922075271606445313 1.3513216972351074219 1.7004439830780029297 1.4605554342269897461 1.4141356945037841797 1.5583269596099853516 1.7794412374496459961 1.9174863100051879883 1.7550370693206787109 
3.2931370735168457031 3.5978302955627441406 3.1260693073272705078 3.1189224720001220703 3.3642642498016357422 2.8878755569458007813 2.9371094703674316406 2.7859296798706054688 2.6904883384704589844 2.9907605648040771484 2.7556660175323486328 2.91515350341796875 2.6486623287200927734 2.1481485366821289063 1.8068115711212158203 1.4521552324295043945 2.1787114143371582031 2.3513307571411132813 2.5817885398864746094 3.1885235309600830078 2.5778644084930419922 2.5430462360382080078 3.0054991245269775391 2.6656861305236816406 2.4356508255004882813 2.8938517570495605469 3.1662735939025878906 3.1176908016204833984 3.0475716590881347656 2.3583230972290039063 2.9999644756317138672 3.2102005481719970703 3.574520111083984375 3.6114702224731445313 3.0332882404327392578 3.0596690177917480469 2.9710688591003417969 3.2048544883728027344 2.5171790122985839844 2.2662420272827148438 2.0341000556945800781 2.0580284595489501953 2.0221028327941894531 1.7683713436126708984 1.5394184589385986328 1.4209314584732055664 1.6764007806777954102 1.6822149753570556641 1.4383263587951660156 1.2478848695755004883 1.2074207067489624023 1.3494843244552612305 1.1853988170623779297 1.0852776765823364258 1 1.1678673028945922852 1 1 1.2768634557723999023 1.1591490507125854492 1.1559882164001464844 1 1 1.1633105278015136719 1.1399836540222167969 1.1193312406539916992 1.0351300239562988281 1.1486341953277587891 1 1.0397548675537109375 1.0014984607696533203 1.0418689250946044922 1 1.0112539529800415039 1 1.0972793102264404297 1 1 1 1.1571319103240966797 1.4057511091232299805 1.2477066516876220703 1.3229306936264038086 1.0099179744720458984 1.4541090726852416992 1 1.7578958272933959961 1 1 1 1 1 1.047900080680847168 1.1136194467544555664 1.3446054458618164063 1.1336634159088134766 1.043567657470703125 1 1.216408848762512207 1.112186431884765625 1.2616094350814819336 1.2833316326141357422 1.5205429792404174805 1.3988023996353149414 1.3557585477828979492 1.3215351104736328125 1.4430643320083618164 1.2588623762130737305 1.4455832242965698242 1.2155764102935791016 1.1809868812561035156 1.2205289602279663086 1.8946936130523681641 2.1740984916687011719 3.0839056968688964844 2.6972289085388183594 1.6636264324188232422 2.8126268386840820313 1.4697597026824951172 1.2822798490524291992 1.9366255998611450195 1.7367129325866699219 5.1187815666198730469 3.9699842929840087891 2.1723237037658691406 1.5963033437728881836 1.6565462350845336914 2.5585525035858154297 1.9970506429672241211 1.5945909023284912109 1.2256257534027099609 2.4491817951202392578 1.4200273752212524414 1.880495905876159668 1.4255490303039550781 1.284031987190246582 1.567042231559753418 1.3063919544219970703 1.7026907205581665039 2.1886217594146728516 1.5877759456634521484 1.8976837396621704102 2.2095115184783935547 2.2729279994964599609 2.4764037132263183594 2.4518818855285644531 2.4083473682403564453 2.4006645679473876953 2.3209159374237060547 2.8348348140716552734 2.7193460464477539063 2.8071806430816650391 2.8097298145294189453 2.6977834701538085938 3.0259394645690917969 3.1103999614715576172 2.7200655937194824219 2.8733196258544921875 2.5794789791107177734 1.9446599483489990234 2.5305781364440917969 1.8209245204925537109 1.6022386550903320313 1.7617254257202148438 1.7353612184524536133 1.9637873172760009766 1.6778610944747924805 1.986240386962890625 1.9067819118499755859 1.9979559183120727539 1.8083813190460205078 2.0423367023468017578 1.9187072515487670898 1.7684266567230224609 1.8258273601531982422 1.9751318693161010742 2.0804026126861572266 1.9545148611068725586 1.8068343400955200195 1.8641371726989746094 2.1733374595642089844 2.0136988162994384766 1.9813454151153564453 1.5954939126968383789 1.9915144443511962891 1.7566241025924682617 1.7322751283645629883 1.7231776714324951172 1.8599013090133666992 1.7387716770172119141 1.8105477094650268555 1.7322462797164916992 1.4013912677764892578 1.2962031364440917969 1.2598285675048828125 1.10559844970703125 1.2796761989593505859 1.4608025550842285156 1.7590900659561157227 1.6519335508346557617 
3.462810516357421875 3.7819316387176513672 2.9110441207885742188 3.0459055900573730469 3.4040691852569580078 3.2159452438354492188 2.4511480331420898438 2.8031568527221679688 2.7697250843048095703 2.3196394443511962891 2.5548539161682128906 2.6885995864868164063 2.6265864372253417969 2.1692011356353759766 1.6727888584136962891 1.455151677131652832 1.7659076452255249023 1.7669298648834228516 2.1354746818542480469 2.3441450595855712891 2.1886210441589355469 2.1156473159790039063 2.2820706367492675781 2.1924059391021728516 2.6128771305084228516 3.0912771224975585938 2.9344506263732910156 2.7476308345794677734 2.7876901626586914063 2.6752619743347167969 3.0327639579772949219 3.2676732540130615234 3.3780448436737060547 3.2415287494659423828 2.9636213779449462891 2.8736319541931152344 3.0975389480590820313 2.5497035980224609375 2.4573190212249755859 2.4759645462036132813 2.6892528533935546875 2.1619107723236083984 2.1088736057281494141 2.2973828315734863281 2.0327732563018798828 1.6206798553466796875 1.9702504873275756836 1.4500786066055297852 1.7628155946731567383 1.4451611042022705078 1.1717989444732666016 1.3308377265930175781 1.1142607927322387695 1.2019351720809936523 1 1.0740332603454589844 1.0686510801315307617 1 1 1.0591471195220947266 1 1 1.0432046651840209961 1 1 1.0557132959365844727 1 1.0009624958038330078 1.0293588638305664063 1 1.0082993507385253906 1 1.0391128063201904297 1.0264116525650024414 1 1 1.0890700817108154297 1.1525247097015380859 1 1 2.1131436824798583984 1 1.2610964775085449219 1.2238394021987915039 1.1078510284423828125 1.052698969841003418 1 1 1 1.1788543462753295898 1 1 1.0126968622207641602 1.2092140913009643555 1.0458201169967651367 1.0446754693984985352 1 1.1110128164291381836 1.033394932746887207 1.1029226779937744141 1.2788150310516357422 1.246394038200378418 1.4323683977127075195 1.3712842464447021484 1.4318803548812866211 1.237559199333190918 2.4471147060394287109 2.3741705417633056641 1.1637110710144042969 1.2208642959594726563 1.2006916999816894531 1.1090891361236572266 1.2439683675765991211 1.7270402908325195313 2.4550218582153320313 3.1194226741790771484 1.9119702577590942383 1.5559453964233398438 1.1243143081665039063 2.240291595458984375 3.0155518054962158203 3.3156740665435791016 3.6833126544952392578 3.62500762939453125 1.6290572881698608398 3.4926426410675048828 1.4362189769744873047 1.2434945106506347656 2.3403308391571044922 1.1832584142684936523 1.3303066492080688477 1.7499946355819702148 2.5255746841430664063 2.3951847553253173828 2.2076783180236816406 1.1777755022048950195 1.5848838090896606445 1.4907479286193847656 1.2169096469879150391 1.8335577249526977539 1.5360060930252075195 1.7536175251007080078 1.9981503486633300781 2.0067646503448486328 2.2656729221343994141 2.5712869167327880859 2.4999423027038574219 2.4614846706390380859 2.3657865524291992188 2.4364390373229980469 2.8130280971527099609 2.7676305770874023438 3.02788543701171875 3.0375063419342041016 3.3014433383941650391 3.1411490440368652344 2.7987887859344482422 2.8642590045928955078 2.6418540477752685547 2.0780060291290283203 1.9509124755859375 2.3942718505859375 1.5988881587982177734 1.9205343723297119141 1.6025235652923583984 1.7383153438568115234 1.8952356576919555664 1.9297497272491455078 2.0510349273681640625 1.7758352756500244141 2.0502438545227050781 1.8315616846084594727 2.0190863609313964844 1.5752706527709960938 1.4774708747863769531 1.5233592987060546875 1.581325531005859375 1.8432501554489135742 1.9038671255111694336 2.0419521331787109375 1.9638389348983764648 1.9570351839065551758 1.8864942789077758789 1.7715460062026977539 1.5363237857818603516 1.7454040050506591797 2.1278905868530273438 2.1815273761749267578 1.6641607284545898438 2.3522744178771972656 1.4281249046325683594 1.3630732297897338867 1.0054003000259399414 1.2050311565399169922 1.1838207244873046875 1.3341548442840576172 1.274815678596496582 1.5486713647842407227 1.5426909923553466797 1.1769499778747558594 
3.242931365966796875 3.3972284793853759766 2.8956277370452880859 2.8637194633483886719 2.9259619712829589844 2.8743715286254882813 2.3109126091003417969 2.3424441814422607422 2.3637435436248779297 2.3771762847900390625 2.1422638893127441406 2.3625266551971435547 2.3907423019409179688 1.9208915233612060547 2.1880271434783935547 1.8952835798263549805 1.9904482364654541016 1.5923801660537719727 1.3256506919860839844 1.8414651155471801758 2.5068559646606445313 2.0271043777465820313 2.1905095577239990234 2.1168086528778076172 2.6390817165374755859 2.4761271476745605469 3.1443247795104980469 2.3790740966796875 2.6952178478240966797 2.8461201190948486328 2.3506031036376953125 3.3605303764343261719 3.0252468585968017578 3.3658399581909179688 3.1021428108215332031 2.8745419979095458984 3.3477914333343505859 2.8907301425933837891 3.0364770889282226563 2.6544311046600341797 2.5457746982574462891 2.7686238288879394531 3.0014476776123046875 2.4689159393310546875 1.9791805744171142578 1.8170325756072998047 1.7171202898025512695 1.3310635089874267578 1.3922926187515258789 1.2331080436706542969 1.2188504934310913086 1.1703577041625976563 1 1 1.0780519247055053711 1.2957310676574707031 1.1173756122589111328 1.1166551113128662109 1 1 1.0021308660507202148 1 1.0125888586044311523 1 1 1.1774801015853881836 1 1 1.0129156112670898438 1 1.0147874355316162109 1 1.0227504968643188477 1.0941442251205444336 1.0937734842300415039 1.0195909738540649414 1.0025292634963989258 1 1 1 1.0504175424575805664 1.403948664665222168 1 1.0417652130126953125 1.2279354333877563477 1.2163416147232055664 1.2441415786743164063 1 1 1 1.2560411691665649414 1.2378201484680175781 1.0680158138275146484 1.0064872503280639648 1 1.0520417690277099609 1.0508856773376464844 1.1401538848876953125 1.0485193729400634766 1.1918225288391113281 1.2394560575485229492 1.3727926015853881836 1.4014191627502441406 1.3972855806350708008 1.3291394710540771484 1.3201583623886108398 1.3204292058944702148 2.2409224510192871094 1.2452780008316040039 2.005123138427734375 1.1931759119033813477 2.9946258068084716797 1.7195476293563842773 1.1742191314697265625 1.3202024698257446289 2.7822248935699462891 2.9149291515350341797 1.6067487001419067383 1.7419228553771972656 1.1965358257293701172 2.7958664894104003906 1.7423492670059204102 3.3944838047027587891 3.6619145870208740234 3.2247056961059570313 2.7920005321502685547 1.601958155632019043 1.2588797807693481445 2.7071776390075683594 1.1126828193664550781 1.1368280649185180664 1.122799992561340332 1.6035367250442504883 1.9149926900863647461 1.368236541748046875 1.3105523586273193359 1.3854551315307617188 1.1714000701904296875 2.0142354965209960938 1.5790420770645141602 1.4538878202438354492 2.1363210678100585938 2.0995988845825195313 2.1401824951171875 2.4944252967834472656 2.4306371212005615234 2.5871407985687255859 2.4774715900421142578 2.5453386306762695313 2.5155444145202636719 3.1108694076538085938 2.8793675899505615234 3.0230019092559814453 3.3804326057434082031 3.3151671886444091797 3.2717437744140625 2.3720440864562988281 2.7665927410125732422 2.1195516586303710938 1.8970545530319213867 2.0186846256256103516 1.6404663324356079102 1.9293110370635986328 1.4254174232482910156 1.3938709497451782227 1.6012741327285766602 1.5742025375366210938 1.8378747701644897461 1.7284516096115112305 1.7293345928192138672 1.8502867221832275391 1.6884583234786987305 1.685082554817199707 1.9793096780776977539 1.8427518606185913086 1.7909691333770751953 1.737401127815246582 1.7431970834732055664 1.6583516597747802734 1.6531020402908325195 1.777611851692199707 1.6993966102600097656 1.6027548313140869141 1.7680038213729858398 1.6485062837600708008 1.5798343420028686523 1.9195557832717895508 1.878040313720703125 1.6863077878952026367 1.5248122215270996094 1.5893012285232543945 1.4264976978302001953 1.1273440122604370117 1 1.284193873405456543 1.3293062448501586914 1.2983593940734863281 1.2778509855270385742 1.065581202507019043 1.3576772212982177734 
3.2504289150238037109 3.4459686279296875 3.042217254638671875 2.9129405021667480469 3.0645930767059326172 2.5381898880004882813 1.881856083869934082 2.2695856094360351563 2.0865361690521240234 2.1729440689086914063 2.8203351497650146484 2.6704738140106201172 2.5563502311706542969 1.9103206396102905273 1.9626324176788330078 1.7177479267120361328 2.1230745315551757813 1.3557091951370239258 1.1297055482864379883 1.6022459268569946289 2.0599963665008544922 2.5739803314208984375 2.0080995559692382813 2.0744242668151855469 2.2506749629974365234 2.4869234561920166016 3.1407086849212646484 2.9576499462127685547 2.7608518600463867188 2.7483582496643066406 2.1513202190399169922 2.3956117630004882813 2.6971163749694824219 2.9299907684326171875 2.5510237216949462891 2.4241123199462890625 2.4138100147247314453 2.5020704269409179688 2.4783182144165039063 2.3326873779296875 2.5785109996795654297 2.6103293895721435547 2.5782461166381835938 2.2087373733520507813 2.0164384841918945313 2.1057839393615722656 1.9279364347457885742 1.4912130832672119141 1.188204646110534668 1.0105035305023193359 1.2029415369033813477 1.0757105350494384766 1.11710357666015625 1 1.3593178987503051758 1.1406509876251220703 1 1 1 1 1 1.027193903923034668 1 1 1 1 1 1 1 1.0393445491790771484 1 1.0526716709136962891 1.1128205060958862305 1.0408749580383300781 1.0017086267471313477 1 1 1.326890110969543457 1 1.0023708343505859375 1.8823034763336181641 1 1.7380696535110473633 1.0305348634719848633 1.2428549528121948242 1.0357166528701782227 1 1.1975767612457275391 1 1.1269779205322265625 1.1105017662048339844 1 1.101136326789855957 1 1.0819425582885742188 1 1 1 1.1043554544448852539 1.0621662139892578125 1.1125992536544799805 1.342193603515625 1.4036706686019897461 1.2910686731338500977 1.243870854377746582 1.259833216667175293 1.282603144645690918 1.2648065090179443359 1.0960803031921386719 1.1775605678558349609 1.2965877056121826172 1.5413248538970947266 1.0932565927505493164 1.9968438148498535156 1.1205540895462036133 2.8006944656372070313 1.3534318208694458008 1.0826396942138671875 1.0056368112564086914 1.0183591842651367188 1.4128649234771728516 1.5436092615127563477 1.8169755935668945313 2.2671151161193847656 2.6116771697998046875 2.2098362445831298828 1.2600376605987548828 1.4960618019104003906 1.0278130769729614258 1 1.0154045820236206055 1.553248286247253418 2.7634661197662353516 1.8634958267211914063 1.6937952041625976563 1.6178724765777587891 1.2411313056945800781 1.2824802398681640625 1.5959328413009643555 1.3623558282852172852 2.1186378002166748047 1.9317363500595092773 2.2285835742950439453 2.2007482051849365234 2.4315600395202636719 2.6185765266418457031 2.2659809589385986328 2.6866600513458251953 2.4553408622741699219 2.7765386104583740234 2.9044315814971923828 2.7235178947448730469 2.7291131019592285156 2.9207510948181152344 3.3153438568115234375 2.7907149791717529297 2.7288918495178222656 2.5809743404388427734 2.1609487533569335938 2.6765530109405517578 2.090183258056640625 1.6176832914352416992 1.7836188077926635742 1.8482563495635986328 1.2626101970672607422 1.4669322967529296875 1.5201029777526855469 1.7851047515869140625 1.7875051498413085938 1.6361283063888549805 1.6572196483612060547 1.5780881643295288086 1.5479606389999389648 1.9369553327560424805 2.0933501720428466797 1.8528875112533569336 1.5779851675033569336 1.6149886846542358398 1.7469826936721801758 1.8310197591781616211 1.8365551233291625977 1.6964324712753295898 1.4221783876419067383 1.5303515195846557617 1.3984978199005126953 1.6616442203521728516 1.9317852258682250977 1.7369713783264160156 1.8279689550399780273 1.4344145059585571289 1.4437836408615112305 1.1815655231475830078 1.125243067741394043 1 1.0729258060455322266 1.1907383203506469727 1.21086883544921875 1.3324029445648193359 1 1 
3.4099843502044677734 3.5142676830291748047 3.1237699985504150391 3.1045346260070800781 2.6482801437377929688 2.0490674972534179688 2.0054357051849365234 1.8551613092422485352 2.487514495849609375 2.6366565227508544922 2.2500784397125244141 2.3640942573547363281 2.1277649402618408203 1.5042706727981567383 1.5203874111175537109 1.9617313146591186523 1.4840562343597412109 1.415501713752746582 1.5076155662536621094 1.6299846172332763672 1.6618026494979858398 2.0289309024810791016 2.2257938385009765625 2.3133053779602050781 2.2631158828735351563 2.3384404182434082031 3.1115353107452392578 3.1892850399017333984 2.9936683177947998047 2.2986035346984863281 2.1192290782928466797 2.5710062980651855469 2.8729999065399169922 3.1366546154022216797 2.6506237983703613281 2.3489768505096435547 2.5115923881530761719 2.4494211673736572266 2.7607438564300537109 2.2176930904388427734 2.0295970439910888672 2.3588950634002685547 2.7407205104827880859 2.1284348964691162109 2.0040218830108642578 1.5288717746734619141 1.5759320259094238281 1.4599841833114624023 1 1 1 1.0072629451751708984 1.1452641487121582031 1 1 1 1.0852906703948974609 1 1 1.0560718774795532227 1 1.0125881433486938477 1 1.0673618316650390625 1 1 1 1 1 1 1 1.068457484245300293 1 1 1 1.0209984779357910156 1.0375177860260009766 1.0156052112579345703 1 1.0238940715789794922 1 1.5171732902526855469 1.3573981523513793945 1.5587329864501953125 1.1907085180282592773 1.0731881856918334961 1.1364741325378417969 1 1 1 1 1.1444571018218994141 1 1 1 1.0469862222671508789 1.1266200542449951172 1.0151822566986083984 1.1368396282196044922 1.2231656312942504883 1.1919687986373901367 1.2267690896987915039 1.2615823745727539063 1.2700997591018676758 1.2627885341644287109 1.2311118841171264648 1.2878570556640625 1.1738251447677612305 1.2360824346542358398 2.0504863262176513672 1.4483263492584228516 1.1758326292037963867 1 1.1576567888259887695 1.196178436279296875 1.0998418331146240234 1.6646122932434082031 1.1469312906265258789 1.36449432373046875 1.1888724565505981445 1.6066344976425170898 1.3596084117889404297 2.1510088443756103516 3.3961584568023681641 5.1206707954406738281 4.6436772346496582031 1.4606838226318359375 1.3946527242660522461 1.2375982999801635742 1.3877724409103393555 1.4501368999481201172 1.3776303529739379883 2.0446808338165283203 2.0011112689971923828 2.0804898738861083984 1.7362135648727416992 1.5409718751907348633 1.352473139762878418 1.8286089897155761719 1.9087371826171875 1.8530843257904052734 2.2724535465240478516 2.0180363655090332031 1.9043745994567871094 2.0714185237884521484 2.2570209503173828125 2.7704091072082519531 2.5536582469940185547 2.8324275016784667969 3.1164462566375732422 2.6513292789459228516 2.8404166698455810547 3.1403529644012451172 3.2394127845764160156 3.1747677326202392578 3.2199907302856445313 2.9081294536590576172 2.5813744068145751953 2.5544760227203369141 2.3247256278991699219 2.4033923149108886719 1.6566644906997680664 1.6478240489959716797 1.7160912752151489258 1.4142978191375732422 1.5218807458877563477 1.2311049699783325195 1.433359980583190918 1.6780695915222167969 2.0198254585266113281 1.8690350055694580078 1.8221149444580078125 2.0017955303192138672 1.7105139493942260742 1.8703922033309936523 1.8464359045028686523 1.7642719745635986328 1.6566357612609863281 1.6758428812026977539 1.5928574800491333008 1.7191165685653686523 1.9051330089569091797 1.5993651151657104492 1.2724938392639160156 1.537204742431640625 1.6558208465576171875 2.0765397548675537109 2.6580169200897216797 1.6101506948471069336 1.2198190689086914063 1.5573424100875854492 1.7230840921401977539 1.3469493389129638672 1.1269946098327636719 1.2785857915878295898 1.0397565364837646484 1.1522170305252075195 1.2775754928588867188 1.3278630971908569336 1 
2.8914794921875 2.8448369503021240234 2.7359323501586914063 2.7098805904388427734 2.5888524055480957031 2.0569715499877929688 2.1229183673858642578 1.98908233642578125 3.2707836627960205078 2.6957809925079345703 2.6797950267791748047 2.1509757041931152344 2.0902779102325439453 1.2784712314605712891 1.1341092586517333984 1.5438034534454345703 1.8548946380615234375 1.6532014608383178711 1.4664343595504760742 1.7036691904067993164 1.4546401500701904297 1.874823451042175293 2.1564483642578125 2.7740116119384765625 2.1842944622039794922 2.7726867198944091797 2.6072285175323486328 2.896930694580078125 2.5290076732635498047 2.1809859275817871094 2.094776153564453125 2.2790069580078125 2.6136016845703125 2.734119415283203125 2.4180967807769775391 2.1247053146362304688 2.2098848819732666016 2.6877970695495605469 2.1819024085998535156 2.1419441699981689453 2.0046288967132568359 1.945636749267578125 2.3687105178833007813 2.2327141761779785156 1.9549263715744018555 1.7213841676712036133 1.150577545166015625 1.2239910364151000977 1.048844456672668457 1.077486872673034668 1 1 1 1.0625960826873779297 1 1.0479635000228881836 1 1 1 1 1 1.1203377246856689453 1.0522211790084838867 1 1.058565974235534668 1 1 1.0224497318267822266 1.0496135950088500977 1.1465735435485839844 1 1 1 1 1.0394799709320068359 1.0132354497909545898 1.1461703777313232422 1.2060332298278808594 1 1.0112088918685913086 1 1 1 1 1 1.0187563896179199219 1 1.1397188901901245117 1 1.0120260715484619141 1 1 1 1 1 1.140131831169128418 1 1.1138168573379516602 1.2377010583877563477 1.0912859439849853516 1.3033357858657836914 1.3187596797943115234 1.1353948116302490234 1.1819132566452026367 1.236803889274597168 1.1292775869369506836 1.2088940143585205078 1.2262357473373413086 1.1851563453674316406 1.1725037097930908203 1.3428702354431152344 1.4549703598022460938 1.1021487712860107422 1 1 1.2724000215530395508 1.0355457067489624023 1 1.2218282222747802734 1.2024981975555419922 1.4698435068130493164 1.4017369747161865234 1.5899846553802490234 1.9477466344833374023 1.9884825944900512695 2.0409665107727050781 2.6172156333923339844 2.5826818943023681641 1.5865418910980224609 1.2703558206558227539 1.5678316354751586914 1.6766430139541625977 2.1968913078308105469 2.0571322441101074219 2.0023500919342041016 1.9226554632186889648 1.9413300752639770508 1.9568370580673217773 1.8651102781295776367 2.185428619384765625 1.9437607526779174805 2.0373098850250244141 2.0085096359252929688 2.0957899093627929688 2.3712456226348876953 2.4030468463897705078 2.3285198211669921875 2.4125378131866455078 3.0313351154327392578 2.6804938316345214844 3.0799231529235839844 2.7465770244598388672 2.9516699314117431641 3.1382658481597900391 3.1220459938049316406 3.3471765518188476563 3.0325000286102294922 2.5896935462951660156 2.2906165122985839844 2.4328486919403076172 2.2041769027709960938 2.0614650249481201172 1.8052682876586914063 1.4898737668991088867 1.6524087190628051758 1.6124674081802368164 1.7253031730651855469 1.5652855634689331055 1.5136488676071166992 1.6606206893920898438 1.8784627914428710938 1.6242184638977050781 1.622562408447265625 1.8153741359710693359 1.8665266036987304688 1.9428396224975585938 1.7780823707580566406 1.741869807243347168 1.8501933813095092773 1.7047622203826904297 2.2173383235931396484 1.4055328369140625 1.2565397024154663086 1.4125530719757080078 1.4999430179595947266 1.5700554847717285156 1.4602203369140625 1.4649624824523925781 1.318621516227722168 1.10482025146484375 1.4381252527236938477 1.2802274227142333984 1.611049652099609375 1 1.3434929847717285156 1.2335094213485717773 1.1096482276916503906 1.2091716527938842773 1.1592180728912353516 1.2231435775756835938 
3.6406552791595458984 3.1571855545043945313 2.6699635982513427734 2.6047182083129882813 2.4193422794342041016 2.1972806453704833984 2.2029623985290527344 3.3332622051239013672 2.645778656005859375 2.4087159633636474609 2.2199733257293701172 2.0069520473480224609 2.2900841236114501953 2.0327439308166503906 1.7158143520355224609 1.9223742485046386719 1.7759451866149902344 1.7385047674179077148 1.7391076087951660156 1.777108311653137207 1.6063994169235229492 2.46067047119140625 2.5296838283538818359 2.4735879898071289063 2.2279500961303710938 2.3146710395812988281 2.8349077701568603516 2.395114898681640625 2.4158790111541748047 2.1857876777648925781 2.0279214382171630859 2.3032183647155761719 2.3096532821655273438 2.619190216064453125 2.2393412590026855469 2.2713732719421386719 2.3951375484466552734 2.3161358833312988281 2.1891257762908935547 2.1996669769287109375 2.2006506919860839844 1.9984161853790283203 2.242763519287109375 2.1608607769012451172 1.9892563819885253906 1.6107261180877685547 1.4083653688430786133 1.1187908649444580078 1.1655710935592651367 1.1292020082473754883 1 1.0740464925765991211 1 1 1 1 1 1 1.1003209352493286133 1.0824103355407714844 1 1.0071272850036621094 1.0531982183456420898 1.0841869115829467773 1 1.1433856487274169922 1.1756139993667602539 1 1 1 1.0293626785278320313 1 1 1 1.0358421802520751953 1 1 1.0722179412841796875 1.0482333898544311523 1.0338994264602661133 1 1.1022642850875854492 1 1 1 1 1 1 1 1 1.0180332660675048828 1.9480556249618530273 1 1 1 1 1.0273976325988769531 1.0268626213073730469 1.1289725303649902344 1.1935868263244628906 1.348546147346496582 1.269299626350402832 1.1415697336196899414 1.0230472087860107422 1.1538503170013427734 1.2002004384994506836 1.1705026626586914063 1.0999987125396728516 1.1510804891586303711 1.1339905261993408203 1.610965728759765625 1.1034138202667236328 1.0876077413558959961 1.1279481649398803711 1 1.0286415815353393555 1.2261517047882080078 1.3581556081771850586 1.4612571001052856445 1.9193724393844604492 1.835421442985534668 1.7246681451797485352 1.5157896280288696289 1.8012484312057495117 2.0073101520538330078 2.5128235816955566406 1.5892678499221801758 2.2143356800079345703 1.569646000862121582 2.1118953227996826172 1.4883705377578735352 1.9230431318283081055 2.1733198165893554688 1.8695684671401977539 2.2789638042449951172 2.9908294677734375 1.8580795526504516602 1.5696885585784912109 1.9378583431243896484 2.6992902755737304688 2.6602535247802734375 2.7089481353759765625 2.0531878471374511719 2.7883346080780029297 2.7104105949401855469 2.2917292118072509766 2.5007097721099853516 2.4548482894897460938 2.884166717529296875 3.0100433826446533203 2.8781223297119140625 2.6597619056701660156 2.8993039131164550781 2.9402127265930175781 3.5621228218078613281 3.1756577491760253906 3.4081277847290039063 3.0528197288513183594 2.23723602294921875 1.9217040538787841797 2.4013895988464355469 2.4934370517730712891 2.3811898231506347656 1.9449682235717773438 1.4040628671646118164 1.5805908441543579102 1.7823251485824584961 1.7072347402572631836 1.8394620418548583984 2.1118690967559814453 2.0121068954467773438 1.9474585056304931641 1.6178580522537231445 2.0156967639923095703 1.7042268514633178711 1.7366180419921875 1.9304832220077514648 1.463984370231628418 1.5714713335037231445 1.4199664592742919922 1.1933144330978393555 1.4987137317657470703 1.2196789979934692383 1.1603680849075317383 1.283728480339050293 1.3785955905914306641 1.5655825138092041016 1.6455106735229492188 1.1419004201889038086 1.379254460334777832 1.6457581520080566406 1.1817127466201782227 1 1.3265575170516967773 1.1896455287933349609 1.5442202091217041016 1.2600657939910888672 1.2180749177932739258 1.0426721572875976563 1.5750304460525512695 
3.0110039710998535156 2.7899725437164306641 2.9991269111633300781 2.6829531192779541016 2.2593009471893310547 2.5622847080230712891 2.1488661766052246094 2.1475515365600585938 3.1170241832733154297 2.3098790645599365234 2.5582845211029052734 2.5817770957946777344 2.1655366420745849609 2.3708791732788085938 2.0756850242614746094 1.9732205867767333984 1.3311543464660644531 1.1221252679824829102 1.6638847589492797852 1.8057028055191040039 1.8235757350921630859 1.7871510982513427734 2.9035408496856689453 2.2922458648681640625 2.0668485164642333984 2.4806313514709472656 2.8660960197448730469 2.3622810840606689453 2.7958977222442626953 2.3779387474060058594 2.3416316509246826172 2.3408837318420410156 2.2187476158142089844 2.1290678977966308594 2.0496847629547119141 1.8614689111709594727 2.0456972122192382813 2.0888135433197021484 1.8623462915420532227 2.2688908576965332031 2.0877313613891601563 2.0263903141021728516 2.020843505859375 1.8655525445938110352 1.84973907470703125 1.5546425580978393555 1.2439130544662475586 1 1 1 1 1.0341198444366455078 1 1 1 1.0177016258239746094 1 1.1752852201461791992 1 1 1 1 1.0270253419876098633 1.1672844886779785156 1.0870330333709716797 1 1.0042303800582885742 1.0018659830093383789 1.018838047981262207 1 1 1 1 1 1 1 1 1 1.1880112886428833008 1 1.1012783050537109375 1.1406748294830322266 1 1 1 1 1.0311040878295898438 1 1 1 1.0171903371810913086 1 1.1618692874908447266 1 1.1110335588455200195 1 1 1 1.1303162574768066406 1.0921357870101928711 1.2043626308441162109 1.216679692268371582 1.1551657915115356445 1.216204524040222168 1.2412492036819458008 1.178466796875 1.2122716903686523438 1.1262775659561157227 1.1994948387145996094 1.0246350765228271484 2.2484853267669677734 1.0583461523056030273 1.0374321937561035156 1 1.1202694177627563477 1.1580798625946044922 1.2374416589736938477 1.7510193586349487305 1.5845459699630737305 2.0112593173980712891 1.9284942150115966797 2.7350244522094726563 1.9095882177352905273 2.9154706001281738281 2.3384239673614501953 3.8861191272735595703 1.9233849048614501953 2.3639101982116699219 2.8598546981811523438 1.5810513496398925781 2.6445891857147216797 2.22899627685546875 2.8772447109222412109 2.2717604637145996094 2.1606001853942871094 1.9602618217468261719 1.9948498010635375977 2.2467243671417236328 1.6254612207412719727 2.0785145759582519531 2.2237679958343505859 2.6144642829895019531 2.9093074798583984375 2.9115614891052246094 2.5950899124145507813 2.0814042091369628906 2.4245865345001220703 2.7032613754272460938 2.9137814044952392578 2.5610830783843994141 2.9261615276336669922 2.8081562519073486328 2.2258174419403076172 2.7149078845977783203 3.0617935657501220703 2.6860697269439697266 2.8931791782379150391 2.7905299663543701172 2.1349074840545654297 2.3487422466278076172 2.3593974113464355469 3.690887451171875 2.471347808837890625 2.3181617259979248047 1.2752966880798339844 1.9530452489852905273 1.6059281826019287109 1.6205900907516479492 1.8644349575042724609 2.2084019184112548828 2.1196141242980957031 1.3747507333755493164 1.638035893440246582 1.7965956926345825195 1.5104436874389648438 1.5940983295440673828 1.5341699123382568359 1.6226559877395629883 1.5528811216354370117 1.4471145868301391602 1.3565227985382080078 1.2144992351531982422 1.3055641651153564453 1.2597903013229370117 1 1.2057769298553466797 1.413482666015625 1.7470180988311767578 1.1455925703048706055 1.118227839469909668 1.0025203227996826172 1.1834325790405273438 1.3002688884735107422 1.5025919675827026367 1.2285016775131225586 1.4228712320327758789 1 1 1.1075829267501831055 1.3587037324905395508 
3.9747264385223388672 2.8542072772979736328 2.6773021221160888672 3.1812505722045898438 2.0542430877685546875 2.4710342884063720703 2.5555069446563720703 3.1906454563140869141 3.026218414306640625 2.5951213836669921875 2.1165897846221923828 2.2605080604553222656 2.44120025634765625 2.5809750556945800781 2.2081153392791748047 1.7385250329971313477 1.3979077339172363281 2.0403227806091308594 1.4619971513748168945 2.0736129283905029297 2.3970196247100830078 2.1663329601287841797 3.5349791049957275391 2.1789381504058837891 2.1581161022186279297 2.4073355197906494141 2.4848453998565673828 2.5058436393737792969 2.1409738063812255859 2.7311694622039794922 2.6409311294555664063 2.4755601882934570313 2.1837220191955566406 1.8020944595336914063 2.0272221565246582031 1.6800594329833984375 1.8672897815704345703 2.1778137683868408203 2.0205585956573486328 2.1741170883178710938 2.2235991954803466797 1.7538018226623535156 1.9797338247299194336 1.6113007068634033203 1.4888826608657836914 1.500555872917175293 1.264386296272277832 1.0552582740783691406 1 1.0669921636581420898 1.0939413309097290039 1 1.155783534049987793 1.0684156417846679688 1.1255419254302978516 1.0510178804397583008 1.2404359579086303711 1 1 1 1 1 1 1 1.0082265138626098633 1 1.0629688501358032227 1 1 1 1 1 1 1 1 1 1 1 1 1.1061669588088989258 1.1730037927627563477 1.1535857915878295898 1 1 1 1 1 1 1 1 1.0427787303924560547 1 1 1.01094818115234375 1 1 1 1.0435633659362792969 1.2085022926330566406 1.2423456907272338867 1.2033218145370483398 1.3196557760238647461 1.2355760335922241211 1.1797796487808227539 1.2345247268676757813 1.2149993181228637695 1.2472846508026123047 1.1808782815933227539 1.1254290342330932617 1.0354177951812744141 1.0341478586196899414 1.1289739608764648438 1.0161594152450561523 1 1.2873752117156982422 1.1020095348358154297 1.5182981491088867188 1.6275192499160766602 1.4013919830322265625 1.7310853004455566406 2.1774244308471679688 1.8658825159072875977 1.7315397262573242188 3.2647688388824462891 2.2953085899353027344 3.0661504268646240234 2.1428110599517822266 2.7149147987365722656 2.0393116474151611328 1.6949167251586914063 2.8724739551544189453 2.6458785533905029297 2.8335440158843994141 2.8631501197814941406 1.7903984785079956055 3.0217368602752685547 3.1690731048583984375 2.3318071365356445313 3.2887518405914306641 2.6268279552459716797 2.8656187057495117188 2.7932727336883544922 3.3611810207366943359 2.8570156097412109375 3.0143141746520996094 2.7009122371673583984 2.2130403518676757813 2.4554758071899414063 2.6418771743774414063 3.0138843059539794922 2.8271272182464599609 2.5038053989410400391 2.6887385845184326172 2.9704816341400146484 2.9987723827362060547 2.7332367897033691406 2.7656569480895996094 2.347187042236328125 2.6192145347595214844 1.9007879495620727539 1.9971861839294433594 2.547000885009765625 2.5479950904846191406 2.18701934814453125 1.6644544601440429688 1.554377436637878418 1.3172432184219360352 1.5336241722106933594 1.5912928581237792969 1.8962323665618896484 1.646294713020324707 1.6901847124099731445 1.625922083854675293 1.8034293651580810547 1.5717622041702270508 1.3879489898681640625 1.6868457794189453125 1.4799606800079345703 1.3367924690246582031 1.5184283256530761719 1.678736567497253418 1.2747232913970947266 1.360988616943359375 1.3280179500579833984 1.300952911376953125 1.3393191099166870117 1.2663034200668334961 1.4272615909576416016 1.2211354970932006836 1.0635644197463989258 1.0585516691207885742 1.0628612041473388672 1 1.2793128490447998047 1.563017725944519043 1.9133865833282470703 1.1812416315078735352 1.1559187173843383789 1.1868307590484619141 1.1961431503295898438 
3.0154416561126708984 2.5061612129211425781 2.5983583927154541016 2.1903622150421142578 1.8038263320922851563 2.2885363101959228516 2.7920408248901367188 2.5644361972808837891 2.6255443096160888672 2.4319446086883544922 2.2265639305114746094 2.9100639820098876953 2.6127226352691650391 3.950897216796875 1.8746465444564819336 2.0715792179107666016 1.3280197381973266602 2.8613765239715576172 1.4818136692047119141 1.8032492399215698242 2.5702855587005615234 2.3502941131591796875 2.4935824871063232422 1.9153072834014892578 1.8116775751113891602 1.7733653783798217773 2.9084250926971435547 2.2033803462982177734 2.59466552734375 2.7765438556671142578 2.3352034091949462891 2.3252313137054443359 2.2668099403381347656 2.0397562980651855469 1.9081997871398925781 1.6724997758865356445 1.8735504150390625 2.052433013916015625 2.0934226512908935547 2.2020208835601806641 1.9894797801971435547 1.7926087379455566406 1.7639077901840209961 1.5930925607681274414 1.4318728446960449219 1.2460824251174926758 1.1618615388870239258 1.0180629491806030273 1.0878825187683105469 1.0103478431701660156 1.1240190267562866211 1.2460041046142578125 1.1335842609405517578 1.3608707189559936523 1.0091797113418579102 1 1 1 1 1 1.1899311542510986328 1 1 1 1 1 1 1.0224262475967407227 1 1.0106717348098754883 1 1 1 1 1 1 1 1 1 1.0955775976181030273 1.1832175254821777344 1.1008675098419189453 1 1 1 1 1 1 1 1 1 1 1.0048065185546875 1.6066405773162841797 1 1 1.0161651372909545898 1 1.0116044282913208008 1.0472584962844848633 1.1375905275344848633 1.1173011064529418945 1.2362227439880371094 1.3005361557006835938 1.3243738412857055664 1.2894997596740722656 1.1136440038681030273 1.1575558185577392578 1.0596477985382080078 1.211581110954284668 1.0412780046463012695 1 1.0410045385360717773 1 1.0456215143203735352 1.5105750560760498047 1.5892739295959472656 2.2967002391815185547 2.0085537433624267578 1.9070097208023071289 1.9481906890869140625 1.9043171405792236328 1.8384796380996704102 2.4308729171752929688 4.8711695671081542969 2.1322667598724365234 2.6363098621368408203 2.9525291919708251953 2.5489559173583984375 2.7531464099884033203 2.2786631584167480469 2.6399877071380615234 2.2778446674346923828 2.4283773899078369141 2.5235805511474609375 2.5073678493499755859 2.9594528675079345703 3.0283019542694091797 3.5309174060821533203 3.0482637882232666016 2.6492154598236083984 2.7170701026916503906 3.0368213653564453125 3.1756458282470703125 4.2357320785522460938 2.9284467697143554688 2.7703363895416259766 2.8170621395111083984 2.8941502571105957031 3.1232302188873291016 2.5655436515808105469 2.83219146728515625 2.6100468635559082031 2.8372433185577392578 3.1492645740509033203 2.59832000732421875 2.5146434307098388672 2.6637263298034667969 2.1612308025360107422 1.999735713005065918 2.6529037952423095703 3.1684064865112304688 3.2400481700897216797 2.2073662281036376953 1.8633809089660644531 2.0070397853851318359 2.1011850833892822266 2.0228798389434814453 2.0744185447692871094 1.6030501127243041992 1.7492072582244873047 1.4627758264541625977 1.6431469917297363281 1.5575023889541625977 1.639583587646484375 1.4770457744598388672 1.6378484964370727539 1.6780211925506591797 1.3009346723556518555 1.3270723819732666016 1.3693349361419677734 1.2624132633209228516 1.262447357177734375 1.167712092399597168 1.4385911226272583008 1.2221635580062866211 1.2511390447616577148 1.2968685626983642578 1.2796990871429443359 1.1816437244415283203 1 1.1779619455337524414 1 1.2261346578598022461 1.3249000310897827148 1.178424835205078125 1.1138679981231689453 1.5495418310165405273 1.1523709297180175781 1.0628255605697631836 
2.6879520416259765625 2.6650831699371337891 2.2016975879669189453 2.7543046474456787109 2.1979079246520996094 2.2300972938537597656 3.0443441867828369141 2.7600827217102050781 3.4072964191436767578 3.8929665088653564453 5.0941796302795410156 2.1877582073211669922 2.559368133544921875 2.5951712131500244141 1.9076248407363891602 1.5047615766525268555 2.063232421875 1.7034326791763305664 1.9640656709671020508 2.0967862606048583984 3.1550569534301757813 2.9365267753601074219 2.5292890071868896484 2.3504951000213623047 2.8748455047607421875 1.8927485942840576172 1.8304513692855834961 1.9544215202331542969 2.1135900020599365234 2.0832576751708984375 1.9545965194702148438 1.7991222143173217773 2.2805111408233642578 1.7960621118545532227 1.9665774106979370117 1.7144730091094970703 1.8867535591125488281 2.0326735973358154297 2.1829802989959716797 1.9331114292144775391 1.8723120689392089844 1.5332452058792114258 1.3776481151580810547 1.550059199333190918 1.3838305473327636719 1.4254528284072875977 1.2853757143020629883 1.0881731510162353516 1 1.1676812171936035156 1.3367054462432861328 1.3216749429702758789 1.1347092390060424805 1.3648524284362792969 1.2631556987762451172 1.0444467067718505859 1 1 1 1 1 1 1 1 1 1.0682270526885986328 1.1181650161743164063 1 1.0358692407608032227 1.1203799247741699219 1 1 1.0323277711868286133 1.3499529361724853516 1 1.1353552341461181641 1 1 1.0729823112487792969 1.0555913448333740234 1.0621954202651977539 1 1 1 1 1 1 1 1 1 1 1 1 1.2187589406967163086 1 1.057810664176940918 1.0601060390472412109 1.1250058412551879883 1.0675719976425170898 1.0537099838256835938 1.1951211690902709961 1.2781919240951538086 1.1462981700897216797 1.248752593994140625 1.3245753049850463867 1.2213407754898071289 1.3192267417907714844 1.0520327091217041016 1 1 1 1 1 1.1597870588302612305 1 1.5994678735733032227 1.6211862564086914063 2.2517414093017578125 1.6476558446884155273 1.88370513916015625 2.0664980411529541016 1.9696968793869018555 3.4343988895416259766 2.4508488178253173828 3.034450531005859375 2.2833745479583740234 2.5126402378082275391 2.9419004917144775391 2.9895915985107421875 2.6668376922607421875 2.6369559764862060547 2.7612593173980712891 2.5638334751129150391 2.4785001277923583984 2.510951995849609375 3.169902801513671875 3.4686486721038818359 3.4906320571899414063 3.3175997734069824219 3.5009374618530273438 3.0974030494689941406 3.1760451793670654297 3.1999924182891845703 3.1972222328186035156 3.2251734733581542969 3.238727569580078125 3.2847816944122314453 3.1317846775054931641 2.847110748291015625 3.1642405986785888672 2.6863968372344970703 2.7887644767761230469 2.3884878158569335938 2.6229581832885742188 2.5031180381774902344 3.0886962413787841797 2.5479519367218017578 2.2179477214813232422 2.6273183822631835938 2.4213254451751708984 2.1920654773712158203 2.3759114742279052734 2.7551941871643066406 2.9005806446075439453 2.4200263023376464844 2.8037316799163818359 2.4136006832122802734 2.4385242462158203125 1.8608785867691040039 1.9744602441787719727 1.5874187946319580078 1.7598913908004760742 1.5339931249618530273 1.4889514446258544922 1.3905045986175537109 1.4857375621795654297 1.4464242458343505859 1.5709525346755981445 1.6765329837799072266 1.2382061481475830078 1.2108572721481323242 1.1704095602035522461 1.0908261537551879883 1.0299240350723266602 1.2845166921615600586 1.3466138839721679688 1.2235771417617797852 1.1703363656997680664 1.2359715700149536133 1.2663371562957763672 1.407530665397644043 1.1341284513473510742 1.2824033498764038086 1.3105829954147338867 1 1 1.2576076984405517578 1.3527680635452270508 1.1200515031814575195 1 
4.4289140701293945313 2.5021326541900634766 2.3873765468597412109 2.6239945888519287109 2.6169116497039794922 2.9430613517761230469 2.0745975971221923828 3.4714090824127197266 3.4630532264709472656 3.0978207588195800781 6.115528106689453125 3.7030911445617675781 4.4147119522094726563 5.8808722496032714844 2.6803722381591796875 3.4088323116302490234 2.4664452075958251953 1.8357912302017211914 2.4813663959503173828 3.2926549911499023438 4.5767931938171386719 3.1052396297454833984 2.6288483142852783203 2.4200866222381591797 2.5751471519470214844 1.7263362407684326172 1.6597564220428466797 1.6369979381561279297 2.1652815341949462891 2.2663326263427734375 1.8570641279220581055 1.9315167665481567383 1.4875589609146118164 1.7878589630126953125 1.8719224929809570313 1.7287174463272094727 1.8251843452453613281 1.7127243280410766602 1.7899844646453857422 1.6690948009490966797 1.6379475593566894531 1.2751040458679199219 1.2392725944519042969 1.3492283821105957031 1.352000117301940918 1.3020304441452026367 1.4221463203430175781 1.5006164312362670898 1.1677645444869995117 1.2660559415817260742 1.2665307521820068359 1.416947484016418457 1.1953090429306030273 1.3564924001693725586 1.1682721376419067383 1 1.006435394287109375 1 1 1 1 1 1 1 1 1.0729140043258666992 1 1.0720081329345703125 1 1.1347769498825073242 1.0425908565521240234 1 1 1 1 1 1.0287977457046508789 1 1 1.0532983541488647461 1 1.1070543527603149414 1.0103940963745117188 1 1 1 1 1 1 1 1 1 1 1 1 1 1.0846077203750610352 1.0129766464233398438 1.0635311603546142578 1.1335505247116088867 1.0646125078201293945 1.3866521120071411133 1.1427702903747558594 1.2930711507797241211 1.2007093429565429688 1.1644566059112548828 1.2273347377777099609 1.1683198213577270508 1.1142443418502807617 1.0151979923248291016 1 1.0673003196716308594 1 1.3297209739685058594 1.5184299945831298828 1.4301419258117675781 1.9864999055862426758 2.3701219558715820313 2.0719034671783447266 2.3344011306762695313 3.1140294075012207031 2.6368825435638427734 2.3521294593811035156 3.1127440929412841797 2.5074360370635986328 3.1238999366760253906 3.5442249774932861328 3.9515740871429443359 3.2500550746917724609 2.5182721614837646484 2.8559324741363525391 2.5173904895782470703 2.8055868148803710938 2.7472026348114013672 3.0060179233551025391 3.0177304744720458984 3.2153584957122802734 3.9561147689819335938 3.0365455150604248047 2.8578863143920898438 4.0396509170532226563 3.4116873741149902344 3.4316451549530029297 3.4846847057342529297 3.1980533599853515625 3.5016562938690185547 3.4066236019134521484 3.3355703353881835938 2.9699041843414306641 3.6627678871154785156 2.7053213119506835938 3.2022483348846435547 2.7042508125305175781 2.3180997371673583984 2.4164459705352783203 2.695560455322265625 2.4799678325653076172 3.0378408432006835938 2.6563069820404052734 2.6264350414276123047 2.3705725669860839844 2.0679197311401367188 2.5145812034606933594 2.4817790985107421875 2.2301485538482666016 2.5999121665954589844 3.1065566539764404297 2.5807585716247558594 2.0690581798553466797 1.9664291143417358398 1.5714807510375976563 1.8507207632064819336 1.8664369583129882813 1.7474864721298217773 1.7278751134872436523 1.5701406002044677734 1.5496652126312255859 1.7999389171600341797 1.4523128271102905273 1.0550742149353027344 1.3882948160171508789 1.3653692007064819336 1.3853754997253417969 1.0575950145721435547 1.1411161422729492188 1.2527977228164672852 1.3402960300445556641 1.454113006591796875 1.4070992469787597656 1.2800716161727905273 1.3497699499130249023 1.3708968162536621094 1.1926730871200561523 1.3639605045318603516 1.3069022893905639648 1.1570801734924316406 1.0537143945693969727 1.107519984245300293 1 1 
4.4041037559509277344 4.3019146919250488281 2.3200809955596923828 2.3286883831024169922 2.0929024219512939453 2.3375034332275390625 3.8556926250457763672 3.1243851184844970703 3.6185588836669921875 4.7322602272033691406 4.0642862319946289063 3.0706245899200439453 3.9145820140838623047 3.0340940952301025391 2.7533528804779052734 2.3849704265594482422 2.6672074794769287109 4.4556074142456054688 3.8032186031341552734 2.7540955543518066406 5.8937067985534667969 4.6045098304748535156 4.5092082023620605469 2.6284389495849609375 2.593997955322265625 2.8922231197357177734 2.1754734516143798828 1.6697543859481811523 1.5570545196533203125 2.1861793994903564453 1.5552577972412109375 2.0288228988647460938 1.525275111198425293 1.5785312652587890625 1.4749660491943359375 1.402736663818359375 1.6338704824447631836 1.6846134662628173828 1.1840463876724243164 1.1910816431045532227 1.0181604623794555664 1.2135636806488037109 1.1011084318161010742 1.0177761316299438477 1.0415048599243164063 1.2089519500732421875 1.420426487922668457 1.3347344398498535156 1.2450519800186157227 1.3220970630645751953 1.4825828075408935547 1.4192421436309814453 1.2162815332412719727 1.5236687660217285156 1.1781502962112426758 1.083596348762512207 1.0250219106674194336 1 1 1 1 1 1 1 1 1.0346952676773071289 1 1 1 1 1 1.2238420248031616211 1 1 1 1 1 1 1 1.0962319374084472656 1.2569047212600708008 1 1 1 1 1.1704100370407104492 1.0700429677963256836 1.0449278354644775391 1.0669689178466796875 1 1 1 1.3274875879287719727 1.2713524103164672852 1.0042840242385864258 1.1366469860076904297 1.0023759603500366211 1.0866121053695678711 1.0950837135314941406 1.0249694585800170898 1.0679951906204223633 1.0670038461685180664 1.0181185007095336914 1.2124209403991699219 1.3076817989349365234 1.2744457721710205078 1.2695901393890380859 1.1007587909698486328 1.0882544517517089844 1.0348068475723266602 1.0529694557189941406 1.0975022315979003906 1 1.209872126579284668 1.5339996814727783203 1.4597326517105102539 1.7008991241455078125 1.8528095483779907227 2.5479705333709716797 2.4308476448059082031 3.0691013336181640625 2.342136383056640625 2.3333225250244140625 2.6445069313049316406 3.3786063194274902344 2.9405305385589599609 3.3636317253112792969 3.3334243297576904297 4.1344699859619140625 3.2869291305541992188 3.2037596702575683594 3.4410927295684814453 2.9911060333251953125 2.9251544475555419922 3.4195637702941894531 2.943195343017578125 2.7877953052520751953 2.9733159542083740234 3.8419942855834960938 4.0102319717407226563 4.423919677734375 3.4403786659240722656 3.5752882957458496094 3.4875090122222900391 3.1637895107269287109 3.2509922981262207031 3.5736107826232910156 3.4844172000885009766 3.1317310333251953125 2.7965769767761230469 3.57297515869140625 2.5582170486450195313 2.6680846214294433594 2.851306915283203125 2.9795179367065429688 3.0360445976257324219 3.0331909656524658203 2.7933287620544433594 2.6597433090209960938 2.7888169288635253906 2.1368749141693115234 2.4680507183074951172 2.4337291717529296875 2.5135865211486816406 3.8971130847930908203 2.2756867408752441406 2.5110692977905273438 2.5411038398742675781 2.3982524871826171875 2.3175787925720214844 2.5989918708801269531 2.070072174072265625 1.8841859102249145508 1.9186501502990722656 2.0169787406921386719 1.569014430046081543 1.5689703226089477539 1.5397800207138061523 1.5898667573928833008 1.2525573968887329102 1.2623531818389892578 1.3434995412826538086 1.5153080224990844727 1.3181639909744262695 1.1511107683181762695 1.5130033493041992188 1.5991461277008056641 1.548462986946105957 1.790469050407409668 1.7638314962387084961 1.1724019050598144531 1.1326222419738769531 1 1 1.2863203287124633789 1.0945569276809692383 1.0577216148376464844 1 1 1 
3.9670763015747070313 2.4600329399108886719 2.4431095123291015625 2.8195621967315673828 2.958591461181640625 2.8508808612823486328 3.0745909214019775391 4.2514390945434570313 3.071590423583984375 2.9146096706390380859 5.5559492111206054688 3.848941802978515625 3.0944736003875732422 3.7735731601715087891 4.2775712013244628906 4.7884573936462402344 2.8034548759460449219 5.705677032470703125 3.8049015998840332031 3.0525736808776855469 4.3854289054870605469 3.7095854282379150391 4.2526464462280273438 4.1349673271179199219 2.2960951328277587891 2.4306554794311523438 2.0991051197052001953 2.130588531494140625 2.11785888671875 1.8121559619903564453 1.9499968290328979492 1.6739603281021118164 1.6470373868942260742 1.4434477090835571289 1.3612593412399291992 1.1270382404327392578 1.7132678031921386719 1.5527017116546630859 1.3276817798614501953 1.3328979015350341797 1.4210594892501831055 1.0460854768753051758 1 1.1263089179992675781 1 1 1.1972332000732421875 1.2375595569610595703 1.1761013269424438477 1.2182694673538208008 1.3933466672897338867 1.3054413795471191406 1.6019462347030639648 1.2879374027252197266 1.4913958311080932617 1.0922596454620361328 1.0877146720886230469 1 1 1 1 1 1 1 1 1.1724549531936645508 1.0262697935104370117 1.0495486259460449219 1 1 1 1 1 1 1 1 1 1 1 1.2188087701797485352 1 1 1 1 1 1 1 1 1 1 1 1 1 1.1577026844024658203 1.0896811485290527344 1.0167053937911987305 2.5421552658081054688 1.4326245784759521484 1.1035213470458984375 1.074446558952331543 1.0321233272552490234 1.0955686569213867188 1.0451974868774414063 1.1755111217498779297 1.1233360767364501953 1.1218484640121459961 1.346369624137878418 1.3210710287094116211 1.1276669502258300781 1.1984243392944335938 1.5096291303634643555 1 1.4435957670211791992 1.1567887067794799805 1.3259507417678833008 1.5097267627716064453 1.7823997735977172852 1.9890335798263549805 2.6648507118225097656 2.5423026084899902344 2.3362934589385986328 3.5203804969787597656 2.4048666954040527344 3.0215740203857421875 2.4530277252197265625 2.7068831920623779297 2.9011960029602050781 3.2098429203033447266 4.8578076362609863281 3.2653515338897705078 3.8832080364227294922 3.5644342899322509766 3.4076929092407226563 2.6418120861053466797 2.8038346767425537109 3.3192319869995117188 3.2423233985900878906 2.9534184932708740234 2.9468958377838134766 3.2691750526428222656 3.3374915122985839844 3.4806387424468994141 3.5911283493041992188 4.0502991676330566406 3.2511427402496337891 3.6459784507751464844 3.8684222698211669922 3.2616422176361083984 2.6290056705474853516 3.0442273616790771484 2.8887991905212402344 3.3303630352020263672 3.0184290409088134766 3.4586546421051025391 3.2984333038330078125 3.5918715000152587891 3.3242635726928710938 2.8496773242950439453 2.7238094806671142578 2.7849831581115722656 2.7206048965454101563 2.7455823421478271484 2.2622513771057128906 2.6480433940887451172 2.7834296226501464844 3.0978608131408691406 2.8046238422393798828 2.6773612499237060547 2.8285379409790039063 2.6603479385375976563 2.4534513950347900391 1.9284170866012573242 2.0548701286315917969 2.2841107845306396484 1.9737553596496582031 1.9027651548385620117 1.7907271385192871094 1.8790709972381591797 1.5085062980651855469 1.327671051025390625 1.4621429443359375 1.745148777961730957 1.288158416748046875 1.3438522815704345703 1.6177470684051513672 1.7026251554489135742 1.4824696779251098633 1.6237021684646606445 1.3835635185241699219 1.3984587192535400391 1.2834924459457397461 1.3554950952529907227 1.0596172809600830078 1 1 1 1 1 1 1 
2.5895943641662597656 4.0991797447204589844 5.3778214454650878906 3.7855730056762695313 4.0541133880615234375 4.7111654281616210938 4.7294640541076660156 5.5065293312072753906 3.8409733772277832031 5.810760498046875 6.0587606430053710938 7.1657629013061523438 4.5040416717529296875 4.7238202095031738281 3.3320271968841552734 2.9540469646453857422 3.794708251953125 3.2725126743316650391 3.0210089683532714844 3.5988793373107910156 4.5111699104309082031 3.7534368038177490234 3.8021364212036132813 2.7122771739959716797 2.94122314453125 2.434329986572265625 2.458103179931640625 2.5540008544921875 2.4736316204071044922 2.0065033435821533203 1.5622726678848266602 1.4228031635284423828 1.4971278905868530273 1.2938930988311767578 1.3915665149688720703 1.6538379192352294922 1.7340028285980224609 1.3861112594604492188 1.3845472335815429688 1.3964133262634277344 1.2912504673004150391 1.0486468076705932617 1 1 1 1 1.1649880409240722656 1.3790651559829711914 1.376019597053527832 1.4063180685043334961 1.1302853822708129883 1.4419540166854858398 1.4063141345977783203 1.4345816373825073242 1.5323351621627807617 1 1.1254750490188598633 1 1 1 1 1.1237742900848388672 1 1.0820226669311523438 1.1306133270263671875 1.0259139537811279297 1 1.0257772207260131836 1.0539515018463134766 1 1 1 1 1 1 1 1.0256601572036743164 1 1 1 1 1 1.0397014617919921875 1 1 1 1 1 1 1 1.001774907112121582 1 1.0124057531356811523 1.2404550313949584961 1.087649226188659668 1.0740886926651000977 1.1021796464920043945 1 1 1.0915771722793579102 1.0013430118560791016 1.0192036628723144531 1.0569288730621337891 1.0698397159576416016 1.2296609878540039063 1 1.1079003810882568359 1.4712642431259155273 1.182900547981262207 1.1323039531707763672 1.2317714691162109375 1.2591696977615356445 1.4067940711975097656 1.9746491909027099609 1.2505937814712524414 1.7264695167541503906 2.0141956806182861328 2.3855872154235839844 2.9413700103759765625 2.4133844375610351563 2.1826467514038085938 2.545017242431640625 2.8569164276123046875 2.5792205333709716797 2.7700905799865722656 2.4638259410858154297 3.4113862514495849609 3.3305869102478027344 3.0343773365020751953 3.0100009441375732422 2.9266593456268310547 3.3009214401245117188 3.3844304084777832031 3.3253772258758544922 3.3316373825073242188 3.1173963546752929688 3.0585334300994873047 3.5712482929229736328 2.9644403457641601563 3.1028547286987304688 2.9848568439483642578 3.0188105106353759766 3.3191230297088623047 3.3964524269104003906 3.35208892822265625 3.0868334770202636719 3.0972597599029541016 3.0239977836608886719 3.0544900894165039063 2.6632349491119384766 2.5432550907135009766 2.9423701763153076172 2.8081638813018798828 3.2953441143035888672 3.1162347793579101563 3.2402780055999755859 3.2793865203857421875 3.5894513130187988281 3.2236106395721435547 3.3770236968994140625 3.0146563053131103516 2.9226756095886230469 3.2383401393890380859 2.7788021564483642578 3.0295438766479492188 3.1452915668487548828 2.5216841697692871094 3.0484869480133056641 2.7886149883270263672 2.9483895301818847656 2.5128812789916992188 2.7338278293609619141 2.4004518985748291016 2.6582624912261962891 2.4218926429748535156 2.3533921241760253906 1.972919464111328125 1.9514710903167724609 1.7826994657516479492 1.5935426950454711914 2.0093920230865478516 1.8668814897537231445 1.8984736204147338867 1.5344519615173339844 1.4521849155426025391 1.5416612625122070313 1.4193092584609985352 1.3797372579574584961 1.1569087505340576172 1.1209254264831542969 1.2634564638137817383 1.33875274658203125 1.3830406665802001953 1.1339452266693115234 1 1 1 1 1 1 
5.8319344520568847656 4.21489715576171875 4.8157992362976074219 5.8667836189270019531 3.1521916389465332031 3.3703064918518066406 3.2193677425384521484 4.16259002685546875 4.9618668556213378906 8.6185741424560546875 5.5797371864318847656 5.2843189239501953125 4.6138110160827636719 4.6413416862487792969 2.8306329250335693359 2.6773669719696044922 2.867481231689453125 3.2993931770324707031 4.4081525802612304688 3.2977128028869628906 2.9801275730133056641 5.7065749168395996094 4.0243630409240722656 2.5589444637298583984 2.7111163139343261719 2.4986596107482910156 2.5109934806823730469 2.4816088676452636719 2.4678950309753417969 1.6547136306762695313 1.5181604623794555664 1.0027862787246704102 1.8140811920166015625 1.5030636787414550781 1.2277166843414306641 1.5297387838363647461 2.1536853313446044922 1.4099689722061157227 1.5935634374618530273 1.447672724723815918 1.2647676467895507813 1.0257000923156738281 1 1 1.2100776433944702148 1 1.1675268411636352539 1.2486603260040283203 1.3574497699737548828 1.2236878871917724609 1.3762557506561279297 1.0999597311019897461 1.1601914167404174805 1.1657561063766479492 1.1159857511520385742 1.2194162607192993164 1.1538660526275634766 1.2007613182067871094 1 1 1 1.0008187294006347656 1.0338430404663085938 1 1.0392681360244750977 1 1.0319740772247314453 1 1 1 1 1 1 1 1 1 1 1 1 1 1 1 1 1 1 1 1 1 1.0215958356857299805 1 1.09748077392578125 2.0509631633758544922 1 1.0212789773941040039 1.0056898593902587891 1 1.1204506158828735352 1.0457564592361450195 1.0382480621337890625 1.1014144420623779297 1.0604470968246459961 1.070735931396484375 1.0971053838729858398 1.0025682449340820313 1 1.0523061752319335938 1.0568795204162597656 1.2536960840225219727 1.3005820512771606445 1.1470741033554077148 1.0796039104461669922 1.183116912841796875 1.1550724506378173828 1.3639967441558837891 1.8782535791397094727 1.8882391452789306641 2.5090546607971191406 2.3306872844696044922 2.9624350070953369141 2.8887431621551513672 2.3028559684753417969 2.1192851066589355469 2.3771009445190429688 2.6460366249084472656 3.6024460792541503906 2.7101883888244628906 3.5035810470581054688 2.9765391349792480469 2.9100458621978759766 2.7959928512573242188 2.7624962329864501953 2.8392453193664550781 3.98651885986328125 3.7839100360870361328 2.7045056819915771484 3.2229738235473632813 3.2565836906433105469 3.2141127586364746094 3.32518768310546875 2.8938372135162353516 3.2358341217041015625 3.150279998779296875 3.2711696624755859375 3.481067657470703125 3.1081829071044921875 2.6060311794281005859 2.5554451942443847656 2.8086693286895751953 2.6835308074951171875 2.8637282848358154297 2.9790055751800537109 3.3111450672149658203 3.0143435001373291016 3.3539066314697265625 2.8700008392333984375 3.5328855514526367188 3.7331399917602539063 3.7457904815673828125 3.5790903568267822266 3.4825816154479980469 2.7991466522216796875 3.2670001983642578125 3.0901353359222412109 3.0659155845642089844 2.8438549041748046875 2.7531235218048095703 2.9118032455444335938 3.0369873046875 3.0464572906494140625 2.5681309700012207031 2.9680347442626953125 2.3639624118804931641 2.7021248340606689453 2.6178238391876220703 2.2970364093780517578 2.0452325344085693359 1.8950135707855224609 2.1126472949981689453 2.2875351905822753906 2.2667710781097412109 2.1971557140350341797 2.3303346633911132813 1.9208698272705078125 1.7931145429611206055 1.5547964572906494141 1.4128578901290893555 1.4107754230499267578 1.3250765800476074219 1.239020228385925293 1.3037475347518920898 1.1751282215118408203 1.3899693489074707031 1.2913396358489990234 1.1131302118301391602 1 1 1 1 1 1 
2.7710063457489013672 5.1196498870849609375 3.504833221435546875 3.7503485679626464844 3.1848967075347900391 4.7959294319152832031 6.0321431159973144531 3.9870822429656982422 4.7169022560119628906 7.5174899101257324219 6.3070812225341796875 5.4143161773681640625 4.77481842041015625 3.3213002681732177734 3.0412123203277587891 2.6263725757598876953 2.6331691741943359375 6.1944289207458496094 3.2603986263275146484 4.29363250732421875 2.8311023712158203125 2.7977287769317626953 3.1132402420043945313 3.1275570392608642578 2.6486456394195556641 2.6626799106597900391 3.0056886672973632813 2.7294909954071044922 2.491970062255859375 2.0604348182678222656 1.5984072685241699219 1.2687265872955322266 1.6008304357528686523 1.4884207248687744141 1.540661931037902832 1.7313010692596435547 1.9404754638671875 1.5923126935958862305 1.3039542436599731445 1.3788024187088012695 1.151822209358215332 1 1 1 1.0677012205123901367 1 1 1.3619157075881958008 1.4524641036987304688 1.1545640230178833008 1 1 1 1.4317660331726074219 1 1 1 1.0433188676834106445 1.1257609128952026367 1.0699394941329956055 1 1 1 1 1 1 1 1 1 1 1 1 1 1 1 1.0315573215484619141 1 1.0433642864227294922 1 1 1 1 1 1.0526279211044311523 1.0693297386169433594 1 1 1.0643113851547241211 1 1 1 1 1.2603220939636230469 1.1530855894088745117 1 1.0515284538269042969 1.2115013599395751953 1.7047950029373168945 1.1865630149841308594 1 1.0121558904647827148 1.0787377357482910156 1.0814387798309326172 1.0010182857513427734 1.1387355327606201172 1.1600629091262817383 1.2118804454803466797 1.0718008279800415039 1.1281180381774902344 1.1925809383392333984 1.0780026912689208984 1.0328638553619384766 1.1392862796783447266 1.3904254436492919922 1.6473656892776489258 1.9561499357223510742 2.4667291641235351563 2.4139566421508789063 2.7333688735961914063 3.0922086238861083984 2.3948400020599365234 2.5108544826507568359 2.7644343376159667969 2.7227518558502197266 3.9575238227844238281 4.1601939201354980469 3.8570883274078369141 2.9843692779541015625 2.9861636161804199219 2.5430350303649902344 3.3725323677062988281 2.7017796039581298828 3.8295223712921142578 3.2172913551330566406 3.3627789020538330078 3.5965540409088134766 3.2794163227081298828 3.0798137187957763672 2.929775238037109375 3.0700440406799316406 2.7489793300628662109 3.1464166641235351563 3.1183304786682128906 3.1644053459167480469 2.5367970466613769531 2.7402892112731933594 2.45925140380859375 2.5086705684661865234 2.737621307373046875 2.7996091842651367188 2.8352959156036376953 2.4904110431671142578 2.7933566570281982422 3.1082770824432373047 3.1681966781616210938 3.3848853111267089844 3.6154558658599853516 3.6385488510131835938 3.1551141738891601563 2.8052957057952880859 2.9564232826232910156 2.93833160400390625 3.2826564311981201172 3.1900537014007568359 2.8602766990661621094 3.0012006759643554688 3.1646862030029296875 2.8584852218627929688 2.5676579475402832031 2.6675357818603515625 3.1196424961090087891 2.5296375751495361328 2.9500060081481933594 2.4021346569061279297 2.4516646862030029297 2.1136116981506347656 2.5461630821228027344 2.4010410308837890625 2.3807418346405029297 2.7857244014739990234 2.5615098476409912109 2.0760655403137207031 2.0207936763763427734 2.2191333770751953125 1.9323978424072265625 1.3537912368774414063 1.5231242179870605469 1.7243856191635131836 1.508716583251953125 1.4651294946670532227 1.3278195858001708984 1.0360246896743774414 1.338038325309753418 1.1382396221160888672 1.1959055662155151367 1.0975618362426757813 1 1 1 1 
3.8668472766876220703 4.3726601600646972656 4.8154859542846679688 2.9844756126403808594 3.108592987060546875 4.51358795166015625 2.8487634658813476563 2.8137121200561523438 5.4368405342102050781 5.7543969154357910156 5.0840291976928710938 7.367401123046875 2.7520880699157714844 2.5739283561706542969 3.0195782184600830078 2.3566265106201171875 4.4023427963256835938 4.0234723091125488281 3.8176236152648925781 3.5468301773071289063 4.0021452903747558594 2.8324906826019287109 3.6884713172912597656 3.0018126964569091797 2.4626281261444091797 2.9068541526794433594 2.7416718006134033203 2.2631802558898925781 2.3727643489837646484 2.0485694408416748047 1.653527379035949707 1.3384194374084472656 1.570865631103515625 1.4031296968460083008 1.5305302143096923828 1.3975293636322021484 2.0285036563873291016 1.832783818244934082 1.5671266317367553711 1.5096982717514038086 1.1239960193634033203 1.0434285402297973633 1 1 1 1 1.1976008415222167969 1.4851162433624267578 1.0737627744674682617 1 1.251824498176574707 1.0345901250839233398 1.0873162746429443359 1.1775888204574584961 1.0897871255874633789 1 1 1.0423908233642578125 1.0873090028762817383 1.0249913930892944336 1 1.0009161233901977539 1 1 1 1 1 1 1 1 1 1 1 1 1 1 1 1.0234738588333129883 1 1.0095705986022949219 1 1 1 1.1134635210037231445 1.0903810262680053711 1 1 1.1873111724853515625 1.0433276891708374023 1.0460176467895507813 1 1 1.3049635887145996094 1 1 1.038972020149230957 1 1 1 1 1 1.1098269224166870117 1 1 1.1679491996765136719 1.0719033479690551758 1.2595628499984741211 1.1269048452377319336 1.0048719644546508789 1.0947055816650390625 1.2328799962997436523 1.1062314510345458984 1.6518727540969848633 1.4827629327774047852 1.6086162328720092773 1.6036124229431152344 2.2612333297729492188 2.8229250907897949219 2.6954491138458251953 2.7497501373291015625 3.05130767822265625 2.0840964317321777344 2.5477039813995361328 3.6607708930969238281 2.9064877033233642578 2.8665807247161865234 3.5592839717864990234 3.5702288150787353516 3.3245215415954589844 2.8522408008575439453 2.9716732501983642578 2.9386565685272216797 3.5004444122314453125 3.2975366115570068359 3.6256062984466552734 3.2469146251678466797 3.1841149330139160156 3.5309617519378662109 3.6154191493988037109 3.0643942356109619141 3.2295584678649902344 3.4304981231689453125 2.9550919532775878906 2.7825551033020019531 3.0169174671173095703 2.6027798652648925781 2.3054435253143310547 2.6587314605712890625 2.6536614894866943359 3.1537175178527832031 2.6344099044799804688 2.676544189453125 2.6923956871032714844 3.0494153499603271484 2.6337723731994628906 3.1870944499969482422 3.3974843025207519531 3.50028228759765625 3.1175067424774169922 3.4955780506134033203 3.3156378269195556641 3.1721088886260986328 3.2102601528167724609 3.4106595516204833984 2.9835462570190429688 2.9890856742858886719 3.2701997756958007813 3.1297154426574707031 2.8282048702239990234 3.3947751522064208984 2.782245635986328125 3.0181713104248046875 3.1626043319702148438 2.9051089286804199219 2.6088080406188964844 3.0040848255157470703 2.7449803352355957031 2.3533885478973388672 2.8904695510864257813 3.0069525241851806641 2.3415431976318359375 2.18988037109375 1.8162239789962768555 1.9771420955657958984 1.5848290920257568359 1.5966452360153198242 1.3585623502731323242 1.2766211032867431641 1.5554382801055908203 1.4351766109466552734 1.1194462776184082031 1.1975828409194946289 1.2959170341491699219 1.2339929342269897461 1.2225725650787353516 1.0627404451370239258 1.0339337587356567383 1 1 1 
2.7755339145660400391 4.7148985862731933594 4.1817679405212402344 3.9391946792602539063 4.6893167495727539063 4.4591336250305175781 2.5766785144805908203 2.8438942432403564453 3.9921514987945556641 8.6167993545532226563 5.2013235092163085938 5.3290953636169433594 2.5187635421752929688 2.8314254283905029297 3.4682638645172119141 2.5641818046569824219 3.0582752227783203125 2.7681386470794677734 2.8750443458557128906 4.1922473907470703125 3.0924246311187744141 2.9319636821746826172 3.0161044597625732422 3.1204903125762939453 3.0513656139373779297 2.8283634185791015625 2.3002307415008544922 2.4176805019378662109 2.538177490234375 2.0661869049072265625 1.7050162553787231445 1.7722387313842773438 1.7364935874938964844 1.6622490882873535156 1.6036058664321899414 1.9227920770645141602 1.8822004795074462891 1.8436434268951416016 1.683867335319519043 1.4634976387023925781 1.1341998577117919922 1.1792914867401123047 1 1 1.131380915641784668 1.1214694976806640625 1.0209619998931884766 1.8187813758850097656 1.4302651882171630859 1 1.453751683235168457 1.1534503698348999023 1.189206242561340332 1 1 1 1.0931571722030639648 1 1 1 1 1 1 1.0458753108978271484 1 1 1 1 1 1 1.0607516765594482422 1 1 1 1 1 1 1.1095120906829833984 1 1.0334763526916503906 1 1.0205197334289550781 1.0328298807144165039 1.1986868381500244141 1 1 1 1.0222047567367553711 1 1 1.1186722517013549805 1 1 1 1 1.1056991815567016602 1.0921959877014160156 1.2362424135208129883 1 1 1 1.0909268856048583984 1 1.3670942783355712891 1.5380110740661621094 1.2577697038650512695 1.3771773576736450195 1.2003556489944458008 1.109434962272644043 1.6426634788513183594 1.1924551725387573242 1.0536550283432006836 1.6935075521469116211 1.579281926155090332 1.8747472763061523438 2.4856202602386474609 2.4250741004943847656 2.5110776424407958984 2.4923648834228515625 2.9459979534149169922 2.6304535865783691406 2.4993772506713867188 3.219959259033203125 3.4154193401336669922 3.0430743694305419922 3.4415435791015625 3.33634185791015625 2.9845283031463623047 2.5780162811279296875 3.1198384761810302734 2.9646282196044921875 2.9154512882232666016 3.5666487216949462891 3.6370248794555664063 3.4943735599517822266 3.4330594539642333984 3.2570319175720214844 3.3328261375427246094 3.5838871002197265625 3.2884471416473388672 3.2808270454406738281 3.2407839298248291016 3.3545830249786376953 3.1668722629547119141 2.4500131607055664063 2.3202326297760009766 2.2455360889434814453 2.6587364673614501953 2.6793792247772216797 2.9462611675262451172 2.9026589393615722656 3.2056879997253417969 2.4460718631744384766 3.0922610759735107422 3.0969169139862060547 3.2893276214599609375 3.3945081233978271484 3.7176487445831298828 3.59386444091796875 3.8908932209014892578 3.8492922782897949219 3.5255975723266601563 3.6778156757354736328 3.8740766048431396484 3.6316547393798828125 3.2080752849578857422 3.4596929550170898438 3.6739895343780517578 3.4101853370666503906 3.6855804920196533203 3.4687180519104003906 3.0037801265716552734 3.1232135295867919922 2.8004660606384277344 3.3794722557067871094 2.6998751163482666016 2.5079121589660644531 2.4220829010009765625 2.4559481143951416016 2.5535314083099365234 2.2156856060028076172 1.8408762216567993164 1.8819478750228881836 1.3181688785552978516 1.7166212797164916992 1.5004248619079589844 1.1076945066452026367 1.199981689453125 1.2045530080795288086 1.044756770133972168 1 1.3395048379898071289 1.3017743825912475586 1.2628407478332519531 1.2509254217147827148 1.133681178092956543 1 1 1 1.1160835027694702148 
4.318447113037109375 4.9934544563293457031 2.8716242313385009766 4.2842354774475097656 3.2535965442657470703 3.8371293544769287109 3.5396974086761474609 3.972118377685546875 6.2290182113647460938 3.4036276340484619141 5.0303239822387695313 6.0190587043762207031 4.3336009979248046875 2.92800140380859375 2.2736492156982421875 2.0472948551177978516 3.5851237773895263672 3.7307796478271484375 4.2906713485717773438 2.6115889549255371094 2.8097434043884277344 2.8763024806976318359 3.2615983486175537109 3.0691390037536621094 3.021671295166015625 3.0391283035278320313 2.6723866462707519531 2.6096501350402832031 2.4101240634918212891 2.1263279914855957031 2.9122233390808105469 1.9394750595092773438 1.8155484199523925781 2.1662921905517578125 1.9407749176025390625 2.1733670234680175781 1.5191318988800048828 1.8642721176147460938 1.8473154306411743164 1.5772360563278198242 1.0688914060592651367 1 1.0474179983139038086 1.0526976585388183594 1 1 1.1683802604675292969 1.3116039037704467773 1.4056934118270874023 1.3412561416625976563 1.3006303310394287109 1.1599099636077880859 1.2346048355102539063 1.1227221488952636719 1 1.0164283514022827148 1 1 1 1.0033658742904663086 1.1744618415832519531 1.0075380802154541016 1.105778813362121582 1 1 1 1 1 1 1 1 1 1 1 1 1 1 1 1 1.0780706405639648438 1.0120092630386352539 1.1261188983917236328 1.0279397964477539063 1 1 1 1 1 1 1.1374480724334716797 1.2387906312942504883 1.1071643829345703125 1 1.0453405380249023438 1.0070508718490600586 1.0259430408477783203 1.1196634769439697266 1.185057520866394043 1 1.0501180887222290039 1.0729706287384033203 1.4781783819198608398 1.5898070335388183594 1.7572829723358154297 2.1148619651794433594 1.7729951143264770508 1.3163888454437255859 1.6688901185989379883 1.8228628635406494141 1.5498729944229125977 1.2262518405914306641 1.5101740360260009766 1.5301231145858764648 1.7548100948333740234 1.7746956348419189453 1.8037096261978149414 2.3791575431823730469 2.5298190116882324219 2.0457606315612792969 2.4178726673126220703 2.571563720703125 2.7454383373260498047 2.7307577133178710938 2.835239410400390625 2.8864188194274902344 3.4318106174468994141 3.2192959785461425781 2.5892467498779296875 2.6953451633453369141 3.1308152675628662109 2.9132010936737060547 4.371707916259765625 3.4419131278991699219 3.5447533130645751953 4.0160579681396484375 3.5250084400177001953 3.1874110698699951172 3.2532594203948974609 4.9993028640747070313 3.3705923557281494141 3.3519861698150634766 3.6851716041564941406 3.1416926383972167969 3.4933671951293945313 2.6107041835784912109 2.426845550537109375 2.84235382080078125 2.657054901123046875 2.4945235252380371094 2.5923571586608886719 3.0012974739074707031 2.8661253452301025391 3.1704814434051513672 2.9843602180480957031 3.0359473228454589844 3.037525177001953125 2.5738918781280517578 3.51053619384765625 3.5407819747924804688 4.1563539505004882813 3.7075390815734863281 3.8058028221130371094 4.0735635757446289063 4.1235175132751464844 3.3314373493194580078 3.1564428806304931641 3.2579896450042724609 3.2824254035949707031 3.5327794551849365234 3.5224401950836181641 3.2698676586151123047 2.8514618873596191406 3.0441925525665283203 2.9635303020477294922 3.1017754077911376953 2.6377592086791992188 3.1912677288055419922 2.4649779796600341797 2.4523675441741943359 2.0436482429504394531 2.2977859973907470703 2.1572160720825195313 1.7958176136016845703 1.9417487382888793945 1.6049969196319580078 1.2233488559722900391 1.3037332296371459961 1.1268523931503295898 1 1 1.0375370979309082031 1.312127232551574707 1.1820762157440185547 1 1.0743376016616821289 1.1034294366836547852 1 1 1 1.3467003107070922852 
3.2180035114288330078 2.5536007881164550781 3.8752143383026123047 4.1761107444763183594 4.435825347900390625 4.6418924331665039063 4.0767049789428710938 2.5611212253570556641 2.1258332729339599609 2.5550441741943359375 3.0788171291351318359 4.5434851646423339844 3.1662786006927490234 2.4533834457397460938 1.9977599382400512695 3.2179915904998779297 3.296001434326171875 3.5903134346008300781 5.3375573158264160156 2.72074127197265625 3.1922986507415771484 3.1287143230438232422 2.9742219448089599609 2.7054471969604492188 3.4327838420867919922 3.2761936187744140625 3.5673158168792724609 2.9198679924011230469 2.1471040248870849609 2.2419028282165527344 3.108211517333984375 2.3323705196380615234 2.1168069839477539063 2.0497691631317138672 2.6524169445037841797 1.9287852048873901367 2.0050172805786132813 1.3734049797058105469 1.9981358051300048828 1.6289728879928588867 1.2849866151809692383 1 1 1 1.2108898162841796875 1.1411373615264892578 1.3587006330490112305 1.558733820915222168 1.4709110260009765625 1.5667424201965332031 1.2602839469909667969 1.5004507303237915039 1.2181720733642578125 1.1915823221206665039 1 1.0737644433975219727 1.0834070444107055664 1 1.0297420024871826172 1 1 1 1.0044322013854980469 1 1.0928714275360107422 1 1 1 1 1 1 1 1 1 1 1 1 1 1 1.0907744169235229492 1 1.0668939352035522461 1 1 1.0260359048843383789 1 1.1066275835037231445 1 1.0928733348846435547 1 1.1188254356384277344 1 1 1.328589320182800293 1.142020106315612793 1.1273012161254882813 1.0362342596054077148 1.0619672536849975586 1 1.4559776782989501953 1.198862910270690918 1.3150584697723388672 1.7315529584884643555 1.8017246723175048828 2.0366194248199462891 1.7470694780349731445 1.5111509561538696289 1.2821075916290283203 1.4380481243133544922 1.6064056158065795898 1.6672062873840332031 2.1251292228698730469 2.5165162086486816406 1.8809927701950073242 2.0835773944854736328 2.0734877586364746094 2.1646401882171630859 2.2463967800140380859 2.1434361934661865234 2.2801237106323242188 2.6140444278717041016 2.8198385238647460938 2.8032097816467285156 2.7034113407135009766 2.9070000648498535156 3.2600252628326416016 2.8551342487335205078 2.8042371273040771484 2.8887588977813720703 3.02657318115234375 3.2732679843902587891 3.1488366127014160156 3.4210531711578369141 3.1056191921234130859 3.4227471351623535156 4.0628476142883300781 3.1498029232025146484 3.5934352874755859375 3.2781934738159179688 4.0988893508911132813 3.7210588455200195313 3.6568143367767333984 3.6256601810455322266 3.2151753902435302734 2.9066925048828125 2.869373321533203125 2.7312448024749755859 2.6648120880126953125 2.5526282787322998047 2.7938132286071777344 3.0192470550537109375 3.3292641639709472656 2.9226374626159667969 3.3286294937133789063 3.3595988750457763672 2.8060860633850097656 3.3527762889862060547 3.3579180240631103516 3.8944232463836669922 3.9266116619110107422 4.0210886001586914063 3.9254162311553955078 4.0788965225219726563 3.9070975780487060547 3.6829609870910644531 3.6420154571533203125 3.7703723907470703125 3.3676652908325195313 3.35482025146484375 2.9771680831909179688 3.663097381591796875 3.286285400390625 3.4446947574615478516 2.7587711811065673828 2.8712232112884521484 3.4724459648132324219 2.3545281887054443359 2.640777587890625 2.6322104930877685547 2.6650509834289550781 2.3070423603057861328 1.9755921363830566406 1.9452553987503051758 1.6227382421493530273 1.4696429967880249023 1.4455654621124267578 1.5252269506454467773 1.3450075387954711914 1 1.0328413248062133789 1.0828827619552612305 1.0513968467712402344 1 1 1.0392651557922363281 1.2527216672897338867 1 1 1 1.3731532096862792969 
2.5201468467712402344 3.6742563247680664063 3.1608090400695800781 3.0799541473388671875 3.7888355255126953125 5.7052140235900878906 3.1039268970489501953 3.9176633358001708984 2.2486627101898193359 2.299289703369140625 5.093006134033203125 4.41533660888671875 3.0934374332427978516 3.2239172458648681641 1.9469870328903198242 2.2480554580688476563 2.0756766796112060547 2.1046948432922363281 3.4752182960510253906 2.7464921474456787109 2.968494415283203125 3.6335694789886474609 3.3626697063446044922 3.0426933765411376953 3.0860934257507324219 4.141223907470703125 3.005481719970703125 2.8658223152160644531 2.1246318817138671875 1.8275209665298461914 2.2831370830535888672 3.0999896526336669922 2.2861678600311279297 1.8104076385498046875 2.0027611255645751953 2.4013891220092773438 1.5548112392425537109 1.3349033594131469727 1.6447608470916748047 2.2387712001800537109 1.7342659235000610352 1.6917676925659179688 1.4863802194595336914 1.2335858345031738281 1.4424773454666137695 1.2584650516510009766 1.6853790283203125 1.5662788152694702148 1.3853065967559814453 1.5432372093200683594 1.5578587055206298828 1.3391058444976806641 1.2282507419586181641 1.3635452985763549805 1.0090364217758178711 1 1 1.1018869876861572266 1.2747052907943725586 1 1 1 1.2735757827758789063 1 1.0568063259124755859 1 1 1.0280536413192749023 1 1 1 1 1 1 1 1 1 1 1 1.0469743013381958008 1 1 1 1 1 1 1.0008401870727539063 1 1.0642347335815429688 1 1.254050135612487793 1.3163775205612182617 1.319766998291015625 1.4990808963775634766 1.2750403881072998047 2.0657370090484619141 1.1318361759185791016 1.0183687210083007813 1.2242280244827270508 1 1.3240972757339477539 1.283221125602722168 1.5926700830459594727 1.2335182428359985352 1.5740115642547607422 1.687885284423828125 1.8620918989181518555 1.2752137184143066406 1.5153448581695556641 1.4971566200256347656 2.02619171142578125 1.91196441650390625 1.5785183906555175781 1.82756805419921875 1.8939888477325439453 1.9375886917114257813 2.2655696868896484375 2.2510988712310791016 2.0416905879974365234 2.4883375167846679688 2.2842652797698974609 2.6547446250915527344 2.6913714408874511719 2.956211090087890625 2.9802224636077880859 2.8283238410949707031 3.0075559616088867188 3.0195920467376708984 2.5580248832702636719 2.8489289283752441406 2.9862282276153564453 2.9459939002990722656 2.8056347370147705078 3.3368318080902099609 3.3646740913391113281 3.2886660099029541016 3.3003063201904296875 3.3268055915832519531 3.2159464359283447266 2.9282424449920654297 3.4749991893768310547 3.7710089683532714844 3.39847564697265625 3.1841952800750732422 2.8925879001617431641 3.0418100357055664063 2.6486227512359619141 2.6828191280364990234 2.7238976955413818359 2.8850142955780029297 2.9696207046508789063 3.0873956680297851563 3.2541556358337402344 3.3625390529632568359 2.9289689064025878906 3.5676753520965576172 3.1367475986480712891 3.4388234615325927734 3.8360021114349365234 4.0877027511596679688 3.6034359931945800781 3.4152007102966308594 3.7363176345825195313 3.7240331172943115234 3.3664500713348388672 3.5140867233276367188 3.5652217864990234375 3.6568067073822021484 3.2381289005279541016 2.9162545204162597656 2.5972707271575927734 2.7067954540252685547 2.9245495796203613281 2.7157177925109863281 2.9788110256195068359 2.8403155803680419922 3.2359662055969238281 3.1303045749664306641 2.2700297832489013672 2.2200312614440917969 2.3753232955932617188 1.9931837320327758789 1.7849837541580200195 1.6664234399795532227 2.0597698688507080078 2.0828909873962402344 1.8313794136047363281 1.3694814443588256836 1 1 1 1 1 1 1 1.0052777528762817383 1 1 1 1.0064282417297363281 
5.1164417266845703125 3.8736307621002197266 3.5901887416839599609 4.082790374755859375 3.5276901721954345703 3.4011218547821044922 5.7825074195861816406 5.3106241226196289063 3.9002666473388671875 2.4444196224212646484 3.1200938224792480469 2.6846141815185546875 4.173919677734375 2.1554906368255615234 1.7852542400360107422 2.3879232406616210938 2.5516178607940673828 2.9724364280700683594 2.7221367359161376953 2.861339569091796875 3.2412331104278564453 3.1163737773895263672 3.0242125988006591797 3.2452106475830078125 4.7012677192687988281 2.9365415573120117188 2.9149982929229736328 2.5710744857788085938 2.3377501964569091797 1.8340489864349365234 3.5409419536590576172 3.2157566547393798828 2.7562284469604492188 1.9615548849105834961 2.1265611648559570313 2.1086030006408691406 1.8878221511840820313 2.2619841098785400391 1.5882879495620727539 2.6855969429016113281 1.2289102077484130859 1.8636434078216552734 1 1.2633756399154663086 1.3221586942672729492 1.3200945854187011719 1.6905251741409301758 1.7504646778106689453 1.5843658447265625 1.5256448984146118164 1.7828466892242431641 1.3598229885101318359 1.1989492177963256836 1.4234637022018432617 1.0822656154632568359 1 1.1680803298950195313 1 1 1.2174988985061645508 1 1 1 1.0156531333923339844 1 1.0001195669174194336 1.1022217273712158203 1.0330646038055419922 1 1 1 1 1 1 1 1 1 1 1 1 1 1 1 1 1.1413391828536987305 1.1132197380065917969 1 1.4660392999649047852 1.3399523496627807617 1.3082904815673828125 1.7550613880157470703 1.3027147054672241211 1.6860136985778808594 1.808506011962890625 1.5280660390853881836 1.6944097280502319336 1 1.5347468852996826172 1.2311774492263793945 1.5807428359985351563 1.4230387210845947266 1.5401986837387084961 1.744777679443359375 1.4630836248397827148 1.1746307611465454102 1.7665159702301025391 1.5408517122268676758 1.1684677600860595703 1.9695409536361694336 2.1166460514068603516 2.7467420101165771484 2.4333295822143554688 1.8210661411285400391 2.0996921062469482422 2.0015046596527099609 2.1742548942565917969 2.6925585269927978516 1.9689217805862426758 2.1052451133728027344 1.9722319841384887695 1.9614228010177612305 2.1601827144622802734 2.5760517120361328125 2.7693531513214111328 2.4852240085601806641 2.6300790309906005859 3.2596762180328369141 3.4832758903503417969 3.1033143997192382813 2.6575875282287597656 2.5878901481628417969 2.5766670703887939453 3.3492975234985351563 2.9307370185852050781 2.6731784343719482422 3.4640634059906005859 5.123870849609375 5.0116024017333984375 3.6258718967437744141 3.0697760581970214844 3.2899491786956787109 3.3408298492431640625 2.8614029884338378906 2.7714011669158935547 2.5579712390899658203 3.1035840511322021484 2.4947502613067626953 2.7790620326995849609 2.9407134056091308594 2.7688717842102050781 2.6447017192840576172 3.0082285404205322266 2.7746269702911376953 2.9580781459808349609 3.17547607421875 2.8788402080535888672 3.469573974609375 3.5586881637573242188 3.6116311550140380859 3.1267154216766357422 3.1069924831390380859 3.7167716026306152344 4.0540938377380371094 3.9234292507171630859 4.1104784011840820313 3.4920508861541748047 3.785663604736328125 3.5877666473388671875 3.0928730964660644531 3.3624832630157470703 2.7138543128967285156 3.1758279800415039063 2.8200497627258300781 2.8403904438018798828 3.2038850784301757813 3.2497665882110595703 3.2363922595977783203 2.7303264141082763672 2.3532493114471435547 2.5202152729034423828 2.1472826004028320313 2.3559348583221435547 1.9288042783737182617 1.703585505485534668 1.5735901594161987305 1.9724707603454589844 1.7230427265167236328 1.3426868915557861328 1.2021908760070800781 1 1 1.012551426887512207 1 1 1.0048772096633911133 1.0313926935195922852 1 1 1 1 
2.7020823955535888672 3.5226690769195556641 4.0478143692016601563 6.4105043411254882813 3.0792131423950195313 2.9581134319305419922 2.4849469661712646484 2.4886648654937744141 5.1699328422546386719 3.0756893157958984375 2.9307548999786376953 2.6300997734069824219 2.1181273460388183594 1.8993916511535644531 2.2439081668853759766 1.9986680746078491211 2.03460693359375 2.9635217189788818359 4.1161637306213378906 2.9725778102874755859 3.0408513545989990234 3.9241502285003662109 3.2395894527435302734 3.6853711605072021484 3.0308210849761962891 3.3188309669494628906 2.5001015663146972656 3.4952905178070068359 4.0828809738159179688 4.1000804901123046875 2.0949993133544921875 2.2125124931335449219 1.9777219295501708984 1.587042689323425293 1.968684077262878418 2.9738109111785888672 2.3478920459747314453 2.1076753139495849609 2.0747158527374267578 1.7374925613403320313 1.3835185766220092773 1.6160883903503417969 1.0020143985748291016 1.2517879009246826172 1.3779703378677368164 1.6054412126541137695 1.6340638399124145508 1.7826683521270751953 1.5955923795700073242 1.3058823347091674805 1.5070286989212036133 1.6438732147216796875 1.4213619232177734375 1.2667375802993774414 1.0279698371887207031 1.2198776006698608398 1.1165081262588500977 1 1 1.0310877561569213867 1 1 1.128849029541015625 1 1.092692255973815918 1 1 1 1 1 1 1 1 1 1.0122017860412597656 1 1 1 1 1 1 1 1 1.0107301473617553711 1.1003482341766357422 1.527202606201171875 1.4275001287460327148 1.35765838623046875 1.4843020439147949219 1.5394133329391479492 1.4432625770568847656 1.6002080440521240234 1.7693998813629150391 2.108226776123046875 1.3923298120498657227 1.8596131801605224609 1.2957646846771240234 1.0848435163497924805 1.1354798078536987305 1.01647186279296875 1.4726465940475463867 1.3112404346466064453 1.5068219900131225586 1.2402617931365966797 1.2705339193344116211 1.4061053991317749023 1.2615711688995361328 1.5961878299713134766 2.0544948577880859375 2.2325050830841064453 2.2504179477691650391 1.8880709409713745117 2.1186923980712890625 1.8869146108627319336 1.9848155975341796875 1.8799263238906860352 2.5186736583709716797 2.7101407051086425781 2.5824780464172363281 2.1981976032257080078 2.2774965763092041016 2.3392157554626464844 1.9868890047073364258 2.3008031845092773438 2.552520751953125 2.7572813034057617188 2.9685332775115966797 3.0278985500335693359 2.9119665622711181641 2.8466429710388183594 2.6913752555847167969 2.7544739246368408203 2.9854385852813720703 2.8843047618865966797 2.8808455467224121094 2.5344779491424560547 2.7577843666076660156 2.9255537986755371094 3.0195159912109375 3.1753172874450683594 3.113628387451171875 3.2789137363433837891 2.9886839389801025391 2.6637966632843017578 2.4521310329437255859 2.2151505947113037109 2.25920867919921875 2.2901322841644287109 2.6980040073394775391 2.9683070182800292969 2.3857793807983398438 2.5147409439086914063 2.6373383998870849609 3.31392669677734375 2.9172842502593994141 3.064914703369140625 3.4418392181396484375 3.83376312255859375 3.9840943813323974609 3.9488666057586669922 3.5587813854217529297 3.8008875846862792969 4.1378431320190429688 4.1980519294738769531 3.9453029632568359375 4.0075893402099609375 3.0362143516540527344 3.1523487567901611328 3.0166366100311279297 3.2615373134613037109 2.5895421504974365234 3.2019548416137695313 2.9906821250915527344 3.2281057834625244141 2.768787384033203125 3.2563509941101074219 3.0155620574951171875 2.9947977066040039063 2.7444505691528320313 2.4195532798767089844 2.0252492427825927734 1.9944669008255004883 2.2768616676330566406 1.7853524684906005859 2.1676158905029296875 1.9691796302795410156 1.6675026416778564453 1.689914703369140625 1 1.167163848876953125 1 1 1 1 1 1 1 1 1 1 
2.7712604999542236328 3.0243573188781738281 4.4312338829040527344 4.3974785804748535156 4.8487672805786132813 4.8582663536071777344 2.5510795116424560547 5.5868272781372070313 2.7247025966644287109 2.7700955867767333984 5.3870158195495605469 3.10990142822265625 4.3124456405639648438 2.6445212364196777344 2.0228893756866455078 2.4750010967254638672 5.4608483314514160156 3.0556509494781494141 2.7258648872375488281 3.4565005302429199219 2.8842194080352783203 4.2010335922241210938 3.4508519172668457031 4.1561975479125976563 3.6656222343444824219 2.8543386459350585938 4.4454741477966308594 5.1781396865844726563 3.4357514381408691406 3.2034852504730224609 3.4126467704772949219 3.3013737201690673828 1.6400753259658813477 1.6445372104644775391 1.9552836418151855469 1.9700540304183959961 3.0081233978271484375 2.4800479412078857422 2.2622809410095214844 1.9973137378692626953 2.0640316009521484375 1.6315299272537231445 1.1973469257354736328 1.4378457069396972656 1.1718078851699829102 1.8783501386642456055 1.8627446889877319336 1.7028164863586425781 1.6927335262298583984 1.3655098676681518555 1.7269150018692016602 1.8613536357879638672 1.4296054840087890625 1.6085021495819091797 1.5200427770614624023 1 1.0483896732330322266 1 1 1 1.0927293300628662109 1 1 1 1 1 1 1 1 1 1 1 1 1 1 1 1 1 1 1 1 1.0239849090576171875 1.0271309614181518555 1 1.0417479276657104492 1.2442711591720581055 1.5165137052536010742 1.4341586828231811523 1.6197704076766967773 1.5331898927688598633 1.4792674779891967773 1.72138214111328125 1.9199560880661010742 1.8304619789123535156 1.2953317165374755859 1.5333114862442016602 1.0858452320098876953 1.6008148193359375 1.7996000051498413086 2.0055866241455078125 1.9129338264465332031 1.6812000274658203125 1.1654480695724487305 1.0491901636123657227 1.2098031044006347656 1.7273662090301513672 1.6837331056594848633 2.1417806148529052734 2.0945768356323242188 2.4485487937927246094 2.1940121650695800781 1.9927805662155151367 1.6519190073013305664 1.9044525623321533203 1.8962548971176147461 2.4066419601440429688 2.1913864612579345703 1.9345123767852783203 2.5966231822967529297 2.4875674247741699219 2.1367774009704589844 2.3880343437194824219 2.7892398834228515625 2.4017844200134277344 2.4696056842803955078 2.8113720417022705078 2.5600740909576416016 3.0210316181182861328 2.7436795234680175781 2.7018535137176513672 2.4976475238800048828 2.78093719482421875 2.5734889507293701172 2.5114688873291015625 3.0436258316040039063 2.6431303024291992188 2.7091209888458251953 2.7622399330139160156 2.7339236736297607422 3.2235620021820068359 2.9866900444030761719 2.8430151939392089844 2.4648518562316894531 2.447910308837890625 2.1668720245361328125 2.1376662254333496094 1.8911786079406738281 1.9054900407791137695 2.2835881710052490234 2.3149180412292480469 2.7075083255767822266 2.39334869384765625 2.813510894775390625 3.2702429294586181641 2.8621308803558349609 3.3916809558868408203 3.5283141136169433594 3.6240394115447998047 3.3819510936737060547 3.2755939960479736328 3.54636383056640625 3.5028715133666992188 3.8109486103057861328 4.3104863166809082031 4.0516648292541503906 3.7316865921020507813 3.5217058658599853516 3.1558754444122314453 2.8789532184600830078 2.8185963630676269531 3.3738360404968261719 3.7120041847229003906 3.0813586711883544922 3.6026506423950195313 3.3302404880523681641 3.1340076923370361328 2.8935413360595703125 2.3671593666076660156 2.3428812026977539063 2.3057329654693603516 2.1837191581726074219 2.0579190254211425781 2.1595349311828613281 2.0939319133758544922 2.1142184734344482422 1.4910585880279541016 1.3379193544387817383 1.2242516279220581055 1.026911616325378418 1 1 1 1 1 1 1 1 1 1 1 
2.6946649551391601563 2.8814957141876220703 4.0890612602233886719 2.5951080322265625 3.8875031471252441406 4.5254154205322265625 4.4262228012084960938 7.7045798301696777344 2.8645763397216796875 2.8522188663482666016 4.3112802505493164063 2.9976511001586914063 5.3011984825134277344 3.3219764232635498047 4.9445285797119140625 3.9002773761749267578 3.6224696636199951172 2.8896999359130859375 3.0255610942840576172 2.9519762992858886719 3.1971263885498046875 2.8002328872680664063 3.1630313396453857422 3.9993669986724853516 5.4258294105529785156 5.0540442466735839844 4.3221035003662109375 5.609439849853515625 2.3874900341033935547 4.7131557464599609375 3.0377042293548583984 2.1102750301361083984 1.9715416431427001953 1.8819520473480224609 1.8014330863952636719 1.7851886749267578125 2.6861619949340820313 3.170841217041015625 2.9486567974090576172 2.2533879280090332031 1.7713168859481811523 1.554808497428894043 1.8015344142913818359 1.7930607795715332031 1.6581958532333374023 1.6835553646087646484 1.6650645732879638672 1.9255173206329345703 1.8873212337493896484 2.037128448486328125 2.2422111034393310547 2.0189092159271240234 1.7033362388610839844 1.6058800220489501953 1.2887909412384033203 1.3028690814971923828 1.2141792774200439453 1.0613113641738891602 1.1719216108322143555 1.0139633417129516602 1 1.1284165382385253906 1 1 1 1 1.1071465015411376953 1 1 1 1.0016810894012451172 1 1 1 1 1 1 1 1 1 1.2668732404708862305 1.130856633186340332 1.228115081787109375 1.0859884023666381836 1.1574351787567138672 1.1534343957901000977 1.5066703557968139648 2.3046717643737792969 1.6586763858795166016 2.1297926902770996094 1.9689143896102905273 1.7598791122436523438 1.4696046113967895508 1.5732319355010986328 1.5936397314071655273 1.5179032087326049805 1.7898350954055786133 2.0293211936950683594 2.2570085525512695313 1.8826704025268554688 1.9140032529830932617 1.5169261693954467773 1.6328871250152587891 1.471985936164855957 1.3120132684707641602 1.4692518711090087891 1.8244013786315917969 1.9180606603622436523 2.2868273258209228516 2.2908799648284912109 2.0192553997039794922 2.2123241424560546875 2.0169031620025634766 2.0281407833099365234 1.8312078714370727539 2.2476699352264404297 1.9191014766693115234 2.0967562198638916016 2.2496497631072998047 1.8975968360900878906 2.8430833816528320313 2.9449889659881591797 3.0648636817932128906 2.5222799777984619141 2.555084228515625 2.6217021942138671875 3.1616518497467041016 2.6076748371124267578 2.8956210613250732422 2.4804100990295410156 2.5831322669982910156 2.6492428779602050781 2.6895806789398193359 2.7419977188110351563 2.1182141304016113281 2.3365557193756103516 2.80249786376953125 2.6719837188720703125 2.7428252696990966797 2.646961212158203125 2.5766310691833496094 2.5567264556884765625 2.5000681877136230469 2.4236366748809814453 2.0700917243957519531 2.2122745513916015625 2.2466802597045898438 1.5954427719116210938 1.9605175256729125977 1.9386861324310302734 2.4764382839202880859 2.4036927223205566406 2.9120438098907470703 2.9772708415985107422 2.7881979942321777344 3.3994374275207519531 3.6928625106811523438 3.3366270065307617188 3.0714936256408691406 3.1211135387420654297 3.3827147483825683594 3.6780364513397216797 3.5827720165252685547 3.8163959980010986328 4.0578155517578125 3.8219773769378662109 3.5144124031066894531 3.1317768096923828125 3.4066629409790039063 3.4221298694610595703 3.488155364990234375 3.1198840141296386719 3.3401062488555908203 3.2353467941284179688 2.9714131355285644531 3.4175126552581787109 3.0485577583312988281 2.9990599155426025391 2.5982751846313476563 2.0045669078826904297 1.9007850885391235352 1.9442940950393676758 1.3931342363357543945 1.5788486003875732422 2.211376190185546875 1.462332606315612793 1.1777054071426391602 1.3630946874618530273 1.1475919485092163086 1.002446293830871582 1 1 1 1 1.0121102333068847656 1 1 1 1 1 
2.6154615879058837891 2.327816009521484375 4.0493741035461425781 4.0184407234191894531 4.3517603874206542969 3.9773294925689697266 3.7401230335235595703 7.01705169677734375 4.41788482666015625 3.7701561450958251953 2.4506642818450927734 2.2463517189025878906 3.6669032573699951172 5.1549115180969238281 3.9058690071105957031 3.5803856849670410156 3.7138347625732421875 2.5212180614471435547 3.007373809814453125 3.400684356689453125 3.3247931003570556641 2.9708144664764404297 3.1767151355743408203 2.9006752967834472656 4.8486719131469726563 6.0733218193054199219 3.9681670665740966797 4.6535496711730957031 2.5426688194274902344 4.7935309410095214844 1.5160692930221557617 2.5091779232025146484 1.7668269872665405273 2.0019364356994628906 2.2252461910247802734 2.2993252277374267578 2.4165496826171875 3.8681650161743164063 1.7807990312576293945 1.8877815008163452148 2.1391057968139648438 1.9852080345153808594 1.5891131162643432617 1.8576315641403198242 1.9093163013458251953 1.6903641223907470703 1.8214384317398071289 2.0341546535491943359 2.2678358554840087891 1.7044115066528320313 1.7129368782043457031 1.9415230751037597656 1.9224573373794555664 1.4270150661468505859 1.5040309429168701172 1.4432061910629272461 1.3582508563995361328 1.1186385154724121094 1.4170261621475219727 1.465363621711730957 1 1.1356142759323120117 1 1.1765657663345336914 1 1 1.0363435745239257813 1 1 1 1 1 1 1 1 1 1 1 1 1.1045204401016235352 1.1894094944000244141 1.2841269969940185547 1.3529419898986816406 1.342730402946472168 1.149918675422668457 1.3534368276596069336 1.2155766487121582031 1.2291605472564697266 2.0086617469787597656 1.9776593446731567383 1.4368506669998168945 1.5421030521392822266 1.5245200395584106445 1.0445306301116943359 1.3601218461990356445 1.4194945096969604492 1.5400654077529907227 1.7117422819137573242 1.8351409435272216797 1.7322181463241577148 1.6314924955368041992 1.7763156890869140625 1.651308894157409668 1.3658450841903686523 1.3102761507034301758 1.8058488368988037109 1.9670970439910888672 1.7215716838836669922 2.0404872894287109375 2.1527426242828369141 1.9420436620712280273 1.6579049825668334961 1.5698992013931274414 2.1021528244018554688 1.7405633926391601563 1.5482431650161743164 1.6768153905868530273 2.0457830429077148438 2.0547378063201904297 2.0162968635559082031 2.0050594806671142578 2.6073071956634521484 2.9208097457885742188 3.269866943359375 2.9025285243988037109 2.7448098659515380859 2.6292643547058105469 3.1715855598449707031 3.0138959884643554688 2.8643636703491210938 2.3072640895843505859 2.7599844932556152344 2.0983104705810546875 2.3749804496765136719 2.3967378139495849609 2.3380126953125 2.7675101757049560547 2.7463853359222412109 2.7895739078521728516 2.4000735282897949219 2.5119724273681640625 2.2581956386566162109 2.3814849853515625 2.3396780490875244141 2.3622570037841796875 1.861420750617980957 1.8938683271408081055 1.4001245498657226563 1.592917323112487793 1.8820291757583618164 1.9600582122802734375 2.3960964679718017578 2.4964704513549804688 2.3807699680328369141 3.3890635967254638672 2.9100401401519775391 3.8377542495727539063 2.8222513198852539063 3.3055567741394042969 3.0895030498504638672 2.7690503597259521484 3.5649771690368652344 3.5202867984771728516 3.9692456722259521484 3.5839829444885253906 3.9306445121765136719 4.02883148193359375 3.5230391025543212891 3.0922675132751464844 3.1652102470397949219 3.7449953556060791016 3.8011918067932128906 3.1412601470947265625 2.8070149421691894531 3.11483001708984375 3.1283621788024902344 2.9415860176086425781 2.9898407459259033203 2.4031310081481933594 2.1322519779205322266 1.7180562019348144531 1.7824227809906005859 1.2927345037460327148 1.0322427749633789063 1.4181979894638061523 1.5123583078384399414 1.2977656126022338867 1.1741728782653808594 1.0259103775024414063 1.0500988960266113281 1 1 1 1 1 1 1 1 1 1 
3.5172846317291259766 2.5081930160522460938 4.2205834388732910156 3.9492044448852539063 5.3674249649047851563 3.2597625255584716797 3.0987253189086914063 2.65959930419921875 4.8537874221801757813 3.8387072086334228516 3.1097648143768310547 4.4617357254028320313 3.4685499668121337891 2.2568655014038085938 2.5893731117248535156 4.8045520782470703125 2.5509226322174072266 2.2553632259368896484 2.7907547950744628906 2.3586058616638183594 2.6930615901947021484 2.5275847911834716797 2.3000471591949462891 2.8350369930267333984 4.4885687828063964844 3.8228116035461425781 4.3933544158935546875 4.1159830093383789063 4.2404336929321289063 3.0370035171508789063 1.9281748533248901367 2.2043156623840332031 1.7168985605239868164 2.0840015411376953125 2.4149620532989501953 2.9041490554809570313 3.3103229999542236328 2.2487277984619140625 2.0713350772857666016 1.931672215461730957 1.6676422357559204102 1.9315760135650634766 1.6011757850646972656 2.2260808944702148438 2.1639142036437988281 1.8440204858779907227 1.9490387439727783203 2.0293726921081542969 2.2933518886566162109 2.3547298908233642578 2.3884499073028564453 2.3225042819976806641 1.5852084159851074219 1.6391195058822631836 1.4056236743927001953 1.4787546396255493164 1.6526359319686889648 1.5298408269882202148 1.3171216249465942383 1.2279284000396728516 1.5406992435455322266 1.175068974494934082 1.6410548686981201172 1.4853968620300292969 1.0766942501068115234 1.0746995210647583008 1.0089657306671142578 1.022847294807434082 1 1 1 1 1 1 1 1 1 1 1.0590040683746337891 1.1611562967300415039 1.4340205192565917969 1.3766807317733764648 1.4303743839263916016 1.1902524232864379883 1 1 1.1987743377685546875 1.4529337882995605469 1.6537405252456665039 1.6408822536468505859 1.4913657903671264648 1.5542107820510864258 1.3227535486221313477 1.6007295846939086914 1.2160081863403320313 1.5182096958160400391 1.6762536764144897461 1.6312781572341918945 1.4268110990524291992 1.5460422039031982422 1.5487635135650634766 1.7695248126983642578 1.8693017959594726563 1.6481240987777709961 1.5632163286209106445 1.8490844964981079102 1.7959537506103515625 1.7004461288452148438 1.644763946533203125 1.6702898740768432617 1.4869747161865234375 1.4387210607528686523 1.6616480350494384766 1.7242555618286132813 1.805446624755859375 2.0422968864440917969 1.7065044641494750977 1.7371336221694946289 1.9297463893890380859 2.4165430068969726563 2.1565291881561279297 2.2143473625183105469 2.6196348667144775391 3.1650269031524658203 2.8520467281341552734 3.0175683498382568359 2.7899737358093261719 2.9917235374450683594 2.5398886203765869141 2.8769831657409667969 2.9780075550079345703 2.4830715656280517578 2.4285130500793457031 2.1324355602264404297 2.1194660663604736328 2.4274172782897949219 2.2937378883361816406 2.61383819580078125 2.3436899185180664063 2.4186441898345947266 2.1894965171813964844 2.2159128189086914063 2.6103196144104003906 2.5044145584106445313 2.2052094936370849609 2.3259730339050292969 2.4390952587127685547 1.5970988273620605469 1.8636983633041381836 2.0131840705871582031 1.9365650415420532227 1.8161325454711914063 1.8486324548721313477 2.6080539226531982422 2.6649515628814697266 3.3487443923950195313 3.1197626590728759766 3.600368499755859375 3.2506961822509765625 3.549121856689453125 3.4800353050231933594 3.5631124973297119141 3.5064537525177001953 3.2752587795257568359 4.0325207710266113281 4.0523486137390136719 4.3399844169616699219 3.3916234970092773438 3.5587282180786132813 3.6574718952178955078 3.4264028072357177734 2.9924185276031494141 3.1740057468414306641 2.8698267936706542969 2.6285405158996582031 2.9014074802398681641 2.9980630874633789063 2.53371429443359375 1.9629657268524169922 1.8345122337341308594 1.5450599193572998047 1.4906028509140014648 1.3930249214172363281 1.3835484981536865234 1.8106911182403564453 1.5471508502960205078 1.7555571794509887695 1.3457390069961547852 1.2875143289566040039 1.0071914196014404297 1.0678459405899047852 1 1 1 1 1 1 1 1 1 
2.6810002326965332031 2.6848134994506835938 2.6773934364318847656 2.9406263828277587891 2.7449951171875 2.8669369220733642578 4.5303211212158203125 2.5922095775604248047 2.5503096580505371094 2.3540897369384765625 2.5435419082641601563 2.0890572071075439453 2.0039441585540771484 2.873554229736328125 2.5242807865142822266 2.235279083251953125 3.3564784526824951172 2.4297101497650146484 2.4813899993896484375 3.2529838085174560547 2.8333475589752197266 2.3274438381195068359 2.1905245780944824219 2.7667698860168457031 2.5344955921173095703 2.9853937625885009766 2.8904435634613037109 3.7214758396148681641 4.1092181205749511719 3.4353389739990234375 1.425007939338684082 3.4895477294921875 1.8795349597930908203 2.1270170211791992188 4.543811798095703125 5.1235718727111816406 3.3160178661346435547 2.6502833366394042969 2.4498198032379150391 2.1807742118835449219 1.7816034555435180664 1.9631592035293579102 1.6206895112991333008 1.9126721620559692383 1.7147699594497680664 1.7060143947601318359 1.4999116659164428711 1.5510764122009277344 1.4021317958831787109 1.6312074661254882813 2.0074586868286132813 2.0342926979064941406 2.0905792713165283203 1.2486988306045532227 1.6257040500640869141 1.3821538686752319336 1.2477496862411499023 1.3908363580703735352 1.1718921661376953125 1.3805105686187744141 1.2577997446060180664 1.4248327016830444336 1.454602360725402832 1.6097394227981567383 1.4246768951416015625 1.1359503269195556641 1.1074129343032836914 1 1 1 1 1 1 1 1 1 1 1 1.2137154340744018555 1.2632596492767333984 1.3386007547378540039 1.0888074636459350586 1.4243248701095581055 1.0833332538604736328 1.2808099985122680664 1.0646353960037231445 1 1.0480108261108398438 1.7930907011032104492 1.4468711614608764648 1.4765659570693969727 1.4302666187286376953 1.4412516355514526367 1.5263210535049438477 1.6061147451400756836 1.1200119256973266602 1.4902139902114868164 1.6032385826110839844 1.7455151081085205078 1.9201893806457519531 1.3514341115951538086 1.3464205265045166016 1.7674421072006225586 1.480717778205871582 1.3493326902389526367 1.3601909875869750977 1.6317770481109619141 1.7527853250503540039 1.4730174541473388672 1.7338634729385375977 1.1463948488235473633 1.5164595842361450195 1.2212790250778198242 1.1986969709396362305 1.3234549760818481445 1.4424735307693481445 1.5121423006057739258 1.8295834064483642578 1.8270941972732543945 2.2153010368347167969 2.4533758163452148438 2.3133690357208251953 2.9301297664642333984 2.7021565437316894531 2.9425148963928222656 2.8483242988586425781 2.8433442115783691406 2.41379547119140625 2.6895079612731933594 2.7704727649688720703 2.3001666069030761719 2.1941852569580078125 1.6847873926162719727 1.8945214748382568359 1.9504985809326171875 2.4223423004150390625 2.3894886970520019531 2.5248196125030517578 2.56479644775390625 2.1517457962036132813 2.2232711315155029297 2.3706276416778564453 2.2043111324310302734 2.2293517589569091797 2.0462315082550048828 2.2857341766357421875 1.7412737607955932617 1.8963410854339599609 2.1408748626708984375 2.0496079921722412109 2.1791369915008544922 2.3753266334533691406 2.5161004066467285156 2.4605996608734130859 2.5604712963104248047 2.9367845058441162109 2.9767596721649169922 3.4381420612335205078 3.9147639274597167969 3.069507598876953125 3.752544403076171875 3.5783457756042480469 3.771759033203125 3.7976558208465576172 4.4234766960144042969 4.3868107795715332031 4.0390477180480957031 3.9369804859161376953 3.3553133010864257813 3.3919785022735595703 3.0905165672302246094 2.8839478492736816406 2.7850906848907470703 2.7920017242431640625 2.7246801853179931641 2.3444974422454833984 2.8044362068176269531 2.6284997463226318359 2.2858469486236572266 1.8871849775314331055 1.7405611276626586914 2.0228044986724853516 1.5723960399627685547 1.7455848455429077148 1.9671235084533691406 1.6569312810897827148 1.7130866050720214844 1.0739055871963500977 1.1758046150207519531 1.0141415596008300781 1.0128614902496337891 1.0495611429214477539 1 1 1 1.0070717334747314453 1 1 1 1 
2.1860651969909667969 1.9672722816467285156 3.9278960227966308594 2.2367401123046875 3.7597260475158691406 4.5360860824584960938 3.6733903884887695313 2.5157477855682373047 2.5283596515655517578 2.1720821857452392578 2.7087922096252441406 3.7653703689575195313 4.0979547500610351563 3.8059518337249755859 2.7228391170501708984 2.27170562744140625 2.8652439117431640625 3.0498931407928466797 2.7742865085601806641 2.8033554553985595703 2.3227849006652832031 1.8350720405578613281 2.5930273532867431641 1.8383556604385375977 2.4631469249725341797 2.3280036449432373047 3.4559187889099121094 4.5630621910095214844 3.6993148326873779297 4.5684685707092285156 2.1517074108123779297 1.3997018337249755859 2.797512054443359375 1.6141756772994995117 3.7546560764312744141 2.90732574462890625 4.3177475929260253906 3.3234832286834716797 3.7405672073364257813 2.2265272140502929688 2.3410191535949707031 1.5623803138732910156 1.5929931402206420898 1.6463360786437988281 2.0636990070343017578 1.8478972911834716797 1.6233131885528564453 1.3205286264419555664 1.4518402814865112305 1.5071768760681152344 1.4660643339157104492 1.7849521636962890625 1.6087574958801269531 1.5497109889984130859 1.4897496700286865234 1.405648350715637207 1.4526430368423461914 1.3095933198928833008 1.2210994958877563477 1.0601214170455932617 1.2866032123565673828 1.4138643741607666016 1.7175464630126953125 1.3755091428756713867 1.3462688922882080078 1.0125490427017211914 1.1934635639190673828 1 1.2067918777465820313 1 1 1 1 1 1 1 1.1275963783264160156 1.1278147697448730469 1.1336590051651000977 1.2238402366638183594 1.1640591621398925781 1.306668400764465332 1.482844233512878418 1.4989969730377197266 1.3654255867004394531 1.1552888154983520508 1.2692697048187255859 1.3139678239822387695 1.6239439249038696289 1.9099043607711791992 1.9913160800933837891 1.1974108219146728516 1.2450144290924072266 1.3478388786315917969 1.2337719202041625977 1.4795122146606445313 1.3239423036575317383 1.334399104118347168 1.9435846805572509766 1.5082533359527587891 1.1804459095001220703 1.6686506271362304688 1.5533950328826904297 2.3190875053405761719 1.5942208766937255859 1.3820883035659790039 1.8814481496810913086 1.8021751642227172852 1.2457635402679443359 1.5080454349517822266 1 1.2035729885101318359 1.1356065273284912109 1.38942718505859375 1.3206880092620849609 1.260331273078918457 1.8218926191329956055 1.9705274105072021484 2.0370364189147949219 2.00627899169921875 2.0369460582733154297 2.8096575736999511719 2.6603467464447021484 2.8467552661895751953 2.6752674579620361328 2.5309445858001708984 2.3868997097015380859 2.7861843109130859375 2.7237524986267089844 2.9184687137603759766 2.3654482364654541016 2.0363934040069580078 1.6774500608444213867 1.5462981462478637695 1.8032730817794799805 2.1027810573577880859 2.4339764118194580078 2.2991268634796142578 2.1546139717102050781 2.4239215850830078125 2.2853488922119140625 2.1876370906829833984 2.2158939838409423828 2.3018267154693603516 2.1023981571197509766 2.0016534328460693359 1.8648085594177246094 2.0744500160217285156 2.23728179931640625 2.0855710506439208984 2.1360886096954345703 2.1623127460479736328 2.3766129016876220703 2.7080075740814208984 2.4598987102508544922 2.6922376155853271484 3.3692543506622314453 3.4316270351409912109 3.157016754150390625 3.3815107345581054688 3.3658525943756103516 3.42371368408203125 3.8361809253692626953 3.8877151012420654297 3.6530420780181884766 3.9564981460571289063 3.8286428451538085938 2.932415008544921875 3.1348450183868408203 3.4044191837310791016 3.3556358814239501953 3.2679476737976074219 3.0291857719421386719 2.9300925731658935547 2.5612764358520507813 2.4584064483642578125 2.3602890968322753906 2.6304192543029785156 2.2271738052368164063 1.9675881862640380859 2.0231468677520751953 1.5928016901016235352 1.8588519096374511719 1.9395111799240112305 1.914629817008972168 1.7633016109466552734 1.5347324609756469727 1.6542266607284545898 1.7411855459213256836 1.4876415729522705078 1 1.2592451572418212891 1 1 1 1 1 1 1 1 
2.3646721839904785156 3.5833971500396728516 2.8553817272186279297 2.3011257648468017578 3.5787832736968994141 2.3747677803039550781 3.8907613754272460938 3.1937150955200195313 2.3296885490417480469 1.4618645906448364258 1.9743950366973876953 3.1599740982055664063 3.3682372570037841797 3.8039884567260742188 3.7056119441986083984 4.2380223274230957031 2.9772753715515136719 2.5915558338165283203 3.0642602443695068359 2.4050529003143310547 2.3311946392059326172 2.0868422985076904297 1.5985739231109619141 1.8677244186401367188 2.2503321170806884766 2.994659423828125 3.7315342426300048828 2.0708639621734619141 2.0237395763397216797 2.6490266323089599609 1.9890673160552978516 1.5460921525955200195 2.0516536235809326172 1.8578410148620605469 2.6224470138549804688 2.8256959915161132813 3.1223981380462646484 3.2086246013641357422 2.2344236373901367188 1.6166106462478637695 1.8945548534393310547 1.481896519660949707 1.6268444061279296875 1.5901417732238769531 1.7677172422409057617 1.9318305253982543945 1.5669685602188110352 1.5717841386795043945 1.6175410747528076172 1.5306394100189208984 1.5908542871475219727 1.7979846000671386719 1.7403112649917602539 1.6885465383529663086 1.4930884838104248047 1.3465528488159179688 1.2030681371688842773 1.2810389995574951172 1.0424070358276367188 1 1 1.6877040863037109375 1.4812430143356323242 1.2610040903091430664 1.2292904853820800781 1.2242908477783203125 1.421629786491394043 1.2555639743804931641 1.1857049465179443359 1.3461762666702270508 1 1 1 1 1 1.0021439790725708008 1 1 1.136127471923828125 1.3778154850006103516 1.3005204200744628906 1.5751515626907348633 1.3499763011932373047 1.1938699483871459961 1.4179695844650268555 1.6565004587173461914 1.2310639619827270508 1.4912972450256347656 1.328320622444152832 2.0107629299163818359 1.7217515707015991211 1.1359388828277587891 1.1091827154159545898 1.2155277729034423828 1.2819205522537231445 1.2313694953918457031 1.17031097412109375 1.2533164024353027344 1.7030676603317260742 1.6749016046524047852 1.3841049671173095703 1.6413341760635375977 1.7741467952728271484 1.9853111505508422852 1.1792874336242675781 1.6638157367706298828 2.1068785190582275391 1.6621404886245727539 1.4985849857330322266 1.3996565341949462891 1.3867553472518920898 1.286297917366027832 1.3589687347412109375 1.0821348428726196289 1.4093153476715087891 1.7618918418884277344 1.4029266834259033203 1.7955089807510375977 1.6192482709884643555 2.0263106822967529297 2.2142696380615234375 2.1399428844451904297 2.8741667270660400391 2.6734609603881835938 2.544124603271484375 2.3814842700958251953 2.0930123329162597656 2.6959948539733886719 2.4572167396545410156 2.5117661952972412109 2.4511516094207763672 2.1341681480407714844 1.743876338005065918 1.7786720991134643555 2.0019047260284423828 2.1519429683685302734 2.2471108436584472656 2.0978984832763671875 2.1818356513977050781 2.3616719245910644531 2.0580539703369140625 1.9979095458984375 2.0237019062042236328 2.1728711128234863281 2.2146093845367431641 2.52619171142578125 2.2610661983489990234 1.9951932430267333984 2.302448272705078125 2.0445926189422607422 1.9188895225524902344 1.9646959304809570313 1.9277496337890625 2.0793440341949462891 3.149944305419921875 2.7449688911437988281 3.4286248683929443359 2.98404693603515625 2.9491813182830810547 3.0016040802001953125 3.1116881370544433594 3.0029075145721435547 3.0243556499481201172 3.5563166141510009766 4.3240680694580078125 4.2911458015441894531 3.4546275138854980469 3.14630126953125 3.0679905414581298828 3.2488801479339599609 3.4024703502655029297 3.0409417152404785156 2.9187448024749755859 2.8456864356994628906 2.6391689777374267578 2.8004627227783203125 2.8014531135559082031 2.3999598026275634766 2.2905287742614746094 1.9772871732711791992 1.8735638856887817383 1.8545196056365966797 1.5358394384384155273 1.2196434736251831055 1.9660499095916748047 2.0270862579345703125 2.3026468753814697266 1.9687383174896240234 1.5571042299270629883 1.5403181314468383789 1.0599919557571411133 1.0104434490203857422 1 1.0559517145156860352 1 1 1 1 1 1 
3.0924077033996582031 1.7840025424957275391 3.0335834026336669922 2.3636052608489990234 3.8709006309509277344 5.2208871841430664063 3.673095703125 2.0254933834075927734 2.6409435272216796875 1.7792596817016601563 2.7446568012237548828 3.0451498031616210938 4.4935178756713867188 1.9945163726806640625 2.7116606235504150391 2.9720220565795898438 3.5409643650054931641 3.1289582252502441406 2.8871319293975830078 3.2457849979400634766 2.2522435188293457031 2.0131349563598632813 1.7354807853698730469 2.5433394908905029297 2.2855610847473144531 1.9861390590667724609 3.5154316425323486328 2.3110022544860839844 3.0707125663757324219 2.0552744865417480469 2.2116899490356445313 2.2006928920745849609 2.1360621452331542969 1.9842579364776611328 1.9323358535766601563 2.7777831554412841797 1.963009953498840332 2.2230782508850097656 1.6599097251892089844 1.643278956413269043 2.0648255348205566406 1.4587169885635375977 1.6080315113067626953 1.9402693510055541992 1.6879180669784545898 1.5426958799362182617 1.6219223737716674805 1.4152584075927734375 1.582111358642578125 1.7230931520462036133 1.5334570407867431641 1.7630258798599243164 1.8187978267669677734 1.6629717350006103516 1.8611917495727539063 1.5572822093963623047 1.246291041374206543 1.04941558837890625 1.0468596220016479492 1 1.0925135612487792969 1.1536297798156738281 1.3508802652359008789 1.10195159912109375 1.137944340705871582 1.1890902519226074219 1.311129450798034668 1.243670344352722168 1.0321289300918579102 1.111117243766784668 1.0826852321624755859 1.0723128318786621094 1 1.2244275808334350586 1 1 1 1.0200704336166381836 1.3039766550064086914 1.5183980464935302734 1.6042457818984985352 1.6486942768096923828 1.6874022483825683594 1.3884123563766479492 1.7824339866638183594 1.7529056072235107422 1.6616239547729492188 1.5004831552505493164 1.6981999874114990234 1.8898929357528686523 1.3034024238586425781 1.0697628259658813477 1.0070476531982421875 1.1290287971496582031 1.015841364860534668 1.1158922910690307617 1.3777376413345336914 1.2889180183410644531 1.5445803403854370117 1.5342943668365478516 1.4120131731033325195 1.5369415283203125 1.7411653995513916016 1.3308542966842651367 1.4933462142944335938 1.7970633506774902344 1.4259206056594848633 1.6041568517684936523 1.2746150493621826172 1.3013985157012939453 1.2928203344345092773 1.4995687007904052734 1.5488098859786987305 1.1551826000213623047 1.7628504037857055664 1.3744153976440429688 1 1.4882735013961791992 1.8949704170227050781 1.8398903608322143555 1.7579942941665649414 2.0109705924987792969 2.3538830280303955078 2.1461417675018310547 2.5621240139007568359 2.5341346263885498047 2.1582667827606201172 2.2692751884460449219 2.049152374267578125 2.1173977851867675781 1.9090782403945922852 2.1188182830810546875 2.1484537124633789063 1.8441992998123168945 2.1919267177581787109 1.9487500190734863281 2.1861689090728759766 1.9441772699356079102 2.0674412250518798828 2.7254145145416259766 2.2638032436370849609 2.0396473407745361328 2.3290843963623046875 2.2560138702392578125 2.3710544109344482422 2.2852728366851806641 1.9871265888214111328 1.9447181224822998047 1.744582056999206543 1.9193506240844726563 2.2501018047332763672 2.0563716888427734375 2.5276405811309814453 2.1153094768524169922 2.4480643272399902344 2.1707227230072021484 3.0366067886352539063 3.3727638721466064453 2.9345579147338867188 2.76320648193359375 3.4082078933715820313 3.6653375625610351563 3.2479531764984130859 3.6786839962005615234 3.7973239421844482422 3.6906182765960693359 3.8002200126647949219 3.1115090847015380859 2.9652943611145019531 3.3564054965972900391 3.5795571804046630859 3.1000182628631591797 3.2695956230163574219 3.1229968070983886719 3.1518752574920654297 3.3614373207092285156 3.0329391956329345703 1.9616159200668334961 2.5121047496795654297 1.9692289829254150391 1.718175053596496582 1.7162845134735107422 1.4232645034790039063 1.3149245977401733398 1.4814591407775878906 1.6563394069671630859 1.7806148529052734375 1.8422662019729614258 1.5419892072677612305 2.0401175022125244141 1.5585912466049194336 1.4995393753051757813 1.1729500293731689453 1 1.067316889762878418 1 1 1 1.1156778335571289063 1 
3.6247136592864990234 4.6708087921142578125 1.9710872173309326172 2.0264492034912109375 2.2846484184265136719 3.2046835422515869141 2.5356049537658691406 2.3311841487884521484 4.3670511245727539063 3.2400326728820800781 1.9734748601913452148 2.3209595680236816406 2.149936676025390625 2.0870168209075927734 2.2289304733276367188 3.1286122798919677734 2.9942045211791992188 4.8707685470581054688 2.8712024688720703125 2.6610615253448486328 2.2513778209686279297 1.6984305381774902344 1.5086007118225097656 1.6612732410430908203 1.7444980144500732422 1.6279070377349853516 4.1728239059448242188 2.2827301025390625 1.8702273368835449219 2.4691679477691650391 2.7119143009185791016 2.264331817626953125 1.3995850086212158203 1.4425209760665893555 2.8753263950347900391 2.4975409507751464844 1.9332202672958374023 2.8010432720184326172 1.591261744499206543 1.7465957403182983398 1.6259931325912475586 1.412476658821105957 1.4747213125228881836 1.4015587568283081055 1.7120673656463623047 1.4760296344757080078 1.4493005275726318359 1.0322612524032592773 1.3788096904754638672 1.4644852876663208008 1.5605176687240600586 1.6810011863708496094 1.8336197137832641602 1.5904973745346069336 1.5167138576507568359 1.4153512716293334961 1.513671875 1.3682224750518798828 1.2090103626251220703 1.1546689271926879883 1 1 1 1.1989341974258422852 1 1.0304596424102783203 1 1.1742995977401733398 1.0853544473648071289 1.1266045570373535156 1 1 1 1.1345809698104858398 1.0747221708297729492 1.0563219785690307617 1.5079605579376220703 1.2898164987564086914 1.2445025444030761719 1.5725563764572143555 1.6788866519927978516 1.5304824113845825195 1.6456626653671264648 1.4614521265029907227 1.633622288703918457 1.3339638710021972656 1.3724082708358764648 1.3995233774185180664 1.7753041982650756836 1.2330622673034667969 1 1 1 1.0152242183685302734 1.0964806079864501953 1.1081929206848144531 1.1992516517639160156 1.2467807531356811523 1.4075918197631835938 1.4624736309051513672 1.4268082380294799805 1.3974864482879638672 1.5710282325744628906 1.0854785442352294922 1.1156640052795410156 1.9351971149444580078 1.1888123750686645508 1 1.5222182273864746094 1.3826347589492797852 1.2929241657257080078 1.3935217857360839844 1.2189120054244995117 1 1.0687506198883056641 1.1724325418472290039 1 1.0889391899108886719 1.6391245126724243164 1.3691730499267578125 1.6301730871200561523 1.8785849809646606445 2.0711793899536132813 2.3922688961029052734 2.5306169986724853516 2.5861458778381347656 2.3557429313659667969 2.5414652824401855469 2.5238406658172607422 2.2386791706085205078 1.8791429996490478516 1.9110274314880371094 2.0384674072265625 1.7475548982620239258 1.7348846197128295898 1.6582382917404174805 1.9934415817260742188 2.2662470340728759766 2.2792208194732666016 2.6455211639404296875 2.3456361293792724609 2.079357147216796875 2.68310546875 2.6862943172454833984 2.1548309326171875 2.3502087593078613281 2.35833740234375 2.0835092067718505859 1.8303941488265991211 1.9458651542663574219 1.9130197763442993164 2.3196506500244140625 2.1915905475616455078 2.3850972652435302734 2.4554033279418945313 2.25377655029296875 2.5605061054229736328 2.6500279903411865234 2.4849011898040771484 3.5088832378387451172 3.1686441898345947266 3.4401810169219970703 3.3167543411254882813 3.436931610107421875 3.6121017932891845703 3.6458699703216552734 3.6116533279418945313 3.5729398727416992188 3.7098412513732910156 3.3569381237030029297 3.4006984233856201172 3.4037351608276367188 3.2889561653137207031 2.8118555545806884766 3.0572748184204101563 3.2761616706848144531 2.8147149085998535156 2.5218491554260253906 2.6383852958679199219 2.1153295040130615234 1.8959782123565673828 1.4793565273284912109 1.7037626504898071289 1.1329283714294433594 2.2158718109130859375 1.8923169374465942383 2.0060050487518310547 1.4408895969390869141 1.8554742336273193359 1.7260979413986206055 1.9531639814376831055 1.4358614683151245117 1.1685615777969360352 1 1 1.0915973186492919922 1 1 1 1 
1.9344260692596435547 2.1673367023468017578 2.6441760063171386719 2.1790404319763183594 2.3023955821990966797 2.2694921493530273438 2.4675188064575195313 2.6946570873260498047 2.5619564056396484375 2.8155419826507568359 3.4786572456359863281 3.9479267597198486328 2.1681728363037109375 2.586620330810546875 2.1403861045837402344 3.5014545917510986328 3.1349589824676513672 3.3086638450622558594 2.3642344474792480469 2.3066756725311279297 2.3428347110748291016 2.0199029445648193359 1.479180455207824707 1.485570073127746582 1.5523142814636230469 1.3745608329772949219 1.6329827308654785156 1.3672815561294555664 2.4715070724487304688 1.5977340936660766602 1.5789825916290283203 1.4805775880813598633 1.8507406711578369141 1.5072982311248779297 1.5841848850250244141 2.2423872947692871094 2.0994577407836914063 3.5162987709045410156 2.2694020271301269531 1.7016751766204833984 2.1932353973388671875 1.3358145952224731445 1.368086695671081543 1.5845577716827392578 1.4672629833221435547 1.5600491762161254883 1.2783092260360717773 1.2072025537490844727 1.1550381183624267578 1.7460063695907592773 1.744091033935546875 1.6283515691757202148 1.7177008390426635742 1.500830531120300293 1.6514694690704345703 1.5254796743392944336 1.4356809854507446289 1.2699249982833862305 1 1 1 1 1 1 1.0431331396102905273 1.0705828666687011719 1 1 1.0440644025802612305 1.2706114053726196289 1 1.0554016828536987305 1.2951748371124267578 1.4978036880493164063 1.1744039058685302734 1.2247827053070068359 1.4392668008804321289 1.6833138465881347656 1.5671137571334838867 1.8336672782897949219 1.9389525651931762695 1.6856837272644042969 1.8160965442657470703 1.5181941986083984375 1.9217727184295654297 1.376341700553894043 1.3681676387786865234 1.3368649482727050781 1.4171838760375976563 1.3547685146331787109 1.1314388513565063477 1 1 1 1 1 1 1.3167427778244018555 1.5201402902603149414 1.1241393089294433594 1.4192416667938232422 1.8998724222183227539 1.646770477294921875 1.4178346395492553711 1.8843420743942260742 1.3795461654663085938 1.3915815353393554688 1.0811967849731445313 1.4697220325469970703 1.526250004768371582 1.5223696231842041016 1.2378602027893066406 1.0910896062850952148 1 1.134198307991027832 1.1404526233673095703 1.1527065038681030273 1.1356269121170043945 1.4141043424606323242 1.6788829565048217773 1.3703942298889160156 1.5681660175323486328 1.7738901376724243164 2.0227863788604736328 2.2347006797790527344 2.4848542213439941406 2.3958351612091064453 2.4802846908569335938 2.4451403617858886719 2.0319700241088867188 2.2237007617950439453 2.1658740043640136719 1.9742871522903442383 1.8336975574493408203 1.9463145732879638672 1.9402333498001098633 2.3331010341644287109 2.3077979087829589844 2.1695754528045654297 2.3826470375061035156 2.0542745590209960938 2.2212345600128173828 2.9246227741241455078 2.7253000736236572266 2.8694400787353515625 2.9480900764465332031 2.3162784576416015625 2.1576476097106933594 2.0480320453643798828 1.8644689321517944336 1.9370357990264892578 2.4469637870788574219 2.0552935600280761719 2.3648993968963623047 2.2258977890014648438 2.6418850421905517578 2.209423065185546875 2.8742160797119140625 2.6604373455047607422 3.5171647071838378906 3.3645782470703125 3.7429840564727783203 3.9811728000640869141 4.2449040412902832031 3.9982976913452148438 4.0516033172607421875 4.0545706748962402344 3.9812369346618652344 3.7001035213470458984 3.4990177154541015625 3.6277499198913574219 3.07891082763671875 3.2735228538513183594 3.461833953857421875 3.0220923423767089844 4.12882232666015625 3.1928927898406982422 2.5703251361846923828 2.5884840488433837891 2.3509926795959472656 2.1317844390869140625 1.5521429777145385742 1.9693950414657592773 1.6983209848403930664 2.0724389553070068359 1.9908835887908935547 1.873633265495300293 1.7140537500381469727 1.4590789079666137695 1.7446554899215698242 1.5325353145599365234 1.5111200809478759766 1.1713886260986328125 1.1078021526336669922 1.1913541555404663086 1.2016761302947998047 1.0378134250640869141 1.0237684249877929688 1 1 
2.3890976905822753906 4.0743174552917480469 2.9263596534729003906 2.3744173049926757813 2.3874545097351074219 2.6254193782806396484 2.5458526611328125 2.7547404766082763672 2.9670178890228271484 2.1880862712860107422 1.9665346145629882813 3.5291953086853027344 3.4822750091552734375 2.5405623912811279297 3.05136871337890625 4.4519972801208496094 4.6261119842529296875 3.4782528877258300781 2.126216888427734375 2.2605783939361572266 2.2749724388122558594 2.0734026432037353516 1.7126036882400512695 1.8264367580413818359 1.7100174427032470703 1.0381448268890380859 1.5694545507431030273 1 2.3660979270935058594 4.0184040069580078125 3.6738951206207275391 1.6585943698883056641 1.8377016782760620117 1.6077928543090820313 2.0041940212249755859 1.8474904298782348633 1.9910151958465576172 3.0919680595397949219 3.3218863010406494141 2.3350951671600341797 1.8179144859313964844 1.4809855222702026367 1.4615163803100585938 1.5438121557235717773 1.7803244590759277344 1.6424468755722045898 1.2893846035003662109 1.2473849058151245117 1.2545846700668334961 1.671053767204284668 1.5525068044662475586 1.5317195653915405273 1.9053901433944702148 1.5393718481063842773 1.9169074296951293945 1.694001317024230957 1.8315340280532836914 1.5407598018646240234 1.2478709220886230469 1.0005646944046020508 1 1 1 1 1 1.2546017169952392578 1.1418292522430419922 1.2505071163177490234 1.1251102685928344727 1 1.0054798126220703125 1.2797936201095581055 1.3012347221374511719 1.387148737907409668 1.5700020790100097656 1.7184351682662963867 1.6763362884521484375 1.5496945381164550781 1.6542253494262695313 2.0334887504577636719 2.107898712158203125 1.8710885047912597656 1.6835881471633911133 1.7281382083892822266 1.62799072265625 1.7595413923263549805 1.2347733974456787109 1.4497536420822143555 1.3009026050567626953 1.2587331533432006836 1.3084867000579833984 1 1 1.1121400594711303711 1.1366102695465087891 1.1994690895080566406 1.2281353473663330078 1.2028814554214477539 1.5711376667022705078 1.4845242500305175781 1.4110382795333862305 1.8554842472076416016 2.0629031658172607422 1.795159459114074707 1.3968818187713623047 1.1797767877578735352 1.2113339900970458984 1.1766010522842407227 1.3844062089920043945 1.1620018482208251953 1.2184809446334838867 1.5096721649169921875 1 1.032511591911315918 1 1.0715894699096679688 1.0842649936676025391 1.0050082206726074219 1.153939366340637207 1.4347155094146728516 1.7904492616653442383 1.7920604944229125977 1.7691620588302612305 1.7805140018463134766 2.0024189949035644531 2.4763042926788330078 2.6276845932006835938 2.3753693103790283203 2.0983145236968994141 2.1803150177001953125 2.31268310546875 2.2388956546783447266 1.8015586137771606445 2.1288762092590332031 2.0211327075958251953 2.1857254505157470703 2.4895672798156738281 2.4109609127044677734 2.5381989479064941406 2.6044735908508300781 2.4371333122253417969 2.3696656227111816406 2.8884716033935546875 2.7285203933715820313 2.7114682197570800781 2.6925745010375976563 2.2499508857727050781 2.0138478279113769531 1.8311179876327514648 2.0077657699584960938 2.3316326141357421875 2.6800084114074707031 2.2976891994476318359 2.3014180660247802734 2.337249755859375 2.5515842437744140625 2.4065949916839599609 2.6275515556335449219 2.5990424156188964844 3.0707323551177978516 3.2360689640045166016 3.2663030624389648438 3.9390437602996826172 3.7472708225250244141 3.7874789237976074219 3.8872246742248535156 3.9007279872894287109 4.2305593490600585938 3.3689866065979003906 3.1446349620819091797 3.1818501949310302734 3.2819814682006835938 3.4942708015441894531 4.4579644203186035156 3.7832438945770263672 3.1659748554229736328 3.4253964424133300781 2.7646024227142333984 2.6548371315002441406 2.6930291652679443359 2.3173503875732421875 2.4640653133392333984 1.8601241111755371094 1.8845064640045166016 1.7789140939712524414 1.7214100360870361328 1.8596750497817993164 1.0595855712890625 1.7014889717102050781 1.513224482536315918 1.3871374130249023438 1.1485604047775268555 1.4757980108261108398 1 1.0369986295700073242 1.2400152683258056641 1.0741814374923706055 1.0912324190139770508 1.1527920961380004883 1 
2.9447245597839355469 2.8673207759857177734 2.272022247314453125 5.3482885360717773438 2.8036012649536132813 2.1944580078125 2.8369231224060058594 3.5323872566223144531 2.8311445713043212891 2.2882115840911865234 2.6697371006011962891 2.5330095291137695313 3.3988318443298339844 2.4142968654632568359 2.3153855800628662109 3.1779084205627441406 3.8415584564208984375 4.9179477691650390625 3.4873633384704589844 2.4149153232574462891 2.7194538116455078125 2.3328142166137695313 1.7262508869171142578 1.9320617914199829102 2.0682313442230224609 2.3247535228729248047 1.8435033559799194336 1.2279759645462036133 1.5656609535217285156 1.5157742500305175781 3.0579807758331298828 3.5204074382781982422 2.2912762165069580078 1.6453261375427246094 1.7634375095367431641 3.4806551933288574219 2.3123998641967773438 2.7595303058624267578 2.0930097103118896484 1.6852773427963256836 2.1265351772308349609 1.6449655294418334961 1.6963260173797607422 1.7974327802658081055 1.6477756500244140625 1.4086554050445556641 1.4378423690795898438 1.3900272846221923828 1.6914310455322265625 1.6786303520202636719 1.6611256599426269531 1.7670519351959228516 1.5645802021026611328 1.6885970830917358398 1.7941898107528686523 1.8480749130249023438 1.4194016456604003906 1.6591901779174804688 1.3904343843460083008 1.0054028034210205078 1.0112406015396118164 1 1.3488492965698242188 1 1 1.0926097631454467773 1 1 1 1.2149032354354858398 1.3246378898620605469 1.0768860578536987305 1.1715974807739257813 1.5478769540786743164 1.1824930906295776367 1.4768249988555908203 1.5646080970764160156 1.7203986644744873047 1.7296079397201538086 1.7734088897705078125 1.7329623699188232422 1.7851765155792236328 1.8889222145080566406 1.7230803966522216797 1.6426899433135986328 1.591374516487121582 1.4510869979858398438 1.2456774711608886719 1.6255548000335693359 1.3068149089813232422 1.3508026599884033203 1 1.0480521917343139648 1 1.2896064519882202148 1.0949231386184692383 1.3724524974822998047 1.2157496213912963867 1.4215270280838012695 1.6798069477081298828 1.6891689300537109375 1.3783807754516601563 2.1106121540069580078 1.5820461511611938477 1.4702053070068359375 1.0742809772491455078 1.194675445556640625 1.4605981111526489258 1.3128769397735595703 1.1767519712448120117 1.0450197458267211914 1.0339343547821044922 1.0617235898971557617 1.0551493167877197266 1.1197997331619262695 1.1334655284881591797 1.2205119132995605469 1.1131927967071533203 1.0757592916488647461 1.3208167552947998047 1.6059302091598510742 1.8187124729156494141 1.6915262937545776367 1.8133995532989501953 2.0493056774139404297 2.0798609256744384766 2.3929605484008789063 2.0801613330841064453 1.861752629280090332 1.9728641510009765625 2.1777994632720947266 1.8598378896713256836 2.1068029403686523438 2.0420145988464355469 2.1926109790802001953 2.6277856826782226563 2.5946018695831298828 1.9999192953109741211 2.2144346237182617188 2.4228661060333251953 2.97502899169921875 2.5241329669952392578 2.4460682868957519531 2.8575489521026611328 2.1429083347320556641 2.6444263458251953125 2.3684489727020263672 1.8109987974166870117 2.4305641651153564453 2.0116658210754394531 1.7214441299438476563 2.05548858642578125 2.256267547607421875 2.3471245765686035156 2.6825160980224609375 2.9387111663818359375 2.6756846904754638672 3.0955228805541992188 2.6621377468109130859 2.4819281101226806641 3.1430764198303222656 3.2070143222808837891 3.7970299720764160156 3.9200594425201416016 4.4464077949523925781 4.3336110115051269531 3.3328504562377929688 3.8889486789703369141 3.8395016193389892578 3.4685311317443847656 3.3606257438659667969 3.3241240978240966797 3.7965910434722900391 3.3831434249877929688 2.9758977890014648438 3.0739188194274902344 2.9487547874450683594 3.1617777347564697266 2.9570956230163574219 2.4726221561431884766 2.3369464874267578125 2.2262272834777832031 2.231121063232421875 1.9275372028350830078 1.915617823600769043 2.0289735794067382813 1.6971073150634765625 1.6871744394302368164 1.9360530376434326172 1.8298927545547485352 1.1035251617431640625 1.0913530588150024414 1 1 1 1 1.2273253202438354492 1.3036983013153076172 1.3986482620239257813 1 
2.8313035964965820313 3.1530108451843261719 3.0520145893096923828 4.2250118255615234375 2.618526458740234375 2.5276021957397460938 2.8379151821136474609 2.6418983936309814453 2.9234442710876464844 3.6459436416625976563 2.4500553607940673828 2.7054877281188964844 3.2526097297668457031 2.7276480197906494141 2.4185197353363037109 4.4460048675537109375 2.7957577705383300781 2.8688986301422119141 2.4988772869110107422 2.8260862827301025391 2.1447558403015136719 2.1299047470092773438 2.2227709293365478516 2.0551581382751464844 3.5806474685668945313 2.1807920932769775391 1.9650640487670898438 1.6214864253997802734 2.1573882102966308594 1.5286428928375244141 2.0189821720123291016 1.5396536588668823242 2.8382306098937988281 2.7121284008026123047 3.0488190650939941406 3.2606911659240722656 4.4535841941833496094 2.5933506488800048828 2.6040973663330078125 2.2279813289642333984 1.9779562950134277344 2.3063094615936279297 1.8886954784393310547 1.6929992437362670898 1.8511459827423095703 1.3599396944046020508 2.0205059051513671875 1.6722190380096435547 1.8978800773620605469 2.1259100437164306641 2.2195377349853515625 1.4783570766448974609 1.3641793727874755859 1.4905536174774169922 1.8214700222015380859 1.6824053525924682617 1.6293135881423950195 1.5948215723037719727 1.3783757686614990234 1 1.1850987672805786133 1.2530547380447387695 1.2222640514373779297 1.1968938112258911133 1 1 1.0212285518646240234 1.0330349206924438477 1.048450469970703125 1.214676976203918457 1.0996874570846557617 1.3142492771148681641 1.1591333150863647461 1.2329852581024169922 1.4425978660583496094 1.4651597738265991211 1.4335180521011352539 1.5230090618133544922 1.4410880804061889648 1.513750910758972168 1.4061071872711181641 1.6259328126907348633 1.5975284576416015625 1.6406292915344238281 1.516184687614440918 1.684680938720703125 1.5055072307586669922 1.4512709379196166992 1.3282182216644287109 1 1.0072056055068969727 1.3540885448455810547 1.2388421297073364258 1.1506664752960205078 1.3001332283020019531 1.1036214828491210938 1.1179900169372558594 1.2847369909286499023 1.1732048988342285156 1.1928396224975585938 1.6473662853240966797 1.3701019287109375 1.8134902715682983398 1.6097013950347900391 1.6135869026184082031 1.1573123931884765625 1.2489522695541381836 1.6491743326187133789 1.7586461305618286133 1.6993831396102905273 1.3320889472961425781 1.0958522558212280273 1.1009423732757568359 1.1059054136276245117 1.2725608348846435547 1.3005895614624023438 1.2880312204360961914 1.9273216724395751953 1.5708830356597900391 1.0991768836975097656 1.5830535888671875 1.7435997724533081055 1.9154094457626342773 1.8430587053298950195 1.8361307382583618164 2.2541255950927734375 2.0940594673156738281 2.1103801727294921875 2.6917507648468017578 2.4219896793365478516 2.0876491069793701172 2.1595222949981689453 2.9514980316162109375 2.2081584930419921875 2.2782340049743652344 2.2848083972930908203 2.4964363574981689453 2.3608295917510986328 2.1850950717926025391 1.9101874828338623047 2.6406998634338378906 2.5051715373992919922 2.3142564296722412109 2.4360454082489013672 2.1762857437133789063 2.3869175910949707031 2.3771100044250488281 2.6855351924896240234 2.2982409000396728516 2.2187755107879638672 2.1657626628875732422 2.6635351181030273438 2.4668073654174804688 2.5636842250823974609 3.1011335849761962891 2.5485336780548095703 2.9932780265808105469 2.6897366046905517578 3.2316389083862304688 2.5685799121856689453 2.6281735897064208984 2.9426479339599609375 4.2666635513305664063 3.8034803867340087891 3.6261842250823974609 3.8771092891693115234 3.3314082622528076172 2.7375829219818115234 3.1299235820770263672 3.9035799503326416016 3.262691497802734375 2.8968303203582763672 3.0773603916168212891 2.974140167236328125 2.9887807369232177734 3.1872246265411376953 2.9710912704467773438 2.8483533859252929688 2.6933970451354980469 2.499385833740234375 2.5254209041595458984 1.6793763637542724609 1.6042217016220092773 1.5489015579223632813 1.4928340911865234375 1.0105020999908447266 1.6060976982116699219 1.7605291604995727539 1.9608335494995117188 1.5941922664642333984 1.1516110897064208984 1.0018845796585083008 1 1 1.0301494598388671875 1 1.0607078075408935547 1 1.1376738548278808594 1 
2.5467932224273681641 4.6486558914184570313 3.3714270591735839844 2.9173359870910644531 4.3802523612976074219 3.0742661952972412109 3.2933452129364013672 3.3496966361999511719 2.7646455764770507813 3.2468252182006835938 3.3425500392913818359 2.1890394687652587891 2.2061803340911865234 2.0444595813751220703 2.6119024753570556641 2.5354108810424804688 4.267063140869140625 2.2219321727752685547 2.6336982250213623047 3.2540495395660400391 2.1390361785888671875 2.099643707275390625 3.0927426815032958984 3.2728793621063232422 2.9669656753540039063 2.6502556800842285156 2.1280920505523681641 2.4556841850280761719 2.2424542903900146484 2.3797535896301269531 1.7631372213363647461 1.8224058151245117188 1.9747399091720581055 1.6556012630462646484 2.1378941535949707031 2.665927886962890625 3.1464293003082275391 4.2404713630676269531 2.2120423316955566406 2.3010416030883789063 3.1217181682586669922 1.8994052410125732422 2.1722993850708007813 1.9800913333892822266 1.773163914680480957 2.0795412063598632813 1.9875696897506713867 1.8394572734832763672 2.3791606426239013672 2.4558718204498291016 2.5546586513519287109 1.8619627952575683594 1.6461259126663208008 1.4959958791732788086 1.4912710189819335938 1.5899690389633178711 1.5175763368606567383 1.3474395275115966797 1.5530581474304199219 1.2040945291519165039 1.0005584955215454102 1.1630170345306396484 1.133623957633972168 1.331601262092590332 1 1.0798789262771606445 1.0490717887878417969 1 1.0672740936279296875 1 1.2224441766738891602 1.1504709720611572266 1.1708732843399047852 1.3626086711883544922 1.2408148050308227539 1.5247073173522949219 1.6624786853790283203 1.348388671875 1.608605504035949707 1.5795003175735473633 1.5271521806716918945 1.5823471546173095703 1.6663957834243774414 1.4115067720413208008 1.6261663436889648438 1.4826109409332275391 1.5282182693481445313 1.9702829122543334961 1.8728083372116088867 1.2873953580856323242 1.09696197509765625 1 1.2947760820388793945 1 1.21082305908203125 1.0588819980621337891 1.1125043630599975586 1.0533612966537475586 1 1 1.2968318462371826172 1.2616673707962036133 1.6108057498931884766 1.100291132926940918 1.47150421142578125 1.4392484426498413086 1.4455559253692626953 1.5518919229507446289 1.745232701301574707 1.635386347770690918 1.5263943672180175781 1.6655015945434570313 1.0676344633102416992 1.4709470272064208984 1.2793629169464111328 1 1.5825194120407104492 2.0015780925750732422 1.8757817745208740234 1.6471880674362182617 1.6959509849548339844 1.8339415788650512695 2.3440015316009521484 1.9809631109237670898 1.602213740348815918 1.4043139219284057617 1.9471709728240966797 1.7454243898391723633 2.0247821807861328125 2.3482034206390380859 2.8406646251678466797 2.6444284915924072266 2.4946448802947998047 2.3221380710601806641 2.3115105628967285156 2.3173303604125976563 2.3177511692047119141 2.3080511093139648438 2.7132182121276855469 2.1924316883087158203 2.4406316280364990234 2.2499308586120605469 2.0567543506622314453 2.3438341617584228516 2.3164358139038085938 2.2790157794952392578 2.0965161323547363281 2.4469590187072753906 2.3520312309265136719 2.0554146766662597656 2.7376649379730224609 2.5231623649597167969 2.7262952327728271484 2.6893508434295654297 2.6054282188415527344 2.4966788291931152344 2.4448444843292236328 2.5880742073059082031 3.3082811832427978516 2.6645824909210205078 3.0765411853790283203 3.8192088603973388672 3.9502620697021484375 4.1325659751892089844 3.3436260223388671875 3.4864356517791748047 3.6714630126953125 2.2582097053527832031 2.7218525409698486328 3.1023812294006347656 3.0796027183532714844 2.8041062355041503906 2.7299005985260009766 2.6109681129455566406 3.2364368438720703125 3.0311319828033447266 3.4695141315460205078 3.27416229248046875 3.0900003910064697266 2.5392172336578369141 2.6280851364135742188 1.5573945045471191406 1.4259366989135742188 1.346449732780456543 1.2993797063827514648 1.0643769502639770508 1.5006335973739624023 1.4672791957855224609 1.5178884267807006836 1.1841903924942016602 1.1863694190979003906 1 1.1423408985137939453 1.023693084716796875 1.1459572315216064453 1 1.0280652046203613281 1 1.0773482322692871094 1 
2.9633498191833496094 4.4733214378356933594 2.8687701225280761719 3.7460269927978515625 3.3944451808929443359 2.9226331710815429688 3.3672933578491210938 2.9087498188018798828 2.8706984519958496094 2.4460909366607666016 2.3963322639465332031 3.0358500480651855469 2.2035520076751708984 2.7116227149963378906 2.5649695396423339844 2.6476306915283203125 2.7135860919952392578 2.3013637065887451172 2.2019128799438476563 2.3460042476654052734 2.5799555778503417969 2.6255295276641845703 2.9102077484130859375 2.9644353389739990234 2.7659342288970947266 3.0565733909606933594 2.8525769710540771484 2.3560187816619873047 2.4931504726409912109 2.8689236640930175781 2.0062329769134521484 3.2290830612182617188 2.7214751243591308594 1.8631960153579711914 2.2638831138610839844 2.2882196903228759766 2.1474480628967285156 1.8948702812194824219 1.8162333965301513672 2.047206878662109375 1.9003046751022338867 2.3760769367218017578 2.4512598514556884766 2.1288390159606933594 2.0538249015808105469 1.9596728086471557617 2.0754497051239013672 2.0745863914489746094 2.6584506034851074219 2.6109721660614013672 2.2867157459259033203 1.7282359600067138672 1.6393594741821289063 1.5535061359405517578 1.2937288284301757813 1.3253563642501831055 1.0781080722808837891 1.0011494159698486328 1.1296525001525878906 1.6054048538208007813 1.4000571966171264648 1.5637918710708618164 1.4599649906158447266 1.2312574386596679688 1.2376588582992553711 1 1.4126342535018920898 1.3072594404220581055 1.0662174224853515625 1.1252366304397583008 1.459561467170715332 1.0688757896423339844 1.3437589406967163086 1.3140755891799926758 1.2677690982818603516 1.3517993688583374023 1.7034195661544799805 1.3265142440795898438 1.6917935609817504883 1.5746326446533203125 1.572392582893371582 1.7410976886749267578 1.6450986862182617188 1.5585306882858276367 1.4213030338287353516 1.5639096498489379883 1.6679208278656005859 1.9549839496612548828 1.3959425687789916992 1.2755123376846313477 1.1556209325790405273 1.1139631271362304688 1.3288382291793823242 1 1.2062989473342895508 1.1056805849075317383 1.3481203317642211914 1.0402046442031860352 1.0169851779937744141 1 1.1880849599838256836 1.2232557535171508789 1.3999323844909667969 1.498476862907409668 1.5680346488952636719 1.589848637580871582 1.73282623291015625 1.6232655048370361328 1.8496488332748413086 1.6439137458801269531 1.665635228157043457 1.7590031623840332031 1.534564971923828125 1.6710660457611083984 1.2765011787414550781 1.4054729938507080078 1.7133650779724121094 2.0288486480712890625 1.9278050661087036133 1.6522274017333984375 1.6745282411575317383 1.6191514730453491211 2.2785861492156982422 1.9967453479766845703 1.8630193471908569336 1.97332763671875 2.2609424591064453125 2.3020448684692382813 2.1837823390960693359 2.8211760520935058594 3.1424956321716308594 2.8556215763092041016 3.15810394287109375 2.4559493064880371094 2.3196799755096435547 2.2774286270141601563 3.2501585483551025391 2.9899795055389404297 2.816009521484375 2.2553279399871826172 2.0793430805206298828 2.176151275634765625 2.3129816055297851563 2.5906455516815185547 2.6234912872314453125 2.2972719669342041016 2.0158765316009521484 2.2695147991180419922 2.1500360965728759766 2.3749175071716308594 2.5863730907440185547 2.4328386783599853516 2.440021514892578125 2.27494049072265625 2.5268702507019042969 2.6694073677062988281 2.3840482234954833984 2.7025380134582519531 3.1928691864013671875 3.1566236019134521484 2.7421679496765136719 2.9152724742889404297 3.2955355644226074219 3.2456164360046386719 3.7703194618225097656 3.6942179203033447266 3.1840994358062744141 2.8692638874053955078 4.3053259849548339844 2.9729816913604736328 2.47196197509765625 2.4498066902160644531 2.7809092998504638672 2.7787756919860839844 2.9263467788696289063 3.4770426750183105469 3.3951010704040527344 3.5067317485809326172 3.2515261173248291016 2.7268090248107910156 2.2877898216247558594 1.6527229547500610352 1.67502593994140625 1.1801086664199829102 1.2374962568283081055 1.0874202251434326172 1.1469941139221191406 1.0064891576766967773 1.4767481088638305664 1.4542632102966308594 1.1879142522811889648 1.0336109399795532227 1.059813380241394043 1 1 1 1 1 1 1.0689439773559570313 
2.5285513401031494141 2.886432647705078125 3.0556609630584716797 3.345935821533203125 3.7117338180541992188 3.8491377830505371094 3.1737711429595947266 3.1192378997802734375 3.1870527267456054688 3.0333602428436279297 2.6154429912567138672 2.6372780799865722656 2.4825930595397949219 3.5908091068267822266 3.2968881130218505859 2.5875742435455322266 2.9311730861663818359 2.2454726696014404297 1.7835689783096313477 2.1287136077880859375 2.5176022052764892578 2.5292706489562988281 2.7186737060546875 3.0643868446350097656 2.8849074840545654297 2.8343875408172607422 2.6170711517333984375 2.8727924823760986328 2.3391311168670654297 2.6290500164031982422 2.4943056106567382813 3.0889823436737060547 3.7527949810028076172 2.1849570274353027344 2.0461182594299316406 4.816204071044921875 2.2803044319152832031 3.3139584064483642578 2.4842736721038818359 2.5446479320526123047 2.0067946910858154297 2.6317548751831054688 2.5443212985992431641 2.4986433982849121094 2.3734588623046875 2.0792176723480224609 1.8102487325668334961 2.0571484565734863281 2.474094390869140625 2.2694792747497558594 2.2441155910491943359 1.3772268295288085938 1.9173603057861328125 1.7321085929870605469 1.4183238744735717773 1.518986821174621582 1.056729435920715332 1.0685151815414428711 1.1805963516235351563 1.1940003633499145508 1.6169964075088500977 1.3927479982376098633 1.5426224470138549805 1.0428440570831298828 1.1845853328704833984 1.2554100751876831055 1.3161052465438842773 1.5504386425018310547 1.1545407772064208984 1.327056884765625 1.5537137985229492188 1.4682734012603759766 1.4538252353668212891 1.369603276252746582 1.0928300619125366211 1.2490015029907226563 1.399279475212097168 1.2779166698455810547 1.3871073722839355469 1.573174595832824707 1.394008636474609375 1.4891934394836425781 1.4860082864761352539 1.7811257839202880859 1.4781224727630615234 1.6106581687927246094 1.6287341117858886719 1.3894182443618774414 1.0713717937469482422 1.2497797012329101563 1 1.0140219926834106445 1.2743325233459472656 1 1 1.1223338842391967773 1.1521511077880859375 1.0977575778961181641 1.1021591424942016602 1.4171749353408813477 1.3784129619598388672 1.5778540372848510742 1.5037815570831298828 1.2080411911010742188 1.5451560020446777344 1.9999364614486694336 2.0468542575836181641 2.0018322467803955078 1.8437378406524658203 1.503574371337890625 1.6083203554153442383 1.7558965682983398438 2.1180434226989746094 1.9243720769882202148 1.6440056562423706055 1.8154928684234619141 1.6657075881958007813 1.5379642248153686523 2.0433182716369628906 1.8764685392379760742 1.6742861270904541016 1.786275029182434082 1.9761053323745727539 1.9114533662796020508 2.0389254093170166016 2.1071698665618896484 2.396915435791015625 2.5123815536499023438 2.4549210071563720703 2.6458990573883056641 3.037708282470703125 3.2738244533538818359 2.8737559318542480469 2.9832539558410644531 3.1907870769500732422 2.3604006767272949219 3.0873186588287353516 3.2359018325805664063 3.4270751476287841797 2.8638100624084472656 2.6768341064453125 2.6137816905975341797 2.4608786106109619141 2.8020894527435302734 1.869458317756652832 2.3293302059173583984 2.2223863601684570313 2.2536721229553222656 2.4198467731475830078 1.9558629989624023438 2.5239255428314208984 2.3226351737976074219 2.2686340808868408203 2.1606292724609375 2.3657326698303222656 2.2567234039306640625 2.3254046440124511719 3.0806138515472412109 3.0929255485534667969 2.8533947467803955078 3.6210091114044189453 2.9719531536102294922 3.3214128017425537109 4.6764593124389648438 3.4280607700347900391 3.2138698101043701172 3.0974221229553222656 3.0249335765838623047 3.79962158203125 3.1656134128570556641 2.65781402587890625 2.5775141716003417969 2.4748828411102294922 2.4704341888427734375 3.2100787162780761719 3.4851105213165283203 3.3003532886505126953 3.2827925682067871094 3.4198966026306152344 2.8196859359741210938 2.4079921245574951172 1.6901998519897460938 1.9699976444244384766 1.6664234399795532227 1.0885457992553710938 1.0908766984939575195 1.0953619480133056641 1.1134433746337890625 1.4192806482315063477 1.14221954345703125 1.0597922801971435547 1.0885097980499267578 1.1803034543991088867 1 1.0033996105194091797 1 1.047097325325012207 1 1.2354221343994140625 1 
2.2898797988891601563 3.0406863689422607422 2.701496124267578125 2.8823442459106445313 3.257900238037109375 3.5251936912536621094 3.9323096275329589844 3.1889226436614990234 3.4840917587280273438 3.4977691173553466797 2.9502680301666259766 3.0872197151184082031 2.8420283794403076172 2.3751990795135498047 2.1380462646484375 2.1855626106262207031 2.6221058368682861328 2.2055482864379882813 2.2689547538757324219 2.1098146438598632813 3.5233917236328125 2.6918208599090576172 2.7875077724456787109 3.0303139686584472656 2.979736328125 2.4113049507141113281 2.6919181346893310547 2.4633057117462158203 3.3170535564422607422 1.9591559171676635742 2.3246109485626220703 2.0823948383331298828 2.6214797496795654297 2.2929682731628417969 2.4928832054138183594 1.8945133686065673828 2.0073692798614501953 2.1254949569702148438 1.9987074136734008789 2.4275486469268798828 2.8737530708312988281 2.3734962940216064453 2.6189486980438232422 2.8391017913818359375 2.7698221206665039063 1.9059647321701049805 2.2489309310913085938 1.8440241813659667969 2.0081632137298583984 1.8099079132080078125 1.9621771574020385742 2.0599012374877929688 1.9881405830383300781 1.8281013965606689453 1.5416034460067749023 1.3348845243453979492 1.2833168506622314453 1 1.6806719303131103516 1.4733829498291015625 1.3749731779098510742 1.5387135744094848633 1.3073480129241943359 1.2453005313873291016 1.6397706270217895508 1.5153309106826782227 1.5909492969512939453 1.3345583677291870117 1.2833217382431030273 1.2042778730392456055 1.3666042089462280273 1.4358667135238647461 1.165477752685546875 1.2299050092697143555 1 1 1.3738439083099365234 1.1844298839569091797 1.3015921115875244141 1.2122604846954345703 1.5695154666900634766 1.377480626106262207 1.3237452507019042969 1.6856745481491088867 1.5883461236953735352 1.6353857517242431641 1.5448418855667114258 1.592633366584777832 1 1.0221760272979736328 1 1.0402615070343017578 1.1220420598983764648 1.0427770614624023438 1.0087012052536010742 1 1.1222994327545166016 1.1494284868240356445 1.3866988420486450195 1.4175766706466674805 1.9990264177322387695 1.7080122232437133789 1.6872504949569702148 1.9794141054153442383 2.0303375720977783203 1.698233485221862793 1.8634649515151977539 2.0048184394836425781 2.2121682167053222656 1.7331700325012207031 1.5915101766586303711 2.1420052051544189453 2.3298270702362060547 1.7394040822982788086 1.6663364171981811523 1.6853147745132446289 1.5296723842620849609 1.5147644281387329102 1.3563934564590454102 1.8743853569030761719 1.7608201503753662109 1.8130251169204711914 2.0857946872711181641 2.0968205928802490234 1.7719795703887939453 2.2135901451110839844 1.9797708988189697266 2.4056954383850097656 2.6461682319641113281 2.3573772907257080078 2.8047633171081542969 3.0553457736968994141 3.1506645679473876953 3.0338332653045654297 3.4503755569458007813 2.9537220001220703125 3.14496612548828125 3.2493426799774169922 2.7476038932800292969 3.1253290176391601563 2.8841717243194580078 2.4482829570770263672 2.8373594284057617188 2.6459329128265380859 2.6581823825836181641 2.511005401611328125 2.3611962795257568359 2.4714460372924804688 2.6745314598083496094 2.3805315494537353516 2.7159698009490966797 2.5176384449005126953 2.6579937934875488281 2.6775078773498535156 2.3253362178802490234 2.2866036891937255859 2.5314421653747558594 2.4931943416595458984 2.6211996078491210938 2.6890623569488525391 2.9213190078735351563 3.1674900054931640625 3.2597737312316894531 3.6525869369506835938 3.9149367809295654297 3.3379819393157958984 3.3006722927093505859 3.3837125301361083984 3.2837731838226318359 2.8242580890655517578 2.6489923000335693359 2.1554918289184570313 2.7312080860137939453 2.6554841995239257813 2.9709320068359375 3.1263401508331298828 3.3771114349365234375 3.1401131153106689453 3.0599400997161865234 3.5055544376373291016 2.5035297870635986328 2.4163944721221923828 1.6782361268997192383 1.6089875698089599609 1.2117620706558227539 1.1335619688034057617 1 1.1059043407440185547 1.1520850658416748047 1 1.2614516019821166992 1.1407374143600463867 1 1.0902251005172729492 1.2533093690872192383 1.0412716865539550781 1.1168409585952758789 1 1 1 
2.8831436634063720703 2.7329335212707519531 2.8041515350341796875 3.0145699977874755859 3.2385489940643310547 3.5501167774200439453 3.7109515666961669922 3.3933689594268798828 3.6407253742218017578 3.4058821201324462891 3.1120824813842773438 2.4218659400939941406 2.9461073875427246094 2.7557504177093505859 2.5709459781646728516 2.4930086135864257813 3.1822419166564941406 2.5538656711578369141 2.4583876132965087891 2.4374527931213378906 3.0154814720153808594 2.8713328838348388672 3.1812617778778076172 3.0967159271240234375 3.1241650581359863281 2.7912032604217529297 2.9955115318298339844 2.5873844623565673828 2.2252485752105712891 2.8945207595825195313 2.4428699016571044922 2.0860931873321533203 2.3845894336700439453 2.1838688850402832031 1.8261655569076538086 1.9271306991577148438 2.0577025413513183594 2.6332097053527832031 2.0948598384857177734 2.2818808555603027344 2.3143906593322753906 2.3921358585357666016 3.0065035820007324219 2.5755617618560791016 1.9908226728439331055 1.9795868396759033203 2.0161330699920654297 2.0454990863800048828 1.6433928012847900391 1.7519942522048950195 1.9228403568267822266 1.7973424196243286133 1.8264914751052856445 1.6742312908172607422 1.4954631328582763672 1.6493223905563354492 1.4887371063232421875 1.6938230991363525391 1.794144749641418457 1.9016997814178466797 1.5378305912017822266 1.499776005744934082 1.6764261722564697266 1.4944401979446411133 1.4291923046112060547 1.4844015836715698242 1.610518336296081543 1.3271298408508300781 1 1 1.3026200532913208008 1.296231389045715332 1.220894932746887207 1 1.1197823286056518555 1.0905209779739379883 1 1.2786678075790405273 1.2839107513427734375 1.3164297342300415039 1.427689671516418457 1.3341405391693115234 1.3157827854156494141 1.3935543298721313477 1.2855756282806396484 1.4030854701995849609 1.2217493057250976563 1.3476018905639648438 1.5609352588653564453 1.1768207550048828125 1.423092961311340332 1.213845372200012207 1.0869029760360717773 1.1553086042404174805 1.0537952184677124023 1.1932206153869628906 1.2444921731948852539 1.3864350318908691406 1.551434636116027832 1.2072862386703491211 1.7717398405075073242 1.7664278745651245117 1.9273172616958618164 2.0575504302978515625 2.08994293212890625 1.6610276699066162109 1.6633927822113037109 1.6670118570327758789 1.5379453897476196289 1.2191951274871826172 1.9448839426040649414 2.2910974025726318359 2.2015058994293212891 2.1867976188659667969 1.8764529228210449219 1.5755331516265869141 1.3792542219161987305 1.540037989616394043 1.8248019218444824219 1.8358048200607299805 2.0150616168975830078 1.4645391702651977539 1.9772944450378417969 1.5488182306289672852 1.5512769222259521484 1.3026256561279296875 1.5907199382781982422 2.2824351787567138672 2.2301907539367675781 2.64227294921875 2.5001149177551269531 2.7727231979370117188 2.8357713222503662109 3.2220792770385742188 3.1651887893676757813 2.7218065261840820313 3.4093987941741943359 3.3701024055480957031 3.0610241889953613281 3.2638113498687744141 3.0274610519409179688 2.6993517875671386719 2.2622523307800292969 2.8351624011993408203 2.4743964672088623047 2.1235308647155761719 2.8495824337005615234 2.9221515655517578125 2.8113811016082763672 3.0210256576538085938 2.5732181072235107422 2.2943890094757080078 2.5486664772033691406 2.6471424102783203125 2.6002435684204101563 2.4909942150115966797 1.9153479337692260742 2.57321929931640625 2.7388143539428710938 2.4126551151275634766 2.7552409172058105469 2.9653565883636474609 3.3707606792449951172 3.4815208911895751953 3.4241931438446044922 3.6492412090301513672 3.1515347957611083984 2.7159237861633300781 2.5960986614227294922 2.8147461414337158203 2.5761315822601318359 2.1723074913024902344 2.1029837131500244141 2.6062924861907958984 2.578121185302734375 3.3118646144866943359 3.3537464141845703125 3.588104248046875 3.4003627300262451172 3.0612301826477050781 2.6234309673309326172 2.4102075099945068359 2.1752607822418212891 1.6683036088943481445 1.3044162988662719727 1 1 1.0777593851089477539 1.0610680580139160156 1.1470727920532226563 1.1607525348663330078 1.0018441677093505859 1.4629876613616943359 1.4554992914199829102 1.1853687763214111328 1 1 1 1 1 
2.4307577610015869141 3.3080604076385498047 2.9395174980163574219 3.305011749267578125 3.3916616439819335938 3.9192066192626953125 3.7756712436676025391 4.3516139984130859375 3.9545254707336425781 3.5281324386596679688 2.8178503513336181641 3.0268218517303466797 3.7733786106109619141 2.7598702907562255859 3.0627264976501464844 3.3729393482208251953 2.5633156299591064453 2.5291390419006347656 2.6386587619781494141 2.3529040813446044922 2.9218964576721191406 3.1947460174560546875 3.0346095561981201172 3.2040181159973144531 2.6711909770965576172 2.8104779720306396484 2.6561951637268066406 2.6171731948852539063 2.5533251762390136719 2.8455400466918945313 2.5012271404266357422 2.3538801670074462891 2.6586775779724121094 2.6239674091339111328 2.3152973651885986328 2.2453136444091796875 2.3586332798004150391 2.5123496055603027344 2.6340951919555664063 1.9649803638458251953 2.7118587493896484375 2.7098212242126464844 2.9482061862945556641 2.2792975902557373047 2.3979463577270507813 2.0957007408142089844 1.8382494449615478516 1.997646331787109375 2.0841245651245117188 1.9971201419830322266 1.828160405158996582 1.7199417352676391602 1.3863469362258911133 1.6956702470779418945 1.4707517623901367188 1.6841577291488647461 1.9994057416915893555 1.8883134126663208008 1.9308035373687744141 1.7849136590957641602 1.7833610773086547852 1.5690820217132568359 1.859103083610534668 1.6938016414642333984 1.6279463768005371094 1.4424904584884643555 1.4170652627944946289 1.2316434383392333984 1.1744254827499389648 1.1431869268417358398 1.1903710365295410156 1.0808063745498657227 1 1 1.1775542497634887695 1.0512968301773071289 1.02219390869140625 1.111024022102355957 1.2240846157073974609 1.1992408037185668945 1.2475457191467285156 1.2738687992095947266 1.4021320343017578125 1.2102924585342407227 1.0830061435699462891 1.4135899543762207031 1.4635908603668212891 1.5053632259368896484 1.2896903753280639648 1 1.2960180044174194336 1.1698691844940185547 1.3084664344787597656 1.5039428472518920898 1.5371214151382446289 1.5758191347122192383 1.1030285358428955078 1.4583333730697631836 1.59558868408203125 1.8434123992919921875 1.5382943153381347656 1.5650856494903564453 1.8861461877822875977 1.8508040904998779297 1.7712032794952392578 1.9163413047790527344 1.7110502719879150391 1.6376260519027709961 2.1762132644653320313 1.8524215221405029297 1.9993654489517211914 1.7431216239929199219 2.0486605167388916016 2.330455780029296875 2.1707525253295898438 2.0686976909637451172 1.8679691553115844727 1.8011913299560546875 2.0931813716888427734 1.7130532264709472656 1.7135025262832641602 1.8429280519485473633 1.8884572982788085938 1.8504316806793212891 1.4493422508239746094 1.3247231245040893555 1.6348592042922973633 2.1644356250762939453 2.6197872161865234375 2.1824841499328613281 2.5932259559631347656 2.5864419937133789063 2.5703785419464111328 2.7088015079498291016 2.6202981472015380859 3.3255257606506347656 2.9991440773010253906 3.30693817138671875 3.3644297122955322266 2.9099712371826171875 3.3916509151458740234 3.0782728195190429688 2.5166480541229248047 2.5734858512878417969 2.3764822483062744141 2.5721096992492675781 3.1386160850524902344 2.9969508647918701172 2.8307054042816162109 2.5372292995452880859 2.7906193733215332031 2.986965179443359375 2.4042038917541503906 2.3260834217071533203 2.5176355838775634766 2.3123066425323486328 2.2713620662689208984 2.5034363269805908203 2.2270598411560058594 2.5969231128692626953 2.1489343643188476563 3.3833839893341064453 2.930744171142578125 3.55071258544921875 3.6212568283081054688 3.7960231304168701172 3.1583628654479980469 3.1582794189453125 2.8091204166412353516 2.5529346466064453125 3.1514976024627685547 2.0459797382354736328 2.3924224376678466797 2.5884978771209716797 3.075237274169921875 3.5808854103088378906 3.6488270759582519531 3.5167829990386962891 3.3278303146362304688 2.74069976806640625 2.4108726978302001953 2.3531699180603027344 1.8646578788757324219 1.9957060813903808594 1.2023165225982666016 1.5133606195449829102 1.0647705793380737305 1.0791928768157958984 1.1302268505096435547 1.5642870664596557617 1.6432824134826660156 1 1.3917138576507568359 1.0171118974685668945 1.1310408115386962891 1 1.0253822803497314453 1 1 1.0142807960510253906 
2.5617201328277587891 2.6603207588195800781 2.9018888473510742188 2.8480341434478759766 3.3424279689788818359 3.5649902820587158203 3.2479350566864013672 3.9531569480895996094 3.3182730674743652344 3.8316338062286376953 3.2715647220611572266 3.435749053955078125 3.4774429798126220703 3.2053368091583251953 2.7445414066314697266 2.6248304843902587891 2.603023529052734375 2.0190868377685546875 2.2721548080444335938 2.1894586086273193359 2.6945846080780029297 3.1184241771697998047 3.398616790771484375 2.9079554080963134766 3.09006500244140625 2.9892506599426269531 2.3822500705718994141 2.3484745025634765625 2.9567000865936279297 2.1528429985046386719 1.9477630853652954102 1.8903048038482666016 1.9038672447204589844 2.1228549480438232422 2.2567942142486572266 2.3155560493469238281 1.7835586071014404297 2.1808154582977294922 1.8630226850509643555 2.2461674213409423828 2.6286859512329101563 2.6830604076385498047 2.6510257720947265625 2.9378333091735839844 2.7339985370635986328 2.2180042266845703125 2.3114690780639648438 1.9917447566986083984 1.9744781255722045898 1.6068991422653198242 1.5360165834426879883 1.5829814672470092773 1.6387499570846557617 1.6564325094223022461 1.8164722919464111328 1.6229672431945800781 1.5859807729721069336 2.08065032958984375 2.1653819084167480469 2.2043635845184326172 2.4417867660522460938 2.1971008777618408203 1.4715722799301147461 1.5793958902359008789 1.6404577493667602539 1.254153132438659668 1.9680821895599365234 1.6093430519104003906 1.1924982070922851563 1.315812230110168457 1.5420688390731811523 1.2798913717269897461 1.1740629673004150391 1.1050117015838623047 1.1248319149017333984 1.1958019733428955078 1.2380297183990478516 1.106449127197265625 1.1377953290939331055 1.1657277345657348633 1.3473392724990844727 1.1101702451705932617 1 1.0008666515350341797 1.1532486677169799805 1.3516964912414550781 1.2703436613082885742 1.4832817316055297852 1.2255165576934814453 1.0447559356689453125 1.5299385786056518555 1.6222600936889648438 1.6555954217910766602 1.7371331453323364258 1.483341217041015625 1.5298165082931518555 1.2600121498107910156 1.2522473335266113281 1.6122184991836547852 2.0215616226196289063 1.7035570144653320313 1.5532600879669189453 1.9854222536087036133 2.1450083255767822266 1.9890445470809936523 1.8129523992538452148 1.9150390625 2.1566147804260253906 1.5889260768890380859 1.845406651496887207 1.7660496234893798828 2.2673413753509521484 2.2337055206298828125 2.0606944561004638672 2.0595066547393798828 2.0661437511444091797 2.0114421844482421875 2.0515799522399902344 1.9525620937347412109 1.7808105945587158203 1.9374971389770507813 2.1423919200897216797 1.951418757438659668 1.562548518180847168 1.5936572551727294922 1.3299028873443603516 1.7619477510452270508 2.0366175174713134766 2.0382585525512695313 2.1586434841156005859 2.1126825809478759766 2.4763994216918945313 2.6291315555572509766 3.1392445564270019531 2.9526052474975585938 3.3435301780700683594 3.2044646739959716797 3.2170741558074951172 3.0699889659881591797 3.2488312721252441406 2.8942866325378417969 2.8167617321014404297 2.7845745086669921875 2.6949527263641357422 2.4274320602416992188 2.9149179458618164063 2.653499603271484375 3.0416598320007324219 3.1596937179565429688 2.8628945350646972656 2.7582187652587890625 2.3339266777038574219 2.4243378639221191406 2.1524338722229003906 2.1297380924224853516 1.9180520772933959961 2.1353957653045654297 1.9435715675354003906 2.0633423328399658203 2.2575681209564208984 1.9344252347946166992 2.5839426517486572266 2.5886311531066894531 3.1466753482818603516 5.6896700859069824219 3.7585761547088623047 3.6017856597900390625 2.6993241310119628906 2.5066690444946289063 2.62070465087890625 2.9554522037506103516 2.6485736370086669922 3.7696771621704101563 3.8397846221923828125 4.0447697639465332031 4.5854115486145019531 3.6661496162414550781 3.2890233993530273438 3.9708311557769775391 3.3751285076141357422 2.2284803390502929688 2.6095259189605712891 2.1585774421691894531 1.7498496770858764648 1.6637473106384277344 1.3899390697479248047 1.1223658323287963867 1.132778167724609375 1 1.0423076152801513672 1.1796895265579223633 1.2176477909088134766 1.0734543800354003906 1.0343375205993652344 1 1 1 1 1 1 
2.3558928966522216797 2.8223543167114257813 2.7946269512176513672 3.2518770694732666016 2.9403584003448486328 3.1632432937622070313 3.5001215934753417969 3.3786828517913818359 3.1356217861175537109 3.3212144374847412109 3.2142121791839599609 3.2286865711212158203 3.4693319797515869141 3.1385860443115234375 3.0095889568328857422 2.6726870536804199219 2.6518640518188476563 2.9040224552154541016 2.6821515560150146484 2.5421111583709716797 2.8469996452331542969 3.1831803321838378906 2.9535133838653564453 2.7802889347076416016 2.9945878982543945313 2.9959845542907714844 2.2144761085510253906 2.2640335559844970703 2.1929178237915039063 2.0848774909973144531 1.688408970832824707 2.1122562885284423828 2.1003856658935546875 2.0472235679626464844 1.7890193462371826172 2.0967323780059814453 1.5665930509567260742 1.9160716533660888672 1.9388550519943237305 2.276760101318359375 2.3873615264892578125 2.8807899951934814453 3.0788958072662353516 3.0676305294036865234 2.7759706974029541016 2.5634865760803222656 2.4327497482299804688 2.1311216354370117188 2.4111986160278320313 1.6216647624969482422 1.4853330850601196289 1.624125361442565918 1.5654963254928588867 1.5805152654647827148 1.7595864534378051758 1.6756570339202880859 2.1456897258758544922 2.1881570816040039063 2.0976433753967285156 2.1377761363983154297 2.6397101879119873047 2.5497899055480957031 2.5599985122680664063 1.8282920122146606445 2.4945800304412841797 2.2372584342956542969 2.0921425819396972656 2.3906970024108886719 1.691105961799621582 1.3312758207321166992 1.5228154659271240234 1.5265119075775146484 1.6731897592544555664 1.3076560497283935547 1.1997859477996826172 1.4022047519683837891 1.2631840705871582031 1.4811270236968994141 1 1.3439315557479858398 1.3023778200149536133 1.0810964107513427734 1 1 1.2402927875518798828 1.1818321943283081055 1.3030965328216552734 1.4953633546829223633 1.4174360036849975586 1.6652315855026245117 1.4938883781433105469 1.5823360681533813477 1.1446996927261352539 1.7747738361358642578 1.8335878849029541016 1.6231418848037719727 1.8002282381057739258 1.6816419363021850586 1.7035231590270996094 1.9696650505065917969 1.5996483564376831055 1.7796428203582763672 1.7159237861633300781 1.8032420873641967773 1.5918105840682983398 2.2165465354919433594 1.9607722759246826172 1.9982221126556396484 1.9062126874923706055 2.1052777767181396484 1.9681247472763061523 2.1227338314056396484 2.0348927974700927734 2.343471527099609375 2.4866480827331542969 1.7052392959594726563 2.10678863525390625 2.095752716064453125 2.3524293899536132813 1.9745261669158935547 2.1674714088439941406 1.8173568248748779297 1.655352473258972168 1.609473109245300293 1.412936091423034668 1.3582400083541870117 1.4751751422882080078 1.8511444330215454102 2.0163412094116210938 1.8425912857055664063 1.8785555362701416016 2.7819848060607910156 3.1957118511199951172 3.2338473796844482422 2.2901747226715087891 2.5304062366485595703 2.6708176136016845703 3.4507703781127929688 2.9432723522186279297 3.2062258720397949219 3.1720798015594482422 3.3544447422027587891 2.9056153297424316406 2.6919655799865722656 2.6321911811828613281 2.2208025455474853516 2.9809451103210449219 2.497684478759765625 2.4244008064270019531 2.586788177490234375 2.5890510082244873047 2.0512173175811767578 2.4904749393463134766 2.5465185642242431641 2.6260714530944824219 1.9753042459487915039 2.1443359851837158203 2.3371136188507080078 2.235805511474609375 2.6220834255218505859 2.1111855506896972656 2.1399919986724853516 2.2991874217987060547 3.4408650398254394531 3.7454416751861572266 3.2761197090148925781 3.0271031856536865234 3.7544906139373779297 3.1249520778656005859 2.9016108512878417969 3.2031419277191162109 2.9311101436614990234 3.2292776107788085938 4.4878339767456054688 3.4853198528289794922 4.2069144248962402344 3.7535836696624755859 4.1146330833435058594 3.6240296363830566406 3.1097970008850097656 2.8598613739013671875 2.8060863018035888672 2.7057099342346191406 2.3544242382049560547 1.8059264421463012695 1.5217418670654296875 1.2830735445022583008 1.1079487800598144531 1.2635649442672729492 1.1890481710433959961 1.2365393638610839844 1 1 1.0389788150787353516 1 1 1.1190987825393676758 1.015978693962097168 1 1 
2.5060532093048095703 2.2390291690826416016 2.9094903469085693359 3.2602829933166503906 2.7802910804748535156 3.0730268955230712891 2.9268200397491455078 3.3486981391906738281 3.1288211345672607422 3.6009194850921630859 3.5106909275054931641 3.3943667411804199219 3.4376709461212158203 3.2058670520782470703 3.4309279918670654297 3.1646745204925537109 3.0683522224426269531 2.7544312477111816406 3.2135798931121826172 3.0097601413726806641 2.9493584632873535156 2.7235865592956542969 3.0075473785400390625 2.5436046123504638672 2.5062344074249267578 2.2941095829010009766 2.285373687744140625 1.7151890993118286133 2.0692682266235351563 2.2512900829315185547 1.9178531169891357422 1.959552764892578125 1.4529653787612915039 1.6010929346084594727 1.3331509828567504883 2.2352252006530761719 1.737704157829284668 1.3555614948272705078 1.5979520082473754883 2.5433025360107421875 2.2181422710418701172 3.1202852725982666016 2.9467489719390869141 2.9489490985870361328 2.5854713916778564453 2.5141363143920898438 2.1534779071807861328 1.932486414909362793 1.7357850074768066406 2.0101199150085449219 1.9462957382202148438 2.1203238964080810547 2.2038643360137939453 2.1390004158020019531 1.9227592945098876953 1.9670228958129882813 2.1702787876129150391 2.5228130817413330078 2.4871017932891845703 2.8985574245452880859 2.2972662448883056641 2.6994676589965820313 2.3232042789459228516 2.087245941162109375 2.0528607368469238281 2.3507106304168701172 2.0662741661071777344 2.1041939258575439453 1.6900469064712524414 1.4656507968902587891 1.7244776487350463867 1.7245588302612304688 2.0606617927551269531 1.9838923215866088867 1.4015020132064819336 1.3838047981262207031 1.2998374700546264648 1.5658559799194335938 1.3353935480117797852 1.2438470125198364258 1.2360802888870239258 1 1 1.2575387954711914063 1.3899195194244384766 1.4321254491806030273 1.3975962400436401367 1.4491593837738037109 1.5902951955795288086 1.9541354179382324219 2.3562791347503662109 2.2272884845733642578 1.4861114025115966797 1.8333859443664550781 1.88843536376953125 2.2765626907348632813 2.5459349155426025391 2.1739165782928466797 1.7691701650619506836 2.0046567916870117188 2.2970252037048339844 2.0639193058013916016 1.9961963891983032227 2.2382743358612060547 1.8808380365371704102 2.446533203125 2.030155181884765625 2.0454697608947753906 2.0535669326782226563 1.8558274507522583008 1.9828534126281738281 2.0805511474609375 2.3493752479553222656 2.4164500236511230469 2.2328238487243652344 2.0317339897155761719 2.5088953971862792969 2.0486531257629394531 1.8759382963180541992 1.9133375883102416992 1.486806035041809082 1.4887336492538452148 1.3133972883224487305 1.4405189752578735352 1.5591121912002563477 1.5951645374298095703 1.6722737550735473633 1.8398016691207885742 1.8261396884918212891 1.80771636962890625 1.8227049112319946289 2.2334964275360107422 2.2688190937042236328 2.1336400508880615234 2.5401935577392578125 2.5321462154388427734 2.4154767990112304688 3.1681334972381591797 2.7770011425018310547 2.9381709098815917969 3.1190617084503173828 2.8689811229705810547 2.7384665012359619141 2.4734716415405273438 2.6562068462371826172 2.7191143035888671875 2.8408331871032714844 3.4177641868591308594 2.7066082954406738281 2.7593379020690917969 2.5984249114990234375 2.4871146678924560547 2.3895413875579833984 1.9991267919540405273 2.0188403129577636719 2.6518099308013916016 2.3758330345153808594 2.4221038818359375 2.1605136394500732422 2.0137963294982910156 2.7119066715240478516 2.9377026557922363281 2.4964287281036376953 3.4754321575164794922 3.7272100448608398438 3.6525409221649169922 3.7991056442260742188 3.4671380519866943359 2.9905178546905517578 2.6274592876434326172 3.5304329395294189453 2.9268324375152587891 3.8735876083374023438 3.6266427040100097656 3.5979545116424560547 5.0141010284423828125 3.6777112483978271484 3.9792706966400146484 3.5677654743194580078 3.4359281063079833984 3.4554653167724609375 3.6067690849304199219 2.7099137306213378906 2.3588840961456298828 2.031742095947265625 2.1740694046020507813 1.5081248283386230469 1.5315186977386474609 1.0323848724365234375 1.0312168598175048828 1.0052508115768432617 1.1518573760986328125 1.0801665782928466797 1.0437356233596801758 1 1 1 1 1 1.0658676624298095703 
2.4771316051483154297 2.6787941455841064453 2.5861964225769042969 2.6844193935394287109 2.5947539806365966797 2.4513523578643798828 2.5101747512817382813 3.0352799892425537109 2.7254843711853027344 3.2011141777038574219 3.452526092529296875 3.5599973201751708984 3.2359843254089355469 3.7342922687530517578 3.4759557247161865234 3.4368383884429931641 3.3597273826599121094 2.8257997035980224609 2.8363435268402099609 2.9686076641082763672 2.7918114662170410156 2.7899804115295410156 2.8671612739562988281 2.2935440540313720703 2.4137759208679199219 2.3229777812957763672 2.1009914875030517578 1.9786604642868041992 1.7867484092712402344 1.8142468929290771484 1.7315032482147216797 1.5191195011138916016 1.1954102516174316406 1.4629864692687988281 1.3764164447784423828 1.6310901641845703125 2.2691256999969482422 1.8052873611450195313 1.5978684425354003906 2.1345765590667724609 2.2066006660461425781 2.5621988773345947266 2.49268341064453125 2.6275963783264160156 2.3933212757110595703 2.3661811351776123047 2.0930776596069335938 2.1601459980010986328 1.9840104579925537109 1.6924194097518920898 1.7941635847091674805 2.3170032501220703125 2.254093170166015625 2.4136803150177001953 2.6356744766235351563 2.7588205337524414063 2.5180103778839111328 2.2473835945129394531 2.6274340152740478516 2.6211223602294921875 3.2185757160186767578 2.4413194656372070313 2.2219319343566894531 2.0278322696685791016 2.0668957233428955078 2.364444732666015625 2.0313706398010253906 1.58731842041015625 1.7625091075897216797 1.6111016273498535156 1.9408693313598632813 2.1644010543823242188 2.0113193988800048828 2.0155816078186035156 1.5997430086135864258 1.8402143716812133789 1.8160346746444702148 1.587291717529296875 1.2554306983947753906 1.6217334270477294922 1.5782961845397949219 1.6262320280075073242 1.7354167699813842773 2.0592179298400878906 1.8496992588043212891 1.7108119726181030273 1.7102586030960083008 1.9366564750671386719 2.1326680183410644531 2.3423302173614501953 2.4132540225982666016 2.1129426956176757813 2.2456848621368408203 2.3864085674285888672 2.4759116172790527344 2.6740009784698486328 2.4290385246276855469 1.9621703624725341797 2.9212589263916015625 2.6256461143493652344 2.5668165683746337891 2.4791421890258789063 2.585201263427734375 2.6686148643493652344 2.9601743221282958984 2.4472198486328125 2.4633512496948242188 2.5364165306091308594 2.8639891147613525391 2.95015716552734375 2.4839348793029785156 2.5273468494415283203 2.3647325038909912109 2.4362428188323974609 2.1931810379028320313 2.2043907642364501953 2.0421552658081054688 2.0625984668731689453 1.7890609502792358398 1.5323760509490966797 1.3322031497955322266 1.1472516059875488281 1.3329461812973022461 1.7574492692947387695 1.5518754720687866211 1.7054080963134765625 1.7593672275543212891 1.6861965656280517578 1.8560806512832641602 1.816883087158203125 1.8100233078002929688 2.2118570804595947266 2.8858053684234619141 2.5375103950500488281 2.3821203708648681641 2.50359344482421875 2.7824609279632568359 2.8870279788970947266 2.9722831249237060547 2.7154872417449951172 3.0827574729919433594 2.5367307662963867188 2.6445715427398681641 2.5818910598754882813 1.9823064804077148438 2.2083752155303955078 2.6258482933044433594 2.9874620437622070313 2.7578489780426025391 2.4115481376647949219 2.5138382911682128906 2.6947846412658691406 2.2690570354461669922 2.3906891345977783203 2.5759370326995849609 2.4187643527984619141 2.5903253555297851563 2.4473454952239990234 1.8385654687881469727 2.5543434619903564453 2.3885319232940673828 2.4224400520324707031 2.5387957096099853516 2.6978323459625244141 2.9703404903411865234 3.7490100860595703125 3.433624267578125 3.0133159160614013672 3.2265841960906982422 3.0427992343902587891 3.0200018882751464844 3.3365702629089355469 3.6156389713287353516 3.7038772106170654297 3.6026475429534912109 3.6055059432983398438 3.4692282676696777344 3.8339021205902099609 3.5303976535797119141 3.6232931613922119141 3.4928786754608154297 3.2859385013580322266 2.6745359897613525391 2.4285838603973388672 2.0415644645690917969 2.0864930152893066406 1.9044299125671386719 1.3313632011413574219 1.3858298063278198242 1.2743040323257446289 1 1.1415613889694213867 1.0325559377670288086 1.0585781335830688477 1 1.0692663192749023438 1 1 1.2602422237396240234 1 
2.3815550804138183594 3.0851042270660400391 2.0166168212890625 2.7973854541778564453 2.3156890869140625 3.5436749458312988281 2.2654259204864501953 2.7215874195098876953 3.0695950984954833984 3.3584942817687988281 3.0192046165466308594 3.4301111698150634766 3.5002200603485107422 3.5747003555297851563 3.6640119552612304688 3.59918975830078125 3.5283586978912353516 2.6925947666168212891 2.5762732028961181641 2.7653663158416748047 2.3891232013702392578 2.8905084133148193359 2.4749822616577148438 2.4737687110900878906 2.4950213432312011719 2.5431864261627197266 1.9634978771209716797 1.7321863174438476563 1.9789488315582275391 1.7977972030639648438 1.8103258609771728516 1.4987674951553344727 1.6232364177703857422 1.3989264965057373047 1.6093474626541137695 1.7129111289978027344 1.8420351743698120117 1.9011392593383789063 1.5162692070007324219 1.3436777591705322266 1.6623784303665161133 2.9486374855041503906 2.9427182674407958984 2.5002050399780273438 2.3496856689453125 2.183807373046875 2.4018704891204833984 2.0256552696228027344 1.7944463491439819336 1.7746105194091796875 1.9756617546081542969 2.2919101715087890625 2.3788890838623046875 2.4139513969421386719 2.8118011951446533203 2.9807364940643310547 3.0699150562286376953 2.6891276836395263672 2.6112959384918212891 2.8819899559020996094 2.6415312290191650391 2.3306212425231933594 2.2625095844268798828 2.3781528472900390625 1.6762365102767944336 1.6859130859375 2.0578472614288330078 2.1091566085815429688 2.5788581371307373047 2.5389003753662109375 2.2872817516326904297 2.3987889289855957031 2.5255506038665771484 2.5793950557708740234 2.0772347450256347656 2.4435770511627197266 2.3368725776672363281 2.2172853946685791016 2.0696420669555664063 2.2366428375244140625 1.8113849163055419922 1.8282045125961303711 2.0198547840118408203 2.1950654983520507813 2.1431374549865722656 2.2924802303314208984 1.9293333292007446289 1.9988738298416137695 1.5892856121063232422 2.0013654232025146484 2.8716211318969726563 2.7089338302612304688 2.4355738162994384766 3.23197174072265625 3.0095841884613037109 3.0967214107513427734 3.3092591762542724609 3.2879960536956787109 3.1786935329437255859 2.9925158023834228516 2.8863570690155029297 2.2350068092346191406 2.6989691257476806641 2.7258214950561523438 2.9233727455139160156 3.4083342552185058594 3.0159804821014404297 3.0260310173034667969 2.5539846420288085938 2.7507989406585693359 3.1074287891387939453 2.9429931640625 2.5507819652557373047 2.2344295978546142578 2.1211414337158203125 1.6347703933715820313 1.7473635673522949219 1.7080020904541015625 2.4693942070007324219 1.2234643697738647461 1.7061901092529296875 1.6383842229843139648 1.4699522256851196289 1.7451736927032470703 1.4502507448196411133 1.7061878442764282227 1.6464349031448364258 1.7064592838287353516 1.8831766843795776367 1.8736687898635864258 1.8026713132858276367 2.0923511981964111328 2.0468461513519287109 2.5840547084808349609 2.9709432125091552734 2.6794042587280273438 2.8235127925872802734 2.9652602672576904297 2.8602566719055175781 3.1622843742370605469 2.9483456611633300781 1.9867082834243774414 2.3314290046691894531 2.0558886528015136719 2.5809223651885986328 2.6432626247406005859 2.1574661731719970703 2.8693418502807617188 2.6761953830718994141 2.8357460498809814453 2.7140300273895263672 2.6595895290374755859 2.6258590221405029297 2.5480659008026123047 2.3040003776550292969 1.8789278268814086914 2.4573802947998046875 2.3834183216094970703 2.3538811206817626953 2.1552720069885253906 2.0762801170349121094 2.5440897941589355469 2.4510157108306884766 2.9014708995819091797 3.0897352695465087891 3.2097125053405761719 3.3764443397521972656 3.2252600193023681641 3.3123362064361572266 2.9378569126129150391 2.7157497406005859375 3.2296328544616699219 3.4840493202209472656 4.0471372604370117188 3.8846945762634277344 3.8465452194213867188 3.8187177181243896484 3.6878428459167480469 3.4761373996734619141 3.4173042774200439453 2.9427118301391601563 2.7218286991119384766 2.7826967239379882813 2.6314918994903564453 1.8905950784683227539 2.1033797264099121094 2.185550689697265625 1.7895308732986450195 1.7351741790771484375 1.4878430366516113281 1.0782631635665893555 1.0211302042007446289 1.1047281026840209961 1 1.0397013425827026367 1 1.0511023998260498047 1 1.0676347017288208008 1 
3.0467255115509033203 2.295269012451171875 2.4210484027862548828 2.4314379692077636719 2.0463173389434814453 2.6801977157592773438 2.8427779674530029297 2.9871282577514648438 2.6586925983428955078 3.0156054496765136719 3.3229951858520507813 3.1504690647125244141 3.49642181396484375 3.4605028629302978516 3.4760265350341796875 3.4246504306793212891 3.5488562583923339844 3.10125732421875 2.6472208499908447266 2.40704345703125 2.2347424030303955078 2.0812032222747802734 2.1044116020202636719 2.2846081256866455078 2.396404266357421875 2.1856470108032226563 2.3759381771087646484 1.7820760011672973633 1.5727180242538452148 1.5523343086242675781 1.8619142770767211914 1.6701672077178955078 1.3031756877899169922 2.1029086112976074219 1.5122570991516113281 1.4929562807083129883 1.8804970979690551758 2.0712668895721435547 1.4016597270965576172 1.4360331296920776367 1.4040045738220214844 1.566287994384765625 1.921094059944152832 2.0821771621704101563 2.1463084220886230469 2.2622601985931396484 2.0854449272155761719 1.9224388599395751953 2.0343828201293945313 2.634822845458984375 2.4541814327239990234 2.8458735942840576172 2.6163668632507324219 2.6242597103118896484 2.7985825538635253906 3.1724505424499511719 3.0085556507110595703 2.4114985466003417969 2.5853791236877441406 2.5361673831939697266 2.5155544281005859375 2.4110352993011474609 2.4962556362152099609 2.0037288665771484375 1.9747087955474853516 2.6595091819763183594 2.180515289306640625 2.4462745189666748047 2.4386997222900390625 2.8374497890472412109 2.9670360088348388672 2.9854886531829833984 2.6095528602600097656 3.0820243358612060547 2.9667804241180419922 2.8493859767913818359 2.3439319133758544922 2.6051118373870849609 2.2038927078247070313 2.4072146415710449219 2.2005822658538818359 2.2977955341339111328 2.3073694705963134766 2.2773680686950683594 2.4837687015533447266 2.6240079402923583984 2.6179602146148681641 2.6020770072937011719 2.1861517429351806641 2.7375442981719970703 3.0975301265716552734 2.9424548149108886719 3.0563657283782958984 3.0771350860595703125 3.4644210338592529297 3.5078361034393310547 3.5505847930908203125 3.7953672409057617188 3.4250192642211914063 3.4075314998626708984 3.0731830596923828125 2.6443552970886230469 3.2492341995239257813 2.90126800537109375 3.2840301990509033203 2.8749194145202636719 3.0020346641540527344 2.6277923583984375 2.8106017112731933594 2.965122222900390625 3.2469141483306884766 3.2334139347076416016 2.6414682865142822266 2.3593764305114746094 1.9335005283355712891 1.3837777376174926758 1.4293972253799438477 1.5120148658752441406 1.7245534658432006836 1.5039637088775634766 1.6943553686141967773 1.7156212329864501953 1.6126991510391235352 1.7145284414291381836 1.5842609405517578125 1.4499154090881347656 1.4897185564041137695 1.2550464868545532227 1.4720263481140136719 1.5864225625991821289 1.641717076301574707 1.6160018444061279297 1.6963437795639038086 2.6878437995910644531 2.6318504810333251953 2.9318394660949707031 2.8861479759216308594 2.680912017822265625 2.8174755573272705078 2.6207652091979980469 2.2821190357208251953 2.2018837928771972656 2.4219586849212646484 2.3089900016784667969 2.2969479560852050781 2.0615749359130859375 2.4174146652221679688 2.7221970558166503906 2.5964338779449462891 2.7332789897918701172 2.7655084133148193359 2.2182941436767578125 2.1557607650756835938 2.5797557830810546875 1.5625249147415161133 1.5161595344543457031 1.6260198354721069336 2.0039844512939453125 2.1145687103271484375 2.2862906455993652344 2.2472591400146484375 3.0970709323883056641 2.3841173648834228516 2.9058117866516113281 2.9222242832183837891 3.3822615146636962891 3.0448260307312011719 3.1726663112640380859 2.9356908798217773438 2.8840820789337158203 2.9343626499176025391 2.9531002044677734375 2.9789757728576660156 3.9797387123107910156 3.9095969200134277344 3.4048986434936523438 3.7116799354553222656 3.4730250835418701172 3.4395558834075927734 2.7491180896759033203 3.0984544754028320313 2.8076543807983398438 3.0963079929351806641 2.8460004329681396484 2.6914606094360351563 2.0564649105072021484 2.1879489421844482422 2.0013275146484375 2.4857618808746337891 2.0662426948547363281 1.1869554519653320313 1.7402685880661010742 1.2106474637985229492 1.080433964729309082 1 1.058429718017578125 1 1.0241034030914306641 1 1.1379209756851196289 
3.8036658763885498047 3.3337867259979248047 2.2452936172485351563 2.4221217632293701172 2.6253228187561035156 2.9967510700225830078 2.8290967941284179688 3.1196169853210449219 3.2746911048889160156 3.3786966800689697266 3.4004452228546142578 3.2934606075286865234 3.2981181144714355469 3.0348312854766845703 2.9741039276123046875 3.1629455089569091797 3.1801085472106933594 2.5811030864715576172 2.4356844425201416016 1.9385112524032592773 2.4289927482604980469 1.696446537971496582 1.9082427024841308594 1.9303389787673950195 1.8974024057388305664 1.9136288166046142578 2.2599189281463623047 2.2817935943603515625 2.5885286331176757813 1.9100973606109619141 1.8700807094573974609 1.5750046968460083008 1.4286301136016845703 1.6410300731658935547 1.5370699167251586914 1.6588571071624755859 2.0326247215270996094 1.6063227653503417969 1.4343006610870361328 1.4684519767761230469 1.6453994512557983398 1.6708729267120361328 2.103893280029296875 2.4024653434753417969 1.9942339658737182617 2.0395498275756835938 2.4258644580841064453 2.6955122947692871094 2.3726837635040283203 2.4737648963928222656 2.7001330852508544922 3.1695532798767089844 2.8261628150939941406 2.9239706993103027344 2.8310694694519042969 2.7614359855651855469 2.5572612285614013672 2.3999013900756835938 2.4433383941650390625 2.8386659622192382813 2.7585692405700683594 2.6098172664642333984 2.3278791904449462891 1.9416621923446655273 2.6762521266937255859 2.1424303054809570313 2.8133985996246337891 2.5460579395294189453 2.494266510009765625 2.6366574764251708984 2.7815251350402832031 2.6740207672119140625 2.6297647953033447266 2.9770233631134033203 3.4652724266052246094 3.1641225814819335938 3.1512994766235351563 2.8228242397308349609 2.5308382511138916016 2.5467736721038818359 2.3993706703186035156 2.5471794605255126953 3.0404360294342041016 2.7853410243988037109 3.0289103984832763672 2.7599551677703857422 2.7034115791320800781 2.6242411136627197266 2.5782113075256347656 3.3631975650787353516 3.3105671405792236328 3.8656122684478759766 3.3860273361206054688 3.0876240730285644531 3.5279748439788818359 3.6983971595764160156 4.1758222579956054688 3.6024851799011230469 3.5765860080718994141 3.4764928817749023438 3.381755828857421875 3.2539169788360595703 3.3152484893798828125 2.6891057491302490234 3.5388295650482177734 3.5607991218566894531 2.9148683547973632813 2.7735898494720458984 2.9364953041076660156 3.0426099300384521484 3.9033977985382080078 3.7300288677215576172 2.7664325237274169922 2.2349717617034912109 1.8102996349334716797 1.6744821071624755859 2.1222958564758300781 1.8812760114669799805 1.7721011638641357422 1.6271547079086303711 1.7266402244567871094 1.8480539321899414063 1.3095667362213134766 1.4425172805786132813 1.344647526741027832 1.2319482564926147461 1.1062046289443969727 1.0859643220901489258 1.5810583829879760742 1.3848936557769775391 1.5147929191589355469 1.8259168863296508789 1.979806065559387207 2.2125248908996582031 2.9986584186553955078 3.1608369350433349609 3.4398982524871826172 2.6000151634216308594 2.4219264984130859375 2.5933899879455566406 2.0610914230346679688 1.9940447807312011719 1.9592924118041992188 1.8911638259887695313 2.0738413333892822266 2.396209716796875 2.0038022994995117188 1.9305109977722167969 2.2056689262390136719 2.2815225124359130859 2.3506906032562255859 1.8323050737380981445 1.628367304801940918 1.9949380159378051758 1.6663382053375244141 1.7095880508422851563 1.7910195589065551758 2.2318856716156005859 2.4469761848449707031 2.0196592807769775391 2.2346632480621337891 2.2191522121429443359 2.5797152519226074219 2.8218288421630859375 3.3144361972808837891 3.2316901683807373047 3.1568756103515625 2.8875713348388671875 2.6400258541107177734 2.4235830307006835938 2.7845857143402099609 2.5461494922637939453 3.1083042621612548828 3.6445400714874267578 3.9436740875244140625 3.5162549018859863281 3.7400574684143066406 3.6614544391632080078 3.4035165309906005859 2.7569139003753662109 3.0413937568664550781 3.1067221164703369141 3.1073193550109863281 2.9894084930419921875 2.7768256664276123047 2.3468608856201171875 2.2585091590881347656 2.0664501190185546875 1.8578078746795654297 1.6833596229553222656 1.4136791229248046875 1.8579977750778198242 1.7265202999114990234 1.1855218410491943359 1.1972407102584838867 1 1.0859099626541137695 1 1 1 
2.3833985328674316406 2.2271513938903808594 2.2489778995513916016 2.1858119964599609375 2.7854216098785400391 2.9182398319244384766 2.5351183414459228516 3.3843462467193603516 3.0005793571472167969 3.9009246826171875 2.933361053466796875 3.4643647670745849609 3.3081438541412353516 3.4858775138854980469 3.4873969554901123047 2.9408323764801025391 2.7723047733306884766 2.2282309532165527344 1.9152650833129882813 2.0441069602966308594 1.8694360256195068359 2.1845057010650634766 2.0081846714019775391 1.8731111288070678711 1.7971842288970947266 2.3886733055114746094 2.1377272605895996094 2.1878385543823242188 2.1904659271240234375 1.8426265716552734375 1.6279102563858032227 1.5131783485412597656 1.4746716022491455078 1.6202754974365234375 1.5934932231903076172 1.4371602535247802734 1.3867729902267456055 1.3315848112106323242 1.9699715375900268555 1.5428622961044311523 1.2448476552963256836 1.7761068344116210938 2.0548708438873291016 2.6558389663696289063 2.661701202392578125 2.4530122280120849609 2.5024619102478027344 2.4359147548675537109 3.0014240741729736328 2.6622574329376220703 2.7194249629974365234 2.3997721672058105469 2.7438857555389404297 2.9625794887542724609 3.0517284870147705078 2.6106448173522949219 2.2473196983337402344 1.8809837102890014648 2.273746490478515625 2.3281180858612060547 2.7397527694702148438 2.6577129364013671875 2.5755164623260498047 2.1625504493713378906 2.3161661624908447266 2.8979017734527587891 3.1143305301666259766 2.8622791767120361328 2.6727864742279052734 2.4140334129333496094 2.7405192852020263672 2.5604200363159179688 2.9508891105651855469 2.9020528793334960938 3.4050519466400146484 3.6569426059722900391 3.2218244075775146484 3.1051497459411621094 3.0641229152679443359 3.0033307075500488281 3.084331512451171875 3.1956713199615478516 3.2985513210296630859 3.20880889892578125 3.4630873203277587891 3.4462134838104248047 3.2437500953674316406 3.0898871421813964844 3.3723986148834228516 3.6910665035247802734 3.5848100185394287109 3.6787533760070800781 3.4319543838500976563 3.6935684680938720703 3.8731837272644042969 3.9477691650390625 3.6898744106292724609 3.632678985595703125 3.6370077133178710938 3.4895033836364746094 3.8399109840393066406 3.1108660697937011719 3.1524312496185302734 3.2853672504425048828 3.6829099655151367188 3.5398554801940917969 3.4269793033599853516 2.6635847091674804688 3.7240557670593261719 3.4668118953704833984 3.4537301063537597656 3.3980739116668701172 2.6066582202911376953 2.4073405265808105469 2.1352655887603759766 2.0304315090179443359 1.6460051536560058594 2.0594496726989746094 1.4452632665634155273 1.5444748401641845703 1.6385211944580078125 1.7731970548629760742 1.5412085056304931641 1.4848802089691162109 1.1338248252868652344 1.3944246768951416016 1.0527024269104003906 1.1386903524398803711 1.0962098836898803711 1.383401036262512207 1.9091628789901733398 1.8907295465469360352 1.8361482620239257813 2.2669737339019775391 2.94007110595703125 2.9486820697784423828 2.5308485031127929688 2.943164825439453125 2.6221489906311035156 2.0659663677215576172 1.5693347454071044922 1.7755347490310668945 1.4322957992553710938 1.7669889926910400391 2.1298589706420898438 1.8996081352233886719 1.8027628660202026367 1.7867214679718017578 1.597806096076965332 1.8055602312088012695 1.8532776832580566406 1.941777348518371582 1.6669503450393676758 1.6001182794570922852 1.657078862190246582 1.7866150140762329102 2.3339543342590332031 2.2432942390441894531 2.7628002166748046875 2.8691504001617431641 2.7821869850158691406 2.5779821872711181641 2.4483973979949951172 2.4618914127349853516 3.6190664768218994141 2.8324611186981201172 3.1624119281768798828 2.3273434638977050781 2.34835052490234375 2.0579214096069335938 2.4441850185394287109 2.4952189922332763672 2.9040126800537109375 3.5510718822479248047 3.5809314250946044922 3.4329428672790527344 3.5519735813140869141 3.4964914321899414063 3.3921091556549072266 3.3077833652496337891 2.9032576084136962891 2.7779352664947509766 2.8260285854339599609 2.4465105533599853516 2.8618700504302978516 2.3644242286682128906 2.4004001617431640625 1.8178091049194335938 1.6270415782928466797 1.9160602092742919922 1.8966873884201049805 1.6748796701431274414 1.1249866485595703125 1.2015039920806884766 1.1065142154693603516 1.0246121883392333984 1.1147360801696777344 1 1.2568686008453369141 1.4310090541839599609 
2.4452619552612304688 2.6211400032043457031 3.4451389312744140625 2.6720545291900634766 2.5225183963775634766 2.9488677978515625 2.6757555007934570313 3.0047478675842285156 3.7425158023834228516 3.5799930095672607422 3.3339903354644775391 3.2578601837158203125 3.1972985267639160156 3.1377298831939697266 2.5541319847106933594 2.7867352962493896484 2.5704529285430908203 2.1347234249114990234 1.7098304033279418945 2.0289416313171386719 1.8015588521957397461 1.8092625141143798828 2.1010096073150634766 1.8819807767868041992 2.0605869293212890625 2.4035959243774414063 2.0699875354766845703 2.1144456863403320313 2.0010273456573486328 1.7527195215225219727 1.4918881654739379883 1.2944788932800292969 1.1353926658630371094 1.5534877777099609375 1.2493543624877929688 1.1488398313522338867 1.2640367746353149414 1.1203995943069458008 1.2193677425384521484 1.8853640556335449219 1.7891443967819213867 1.7428039312362670898 2.6030066013336181641 2.5480437278747558594 2.5190899372100830078 2.5505986213684082031 2.7954809665679931641 2.8000462055206298828 2.3783440589904785156 3.1608328819274902344 3.0848331451416015625 3.2410640716552734375 3.1506056785583496094 2.7935996055603027344 3.0467615127563476563 2.4686629772186279297 2.3481757640838623047 2.4700090885162353516 2.5994534492492675781 3.0596823692321777344 2.7847228050231933594 3.0429515838623046875 2.6123404502868652344 2.3690810203552246094 2.29796600341796875 2.5982904434204101563 2.5801272392272949219 2.8855049610137939453 3.1588952541351318359 2.9888126850128173828 2.56017303466796875 3.0307953357696533203 3.0456974506378173828 3.5194315910339355469 3.4094634056091308594 3.4646942615509033203 3.6427707672119140625 3.4382872581481933594 3.4211504459381103516 3.0402028560638427734 3.4151167869567871094 3.5731465816497802734 3.7231266498565673828 4.0043897628784179688 3.6407597064971923828 3.4462327957153320313 3.3309366703033447266 2.768589019775390625 2.9172275066375732422 3.1253621578216552734 3.4224209785461425781 3.4918489456176757813 3.6277205944061279297 3.6568617820739746094 3.8112053871154785156 3.63829803466796875 3.0154926776885986328 3.3775696754455566406 3.5417826175689697266 3.2724652290344238281 3.8439059257507324219 3.1711046695709228516 2.9320659637451171875 3.4430191516876220703 3.7674112319946289063 3.4756264686584472656 3.5140182971954345703 3.0927288532257080078 3.5486769676208496094 3.6568710803985595703 3.7519359588623046875 2.9879517555236816406 2.5842730998992919922 2.7127602100372314453 2.6926310062408447266 1.9496209621429443359 2.06919097900390625 2.0413706302642822266 1.4665640592575073242 1.5671684741973876953 1.3803733587265014648 1.5463029146194458008 1.6096290349960327148 1.6014863252639770508 1.1967613697052001953 1.3013726472854614258 1.1705135107040405273 1.2933808565139770508 1.2836067676544189453 1 1.3725649118423461914 1.1417086124420166016 1.2525591850280761719 1.8171970844268798828 2.4331567287445068359 2.1513421535491943359 2.2816860675811767578 2.4331171512603759766 2.3007442951202392578 2.2444868087768554688 1.8233942985534667969 1.6412254571914672852 1.2060537338256835938 1.5221402645111083984 1.7281022071838378906 1.7950884103775024414 1.4892777204513549805 1.5282032489776611328 1.396956324577331543 1.8918108940124511719 1.9211493730545043945 2.0881454944610595703 1.5002925395965576172 1.4657340049743652344 1.648179173469543457 1.5300592184066772461 2.1195299625396728516 2.4837734699249267578 2.2053480148315429688 2.6337118148803710938 2.6478896141052246094 2.6074092388153076172 2.3486895561218261719 2.3010013103485107422 2.7307019233703613281 2.7948160171508789063 2.614292144775390625 2.33650970458984375 2.1320030689239501953 2.2831430435180664063 2.5267245769500732422 2.6458375453948974609 2.9273180961608886719 3.1791565418243408203 3.5702261924743652344 3.9046025276184082031 3.5669169425964355469 3.6745212078094482422 3.3039598464965820313 3.3185522556304931641 3.1050035953521728516 3.0566096305847167969 3.1704998016357421875 3.2618660926818847656 2.4440083503723144531 1.7356892824172973633 1.7534039020538330078 1.8879538774490356445 1.6099474430084228516 1.6881742477416992188 1.8714592456817626953 1.4737229347229003906 1.1292840242385864258 1.2880866527557373047 1.1613680124282836914 1 1.0479716062545776367 1.0675609111785888672 1.0928667783737182617 1.3357425928115844727 
