ncols        20
nrows        20
xllcorner    -0.000000000000
yllcorner    0.000000000000
cellsize     10.000000000000
NODATA_value nan
3.0942366123199462891 2.3361258506774902344 2.3498747348785400391 2.2390894889831542969 1.8513475656509399414 1.1299968957901000977 1.0038100481033325195 1.3835085630416870117 1.0589499473571777344 1.9738904237747192383 2.4341266155242919922 2.5100448131561279297 2.863445281982421875 2.5194308757781982422 1.0698257684707641602 1.2530084848403930664 1.0277187824249267578 1.0257971286773681641 2.3741135597229003906 4.9329915046691894531 
3.2609283924102783203 2.0065257549285888672 2.6017940044403076172 2.2751135826110839844 1.0112984180450439453 1.0144411325454711914 1.1013357639312744141 1.5830544233322143555 1.5111675262451171875 1.9504649639129638672 2.0100996494293212891 3.3027048110961914063 2.9914746284484863281 2.2095770835876464844 1.030254364013671875 1.096165776252746582 1.8396326303482055664 2.9208247661590576172 3.6563451290130615234 5.1420497894287109375 
2.9493954181671142578 2.2870681285858154297 3.1218140125274658203 2.5577051639556884766 2.7531132698059082031 1.6901538372039794922 1.2265813350677490234 1.0216501951217651367 1.2076261043548583984 1.5655848979949951172 1.4156109094619750977 2.1412978172302246094 1.9703961610794067383 1.6149590015411376953 2.3170535564422607422 3.2301318645477294922 3.7074675559997558594 4.0443744659423828125 3.8332340717315673828 3.8490617275238037109 
3.0793473720550537109 3.0175268650054931641 2.7818119525909423828 3.1099913120269775391 2.9014461040496826172 1.8459734916687011719 1.2800893783569335938 1.0122905969619750977 1.2473893165588378906 1.5973610877990722656 1.6819727420806884766 1.3437296152114868164 1.9662657976150512695 2.0821988582611083984 2.9991266727447509766 4.2455239295959472656 4.56732177734375 4.3971462249755859375 4.2405214309692382813 1.9612494707107543945 
1.2904900312423706055 1.6013228893280029297 2.0191290378570556641 3.1110119819641113281 2.8200869560241699219 2.3193597793579101563 1.7389165163040161133 1.0138477087020874023 2.0743734836578369141 2.4248213768005371094 1.5881323814392089844 1.3924107551574707031 1.5725617408752441406 1.0361815690994262695 1.933055877685546875 3.136714935302734375 3.3394577503204345703 2.0673797130584716797 4.0482935905456542969 2.4258310794830322266 
1.8175951242446899414 1.3082691431045532227 1.4684084653854370117 4.1521205902099609375 2.2861309051513671875 1.0832535028457641602 1.0490128993988037109 1.0586202144622802734 1.6689667701721191406 1.7706133127212524414 1.7819100618362426758 1.5663412809371948242 1.0041300058364868164 1.5837739706039428711 1.5654908418655395508 1.890267491340637207 2.4764378070831298828 2.3602702617645263672 2.8031170368194580078 2.56175994873046875 
2.0372433662414550781 1.2289724349975585938 1.4020345211029052734 2.5404736995697021484 1.2422660589218139648 2.0232422351837158203 3.4313127994537353516 1.8837475776672363281 1.4131706953048706055 1.3583562374114990234 2.640705108642578125 2.8184692859649658203 1.8681865930557250977 1.0487227439880371094 1.0570609569549560547 1.4285827875137329102 1.5493561029434204102 3.2415513992309570313 3.6387805938720703125 3.7652878761291503906 
1.0178583860397338867 1.5539834499359130859 1.6944866180419921875 1.6514258384704589844 1.0039434432983398438 1.8897684812545776367 4.5533971786499023438 2.4833989143371582031 1.1129033565521240234 1.9431785345077514648 5.2190651893615722656 4.5707850456237792969 1.265935063362121582 1.0016304254531860352 1.0064146518707275391 1.0055894851684570313 2.0752832889556884766 3.0554172992706298828 3.2186946868896484375 3.5284197330474853516 
3.1499948501586914063 1.6292005777359008789 1.1358468532562255859 1.5914262533187866211 1.2353366613388061523 1.9991713762283325195 2.8551695346832275391 1.0288548469543457031 1.009389042854309082 2.1117587089538574219 3.4084656238555908203 3.4549605846405029297 1.0207632780075073242 1.000408172607421875 1.0849831104278564453 1.1545319557189941406 2.8501796722412109375 3.4016044139862060547 3.0038657188415527344 3.5568006038665771484 
3.2120501995086669922 2.3686110973358154297 1.7029989957809448242 1.9413219690322875977 1.3825756311416625977 1.2547647953033447266 1.0527535676956176758 1.0071976184844970703 1.1140836477279663086 1.7945233583450317383 2.4664859771728515625 2.0012969970703125 1.089497685432434082 1.0010207891464233398 1.0116037130355834961 1.05742645263671875 2.4368491172790527344 4.3129634857177734375 4.0176301002502441406 4.0171055793762207031 
1.7176994085311889648 2.03513336181640625 2.6666321754455566406 2.7791132926940917969 2.3818449974060058594 1.5770089626312255859 1.0312932729721069336 1.6584255695343017578 2.2525262832641601563 2.6724762916564941406 4.0875387191772460938 3.7450742721557617188 1.905173182487487793 1.0004569292068481445 1.0263265371322631836 1.730396270751953125 1.0162786245346069336 2.2024106979370117188 2.7224199771881103516 3.2041804790496826172 
2.1984050273895263672 3.2220909595489501953 1.9730753898620605469 2.0468564033508300781 1.564787745475769043 1.360443115234375 1.1085528135299682617 1.1721814870834350586 2.1971144676208496094 3.3325185775756835938 3.5394961833953857422 3.6658587455749511719 2.4272217750549316406 2.1989276409149169922 1.2953734397888183594 1 1.0060634613037109375 1.9346414804458618164 1.8252087831497192383 2.0943274497985839844 
4.2005586624145507813 5.2098059654235839844 2.2916915416717529297 1.021271824836730957 1.4996095895767211914 1.3453551530838012695 1.1288461685180664063 1.1035736799240112305 1.2273364067077636719 1.7754149436950683594 2.7260687351226806641 1.8748381137847900391 1.6566976308822631836 2.1395273208618164063 2.9442155361175537109 1.8313214778900146484 1.0448443889617919922 1.3374807834625244141 1.2731394767761230469 1.6237641572952270508 
4.2753310203552246094 3.8474061489105224609 1.8394063711166381836 1.5839089155197143555 1.1252797842025756836 1.1522842645645141602 1.0423042774200439453 1.3769617080688476563 1.4566406011581420898 2.5967895984649658203 2.1048777103424072266 1.0883901119232177734 1.0180412530899047852 1.4880338907241821289 1.7105745077133178711 1.4237512350082397461 1.5360015630722045898 2.1593744754791259766 2.5932037830352783203 1.6735785007476806641 
2.3521971702575683594 2.5411977767944335938 2.2775731086730957031 3.9278879165649414063 3.1507229804992675781 2.4153969287872314453 1.6118371486663818359 1.1047580242156982422 1.0981044769287109375 2.0617337226867675781 2.0950553417205810547 1.0004869699478149414 1.8410221338272094727 1.1363893747329711914 1.4209756851196289063 1.1426416635513305664 1.5577243566513061523 2.9108831882476806641 4.6230740547180175781 3.4849514961242675781 
1.0093992948532104492 1.1251965761184692383 1.2156299352645874023 2.3579998016357421875 4.3442940711975097656 3.5131788253784179688 3.8774662017822265625 2.9122669696807861328 2.2795832157135009766 2.1610891819000244141 2.4382102489471435547 1.2155699729919433594 1.3898750543594360352 1.0511244535446166992 1.1579346656799316406 1.3995039463043212891 1.4191054105758666992 3.2846486568450927734 4.0590949058532714844 4.0011010169982910156 
2.4713134765625 2.3650853633880615234 1.2138018608093261719 1.7529619932174682617 3.4796090126037597656 3.7614777088165283203 5.6024627685546875 3.9200928211212158203 2.4913837909698486328 1.7599022388458251953 2.3949873447418212891 2.4491961002349853516 1.28820037841796875 1.1662855148315429688 1.6464203596115112305 2.0270674228668212891 1.8548989295959472656 2.4179558753967285156 3.8047785758972167969 4.327068328857421875 
2.2672021389007568359 1.8740459680557250977 1.9043215513229370117 1.6693136692047119141 1.9904326200485229492 3.2696051597595214844 4.1641812324523925781 4.4206614494323730469 2.2483310699462890625 1.5947110652923583984 1.7928525209426879883 3.1211206912994384766 2.5569567680358886719 1.6711362600326538086 2.0379168987274169922 2.1264607906341552734 1.905852198600769043 2.0556881427764892578 3.0660114288330078125 4.041889190673828125 
1.5101548433303833008 1.5231823921203613281 1.4676085710525512695 1.7649185657501220703 1.8775529861450195313 4.1774115562438964844 5.1968684196472167969 4.96744537353515625 3.2558448314666748047 2.8284218311309814453 2.2718091011047363281 3.2735648155212402344 3.3888118267059326172 3.4707305431365966797 2.2819349765777587891 2.285186767578125 1.4460457563400268555 1.5321412086486816406 2.2874667644500732422 2.2178297042846679688 
1.8393964767456054688 2.0878884792327880859 1.9500623941421508789 1.623524785041809082 2.2232916355133056641 3.1785998344421386719 4.1494436264038085938 5.9716501235961914063 4.6460542678833007813 2.8445389270782470703 2.3469340801239013672 2.5138764381408691406 4.7342119216918945313 6.767406463623046875 3.5025651454925537109 3.2608666419982910156 1.6988760232925415039 1.7332220077514648438 2.0362894535064697266 2.2904031276702880859 
