ncols        20
nrows        20
xllcorner    -0.000000000000
yllcorner    0.000000000000
cellsize     10.000000000000
NODATA_value nan
2.5427520275115966797 2.6562662124633789063 2.5754685401916503906 2.4866430759429931641 3.1059021949768066406 3.3319566249847412109 3.6520166397094726563 4.5946264266967773438 3.2200922966003417969 2.7622873783111572266 2.5143361091613769531 2.4113144874572753906 2.9509410858154296875 3.0991976261138916016 3.8003067970275878906 5.4067707061767578125 4.2692818641662597656 2.9609014987945556641 2.453449249267578125 2.5916762351989746094 
2.3634150028228759766 2.5935640335083007813 2.43896484375 2.0344073772430419922 2.5122389793395996094 3.6550080776214599609 4.0880455970764160156 5.5508985519409179688 4.4834532737731933594 3.8524379730224609375 2.1621928215026855469 2.0214457511901855469 2.0327546596527099609 2.7112536430358886719 3.5303692817687988281 4.1349453926086425781 3.3952648639678955078 2.4377207756042480469 2.2852768898010253906 2.2681233882904052734 
2.1681830883026123047 2.2937884330749511719 2.2566051483154296875 1.9256932735443115234 2.9045860767364501953 3.0994627475738525391 3.5610411167144775391 4.1721110343933105469 3.3045856952667236328 3.5222327709197998047 1.9780662059783935547 1.9364628791809082031 1.9865639209747314453 2.3897900581359863281 2.8552334308624267578 3.1445469856262207031 2.384063720703125 1.9593842029571533203 2.086086273193359375 2.0409052371978759766 
1.9896055459976196289 2.0590589046478271484 2.1285834312438964844 1.7343536615371704102 2.1934618949890136719 2.8569734096527099609 3.0149629116058349609 2.8318617343902587891 2.4628083705902099609 3.0985927581787109375 1.8903365135192871094 2.025501251220703125 2.2485525608062744141 2.7587671279907226563 3.2118360996246337891 2.8425197601318359375 2.6931636333465576172 2.6059160232543945313 1.9749964475631713867 2.2032029628753662109 
2.0489511489868164063 2.0575873851776123047 1.8650449514389038086 1.6543623208999633789 1.7526388168334960938 2.1430654525756835938 2.5382404327392578125 2.6212441921234130859 3.1977417469024658203 4.4241352081298828125 2.2843654155731201172 1.9166549444198608398 1.913786768913269043 1.9444979429244995117 2.467044830322265625 2.7520246505737304688 1.6575236320495605469 2.2799942493438720703 1.8542612791061401367 1.7740836143493652344 
2.9268186092376708984 2.0250198841094970703 1.7979360818862915039 1.5303645133972167969 1.5101389884948730469 1.7241842746734619141 2.0376973152160644531 1.9842560291290283203 2.6815497875213623047 2.6318941116333007813 1.4802234172821044922 1.586710810661315918 2.2025079727172851563 3.2702307701110839844 1.8820497989654541016 2.3706674575805664063 2.3688507080078125 2.1534595489501953125 1.9245046377182006836 1.4717859029769897461 
3.0375792980194091797 2.1664147377014160156 1.5743974447250366211 1.6129078865051269531 1.8783986568450927734 3.647182464599609375 5.5121321678161621094 3.22948455810546875 2.0188813209533691406 1.3785408735275268555 1.4145416021347045898 1.8641736507415771484 2.5763301849365234375 3.0546414852142333984 2.2768421173095703125 3.154338836669921875 2.4931545257568359375 2.1990981101989746094 1.5372024774551391602 1.3442094326019287109 
2.2728488445281982422 1.7739262580871582031 1.7842620611190795898 1.4334319829940795898 1.6175994873046875 3.1401224136352539063 6.7609295845031738281 4.193973541259765625 2.0092415809631347656 1.5337182283401489258 2.3004593849182128906 3.0978486537933349609 3.075176239013671875 4.1632733345031738281 2.8433346748352050781 2.4856357574462890625 1.7485311031341552734 1.2203253507614135742 1.2241944074630737305 1.2315267324447631836 
2.7575418949127197266 2.6948158740997314453 1.6607947349548339844 1.1713857650756835938 1.3226338624954223633 3.3576905727386474609 4.8308510780334472656 2.8020544052124023438 2.1315057277679443359 1.6870281696319580078 1.7562763690948486328 2.5410764217376708984 2.7636122703552246094 3.6140859127044677734 2.1900658607482910156 1.133768916130065918 1.221192479133605957 1.1387944221496582031 1.1408656835556030273 1.7172231674194335938 
2.9050898551940917969 3.1593585014343261719 1.7877534627914428711 1.3252447843551635742 1.3956499099731445313 2.1287603378295898438 2.7690088748931884766 3.4356122016906738281 3.1373159885406494141 2.6218621730804443359 2.5633654594421386719 2.5641448497772216797 2.3743891716003417969 2.4121844768524169922 1.8607208728790283203 1.0689445734024047852 1.0694835186004638672 1.4188765287399291992 1.7477189302444458008 1.7923778295516967773 
2.5073277950286865234 2.2651798725128173828 1.1440824270248413086 1.1354502439498901367 1.2864677906036376953 1.1765445470809936523 1.2942677736282348633 2.4059624671936035156 2.9158318042755126953 2.8464365005493164063 3.2099878787994384766 2.5888979434967041016 1.3161524534225463867 1.5276917219161987305 1.9003293514251708984 2.1770851612091064453 1.001721501350402832 1.5121600627899169922 2.7217504978179931641 2.1218547821044921875 
2.8285002708435058594 2.7969872951507568359 1.2288215160369873047 1.0058858394622802734 1.1520488262176513672 1.1693836450576782227 1.6025434732437133789 2.2824943065643310547 2.6293556690216064453 2.9992995262145996094 3.1606757640838623047 2.5948586463928222656 1.1092150211334228516 1 1.0033383369445800781 1.0398757457733154297 1.1048935651779174805 1.8682266473770141602 2.2665078639984130859 1.6259784698486328125 
2.4428985118865966797 2.6091427803039550781 1.5622036457061767578 1.7585654258728027344 2.4026484489440917969 2.1552538871765136719 1.4903563261032104492 2.2505064010620117188 2.8953516483306884766 2.4271745681762695313 2.4885680675506591797 1.9052476882934570313 1.006511688232421875 1.0036786794662475586 1.0007421970367431641 1 1.0028477907180786133 1.5540589094161987305 1.8740928173065185547 1.7720659971237182617 
1.9127732515335083008 2.0678546428680419922 1.9367907047271728516 2.3149144649505615234 1.3446373939514160156 1.2301894426345825195 1 1.5427851676940917969 2.4702506065368652344 1.15155792236328125 1.081477046012878418 1.2780959606170654297 1.2218337059020996094 1.0012984275817871094 1 1.4378721714019775391 2.0642187595367431641 1.9122605323791503906 2.0594544410705566406 1.8732656240463256836 
2.9820272922515869141 2.3779540061950683594 2.8857350349426269531 3.3429343700408935547 1.8047945499420166016 1.1061263084411621094 1.0522191524505615234 1.1490083932876586914 1.2032233476638793945 1.0034035444259643555 1.0002481937408447266 1.1081583499908447266 2.5325908660888671875 1.6618597507476806641 2.1937758922576904297 2.9384915828704833984 2.2882108688354492188 2.5142540931701660156 2.2376866340637207031 1.8682957887649536133 
2.3410634994506835938 1.8165329694747924805 2.2786452770233154297 2.5624916553497314453 1.7530951499938964844 1.1025534868240356445 1.0481561422348022461 1.0718011856079101563 1.1714818477630615234 1.0201486349105834961 1 1.0592973232269287109 2.4343304634094238281 2.2332334518432617188 2.9405198097229003906 2.936695098876953125 2.0706839561462402344 1.945969700813293457 1.77764892578125 1.499247431755065918 
4.3707218170166015625 3.9528021812438964844 2.6178202629089355469 1.7212918996810913086 1.1433669328689575195 1.1549706459045410156 1.0707305669784545898 1.1225754022598266602 1.0729222297668457031 1.0000178813934326172 1.0030503273010253906 1.9570578336715698242 3.1920008659362792969 3.554584503173828125 3.5204174518585205078 3.5950605869293212891 3.6081342697143554688 2.8641340732574462891 1.6889694929122924805 1.2421529293060302734 
3.9321110248565673828 3.3631122112274169922 3.3089654445648193359 2.6519172191619873047 1.8708128929138183594 1.5237553119659423828 1.138197779655456543 1.1963845491409301758 1.3230634927749633789 1.3853456974029541016 1.6359864473342895508 1.8938176631927490234 2.9552559852600097656 2.8459429740905761719 2.6244077682495117188 3.2640392780303955078 3.9961538314819335938 3.2296140193939208984 1.5801080465316772461 1.1482652425765991211 
3.1673922538757324219 2.9281656742095947266 2.3825550079345703125 2.5099446773529052734 1.9817652702331542969 1.7400470972061157227 1.3527609109878540039 1.5771859884262084961 1.6525939702987670898 1.21039581298828125 1.5857051610946655273 1.3903756141662597656 2.1214661598205566406 2.8483004570007324219 2.6765389442443847656 2.8021185398101806641 3.4919898509979248047 3.0563073158264160156 1.5278673171997070313 1.1045441627502441406 
3.2206139564514160156 3.3370671272277832031 2.6105759143829345703 1.7618284225463867188 2.4326064586639404297 2.4962685108184814453 2.3063488006591796875 2.18422698974609375 2.1542327404022216797 2.8071086406707763672 2.8310844898223876953 2.2374095916748046875 1.7368129491806030273 2.8137464523315429688 2.5394203662872314453 2.3268609046936035156 2.9005744457244873047 3.4610700607299804688 2.2627046108245849609 1.0180196762084960938 
