ncols        20
nrows        20
xllcorner    -0.000000000000
yllcorner    0.000000000000
cellsize     10.000000000000
NODATA_value nan
3.0952901840209960938 2.3129529953002929688 2.3459563255310058594 2.2379596233367919922 1.8387984037399291992 1.1215116977691650391 1.0169875621795654297 1.3995409011840820313 1.0646724700927734375 1.9662090539932250977 2.4210109710693359375 2.4944508075714111328 2.8396193981170654297 2.5010428428649902344 1.0775493383407592773 1.2532984018325805664 1.0464316606521606445 1.0173829793930053711 2.3589985370635986328 4.9243669509887695313 
3.2508459091186523438 2.0125682353973388672 2.5977535247802734375 2.2617702484130859375 1 1.0015143156051635742 1.0784642696380615234 1.5999945402145385742 1.5137976408004760742 1.9685273170471191406 1.997698664665222168 3.2771582603454589844 2.9789834022521972656 2.2003388404846191406 1.0135952234268188477 1.0888793468475341797 1.8085073232650756836 2.8881313800811767578 3.6232361793518066406 5.1117868423461914063 
2.9341001510620117188 2.2760159969329833984 3.1124804019927978516 2.5526411533355712891 2.7270724773406982422 1.6762607097625732422 1.2108211517333984375 1.0251318216323852539 1.2186610698699951172 1.5752809047698974609 1.4346317052841186523 2.1342740058898925781 1.9769819974899291992 1.6065539121627807617 2.3078124523162841797 3.2033598423004150391 3.6835932731628417969 4.0143837928771972656 3.8041522502899169922 3.8222815990447998047 
3.0714824199676513672 3.0032107830047607422 2.7698328495025634766 3.0890724658966064453 2.87688446044921875 1.8136597871780395508 1.2589107751846313477 1 1.2444357872009277344 1.5947661399841308594 1.6807773113250732422 1.348172307014465332 1.9658921957015991211 2.0682964324951171875 2.9724030494689941406 4.2073211669921875 4.5414977073669433594 4.3656167984008789063 4.2161698341369628906 1.9515831470489501953 
1.2801759243011474609 1.6040135622024536133 2.0020222663879394531 3.115215301513671875 2.8029603958129882813 2.3077313899993896484 1.7346553802490234375 1 2.0976476669311523438 2.4115459918975830078 1.5954531431198120117 1.3784102201461791992 1.5646951198577880859 1.0434299707412719727 1.9386522769927978516 3.1102645397186279297 3.3229908943176269531 2.0455663204193115234 4.0365214347839355469 2.4111523628234863281 
1.8284273147583007813 1.308932185173034668 1.4594595432281494141 4.1569089889526367188 2.2629778385162353516 1.0718046426773071289 1.053530573844909668 1.0691645145416259766 1.6760426759719848633 1.7620317935943603516 1.7928965091705322266 1.5703421831130981445 1.010750889778137207 1.5945600271224975586 1.5607640743255615234 1.8783873319625854492 2.4667291641235351563 2.356647491455078125 2.7838914394378662109 2.5440545082092285156 
2.0407323837280273438 1.2387373447418212891 1.4029834270477294922 2.5302834510803222656 1.2441447973251342773 2.0341198444366455078 3.4337677955627441406 1.8766520023345947266 1.4260214567184448242 1.3581831455230712891 2.6397261619567871094 2.813976287841796875 1.8394222259521484375 1.0365924835205078125 1.0401899814605712891 1.4390628337860107422 1.5552473068237304688 3.2392952442169189453 3.6172249317169189453 3.7298610210418701172 
1 1.5483400821685791016 1.6808326244354248047 1.6585571765899658203 1 1.9082802534103393555 4.5779280662536621094 2.5037527084350585938 1.1102504730224609375 1.9411720037460327148 5.2285304069519042969 4.5732932090759277344 1.2571933269500732422 1.0049632787704467773 1.0047907829284667969 1 2.0842041969299316406 3.0521039962768554688 3.2117919921875 3.5044350624084472656 
3.1453418731689453125 1.609278559684753418 1.1369690895080566406 1.5970938205718994141 1.2227270603179931641 2.0066344738006591797 2.8867447376251220703 1.0121904611587524414 1 2.0989863872528076172 3.4114713668823242188 3.456180572509765625 1 1.0138036012649536133 1.1002964973449707031 1.1589047908782958984 2.8366472721099853516 3.4005854129791259766 2.9818911552429199219 3.5478854179382324219 
3.2020969390869140625 2.3629479408264160156 1.6934355497360229492 1.9295760393142700195 1.4027533531188964844 1.2594709396362304688 1.0522725582122802734 1 1.1163592338562011719 1.7925320863723754883 2.4497048854827880859 1.9910362958908081055 1.0957492589950561523 1.0039339065551757813 1.0088236331939697266 1.0597302913665771484 2.4331991672515869141 4.33437347412109375 4.0348291397094726563 4.0267958641052246094 
1.7158533334732055664 2.0420858860015869141 2.6615531444549560547 2.7689650058746337891 2.3754243850708007813 1.5800635814666748047 1.0312513113021850586 1.6716032028198242188 2.2665314674377441406 2.6728849411010742188 4.0668749809265136719 3.7276253700256347656 1.8984290361404418945 1.0083897113800048828 1.0356655120849609375 1.7494478225708007813 1.0242612361907958984 2.1916403770446777344 2.7004134654998779297 3.2149202823638916016 
2.1883828639984130859 3.2431557178497314453 1.9768213033676147461 2.0358414649963378906 1.5744903087615966797 1.3674330711364746094 1.1277582645416259766 1.1699466705322265625 2.1946141719818115234 3.3421106338500976563 3.5353169441223144531 3.6543030738830566406 2.4249160289764404297 2.1861586570739746094 1.2906907796859741211 1.0007686614990234375 1 1.9406833648681640625 1.815832972526550293 2.0850231647491455078 
4.2157201766967773438 5.272640228271484375 2.2799091339111328125 1.0119911432266235352 1.5032459497451782227 1.3492766618728637695 1.1436486244201660156 1.1123244762420654297 1.2237310409545898438 1.7663297653198242188 2.7215609550476074219 1.875964045524597168 1.6561026573181152344 2.1416242122650146484 2.9251666069030761719 1.834667205810546875 1.0464915037155151367 1.3407065868377685547 1.2801896333694458008 1.6205265522003173828 
4.3176050186157226563 3.8738994598388671875 1.8402129411697387695 1.5807927846908569336 1.1345622539520263672 1.1580928564071655273 1.0461366176605224609 1.38116455078125 1.4467532634735107422 2.6021316051483154297 2.1120700836181640625 1.0894453525543212891 1.027130126953125 1.5041096210479736328 1.7255157232284545898 1.4393172264099121094 1.5392596721649169922 2.1473760604858398438 2.5927412509918212891 1.6817067861557006836 
2.3551149368286132813 2.5401053428649902344 2.2772588729858398438 3.9267632961273193359 3.1560800075531005859 2.4141886234283447266 1.6020228862762451172 1.115131378173828125 1.1044650077819824219 2.0675785541534423828 2.1039342880249023438 1.0069595575332641602 1.8513410091400146484 1.1516004800796508789 1.4431087970733642578 1.1593606472015380859 1.5537394285202026367 2.9061079025268554688 4.6261067390441894531 3.4868390560150146484 
1 1.1329406499862670898 1.2046948671340942383 2.3590309619903564453 4.360198974609375 3.4981198310852050781 3.8868956565856933594 2.9256865978240966797 2.2764284610748291016 2.1690509319305419922 2.4508817195892333984 1.2106152772903442383 1.4082293510437011719 1.0569754838943481445 1.170284271240234375 1.4110310077667236328 1.4258515834808349609 3.276180267333984375 4.0633625984191894531 4.0043101310729980469 
2.4936349391937255859 2.3491876125335693359 1.2250500917434692383 1.763283848762512207 3.4967851638793945313 3.7776978015899658203 5.6234898567199707031 3.9235203266143798828 2.5002665519714355469 1.7579641342163085938 2.4080767631530761719 2.4579725265502929688 1.2986509799957275391 1.1731498241424560547 1.639273524284362793 2.0358579158782958984 1.8751490116119384766 2.4106774330139160156 3.8089678287506103516 4.3248152732849121094 
2.2660195827484130859 1.8958997726440429688 1.9225945472717285156 1.686488032341003418 1.9979370832443237305 3.2628204822540283203 4.1705465316772460938 4.4210000038146972656 2.2353148460388183594 1.60646820068359375 1.8118467330932617188 3.1298060417175292969 2.5499856472015380859 1.6807867288589477539 2.0501112937927246094 2.1437332630157470703 1.9154810905456542969 2.0477583408355712891 3.0654251575469970703 4.0503096580505371094 
1.5168045759201049805 1.5267693996429443359 1.4912104606628417969 1.7872948646545410156 1.8605517148971557617 4.1817231178283691406 5.2073993682861328125 5.0044145584106445313 3.2689197063446044922 2.8331522941589355469 2.2868731021881103516 3.2656369209289550781 3.4008815288543701172 3.4828722476959228516 2.2785646915435791016 2.2854092121124267578 1.4681366682052612305 1.539676666259765625 2.2814228534698486328 2.2172043323516845703 
1.8623961210250854492 2.0969579219818115234 1.9528144598007202148 1.630648493766784668 2.232532501220703125 3.1864507198333740234 4.1451687812805175781 6.0742011070251464844 4.673984527587890625 2.8617880344390869141 2.3499681949615478516 2.5139906406402587891 4.7783179283142089844 6.8565516471862792969 3.5208721160888671875 3.2778265476226806641 1.6949783563613891602 1.7380094528198242188 2.0582263469696044922 2.2828879356384277344 
