ncols        20
nrows        20
xllcorner    -0.000000000000
yllcorner    0.000000000000
cellsize     10.000000000000
NODATA_value nan
3.0947079658508300781 2.3368990421295166016 2.3508691787719726563 2.2395563125610351563 1.8527556657791137695 1.1310721635818481445 1.0048483610153198242 1.3836339712142944336 1.0575309991836547852 1.9746040105819702148 2.4357540607452392578 2.5117142200469970703 2.8647031784057617188 2.5205285549163818359 1.0709769725799560547 1.2525879144668579102 1.028939366340637207 1.0278248786926269531 2.3752012252807617188 4.9342484474182128906 
3.2618269920349121094 2.0067789554595947266 2.6002349853515625 2.2755620479583740234 1.0122809410095214844 1.0151859521865844727 1.1010501384735107422 1.5830541849136352539 1.5103216171264648438 1.9496649503707885742 2.01049041748046875 3.3049561977386474609 2.9928305149078369141 2.2081904411315917969 1.0304999351501464844 1.0963299274444580078 1.8409485816955566406 2.9218783378601074219 3.6570560932159423828 5.1429090499877929688 
2.950565338134765625 2.2870573997497558594 3.1225836277008056641 2.5581412315368652344 2.7541680335998535156 1.6906449794769287109 1.2274143695831298828 1.0216238498687744141 1.2080014944076538086 1.5640442371368408203 1.4152133464813232422 2.1422338485717773438 1.9714020490646362305 1.6162087917327880859 2.3174726963043212891 3.2312700748443603516 3.7088809013366699219 4.0462388992309570313 3.8364381790161132813 3.8498413562774658203 
3.0806438922882080078 3.0187737941741943359 2.7828736305236816406 3.1106920242309570313 2.9015371799468994141 1.8461229801177978516 1.2816221714019775391 1.0140681266784667969 1.2470201253890991211 1.5973258018493652344 1.6822564601898193359 1.3447639942169189453 1.9662442207336425781 2.0810039043426513672 3.0000591278076171875 4.2472634315490722656 4.569683074951171875 4.3993153572082519531 4.2422318458557128906 1.9618244171142578125 
1.2917282581329345703 1.6013185977935791016 2.0205500125885009766 3.1110060214996337891 2.8209431171417236328 2.3189184665679931641 1.7384464740753173828 1.0133183002471923828 2.0731818675994873047 2.425556182861328125 1.5879417657852172852 1.3922313451766967773 1.572798609733581543 1.0364756584167480469 1.9350513219833374023 3.1375341415405273438 3.3400237560272216797 2.0690586566925048828 4.0491242408752441406 2.4257040023803710938 
1.8163472414016723633 1.3078045845031738281 1.4688475131988525391 4.1527643203735351563 2.2864730358123779297 1.0829538106918334961 1.0500830411911010742 1.0589181184768676758 1.6685239076614379883 1.7711912393569946289 1.7819985151290893555 1.5660021305084228516 1.003265380859375 1.583237767219543457 1.5665928125381469727 1.8911836147308349609 2.4772713184356689453 2.3609254360198974609 2.8030238151550292969 2.5624144077301025391 
2.0382816791534423828 1.2283062934875488281 1.4023307561874389648 2.5409445762634277344 1.242329716682434082 2.0232207775115966797 3.4293034076690673828 1.8839404582977294922 1.4134618043899536133 1.3580318689346313477 2.6420488357543945313 2.8189005851745605469 1.869284510612487793 1.0499725341796875 1.0574612617492675781 1.4267277717590332031 1.5491126775741577148 3.2418723106384277344 3.638973236083984375 3.7663648128509521484 
1.0184348821640014648 1.5539529323577880859 1.6954021453857421875 1.6521389484405517578 1.004244685173034668 1.8884395360946655273 4.5517344474792480469 2.4822125434875488281 1.1134531497955322266 1.9424333572387695313 5.2189059257507324219 4.5707492828369140625 1.2660989761352539063 1.0018744468688964844 1.0075616836547851563 1.0037671327590942383 2.0768229961395263672 3.0568401813507080078 3.2196145057678222656 3.5308811664581298828 
3.1511752605438232422 1.629291534423828125 1.1364929676055908203 1.5908994674682617188 1.2358089685440063477 1.999436497688293457 2.8539776802062988281 1.0301245450973510742 1.0104956626892089844 2.1119959354400634766 3.4081404209136962891 3.4553267955780029297 1.0202938318252563477 1 1.0838735103607177734 1.1546403169631958008 2.8511664867401123047 3.4023177623748779297 3.0054090023040771484 3.5576293468475341797 
3.2120635509490966797 2.3677837848663330078 1.7039505243301391602 1.941143035888671875 1.382065892219543457 1.254553675651550293 1.0535943508148193359 1.0086818933486938477 1.1150562763214111328 1.7950241565704345703 2.4673161506652832031 2.0019862651824951172 1.0891842842102050781 1.0005488395690917969 1.0125303268432617188 1.0568665266036987305 2.4362006187438964844 4.3130559921264648438 4.0188884735107421875 4.0174775123596191406 
1.7183181047439575195 2.0341255664825439453 2.6650326251983642578 2.7797057628631591797 2.3824758529663085938 1.5758218765258789063 1.0303602218627929688 1.6569894552230834961 2.2515437602996826172 2.6727948188781738281 4.0877399444580078125 3.7458903789520263672 1.9053243398666381836 1.0007408857345581055 1.0263701677322387695 1.729479670524597168 1.0154520273208618164 2.2041065692901611328 2.7225098609924316406 3.2042622566223144531 
2.1968297958374023438 3.220455169677734375 1.9722794294357299805 2.0460429191589355469 1.5652062892913818359 1.3605850934982299805 1.1085591316223144531 1.1714709997177124023 2.1976985931396484375 3.3315942287445068359 3.5400433540344238281 3.6662664413452148438 2.4269430637359619141 2.198131561279296875 1.2969757318496704102 1.0005701780319213867 1.0056427717208862305 1.934383392333984375 1.8274291753768920898 2.0972037315368652344 
4.20027923583984375 5.2081065177917480469 2.2921063899993896484 1.0203900337219238281 1.4992133378982543945 1.3447259664535522461 1.1293038129806518555 1.1030451059341430664 1.227000117301940918 1.775052189826965332 2.7245626449584960938 1.8745528459548950195 1.6577571630477905273 2.1392176151275634766 2.9447796344757080078 1.8310736417770385742 1.0459616184234619141 1.3370440006256103516 1.2737494707107543945 1.6229840517044067383 
4.2737307548522949219 3.8460836410522460938 1.8396997451782226563 1.5842504501342773438 1.1248300075531005859 1.1510344743728637695 1.0420069694519042969 1.3768537044525146484 1.4576700925827026367 2.5940532684326171875 2.1045739650726318359 1.0889208316802978516 1.0178461074829101563 1.4869960546493530273 1.7089047431945800781 1.4230749607086181641 1.5356919765472412109 2.1599292755126953125 2.5935869216918945313 1.6741203069686889648 
2.3522007465362548828 2.5413148403167724609 2.2770950794219970703 3.9286065101623535156 3.1484205722808837891 2.4153103828430175781 1.6116358041763305664 1.1034870147705078125 1.0982453823089599609 2.060817718505859375 2.0929839611053466797 1.0004038810729980469 1.8400020599365234375 1.1354039907455444336 1.4197261333465576172 1.1424111127853393555 1.5579515695571899414 2.9104807376861572266 4.6220231056213378906 3.4845776557922363281 
1.0097789764404296875 1.1246236562728881836 1.2153818607330322266 2.3579726219177246094 4.3417062759399414063 3.5129916667938232422 3.8760163784027099609 2.9123666286468505859 2.2802081108093261719 2.1610407829284667969 2.4374322891235351563 1.2163264751434326172 1.38922882080078125 1.0510400533676147461 1.1569827795028686523 1.3994257450103759766 1.4196085929870605469 3.2847139835357666016 4.0582308769226074219 4.0004315376281738281 
2.4703259468078613281 2.3647203445434570313 1.2132701873779296875 1.752097010612487793 3.4778678417205810547 3.7584557533264160156 5.6019454002380371094 3.9201879501342773438 2.491283416748046875 1.760628819465637207 2.3944671154022216797 2.4498615264892578125 1.2873040437698364258 1.1651390790939331055 1.6453818082809448242 2.0262670516967773438 1.8532196283340454102 2.4173555374145507813 3.8034882545471191406 4.3284502029418945313 
2.2681317329406738281 1.8744730949401855469 1.9031337499618530273 1.6681934595108032227 1.9903877973556518555 3.2692701816558837891 4.1628408432006835938 4.41901397705078125 2.2482154369354248047 1.5943715572357177734 1.7925685644149780273 3.1204133033752441406 2.5564301013946533203 1.6699020862579345703 2.0377550125122070313 2.1256115436553955078 1.9042651653289794922 2.0555775165557861328 3.0657274723052978516 4.0414152145385742188 
1.5094758272171020508 1.5233244895935058594 1.4651466608047485352 1.7647385597229003906 1.8774902820587158203 4.1758375167846679688 5.19831085205078125 4.9663257598876953125 3.2550325393676757813 2.8295519351959228516 2.2717006206512451172 3.2730503082275390625 3.3878769874572753906 3.4684591293334960938 2.2821969985961914063 2.2851793766021728516 1.4474644660949707031 1.5329217910766601563 2.2876799106597900391 2.2172887325286865234 
1.8383460044860839844 2.0871138572692871094 1.9501394033432006836 1.6222378015518188477 2.2228074073791503906 3.1768600940704345703 4.1492223739624023438 5.9679970741271972656 4.6449580192565917969 2.8438096046447753906 2.3469386100769042969 2.5140531063079833984 4.7316069602966308594 6.763210296630859375 3.5022349357604980469 3.2604646682739257813 1.6988310813903808594 1.7315812110900878906 2.0340893268585205078 2.2901012897491455078 
