ncols        20
nrows        20
xllcorner    -0.000000000000
yllcorner    0.000000000000
cellsize     10.000000000000
NODATA_value nan
1.892680048942565918 2.0197288990020751953 1.9383730888366699219 1.8507432937622070313 2.5317990779876708984 2.7718865871429443359 3.081584930419921875 4.0237393379211425781 2.6331806182861328125 2.1455602645874023438 1.8922063112258911133 1.7862013578414916992 2.3003723621368408203 2.4767553806304931641 3.2378630638122558594 4.8919215202331542969 3.7239360809326171875 2.3681468963623046875 1.8283412456512451172 1.9493950605392456055 
1.7692321538925170898 2.0270564556121826172 1.8372482061386108398 1.4474413394927978516 1.9881913661956787109 3.1605865955352783203 3.5962004661560058594 5.0863099098205566406 3.9879362583160400391 3.3032078742980957031 1.579012751579284668 1.4373319149017333984 1.4593570232391357422 2.1527070999145507813 3.0485489368438720703 3.6868615150451660156 2.9113106727600097656 1.8801229000091552734 1.6905446052551269531 1.6644254922866821289 
1.6365559101104736328 1.7823601961135864258 1.7214025259017944336 1.4127846956253051758 2.4393784999847412109 2.6558196544647216797 3.1513540744781494141 3.7486395835876464844 2.8599042892456054688 3.0626785755157470703 1.4639904499053955078 1.4273780584335327148 1.4788128137588500977 1.9036175012588500977 2.3812305927276611328 2.6639330387115478516 1.9048613309860229492 1.4657257795333862305 1.5833780765533447266 1.5295418500900268555 
1.5122656822204589844 1.5989681482315063477 1.6954568624496459961 1.2836114168167114258 1.774205327033996582 2.4817609786987304688 2.6607573032379150391 2.4355969429016113281 2.0326974391937255859 2.6780767440795898438 1.4234169721603393555 1.5684027671813964844 1.8189193010330200195 2.3328366279602050781 2.8221552371978759766 2.4061329364776611328 2.2607717514038085938 2.2129411697387695313 1.5402803421020507813 1.7738759517669677734 
1.693139195442199707 1.6808364391326904297 1.4883008003234863281 1.2677191495895385742 1.3874777555465698242 1.787749171257019043 2.2217624187469482422 2.2710947990417480469 2.8171930313110351563 4.0744338035583496094 1.8997708559036254883 1.5419209003448486328 1.539795994758605957 1.5797394514083862305 2.1101059913635253906 2.3976867198944091797 1.2805441617965698242 1.9485404491424560547 1.4823334217071533203 1.3925533294677734375 
2.6089491844177246094 1.7227845191955566406 1.5213570594787597656 1.225484013557434082 1.1904559135437011719 1.4119943380355834961 1.7410323619842529297 1.6725271940231323242 2.3765966892242431641 2.3157968521118164063 1.1383345127105712891 1.2917425632476806641 1.9206287860870361328 2.9833929538726806641 1.5825771093368530273 2.0696494579315185547 2.0575177669525146484 1.823729395866394043 1.5938122272491455078 1.1235748529434204102 
2.7914335727691650391 1.9267630577087402344 1.3521138429641723633 1.3581686019897460938 1.6322627067565917969 3.4098265171051025391 5.3031525611877441406 2.9981257915496826172 1.7669832706451416016 1.1098155975341796875 1.1250205039978027344 1.6411991119384765625 2.3806965351104736328 2.8732209205627441406 2.0750579833984375 2.9572856426239013672 2.2575769424438476563 1.9134856462478637695 1.2393325567245483398 1.0537838935852050781 
2.1176590919494628906 1.6140329837799072266 1.6398563385009765625 1.2470488548278808594 1.4635410308837890625 2.9748396873474121094 6.6089272499084472656 4.039623260498046875 1.8298505544662475586 1.3404970169067382813 2.1406986713409423828 2.9599709510803222656 2.9733717441558837891 4.0859580039978027344 2.7118785381317138672 2.3412253856658935547 1.5527647733688354492 1 1 1 
2.6894152164459228516 2.6462397575378417969 1.5596816539764404297 1.0498563051223754883 1.2060638666152954102 3.2609150409698486328 4.7583904266357421875 2.7380423545837402344 2.0489466190338134766 1.5938677787780761719 1.6494430303573608398 2.4862160682678222656 2.7020826339721679688 3.5539298057556152344 2.0882167816162109375 1.0222299098968505859 1.0916379690170288086 1.0213494300842285156 1.010529637336730957 1.601290583610534668 
2.9297761917114257813 3.2095582485198974609 1.7755379676818847656 1.2621011734008789063 1.348353266716003418 2.0990309715270996094 2.7796432971954345703 3.4720304012298583984 3.1728177070617675781 2.6113169193267822266 2.5553498268127441406 2.5672328472137451172 2.3885290622711181641 2.4079146385192871094 1.8265782594680786133 1 1 1.3936098814010620117 1.7260242700576782227 1.7706018686294555664 
2.5951089859008789063 2.3418047428131103516 1.1773104667663574219 1.1346262693405151367 1.2905266284942626953 1.1731548309326171875 1.3228614330291748047 2.4824161529541015625 2.9978950023651123047 2.9236695766448974609 3.2515165805816650391 2.6133029460906982422 1.3339234590530395508 1.5499833822250366211 1.9393690824508666992 2.1877002716064453125 1.0091812610626220703 1.5392682552337646484 2.7764756679534912109 2.1858968734741210938 
2.9836831092834472656 2.9422333240509033203 1.3361177444458007813 1.0775761604309082031 1.204808354377746582 1.2273768186569213867 1.7067310810089111328 2.4262976646423339844 2.7739510536193847656 3.1356279850006103516 3.3097405433654785156 2.7058510780334472656 1.1494516134262084961 1.0353208780288696289 1.0770838260650634766 1.1294437646865844727 1.178647160530090332 1.9392590522766113281 2.3672018051147460938 1.7349619865417480469 
2.6434185504913330078 2.8279128074645996094 1.7354978322982788086 1.9567857980728149414 2.5535922050476074219 2.3063986301422119141 1.6644358634948730469 2.4369325637817382813 3.1178045272827148438 2.6408438682556152344 2.6939210891723632813 2.0813617706298828125 1.1470736265182495117 1.1316199302673339844 1.1067745685577392578 1.1253645420074462891 1.1625814437866210938 1.7304784059524536133 2.0364308357238769531 1.9432122707366943359 
2.1540958881378173828 2.3180115222930908203 2.1830670833587646484 2.5676202774047851563 1.5616178512573242188 1.4476772546768188477 1.2270390987396240234 1.7679059505462646484 2.7351119518280029297 1.367501378059387207 1.2905731201171875 1.4864183664321899414 1.439785003662109375 1.1999269723892211914 1.2003493309020996094 1.6565463542938232422 2.3235177993774414063 2.1472256183624267578 2.2771277427673339844 2.0884625911712646484 
3.3225982189178466797 2.6811308860778808594 3.2340612411499023438 3.695415496826171875 2.1133701801300048828 1.3649201393127441406 1.3169643878936767578 1.4208852052688598633 1.4707319736480712891 1.2553336620330810547 1.2329411506652832031 1.3896188735961914063 2.8200609683990478516 1.9611247777938842773 2.5187966823577880859 3.2812926769256591797 2.5974912643432617188 2.8101027011871337891 2.5054242610931396484 2.1347808837890625 
2.7104897499084472656 2.1696307659149169922 2.6518623828887939453 2.9602746963500976563 2.1033046245574951172 1.4186160564422607422 1.3379317522048950195 1.3719350099563598633 1.4570115804672241211 1.3240911960601806641 1.2850239276885986328 1.3862862586975097656 2.7847845554351806641 2.6051831245422363281 3.3357756137847900391 3.3366565704345703125 2.4495320320129394531 2.2873663902282714844 2.0661330223083496094 1.7767581939697265625 
4.8151373863220214844 4.3897776603698730469 3.0602941513061523438 2.1416163444519042969 1.5312891006469726563 1.5343179702758789063 1.4106897115707397461 1.4607326984405517578 1.4218759536743164063 1.3652540445327758789 1.3685164451599121094 2.3803737163543701172 3.6638882160186767578 4.0452084541320800781 4.0011768341064453125 4.0817704200744628906 4.0899486541748046875 3.3179113864898681641 2.1019060611724853516 1.5952957868576049805 
4.4366765022277832031 3.8602206707000732422 3.8131167888641357422 3.143970489501953125 2.34133148193359375 1.9863034486770629883 1.5698821544647216797 1.6095631122589111328 1.7730251550674438477 1.8589870929718017578 2.1037743091583251953 2.3881525993347167969 3.4823052883148193359 3.3633723258972167969 3.1258611679077148438 3.7942459583282470703 4.5598216056823730469 3.7606229782104492188 2.0539560317993164063 1.5803905725479125977 
3.7509829998016357422 3.4962952136993408203 2.9430730342864990234 3.0576307773590087891 2.5273525714874267578 2.2637493610382080078 1.8490327596664428711 2.0827329158782958984 2.1655492782592773438 1.7083717584609985352 2.1133635044097900391 1.9151057004928588867 2.6719603538513183594 3.4042453765869140625 3.2481410503387451172 3.3731555938720703125 4.0866808891296386719 3.6348612308502197266 2.0424072742462158203 1.6095587015151977539 
3.8768575191497802734 3.986225128173828125 3.2400326728820800781 2.3515272140502929688 3.0656220912933349609 3.1344592571258544922 2.9172585010528564453 2.8072423934936523438 2.7686605453491210938 3.4449489116668701172 3.456356048583984375 2.8520171642303466797 2.3321566581726074219 3.4463815689086914063 3.1662290096282958984 2.9401216506958007813 3.5409364700317382813 4.1144237518310546875 2.8773722648620605469 1.5999311208724975586 
