ncols        20
nrows        20
xllcorner    -0.000000000000
yllcorner    0.000000000000
cellsize     10.000000000000
NODATA_value nan
3.16623687744140625 3.1221678256988525391 3.0306098461151123047 2.8317339420318603516 3.4911930561065673828 3.5109887123107910156 3.7900130748748779297 4.790798187255859375 3.2266559600830078125 2.7739810943603515625 2.8191027641296386719 2.6968610286712646484 2.8941709995269775391 3.0067770481109619141 3.8528952598571777344 5.5806226730346679688 4.4698567390441894531 3.0507085323333740234 2.7403836250305175781 3.0092279911041259766 
2.9132170677185058594 3.1748423576354980469 3.0098335742950439453 2.3272273540496826172 2.6559834480285644531 3.7422475814819335938 4.4012231826782226563 5.7855930328369140625 4.658966064453125 3.9857456684112548828 2.4272401332855224609 2.2545893192291259766 2.0899612903594970703 2.6810553073883056641 3.4724116325378417969 4.0938787460327148438 3.5126237869262695313 2.7145662307739257813 2.6718909740447998047 2.7066085338592529297 
2.6929998397827148438 2.8011713027954101563 2.7933068275451660156 2.1745977401733398438 2.8331806659698486328 3.1832025051116943359 3.8417510986328125 4.4426617622375488281 3.6032400131225585938 3.8572323322296142578 2.1854860782623291016 2.0692114830017089844 2.0631842613220214844 2.4072592258453369141 2.7961292266845703125 2.9980902671813964844 2.4134769439697265625 2.1054105758666992188 2.2774789333343505859 2.2903003692626953125 
2.4595813751220703125 2.47965240478515625 2.5675206184387207031 1.9630810022354125977 2.2251970767974853516 2.9524774551391601563 3.4146037101745605469 3.2926394939422607422 2.9686479568481445313 3.5111260414123535156 2.0980994701385498047 2.1181223392486572266 2.24230194091796875 2.6707592010498046875 2.9764313697814941406 2.6921355724334716797 2.5752315521240234375 2.5297076702117919922 2.0909683704376220703 2.5776617527008056641 
2.365047454833984375 2.4446527957916259766 2.1258978843688964844 1.8371112346649169922 1.9704294204711914063 2.4397683143615722656 2.8105585575103759766 3.1178326606750488281 3.7893869876861572266 4.8341412544250488281 2.5607409477233886719 2.1729924678802490234 2.1735887527465820313 1.9721542596817016602 2.3805823326110839844 2.5875597000122070313 1.7167570590972900391 2.2988123893737792969 1.9197956323623657227 1.99437713623046875 
3.3615207672119140625 2.4947969913482666016 1.9457747936248779297 1.6319265365600585938 1.6170625686645507813 1.7804099321365356445 2.1491229534149169922 2.2173123359680175781 3.0509169101715087891 2.9587867259979248047 1.7085158824920654297 1.6283924579620361328 2.40467071533203125 3.2523179054260253906 1.8384037017822265625 2.2443985939025878906 2.1905379295349121094 2.0611491203308105469 1.8269116878509521484 1.7144950628280639648 
3.2436802387237548828 2.3924536705017089844 1.6795114278793334961 1.5976607799530029297 1.839543461799621582 3.5223743915557861328 5.3798375129699707031 3.0202748775482177734 1.9073828458786010742 1.4546531438827514648 1.420124053955078125 1.7850124835968017578 2.7192411422729492188 2.8891401290893554688 2.1831376552581787109 3.0955357551574707031 2.2534646987915039063 1.9876167774200439453 1.4727972745895385742 1.459209442138671875 
2.1098182201385498047 1.7116283178329467773 1.680779576301574707 1.4595518112182617188 1.6682567596435546875 3.1260433197021484375 6.6459727287292480469 4.0171093940734863281 1.926161646842956543 1.4882745742797851563 2.05889892578125 2.6900513172149658203 2.9022314548492431641 3.9450495243072509766 2.6112232208251953125 2.3249495029449462891 1.644728541374206543 1.2402150630950927734 1.2502080202102661133 1.2874633073806762695 
2.3794393539428710938 2.4544899463653564453 1.6217904090881347656 1.3514606952667236328 1.6181082725524902344 3.5250608921051025391 4.7202296257019042969 2.6443247795104980469 1.9998251199722290039 1.5533632040023803711 1.6041051149368286133 2.2386395931243896484 2.5586223602294921875 3.5374631881713867188 2.1769819259643554688 1.1464781761169433594 1.4433858394622802734 1.2692421674728393555 1.2111159563064575195 1.5446053743362426758 
2.5009160041809082031 2.9727487564086914063 2.0788276195526123047 1.7165292501449584961 1.8650907278060913086 2.437755584716796875 2.7050583362579345703 3.2565913200378417969 2.9177377223968505859 2.2664644718170166016 2.2062563896179199219 2.2376968860626220703 2.2245259284973144531 2.3902850151062011719 2.0622255802154541016 1.2550327777862548828 1.2257654666900634766 1.3350636959075927734 1.5594266653060913086 1.6156122684478759766 
2.3427813053131103516 2.2121999263763427734 1.4052368402481079102 1.5178813934326171875 1.9113152027130126953 1.5724046230316162109 1.3046873807907104492 2.3788142204284667969 2.6205639839172363281 2.3704855442047119141 2.6160893440246582031 2.1475398540496826172 1.1947107315063476563 1.7019033432006835938 2.1709165573120117188 2.5496821403503417969 1.1289892196655273438 1.3464859724044799805 2.2594954967498779297 1.854152679443359375 
2.7307269573211669922 2.7205452919006347656 1.3847700357437133789 1.2606731653213500977 1.7344915866851806641 1.7564265727996826172 1.8099629878997802734 2.3428440093994140625 2.2869434356689453125 2.5028650760650634766 2.6358578205108642578 2.1203279495239257813 1 1.1540768146514892578 1.2703821659088134766 1.4292929172515869141 1.2991896867752075195 1.5737334489822387695 1.9287887811660766602 1.5285658836364746094 
2.4532070159912109375 2.6190266609191894531 1.6820682287216186523 1.9578430652618408203 2.6399936676025390625 2.6279933452606201172 1.867659449577331543 2.3187360763549804688 2.5600137710571289063 2.1217169761657714844 2.1750414371490478516 1.6597820520401000977 1 1.0938738584518432617 1.2743924856185913086 1.2727239131927490234 1.0951372385025024414 1.4586244821548461914 1.6028209924697875977 1.5484763383865356445 
2.1793239116668701172 2.3859615325927734375 1.984097599983215332 2.25052642822265625 1.3754627704620361328 1.3836455345153808594 1.1671173572540283203 1.5129719972610473633 2.1976401805877685547 1.0671900510787963867 1 1.2682843208312988281 1.298797607421875 1.0754985809326171875 1.0042314529418945313 1.2974983453750610352 1.8319340944290161133 1.6284456253051757813 1.6811201572418212891 1.5647666454315185547 
3.2913844585418701172 2.6540634632110595703 2.8542299270629882813 2.9857025146484375 1.5780994892120361328 1 1 1.0710389614105224609 1.1045360565185546875 1.0496932268142700195 1.2415469884872436523 1.1650347709655761719 2.4175100326538085938 1.6443266868591308594 2.14342498779296875 2.6760354042053222656 1.9291955232620239258 2.0424983501434326172 1.7691042423248291016 1.4963088035583496094 
2.5799562931060791016 1.8840264081954956055 2.2966883182525634766 2.253910064697265625 1.4748044013977050781 1 1 1 1 1 1.2291895151138305664 1 2.26004791259765625 2.0711927413940429688 2.7052516937255859375 2.7755768299102783203 1.8049627542495727539 1.6022487878799438477 1.3846514225006103516 1.1405504941940307617 
4.4363856315612792969 4.1437444686889648438 2.7355356216430664063 1.5824903249740600586 1.0036387443542480469 1 1 1 1 1.0109020471572875977 1.1017142534255981445 1.8530031442642211914 2.8947989940643310547 3.2641584873199462891 3.1252930164337158203 3.3011660575866699219 3.2749860286712646484 2.5339081287384033203 1.4301725625991821289 1 
3.9223818778991699219 3.2957944869995117188 3.3600320816040039063 2.4614243507385253906 1.5981760025024414063 1.3188599348068237305 1 1 1.1547704935073852539 1.2792607545852661133 1.549954533576965332 1.7790455818176269531 2.6756923198699951172 2.4006297588348388672 2.2391901016235351563 2.9685919284820556641 3.7370176315307617188 2.9180746078491210938 1.5060286521911621094 1 
2.9623894691467285156 2.6663005352020263672 2.1995134353637695313 2.3276124000549316406 1.7622410058975219727 1.4100024700164794922 1.0552543401718139648 1.2611047029495239258 1.3843669891357421875 1 1.4423761367797851563 1.3454279899597167969 2.0277488231658935547 2.5570039749145507813 2.4181599617004394531 2.5851967334747314453 3.4733076095581054688 3.0817968845367431641 1.54479217529296875 1 
2.9113790988922119141 3.0551230907440185547 2.3253140449523925781 1.6303163766860961914 2.2947711944580078125 2.3165538311004638672 2.1583268642425537109 1.9336593151092529297 1.9057888984680175781 2.6151354312896728516 2.6223838329315185547 2.1448609828948974609 1.4783940315246582031 2.5721623897552490234 2.4221966266632080078 2.2204992771148681641 2.8874361515045166016 3.4176924228668212891 2.1113290786743164063 1 
