ncols        20
nrows        20
xllcorner    -0.000000000000
yllcorner    0.000000000000
cellsize     10.000000000000
NODATA_value nan
2.5411994457244873047 2.6575231552124023438 2.5752341747283935547 2.4866228103637695313 3.1064503192901611328 3.3285675048828125 3.65106964111328125 4.597057342529296875 3.2228047847747802734 2.7607352733612060547 2.5093717575073242188 2.4081783294677734375 2.9463293552398681641 3.1016254425048828125 3.8035147190093994141 5.4074330329895019531 4.2649846076965332031 2.9620916843414306641 2.4551365375518798828 2.5901408195495605469 
2.3641417026519775391 2.5926051139831542969 2.4374759197235107422 2.0367834568023681641 2.5119328498840332031 3.6539771556854248047 4.0898027420043945313 5.5514531135559082031 4.4782509803771972656 3.8509075641632080078 2.1628220081329345703 2.0198323726654052734 2.0335853099822998047 2.7101180553436279297 3.5273747444152832031 4.1380867958068847656 3.3915677070617675781 2.4375264644622802734 2.2858092784881591797 2.2661716938018798828 
2.1711368560791015625 2.2959806919097900391 2.2537610530853271484 1.9246603250503540039 2.9059095382690429688 3.1011476516723632813 3.5627610683441162109 4.1695857048034667969 3.3065574169158935547 3.5171530246734619141 1.9737297296524047852 1.936672210693359375 1.9853104352951049805 2.3916668891906738281 2.8560466766357421875 3.1383702754974365234 2.3801522254943847656 1.9554144144058227539 2.0852739810943603516 2.0386064052581787109 
1.9885513782501220703 2.0567600727081298828 2.1319992542266845703 1.7326940298080444336 2.1956281661987304688 2.8552334308624267578 3.0151503086090087891 2.8281409740447998047 2.4599337577819824219 3.0944375991821289063 1.8929677009582519531 2.0206270217895507813 2.2480230331420898438 2.7575101852416992188 3.2120325565338134766 2.8453495502471923828 2.6932990550994873047 2.6042277812957763672 1.9766212701797485352 2.2027561664581298828 
2.0498833656311035156 2.0550825595855712891 1.8653110265731811523 1.6559587717056274414 1.7494959831237792969 2.1442723274230957031 2.52996063232421875 2.6186504364013671875 3.1969933509826660156 4.4185581207275390625 2.2837617397308349609 1.9205753803253173828 1.9150263071060180664 1.9402290582656860352 2.4653692245483398438 2.7492208480834960938 1.6589772701263427734 2.2836554050445556641 1.8546806573867797852 1.7728339433670043945 
2.9267096519470214844 2.0240240097045898438 1.7997770309448242188 1.5323328971862792969 1.5130120515823364258 1.7240775823593139648 2.0411498546600341797 1.9852181673049926758 2.6843404769897460938 2.6343986988067626953 1.4826176166534423828 1.5864338874816894531 2.2008893489837646484 3.27007293701171875 1.8783116340637207031 2.3686404228210449219 2.3693282604217529297 2.1533954143524169922 1.9242917299270629883 1.4707239866256713867 
3.0386927127838134766 2.1651434898376464844 1.5741331577301025391 1.6129360198974609375 1.8769183158874511719 3.6489551067352294922 5.5117611885070800781 3.2279932498931884766 2.0163166522979736328 1.3790438175201416016 1.4133439064025878906 1.8645374774932861328 2.5786538124084472656 3.0567443370819091797 2.2783663272857666016 3.150066375732421875 2.4951813220977783203 2.1928040981292724609 1.5357203483581542969 1.3395838737487792969 
2.2674543857574462891 1.7714533805847167969 1.7829258441925048828 1.4305791854858398438 1.6193907260894775391 3.1349506378173828125 6.7628560066223144531 4.1918306350708007813 2.0091595649719238281 1.532996058464050293 2.3024981021881103516 3.1014270782470703125 3.0771119594573974609 4.1577515602111816406 2.8448972702026367188 2.4862730503082275391 1.7519079446792602539 1.2182679176330566406 1.2285398244857788086 1.2321906089782714844 
2.75864410400390625 2.6930396556854248047 1.6592600345611572266 1.1739495992660522461 1.3201009035110473633 3.3590140342712402344 4.834629058837890625 2.8052349090576171875 2.13466644287109375 1.6830064058303833008 1.7574137449264526367 2.5360302925109863281 2.7663393020629882813 3.6132428646087646484 2.1850020885467529297 1.1315653324127197266 1.2163007259368896484 1.136821746826171875 1.1394901275634765625 1.7216868400573730469 
2.9071719646453857422 3.1581454277038574219 1.7829440832138061523 1.3215616941452026367 1.3909033536911010742 2.1252837181091308594 2.7740845680236816406 3.4366714954376220703 3.1390287876129150391 2.6252176761627197266 2.5640721321105957031 2.5632710456848144531 2.3747050762176513672 2.4124310016632080078 1.8622850179672241211 1.0711493492126464844 1.0714066028594970703 1.4231363534927368164 1.7517856359481811523 1.7943624258041381836 
2.5097081661224365234 2.2615342140197753906 1.1419097185134887695 1.1339740753173828125 1.2910451889038085938 1.173297882080078125 1.2953016757965087891 2.4082887172698974609 2.9136855602264404297 2.8487973213195800781 3.2105667591094970703 2.5893728733062744141 1.3119889497756958008 1.5249844789505004883 1.9036933183670043945 2.1742079257965087891 1 1.5121656656265258789 2.7190549373626708984 2.1170194149017333984 
2.8321285247802734375 2.7985873222351074219 1.2293307781219482422 1 1.1551204919815063477 1.1693544387817382813 1.6006815433502197266 2.2872595787048339844 2.63155364990234375 3.0049777030944824219 3.1631758213043212891 2.5926175117492675781 1.1042742729187011719 1.0027059316635131836 1 1.0386068820953369141 1.1058492660522460938 1.8635234832763671875 2.26602935791015625 1.6293410062789916992 
2.4431052207946777344 2.6125323772430419922 1.559146881103515625 1.758968353271484375 2.4009981155395507813 2.1502022743225097656 1.4926868677139282227 2.2545337677001953125 2.8980889320373535156 2.4278388023376464844 2.4933400154113769531 1.9083448648452758789 1.0066542625427246094 1 1 1.0000284910202026367 1 1.558087468147277832 1.8797661066055297852 1.7723604440689086914 
1.9110174179077148438 2.0681030750274658203 1.9404406547546386719 2.3191428184509277344 1.3450466394424438477 1.2336944341659545898 1.0032417774200439453 1.5461851358413696289 2.4719967842102050781 1.1518504619598388672 1.0851273536682128906 1.2842752933502197266 1.2209621667861938477 1 1.003481745719909668 1.4374828338623046875 2.0611550807952880859 1.9123826026916503906 2.0596380233764648438 1.8735780715942382813 
2.9828424453735351563 2.3786282539367675781 2.8799815177917480469 3.3407626152038574219 1.8037191629409790039 1.1032782793045043945 1.0514150857925415039 1.1517897844314575195 1.2072732448577880859 1 1 1.107074737548828125 2.5313196182250976563 1.6582487821578979492 2.1961529254913330078 2.9383890628814697266 2.2922003269195556641 2.5127530097961425781 2.2378184795379638672 1.8703063726425170898 
2.3405728340148925781 1.8187645673751831055 2.2794644832611083984 2.5636208057403564453 1.7517018318176269531 1.1033844947814941406 1.0524971485137939453 1.075121760368347168 1.1695560216903686523 1.0151919126510620117 1.0008215904235839844 1.0592802762985229492 2.4317467212677001953 2.2294104099273681641 2.94005584716796875 2.9381110668182373047 2.0722875595092773438 1.9434649944305419922 1.7750784158706665039 1.500635981559753418 
4.3658480644226074219 3.953441619873046875 2.6166844367980957031 1.7155491113662719727 1.143845677375793457 1.1564686298370361328 1.0720640420913696289 1.1231846809387207031 1.0739474296569824219 1 1 1.9584003686904907227 3.1932911872863769531 3.5524191856384277344 3.5187976360321044922 3.5914201736450195313 3.6116669178009033203 2.8628661632537841797 1.6898528337478637695 1.2447998523712158203 
3.9333410263061523438 3.3660306930541992188 3.3119921684265136719 2.6552212238311767578 1.8691080808639526367 1.5274993181228637695 1.1403251886367797852 1.1994513273239135742 1.3256027698516845703 1.3903670310974121094 1.6315947771072387695 1.8908768892288208008 2.9567723274230957031 2.8486435413360595703 2.6291532516479492188 3.2616662979125976563 4.0046453475952148438 3.2312486171722412109 1.5777430534362792969 1.149891972541809082 
3.1685271263122558594 2.9293589591979980469 2.3855407238006591797 2.510227203369140625 1.9837350845336914063 1.7448096275329589844 1.3514310121536254883 1.578825831413269043 1.6559604406356811523 1.2079049348831176758 1.5889824628829956055 1.3924688100814819336 2.1262311935424804688 2.8453686237335205078 2.6780953407287597656 2.8018147945404052734 3.484958648681640625 3.0568678379058837891 1.5269782543182373047 1.1072975397109985352 
3.2241790294647216797 3.3357102870941162109 2.6143038272857666016 1.7621006965637207031 2.4330394268035888672 2.49566650390625 2.3037524223327636719 2.1861307621002197266 2.1573243141174316406 2.8089513778686523438 2.8321244716644287109 2.2409882545471191406 1.7374093532562255859 2.8103249073028564453 2.5378317832946777344 2.3289129734039306641 2.8989493846893310547 3.4627840518951416016 2.2618868350982666016 1.0190154314041137695 
