ncols        20
nrows        20
xllcorner    -0.000000000000
yllcorner    0.000000000000
cellsize     10.000000000000
NODATA_value nan
1.4765381813049316406 1.5154564380645751953 1.4464895725250244141 1.3536095619201660156 1.8578237295150756836 2.0569598674774169922 2.4006953239440917969 3.2922487258911132813 1.984325408935546875 1.6250172853469848633 1.3775056600570678711 1.2913420200347900391 1.7902861833572387695 1.9401257038116455078 2.5517730712890625 4.0955939292907714844 2.9735720157623291016 1.7590699195861816406 1.3170421123504638672 1.4481060504913330078 
1.4047021865844726563 1.5987718105316162109 1.4483516216278076172 1.0796815156936645508 1.446133732795715332 2.4997861385345458984 2.8890619277954101563 4.3624620437622070313 3.3660497665405273438 2.786396026611328125 1.1713417768478393555 1.0592108964920043945 1.0885752439498901367 1.6750916242599487305 2.3784525394439697266 2.9603104591369628906 2.2641167640686035156 1.3853523731231689453 1.2813087701797485352 1.288089752197265625 
1.3351155519485473633 1.4306818246841430664 1.3958464860916137695 1.0798311233520507813 1.9608013629913330078 2.0774266719818115234 2.5386359691619873047 3.1212606430053710938 2.3636715412139892578 2.5936341285705566406 1.0923045873641967773 1.0605789422988891602 1.1191873550415039063 1.4628198146820068359 1.9099777936935424805 2.1750159263610839844 1.4882242679595947266 1.0969858169555664063 1.1784882545471191406 1.1699628829956054688 
1.2625663280487060547 1.3174976110458374023 1.3953019380569458008 1.0247919559478759766 1.3984719514846801758 1.9794002771377563477 2.1552293300628662109 2.0110707283020019531 1.6488070487976074219 2.3051903247833251953 1.1849212646484375 1.2688852548599243164 1.4780651330947875977 1.9158000946044921875 2.3909986019134521484 2.0320353507995605469 1.9026585817337036133 1.8316996097564697266 1.1771541833877563477 1.4183721542358398438 
1.3846111297607421875 1.4011887311935424805 1.2189202308654785156 1.040283203125 1.1345831155776977539 1.4464403390884399414 1.8186545372009277344 1.9012596607208251953 2.5354931354522705078 3.7268035411834716797 1.6555116176605224609 1.2548072338104248047 1.2492045164108276367 1.3021519184112548828 1.787831425666809082 2.0612854957580566406 1.0469508171081542969 1.585457921028137207 1.199885249137878418 1.1354938745498657227 
2.3773751258850097656 1.4833369255065917969 1.2602505683898925781 1.0146253108978271484 1.0038799047470092773 1.1567214727401733398 1.4866396188735961914 1.4131035804748535156 2.1484076976776123047 2.1198749542236328125 1.0012598037719726563 1.0755661725997924805 1.5938372611999511719 2.6813519001007080078 1.3751653432846069336 1.8072462081909179688 1.8541486263275146484 1.6368510723114013672 1.4377202987670898438 1 
2.6364171504974365234 1.7392290830612182617 1.156907200813293457 1.2070053815841674805 1.4252521991729736328 3.1789178848266601563 5.0641417503356933594 2.8100364208221435547 1.621166229248046875 1 1.0436242818832397461 1.4603962898254394531 2.0619280338287353516 2.5194220542907714844 1.8035970926284790039 2.7163784503936767578 2.0772182941436767578 1.8638336658477783203 1.2357549667358398438 1.0010925531387329102 
1.928480982780456543 1.468395233154296875 1.5097925662994384766 1.1228104829788208008 1.3163480758666992188 2.851226806640625 6.4074540138244628906 3.8803541660308837891 1.7158842086791992188 1.2660989761352539063 2.0342190265655517578 2.7444109916687011719 2.6596720218658447266 3.6869447231292724609 2.4706397056579589844 2.1511244773864746094 1.4786124229431152344 1.0209406614303588867 1.036173701286315918 1.0196204185485839844 
2.5513679981231689453 2.4301950931549072266 1.4411571025848388672 1.0296778678894042969 1.1796599626541137695 3.1797041893005371094 4.6286616325378417969 2.5882303714752197266 1.923525691032409668 1.5412076711654663086 1.5760111808776855469 2.3323738574981689453 2.4774060249328613281 3.2851297855377197266 1.9915215969085693359 1 1.0771216154098510742 1 1.0019636154174804688 1.5703802108764648438 
2.7436327934265136719 2.9837250709533691406 1.7135548591613769531 1.2900596857070922852 1.3871753215789794922 2.0870625972747802734 2.6644127368927001953 3.2457001209259033203 2.9710512161254882813 2.5040998458862304688 2.4788465499877929688 2.4148352146148681641 2.2597610950469970703 2.3167524337768554688 1.8199838399887084961 1.0636830329895019531 1.0373061895370483398 1.3545910120010375977 1.6999305486679077148 1.7146065235137939453 
2.4820680618286132813 2.2700796127319335938 1.2449554204940795898 1.2294137477874755859 1.4321004152297973633 1.2778807878494262695 1.3677566051483154297 2.3815393447875976563 2.8311343193054199219 2.8719017505645751953 3.2882199287414550781 2.6431307792663574219 1.3838676214218139648 1.5930604934692382813 1.9677094221115112305 2.287548065185546875 1.08803558349609375 1.5983911752700805664 2.7390656471252441406 2.1346602439880371094 
2.9104297161102294922 2.8627018928527832031 1.4262599945068359375 1.198904871940612793 1.3880267143249511719 1.4097763299942016602 1.8469710350036621094 2.4209258556365966797 2.7156326770782470703 3.0781869888305664063 3.2452392578125 2.7573506832122802734 1.3418908119201660156 1.2669759988784790039 1.2483158111572265625 1.283308863639831543 1.2978218793869018555 2.0243916511535644531 2.3929586410522460938 1.7845157384872436523 
2.6711483001708984375 2.8534605503082275391 1.8637422323226928711 2.0745465755462646484 2.7126920223236083984 2.4628770351409912109 1.8333187103271484375 2.4928131103515625 3.1153903007507324219 2.6892719268798828125 2.7343161106109619141 2.1835563182830810547 1.339200139045715332 1.3923749923706054688 1.4028403759002685547 1.3654189109802246094 1.3539868593215942383 1.8625589609146118164 2.1628241539001464844 2.0614285469055175781 
2.3115367889404296875 2.4716696739196777344 2.3448073863983154297 2.6765422821044921875 1.7603513002395629883 1.6835085153579711914 1.4897410869598388672 1.9592833518981933594 2.8409681320190429688 1.6166402101516723633 1.5512927770614624023 1.699936985969543457 1.68010711669921875 1.4989371299743652344 1.4854602813720703125 1.8764622211456298828 2.4782195091247558594 2.3343398571014404297 2.5323691368103027344 2.3218007087707519531 
3.4474730491638183594 2.85347747802734375 3.3773977756500244141 3.7735986709594726563 2.3747999668121337891 1.728903651237487793 1.6448768377304077148 1.7385718822479248047 1.7630209922790527344 1.6535234451293945313 1.6455558538436889648 1.6949716806411743164 3.1234328746795654297 2.2441961765289306641 2.7221789360046386719 3.4155716896057128906 2.8073661327362060547 3.0645239353179931641 2.8584787845611572266 2.5042836666107177734 
2.9698014259338378906 2.4781963825225830078 2.9125647544860839844 3.2045345306396484375 2.4501805305480957031 1.8451945781707763672 1.862305760383605957 1.8874601125717163086 1.9542243480682373047 1.8142058849334716797 1.8017727136611938477 1.7833483219146728516 3.0732054710388183594 2.8672649860382080078 3.5275104045867919922 3.529743194580078125 2.7326636314392089844 2.64532470703125 2.5201618671417236328 2.2781603336334228516 
5.1169805526733398438 4.7263927459716796875 3.3675072193145751953 2.5405237674713134766 2.0017027854919433594 2.02130889892578125 1.995831608772277832 2.0382254123687744141 1.9845145940780639648 1.8820350170135498047 1.8590514659881591797 2.7389276027679443359 3.9047808647155761719 4.2517542839050292969 4.2116708755493164063 4.3042035102844238281 4.290683746337890625 3.5997240543365478516 2.5218875408172607422 2.1818802356719970703 
4.8045363426208496094 4.2330884933471679688 4.1884398460388183594 3.5712215900421142578 2.7892854213714599609 2.4798378944396972656 2.1512517929077148438 2.2484464645385742188 2.2788503170013427734 2.3588738441467285156 2.5753462314605712891 2.8467657566070556641 3.8342843055725097656 3.7195670604705810547 3.4894845485687255859 4.1038389205932617188 4.7981042861938476563 4.0782608985900878906 2.5345468521118164063 2.2003602981567382813 
4.1635251045227050781 3.9286599159240722656 3.4092600345611572266 3.5603504180908203125 3.0285999774932861328 2.8447232246398925781 2.4993801116943359375 2.6763987541198730469 2.7215290069580078125 2.3134806156158447266 2.6436402797698974609 2.4771869182586669922 3.1666581630706787109 3.8052866458892822266 3.6890375614166259766 3.8013608455657958984 4.4350614547729492188 4.0243902206420898438 2.5855939388275146484 2.2599422931671142578 
4.3403887748718261719 4.4176878929138183594 3.7588601112365722656 2.9443764686584472656 3.6113486289978027344 3.6674947738647460938 3.4517171382904052734 3.3745734691619873047 3.3279764652252197266 3.9353411197662353516 3.9358615875244140625 3.3907809257507324219 2.956600189208984375 3.9276852607727050781 3.6864066123962402344 3.469440460205078125 4.0294141769409179688 4.5369095802307128906 3.4285664558410644531 2.3248949050903320313 
