ncols        20
nrows        20
xllcorner    -0.000000000000
yllcorner    0.000000000000
cellsize     10.000000000000
NODATA_value nan
3.0230576992034912109 2.3669347763061523438 2.2668695449829101563 1.8832211494445800781 1.7586848735809326172 1.3204854726791381836 1.6943551301956176758 2.5291688442230224609 1 1 1.6872110366821289063 1.5839418172836303711 1 1 1.5883330106735229492 2.8845040798187255859 2.1751587390899658203 1.2004050016403198242 1.5752128362655639648 2.1751742362976074219 
2.8472428321838378906 2.8901562690734863281 2.8350284099578857422 1.6641868352890014648 1.0000817775726318359 1.5584242343902587891 2.2758390903472900391 3.5022044181823730469 2.7948355674743652344 2.4812209606170654297 1.6135288476943969727 1.4485079050064086914 1 1 1 1.4325199127197265625 1.43943023681640625 1.5939912796020507813 2.0918858051300048828 2.3585011959075927734 
2.7543275356292724609 2.6353685855865478516 2.8134255409240722656 1.5301482677459716797 1 1.2777035236358642578 2.0313184261322021484 2.5428674221038818359 2.4160051345825195313 2.8570237159729003906 1.3149181604385375977 1.1156659126281738281 1 1 1 1 1 1.1509820222854614258 1.3100212812423706055 1.5751606225967407227 
2.6061179637908935547 2.4090933799743652344 2.4105408191680908203 1.5176244974136352539 1 1.3744081258773803711 2.2561309337615966797 2.6123983860015869141 2.5772891044616699219 3.0209941864013671875 1.629552006721496582 1.1675059795379638672 1 1 1 1 1 1 1.122216343879699707 2.0563967227935791016 
1.9020646810531616211 2.2270896434783935547 1.6822401285171508789 1.4605786800384521484 1.5195311307907104492 1.8535524606704711914 1.9024518728256225586 2.6149976253509521484 3.9299738407135009766 4.3168010711669921875 2.2922253608703613281 1.7100703716278076172 1.6330047845840454102 1.0010915994644165039 1 1 1 1 1 1.5405046939849853516 
3.38188934326171875 2.5376353263854980469 1.2968860864639282227 1.0655099153518676758 1.1792802810668945313 1 1.4534775018692016602 1.6838228702545166016 2.9314241409301757813 2.9535515308380126953 1.6537570953369140625 1 1.6025884151458740234 2.1258966922760009766 1 1 1 1 1 1.7055706977844238281 
3.1399924755096435547 2.1801664829254150391 1.1908557415008544922 1 1 2.4180033206939697266 4.1852235794067382813 1.8055772781372070313 1.0727145671844482422 1.1331989765167236328 1 1 1.7715035676956176758 1.2497702836990356445 1.0154824256896972656 2.1286287307739257813 1 1 1 1.4158531427383422852 
1.0013010501861572266 1 1 1 1.2124466896057128906 2.6290748119354248047 5.6639089584350585938 3.0685772895812988281 1.2743580341339111328 1 1 1 1.4307577610015869141 2.1041138172149658203 1.2863444089889526367 1.2488291263580322266 1 1.1664284467697143555 1.1321791410446166992 1.2948411703109741211 
1 1.1504092216491699219 1.0463281869888305664 1.6389682292938232422 2.0833714008331298828 3.5548932552337646484 4.0366358757019042969 1.7005360126495361328 1.2413628101348876953 1 1 1 1.2813657522201538086 2.28672027587890625 1.6980869770050048828 1.1227350234985351563 1.8317264318466186523 1.4298305511474609375 1.2250798940658569336 1 
1 1.8143881559371948242 2.3807399272918701172 2.6303410530090332031 2.9202697277069091797 3.0084049701690673828 2.1351549625396728516 2.0812916755676269531 1.6943461894989013672 1 1 1 1.518657684326171875 1.9979950189590454102 2.4283101558685302734 1.8820173740386962891 1.6883804798126220703 1 1 1 
1.5881259441375732422 1.8611899614334106445 2.1965858936309814453 2.6289162635803222656 3.6207938194274902344 2.7617087364196777344 1.3697307109832763672 1.9532246589660644531 1.3786908388137817383 1.0179442167282104492 1 1 1 2.1811203956604003906 2.8245611190795898438 3.6336026191711425781 1.7185196876525878906 1 1 1.0911462306976318359 
2.2689259052276611328 2.2290377616882324219 2.0671086311340332031 2.2105400562286376953 3.5222375392913818359 3.5591006278991699219 2.7533314228057861328 2.4775669574737548828 1.3374136686325073242 1.227124333381652832 1.2487391233444213867 1.1377054452896118164 1.2219188213348388672 2.2278826236724853516 2.4364237785339355469 2.8793838024139404297 2.0981462001800537109 1.1610212326049804688 1.1689534187316894531 1.4694254398345947266 
2.6617181301116943359 2.7854585647583007813 2.3780765533447265625 2.8309361934661865234 3.7160093784332275391 4.11395263671875 3.2894427776336669922 2.6377043724060058594 1.9585119485855102539 1.6949880123138427734 1.5783753395080566406 1.4439556598663330078 1.7138153314590454102 2.1839110851287841797 2.9523715972900390625 2.6549196243286132813 2.0783588886260986328 1.6708195209503173828 1.3717150688171386719 1.4588029384613037109 
3.3121964931488037109 3.5653123855590820313 2.7024886608123779297 2.5402598381042480469 2.2650842666625976563 2.5948052406311035156 2.5792779922485351563 2.1356165409088134766 1.9965651035308837891 1.7561478614807128906 1.738770604133605957 2.0632965564727783203 2.3772985935211181641 2.3072435855865478516 1.9262651205062866211 1.6295570135116577148 1.9047583341598510742 1.6686038970947265625 1.4540250301361083984 1.5882753133773803711 
4.2521166801452636719 3.7827439308166503906 3.4379367828369140625 2.6466932296752929688 2.08221435546875 1.9880677461624145508 2.0455560684204101563 2.0564680099487304688 1.9296785593032836914 2.6262667179107666016 3.3959493637084960938 2.4446897506713867188 3.2032489776611328125 2.6308388710021972656 2.9110524654388427734 2.7017292976379394531 1.8894373178482055664 1.7165637016296386719 1.4047521352767944336 1.5405319929122924805 
4.0665078163146972656 3.2681028842926025391 3.4039118289947509766 2.6432015895843505859 2.0492343902587890625 2.2954008579254150391 2.5371870994567871094 2.4277484416961669922 2.0839624404907226563 2.5757930278778076172 3.7127757072448730469 2.3115785121917724609 2.8907487392425537109 2.728359222412109375 3.0083785057067871094 3.2794115543365478516 2.3851759433746337891 1.9766042232513427734 1.4943352937698364258 1.4333921670913696289 
5.8350992202758789063 5.9424343109130859375 4.3227338790893554688 2.8309063911437988281 2.3689258098602294922 2.3746392726898193359 2.6870198249816894531 2.4914312362670898438 2.6528234481811523438 2.8811752796173095703 3.0500333309173583984 3.0038299560546875 3.280300140380859375 3.5521137714385986328 3.1892385482788085938 3.6819701194763183594 3.5016012191772460938 2.9223368167877197266 2.25534820556640625 1.9622970819473266602 
5.4853177070617675781 4.7116847038269042969 4.9605388641357421875 3.7694559097290039063 2.8025939464569091797 2.7289307117462158203 2.6680696010589599609 2.5118205547332763672 2.5939264297485351563 3.0205600261688232422 3.2271261215209960938 3.3524248600006103516 3.5999393463134765625 2.8159415721893310547 2.8820879459381103516 3.7198953628540039063 4.2747311592102050781 3.5470418930053710938 3.2239100933074951172 2.7860119342803955078 
4.3702545166015625 3.8967647552490234375 3.7230343818664550781 3.9927899837493896484 3.2990920543670654297 2.6295797824859619141 2.4094805717468261719 2.5003175735473632813 2.7270996570587158203 2.6932785511016845703 3.1146261692047119141 3.6322553157806396484 3.8101887702941894531 3.5472750663757324219 3.7996144294738769531 3.9199428558349609375 4.9790616035461425781 4.738800048828125 3.6590812206268310547 3.0534486770629882813 
4.2551598548889160156 4.3032011985778808594 3.8923907279968261719 3.6678380966186523438 4.3615603446960449219 4.2506690025329589844 4.0709991455078125 3.6606385707855224609 3.642803192138671875 4.3473687171936035156 4.2786455154418945313 4.2310113906860351563 3.3172726631164550781 4.1222200393676757813 4.3915967941284179688 4.2933549880981445313 5.0066218376159667969 5.2021365165710449219 4.1155805587768554688 3.7485446929931640625 
