ncols        20
nrows        20
xllcorner    -0.000000000000
yllcorner    0.000000000000
cellsize     10.000000000000
NODATA_value nan
3.0522210597991943359 2.2676105499267578125 2.4050297737121582031 2.2275087833404541016 1.7957533597946166992 1.2435963153839111328 1.0477223396301269531 1.3470476865768432617 1.0485494136810302734 1.9095985889434814453 2.4969563484191894531 2.56194305419921875 2.9158856868743896484 2.4238808155059814453 1 1.2280281782150268555 1.0668354034423828125 1 2.3010840415954589844 4.9855227470397949219 
3.2079172134399414063 2.0007309913635253906 2.5869615077972412109 2.1937313079833984375 1.0643060207366943359 1 1 1.6381490230560302734 1.5517355203628540039 2.0082769393920898438 1.9747478961944580078 3.1961276531219482422 2.9519736766815185547 2.1894285678863525391 1.1149055957794189453 1.0342893600463867188 1.8881784677505493164 2.9020402431488037109 3.6199700832366943359 5.2948966026306152344 
2.8848111629486083984 2.2795596122741699219 3.2146475315093994141 2.5735163688659667969 2.7218019962310791016 1.58931732177734375 1.1405048370361328125 1 1.1927287578582763672 1.5850627422332763672 1.4661629199981689453 2.1136565208435058594 1.940158843994140625 1.559128880500793457 2.3150861263275146484 3.3696696758270263672 3.5534458160400390625 4.2466764450073242188 3.9368407726287841797 3.9368040561676025391 
3.0206825733184814453 3.0033457279205322266 2.5712766647338867188 3.2032418251037597656 2.7683258056640625 1.9121290445327758789 1.3560597896575927734 1.05863189697265625 1.2358829975128173828 1.6421160697937011719 1.6671482324600219727 1.3799444437026977539 1.9619199037551879883 2.1519744396209716797 2.9922068119049072266 4.0340738296508789063 4.4487895965576171875 4.2191715240478515625 4.0404868125915527344 2.1071929931640625 
1.2454053163528442383 1.6693189144134521484 1.9225908517837524414 3.1469771862030029297 3.0193324089050292969 2.3371758460998535156 1.8746411800384521484 1.0233772993087768555 2.0886976718902587891 2.4654247760772705078 1.6171089410781860352 1.3326585292816162109 1.5646435022354125977 1.0677661895751953125 1.9806489944458007813 3.1954171657562255859 3.3482921123504638672 1.9618171453475952148 3.9548649787902832031 2.5196919441223144531 
1.8154745101928710938 1.3188283443450927734 1.3835333585739135742 4.1290802955627441406 2.2752013206481933594 1.1069394350051879883 1 1 1.6411015987396240234 1.7413021326065063477 1.7635191679000854492 1.5050821304321289063 1.0230326652526855469 1.6113342046737670898 1.6875216960906982422 1.9701772928237915039 2.5712718963623046875 2.3395292758941650391 2.7931635379791259766 2.6405394077301025391 
2.0279140472412109375 1.2323755025863647461 1.3856946229934692383 2.5490560531616210938 1.3194319009780883789 1.9800817966461181641 3.4339427947998046875 1.9163053035736083984 1.4652593135833740234 1.3282239437103271484 2.6438336372375488281 2.7516274452209472656 1.7673844099044799805 1 1 1.4813705682754516602 1.4763436317443847656 3.3804328441619873047 3.5294268131256103516 3.7441532611846923828 
1.0489269495010375977 1.5960450172424316406 1.6604620218276977539 1.7942774295806884766 1.0055321455001831055 1.9306924343109130859 4.5312151908874511719 2.5288274288177490234 1.1553713083267211914 1.9725928306579589844 5.1923232078552246094 4.4351239204406738281 1.2821254730224609375 1.1435828208923339844 1 1.0106786489486694336 2.0265424251556396484 3.1373169422149658203 3.1943187713623046875 3.5065906047821044922 
3.0392451286315917969 1.6767888069152832031 1.1967365741729736328 1.5376764535903930664 1.2821495532989501953 1.9978188276290893555 2.8517735004425048828 1 1.0229358673095703125 2.3176636695861816406 3.5398302078247070313 3.4274230003356933594 1.0557748079299926758 1.0005196332931518555 1.1471107006072998047 1.1474506855010986328 2.7464935779571533203 3.3364629745483398438 2.9748430252075195313 3.3932979106903076172 
3.07054901123046875 2.3115863800048828125 1.8517320156097412109 1.9237560033798217773 1.454075932502746582 1.2912590503692626953 1 1.0543943643569946289 1.2092325687408447266 1.7212969064712524414 2.4231324195861816406 1.9801539182662963867 1.036372065544128418 1.0312637090682983398 1 1.0267273187637329102 2.4991323947906494141 4.0571780204772949219 3.7834541797637939453 3.9732890129089355469 
1.7421076297760009766 2.24951934814453125 2.8976380825042724609 2.8643965721130371094 2.3031077384948730469 1.6408704519271850586 1 1.5933576822280883789 2.3118226528167724609 2.773372650146484375 3.8968219757080078125 3.6935710906982421875 1.9952991008758544922 1.0644294023513793945 1 1.7442998886108398438 1.0583546161651611328 2.2633721828460693359 2.8080399036407470703 3.3848438262939453125 
2.2244467735290527344 3.3894677162170410156 1.9881459474563598633 2.2423117160797119141 1.5379881858825683594 1.3852665424346923828 1.1192195415496826172 1 2.1617474555969238281 3.1432235240936279297 3.4942021369934082031 3.6214704513549804688 2.3795275688171386719 2.2605550289154052734 1.2906632423400878906 1.0888868570327758789 1.0233832597732543945 2.1494972705841064453 1.8656226396560668945 2.0454189777374267578 
4.3476686477661132813 5.1151552200317382813 2.4710886478424072266 1.0343611240386962891 1.5378170013427734375 1.4436649084091186523 1 1 1.2257379293441772461 1.847485661506652832 2.4679107666015625 1.7006140947341918945 1.5806359052658081055 2.2999005317687988281 3.0412399768829345703 1.8062188625335693359 1.1107172966003417969 1.1959825754165649414 1.1939485073089599609 1.6858818531036376953 
4.2980589866638183594 3.7298333644866943359 1.7156714200973510742 1.3907117843627929688 1.1370527744293212891 1.1639641523361206055 1.0095000267028808594 1.3027865886688232422 1.4448797702789306641 2.6125535964965820313 2.0506722927093505859 1 1 1.6157891750335693359 1.6618506908416748047 1.507941126823425293 1.6460776329040527344 2.2481265068054199219 2.6297359466552734375 1.6415810585021972656 
2.4232110977172851563 2.4782280921936035156 2.4289302825927734375 4.348880767822265625 3.3187985420227050781 2.4217591285705566406 1.6627073287963867188 1 1.0495700836181640625 2.0812127590179443359 2.0745189189910888672 1.0873008966445922852 1.8955810070037841797 1.231602787971496582 1.4122104644775390625 1.1056977510452270508 1.4448218345642089844 2.9844365119934082031 4.6970677375793457031 3.4793074131011962891 
1.0607286691665649414 1.0396369695663452148 1.1252676248550415039 2.3427493572235107422 4.235294342041015625 3.4389512538909912109 3.6583616733551025391 2.8185026645660400391 2.2733390331268310547 2.2056305408477783203 2.4514863491058349609 1.2280837297439575195 1.4153627157211303711 1.0680333375930786133 1.1645746231079101563 1.3209095001220703125 1.4421480894088745117 3.3735437393188476563 4.0554418563842773438 3.9231953620910644531 
2.5123531818389892578 2.3615217208862304688 1.2628293037414550781 1.9188234806060791016 3.4064729213714599609 3.5531225204467773438 5.7843685150146484375 4.0187830924987792969 2.4970448017120361328 1.7284363508224487305 2.4156856536865234375 2.3965346813201904297 1.2568860054016113281 1.2083328962326049805 1.6069667339324951172 2.1049170494079589844 1.7895218133926391602 2.482975006103515625 3.8224272727966308594 4.2736883163452148438 
2.3047118186950683594 1.8763076066970825195 1.9400448799133300781 1.6704533100128173828 2.1401419639587402344 3.1709072589874267578 3.9750199317932128906 4.2293219566345214844 2.2290453910827636719 1.4836301803588867188 1.7833400964736938477 3.2341761589050292969 2.493968963623046875 1.6525751352310180664 2.0126421451568603516 2.1822147369384765625 1.7675749063491821289 1.990084528923034668 3.0961577892303466797 3.9801821708679199219 
1.4663659334182739258 1.541095733642578125 1.4200154542922973633 1.8227989673614501953 1.8020070791244506836 4.1054897308349609375 5.3301639556884765625 5.0464034080505371094 3.4814352989196777344 2.9483971595764160156 2.2000300884246826172 3.1340990066528320313 3.0384275913238525391 3.5546541213989257813 2.2156038284301757813 2.3587138652801513672 1.4819111824035644531 1.5914949178695678711 2.1796360015869140625 2.1467835903167724609 
1.8417285680770874023 2.1242494583129882813 1.9526504278182983398 1.6435843706130981445 2.2374708652496337891 3.2202091217041015625 4.1513266563415527344 5.9332089424133300781 4.6233367919921875 2.7834842205047607422 2.3460783958435058594 2.4175870418548583984 4.4984555244445800781 7.2840962409973144531 3.4466893672943115234 3.2356784343719482422 1.6965819597244262695 1.7459433078765869141 2.0335319042205810547 2.383636474609375 
