ncols        20
nrows        20
xllcorner    -0.000000000000
yllcorner    0.000000000000
cellsize     10.000000000000
NODATA_value nan
3.6195466518402099609 2.9408881664276123047 2.7630486488342285156 2.7249865531921386719 2.2035822868347167969 1.6004025936126708984 1.1450209617614746094 1 1.2193553447723388672 2.2697470188140869141 2.8476743698120117188 2.9537222385406494141 3.4450085163116455078 3.1060559749603271484 1.2016981840133666992 1 1 1.3340661525726318359 2.8168790340423583984 4.0260758399963378906 
3.7161371707916259766 2.3171019554138183594 3.0465266704559326172 2.7191193103790283203 1.5118613243103027344 1.5176031589508056641 1.6091370582580566406 1 1 1 2.0874478816986083984 3.6597263813018798828 3.4406681060791015625 2.7776978015899658203 1.5174415111541748047 1.4583797454833984375 2.2045409679412841797 3.0670366287231445313 3.796291351318359375 4.4316382408142089844 
3.5183401107788085938 2.6854357719421386719 3.5823419094085693359 2.8776352405548095703 2.9938006401062011719 2.0233249664306640625 1.7678484916687011719 1.0901057720184326172 1 1 1.0958728790283203125 2.5740408897399902344 2.4396369457244873047 2.2022950649261474609 2.7253136634826660156 3.3702363967895507813 3.310894012451171875 3.4938709735870361328 3.3977055549621582031 3.537708282470703125 
3.5251700878143310547 3.4014782905578613281 3.1736199855804443359 3.4562926292419433594 2.9327640533447265625 2.2214179039001464844 1.7463068962097167969 1.1577585935592651367 1.1724894046783447266 1 1 1 2.4277768135070800781 2.6327674388885498047 3.2591927051544189453 3.8923306465148925781 3.9029915332794189453 3.4156877994537353516 3.2308301925659179688 2.2539081573486328125 
1.6899672746658325195 1.9815996885299682617 2.55959320068359375 3.0588088035583496094 3.0403091907501220703 2.6012866497039794922 1.9606168270111083984 1.1246232986450195313 1 1 1 1.7200360298156738281 2.0567457675933837891 1 2.3240244388580322266 3.2577276229858398438 3.2378249168395996094 2.2963893413543701172 3.1919796466827392578 2.6887340545654296875 
1 1.5369675159454345703 1.8309158086776733398 3.1101682186126708984 2.6499705314636230469 1.5063165426254272461 1.0750567913055419922 1.1105746030807495117 1 1 1.9417424201965332031 1.9655281305313110352 1.2207151651382446289 1 1.9661742448806762695 2.3320660591125488281 2.877777099609375 2.8242771625518798828 3.3382594585418701172 3.0305356979370117188 
1 1 1.8635370731353759766 2.8408722877502441406 1.5849010944366455078 1 1 1 1 1.5307569503784179688 2.9223175048828125 2.8075654506683349609 2.1402301788330078125 1.5787438154220581055 1.6108260154724121094 1 1.3919776678085327148 3.6590051651000976563 4.0943470001220703125 3.7763414382934570313 
1.3545552492141723633 1.9376722574234008789 2.1536970138549804688 2.0912244319915771484 1.3544402122497558594 1 1 1 1 2.2165966033935546875 3.8228831291198730469 3.5658044815063476563 1.6977305412292480469 1.2526509761810302734 1.1630119085311889648 1.1644353866577148438 2.5771956443786621094 3.4158217906951904297 3.55147552490234375 3.7782657146453857422 
3.1193175315856933594 1.9830183982849121094 1.6240968704223632813 2.0330708026885986328 1.6397404670715332031 1 1 1.1971548795700073242 1.4559949636459350586 2.4715547561645507813 2.9455590248107910156 2.8607594966888427734 1.4135056734085083008 1.1557718515396118164 1 1.4665927886962890625 2.8088490962982177734 2.8271877765655517578 2.9113702774047851563 3.2731695175170898438 
2.5033411979675292969 2.0670092105865478516 1.9780286550521850586 2.4032466411590576172 1.4192866086959838867 1 1.2607206106185913086 1.418796539306640625 1.6410580873489379883 2.2506680488586425781 2.7366552352905273438 2.2065212726593017578 1.5352584123611450195 1.2424287796020507813 1.0513526201248168945 1.1364797353744506836 2.3108236789703369141 2.6231884956359863281 2.9082317352294921875 2.7600791454315185547 
1.8523607254028320313 2.1286561489105224609 2.4103097915649414063 2.8453764915466308594 2.7782795429229736328 2.0407633781433105469 1.4244332313537597656 1.7864434719085693359 1.9019305706024169922 2.8032069206237792969 4.1772837638854980469 3.6511747837066650391 2.1568253040313720703 1.2176090478897094727 1.1755087375640869141 1 1.2560000419616699219 2.4385454654693603516 2.9725551605224609375 2.4104888439178466797 
2.1280651092529296875 2.3432993888854980469 2.0799500942230224609 2.2993133068084716797 1.8684364557266235352 1.4356544017791748047 1 1.606383204460144043 2.0289759635925292969 2.8059353828430175781 2.8351829051971435547 3.3497481346130371094 2.8037238121032714844 2.6560525894165039063 1.7274359464645385742 1.2139362096786499023 1.4063204526901245117 2.4025812149047851563 2.2722928524017333984 2.2469792366027832031 
2.7494049072265625 2.8374354839324951172 2.3153164386749267578 1.417143702507019043 1 1 1.5071885585784912109 1.4989285469055175781 1.6737501621246337891 2.1325576305389404297 2.4316141605377197266 2.0397825241088867188 2.0268056392669677734 2.5971722602844238281 3.3337008953094482422 2.2147154808044433594 1.4763216972351074219 1.7419083118438720703 1.6763782501220703125 1.9463896751403808594 
2.8508517742156982422 2.7807002067565917969 2.178249359130859375 1.8719176054000854492 1.3494075536727905273 1.4975632429122924805 1.345204472541809082 1.7260301113128662109 1.9537352323532104492 2.5848040580749511719 2.3901197910308837891 1.3728777170181274414 1.3355177640914916992 1.7619987726211547852 2.0796880722045898438 1.7467895746231079102 1.9411393404006958008 2.5771553516387939453 2.8966317176818847656 1.8984056711196899414 
2.4612576961517333984 2.5369884967803955078 2.4944181442260742188 3.0092158317565917969 2.8740446567535400391 2.7542693614959716797 1.9897481203079223633 1.2193734645843505859 1.3193619251251220703 2.5233638286590576172 2.2420461177825927734 1.1290711164474487305 1 1 1.7746399641036987305 1.3836122751235961914 2.000701904296875 3.1717288494110107422 4.3303580284118652344 3.6355001926422119141 
1.0563871860504150391 1.1254810094833374023 1.4181138277053833008 2.5763173103332519531 3.3980295658111572266 3.3841569423675537109 3.9937407970428466797 3.3047649860382080078 2.3228483200073242188 2.3197999000549316406 2.4774305820465087891 1.2108672857284545898 1 1.1289681196212768555 1.4203469753265380859 1.7240576744079589844 1.6516729593276977539 3.4090638160705566406 4.1743664741516113281 4.2967195510864257813 
1 1 1 1.9151481389999389648 3.1160807609558105469 3.4849746227264404297 4.6940131187438964844 4.182598114013671875 2.63639068603515625 1.7598695755004882813 2.7076709270477294922 2.6588642597198486328 1.3972597122192382813 1.1533520221710205078 1.9893242120742797852 2.3783318996429443359 2.2120828628540039063 2.7127182483673095703 3.4316165447235107422 4.3606152534484863281 
1 1 1 1 2.3836956024169921875 3.3488600254058837891 3.9337868690490722656 4.4272999763488769531 2.6867876052856445313 1.7249871492385864258 2.1303985118865966797 3.1314117908477783203 2.8975358009338378906 1.8063589334487915039 2.4544172286987304688 2.5036051273345947266 2.2807300090789794922 2.4316763877868652344 3.1234717369079589844 4.0380697250366210938 
1 1 1.2942479848861694336 1 2.3073461055755615234 3.9384834766387939453 4.5085620880126953125 4.1619119644165039063 3.3403439521789550781 3.2110359668731689453 2.6741321086883544922 3.3109362125396728516 3.2562410831451416016 3.1954267024993896484 2.6935374736785888672 2.7020356655120849609 1.3377008438110351563 1.6906497478485107422 2.6767406463623046875 2.4147768020629882813 
1.7794209718704223633 2.4030249118804931641 2.2083647251129150391 1.5149905681610107422 2.5079984664916992188 3.37044525146484375 3.7111732959747314453 3.8902201652526855469 3.7410264015197753906 3.1136593818664550781 2.8018815517425537109 2.9491224288940429688 3.7936227321624755859 3.9726624488830566406 3.4291043281555175781 3.1866681575775146484 1.7715177536010742188 1.6831148862838745117 2.2691528797149658203 2.6283829212188720703 
