ncols        20
nrows        20
xllcorner    -0.000000000000
yllcorner    0.000000000000
cellsize     10.000000000000
NODATA_value nan
5.0408773422241210938 4.3704056739807128906 4.4800457954406738281 4.2761249542236328125 3.1211185455322265625 2.9722411632537841797 3.5603775978088378906 4.171222686767578125 3.4847192764282226563 4.1731204986572265625 4.0085215568542480469 4.1248421669006347656 4.7158350944519042969 4.4450168609619140625 3.5740697383880615234 3.9752726554870605469 3.5178894996643066406 3.5761110782623291016 4.0822253227233886719 4.3884119987487792969 
4.6934399604797363281 4.3268804550170898438 4.685626983642578125 4.3663578033447265625 2.9979441165924072266 3.0387222766876220703 3.1352660655975341797 4.2729334831237792969 4.2024869918823242188 4.7170109748840332031 4.1280150413513183594 4.1730179786682128906 4.3003826141357421875 4.0527281761169433594 2.8078427314758300781 2.7611193656921386719 2.7614128589630126953 3.6468968391418457031 4.3700013160705566406 4.6275281906127929688 
4.4837827682495117188 4.1132082939147949219 4.4442234039306640625 3.8803069591522216797 3.4537370204925537109 2.6339209079742431641 2.5923774242401123047 3.2258744239807128906 3.5559449195861816406 4.0630950927734375 3.7376053333282470703 3.6055469512939453125 3.7242145538330078125 3.3209054470062255859 3.4350636005401611328 3.6447572708129882813 3.4251537322998046875 3.4853179454803466797 3.4494764804840087891 3.6860065460205078125 
4.2128648757934570313 3.8474664688110351563 3.5830507278442382813 3.7606906890869140625 3.0228183269500732422 2.4424846172332763672 2.4089841842651367188 3.1635489463806152344 3.3606016635894775391 3.9805879592895507813 4.0818843841552734375 3.6439197063446044922 3.4221639633178710938 3.3875906467437744141 3.4343976974487304688 3.8030278682708740234 3.7523193359375 3.1459054946899414063 3.0087480545043945313 3.2878296375274658203 
2.8869519233703613281 3.2128672599792480469 3.0689618587493896484 3.2100839614868164063 3.0467469692230224609 2.7521843910217285156 2.2402970790863037109 2.9093379974365234375 4.3730540275573730469 4.8354353904724121094 3.7459514141082763672 2.9840044975280761719 2.9562513828277587891 2.9859576225280761719 3.1095552444458007813 3.2929482460021972656 3.1581454277038574219 2.4508471488952636719 2.9105980396270751953 3.2112925052642822266 
3.9268119335174560547 2.8916859626770019531 2.1505684852600097656 2.6122150421142578125 2.8720350265502929688 2.4612002372741699219 2.6584780216217041016 2.7478885650634765625 3.6614520549774169922 3.8815736770629882813 3.4324517250061035156 2.5412697792053222656 2.2592775821685791016 3.5715363025665283203 2.9270021915435791016 2.9894685745239257813 3.5573277473449707031 3.5542442798614501953 3.5965483188629150391 3.4899742603302001953 
3.9915380477905273438 2.8174459934234619141 2.0443193912506103516 2.7533330917358398438 2.4494922161102294922 3.9777312278747558594 5.5513186454772949219 3.8542680740356445313 3.1569559574127197266 2.8326005935668945313 3.2085425853729248047 2.4882972240447998047 1.9460878372192382813 2.0597157478332519531 2.0647182464599609375 3.1354289054870605469 3.1543314456939697266 4.1816120147705078125 4.0436105728149414063 3.31003570556640625 
2.1628782749176025391 2.1219351291656494141 2.0072834491729736328 2.0816516876220703125 1.9506796598434448242 3.5839087963104248047 6.6284518241882324219 4.2982616424560546875 2.6683664321899414063 2.6204352378845214844 2.9228413105010986328 2.7299859523773193359 1.7631876468658447266 1.9543262720108032227 2.2510426044464111328 2.3555724620819091797 2.9000003337860107422 3.1901111602783203125 3.3810582160949707031 3.3255076408386230469 
2.3768641948699951172 1.5734008550643920898 1.6044802665710449219 2.0556809902191162109 2.1224515438079833984 3.6182742118835449219 4.5312252044677734375 2.1980473995208740234 1.8737740516662597656 2.1195116043090820313 2.1618502140045166016 1.9790744781494140625 1.6940381526947021484 2.1498172283172607422 2.28688812255859375 1.9538035392761230469 2.1907045841217041016 1.980548858642578125 2.1928658485412597656 2.4547438621520996094 
1.365944981575012207 1.1286656856536865234 1.3820739984512329102 2.0449240207672119141 2.0556328296661376953 2.3212704658508300781 1.915373682975769043 1.5601820945739746094 1.3912632465362548828 1.947386622428894043 2.1021192073822021484 1.5070364475250244141 1.3865576982498168945 1.7702538967132568359 2.0780012607574462891 2.0671257972717285156 1.9108977317810058594 1.3923406600952148438 1.7199708223342895508 1.5645456314086914063 
1 1.2193776369094848633 1.2717976570129394531 1.8650382757186889648 2.3015704154968261719 1.8112738132476806641 1.3905199766159057617 1.1040587425231933594 1 1.8415054082870483398 3.1202008724212646484 2.5587608814239501953 1.5441702604293823242 1.7019524574279785156 1.7459315061569213867 2.8279402256011962891 1.5261328220367431641 1.659941554069519043 2.0034708976745605469 1.1664980649948120117 
1 1 1.0423775911331176758 1.2660773992538452148 2.0204858779907226563 1.9875165224075317383 1.7532247304916381836 1.0563974380493164063 1 1.4802491664886474609 1.3700367212295532227 1.9809384346008300781 2.0782206058502197266 2.3927266597747802734 1.6392332315444946289 1.465137481689453125 1.2996767759323120117 1.8313065767288208008 1.600016474723815918 1.0692669153213500977 
1 1 1 1 2.2712841033935546875 2.0100026130676269531 1.2134321928024291992 1.0268732309341430664 1 1 1 1.2170841693878173828 1.2010246515274047852 1.7476238012313842773 2.2430572509765625 1.6289058923721313477 1.0794044733047485352 1 1.4630817174911499023 1.2046732902526855469 
1 1 1 1 1 1 1.0401252508163452148 1 1 1.1186926364898681641 1.185780644416809082 1.0606772899627685547 1.1018061637878417969 1.445778965950012207 1.3798549175262451172 1.1316317319869995117 1 1.3265694379806518555 2.0750839710235595703 1.7103366851806640625 
1 1 1 1 1.0892261266708374023 1.4793508052825927734 1.1871490478515625 1.1775469779968261719 1.077349543571472168 1.7124212980270385742 2.0035603046417236328 1.0274416208267211914 2.27834320068359375 1.2115681171417236328 1 1 1.1836203336715698242 1.8623672723770141602 2.485683441162109375 2.2968904972076416016 
1.0753084421157836914 1 1 1 1.2674978971481323242 1.503607630729675293 2.3607912063598632813 2.1900653839111328125 2.3117806911468505859 1.9312757253646850586 2.3541691303253173828 1.1306314468383789063 1.5526623725891113281 1 1 1 1.0146770477294921875 1.6026703119277954102 2.5713849067687988281 2.7212307453155517578 
2.7413713932037353516 2.6725325584411621094 1.0890750885009765625 1 1.2111835479736328125 1.4579788446426391602 2.4021618366241455078 2.4015955924987792969 2.1778085231781005859 1.5882248878479003906 1.3287483453750610352 1 1 1 1 1 1 1 1.2549457550048828125 2.4585638046264648438 
2.4117064476013183594 1.8474057912826538086 1.8072103261947631836 1.5608969926834106445 1.1181722879409790039 1.1623665094375610352 1.6940177679061889648 2.3305871486663818359 1.1796950101852416992 1 1 1 1 1.0303388833999633789 1.0245741605758666992 1 1 1 1 1.9980766773223876953 
1.1885311603546142578 1.2334878444671630859 1 1.5215305089950561523 1 1.4937887191772460938 1.8862575292587280273 1.6307326555252075195 1.2801561355590820313 1.3753221035003662109 1 1 1 1 1 1 1 1 1 1.470946192741394043 
1 1 1 1 1 1 1 1 1 1 1 1 1.1323195695877075195 1 1 1 1 1 1 1.3943783044815063477 
