ncols        20
nrows        20
xllcorner    -0.000000000000
yllcorner    0.000000000000
cellsize     10.000000000000
NODATA_value nan
1.0 1 1 1 1 1.3439942598342895508 1.8007024526596069336 2.5373547077178955078 1.6295185089111328125 1.5870296955108642578 1 1 1.9129620790481567383 1.9699969291687011719 2.0198462009429931641 3.1404640674591064453 2.1029839515686035156 1.3863499164581298828 1 1 
1 1 1 1 1.0644068717956542969 1.8632407188415527344 1.922648310661315918 3.4107325077056884766 2.7206852436065673828 2.490085601806640625 1 1 1.2509616613388061523 1.6858458518981933594 1.8692034482955932617 2.2789995670318603516 1.6029800176620483398 1 1 1 
1 1 1 1 1.8838696479797363281 1.5271785259246826172 1.657931208610534668 2.2279210090637207031 1.7706952095031738281 2.0173952579498291016 1 1 1.1495769023895263672 1.3498297929763793945 1.7855564355850219727 2.1646571159362792969 1.4130400419235229492 1 1 1 
1 1 1 1 1.2915450334548950195 1.4603600502014160156 1.2500426769256591797 1.267364501953125 1 1.7655794620513916016 1.237889409065246582 1.3235763311386108398 1.4961369037628173828 1.9019463062286376953 2.4377202987670898438 2.1806759834289550781 2.0187292098999023438 1.7881494760513305664 1 1 
1 1 1 1 1 1 1.19419097900390625 1.1482570171356201172 1.9068068265914916992 3.1278855800628662109 1.4687128067016601563 1 1 1.3331695795059204102 1.8274558782577514648 2.1587984561920166016 1.1351993083953857422 1.3643383979797363281 1.1499738693237304688 1 
1.9150044918060302734 1 1 1 1.0301213264465332031 1.0851320028305053711 1.3355288505554199219 1.1749629974365234375 1.7780421972274780273 1.8636525869369506836 1.0398256778717041016 1.053885340690612793 1.1814815998077392578 2.5853641033172607422 1.4884140491485595703 1.9353084564208984375 2.1701762676239013672 1.9304435253143310547 1.7644901275634765625 1.0634777545928955078 
2.4932293891906738281 1.50215911865234375 1 1.3609483242034912109 1.4582471847534179688 3.2631978988647460938 5.0920786857604980469 3.0596930980682373047 1.8828461170196533203 1.1341141462326049805 1.3460394144058227539 1.5538759231567382813 1.5684534311294555664 2.2887103557586669922 1.6911057233810424805 2.6321971416473388672 2.3747513294219970703 2.4777503013610839844 1.8131773471832275391 1.2236021757125854492 
1.9891240596771240234 1.5004838705062866211 1.5866162776947021484 1.1461492776870727539 1.2345575094223022461 2.8952579498291015625 6.3961181640625 4.0022382736206054688 1.8773010969161987305 1.5043922662734985352 2.3882944583892822266 2.9850051403045654297 2.4106135368347167969 3.2411582469940185547 2.4652647972106933594 2.1690475940704345703 1.787953495979309082 1.421212315559387207 1.4881044626235961914 1.4001891613006591797 
2.8171598911285400391 2.3549044132232666016 1.3994176387786865234 1 1 2.9866080284118652344 4.6045174598693847656 2.5552184581756591797 1.9451692104339599609 1.7667117118835449219 1.7953422069549560547 2.4785540103912353516 2.3599450588226318359 2.902252197265625 1.967802882194519043 1.1099500656127929688 1 1.016718745231628418 1.1467460393905639648 1.9053238630294799805 
2.7803032398223876953 2.6499533653259277344 1.2612627744674682617 1 1 1.7524242401123046875 2.5189912319183349609 2.9455258846282958984 2.7601795196533203125 2.7180261611938476563 2.7615509033203125 2.482677459716796875 2.1323060989379882813 2.1863617897033691406 1.6320750713348388672 1.0871471166610717773 1.0432437658309936523 1.445902705192565918 1.8859602212905883789 1.8463910818099975586 
2.2945396900177001953 2.0866794586181640625 1 1 1 1 1.4191315174102783203 2.0971524715423583984 2.6788740158081054688 3.1905543804168701172 3.9821591377258300781 3.1635410785675048828 1.5839600563049316406 1.4504667520523071289 1.6538093090057373047 2.0465369224548339844 1.0875654220581054688 1.8691664934158325195 3.1114223003387451172 2.2212131023406982422 
2.6192348003387451172 2.5551176071166992188 1.259579777717590332 1.0396885871887207031 1 1 1.7089412212371826172 2.1248335838317871094 2.7479062080383300781 3.3029351234436035156 3.4197845458984375 3.1681149005889892578 1.7840132713317871094 1.5105850696563720703 1.1773679256439208984 1.0151629447937011719 1.200520634651184082 2.3989136219024658203 2.6765220165252685547 1.8258861303329467773 
2.3544080257415771484 2.5286319255828857422 1.7135912179946899414 1.804177403450012207 2.4958627223968505859 1.9861243963241577148 1.4276329278945922852 2.1948606967926025391 3.0883679389953613281 2.7705869674682617188 2.8250036239624023438 2.3966727256774902344 1.4993215799331665039 1.5896979570388793945 1.5085937976837158203 1.3142784833908081055 1.3801654577255249023 1.9621776342391967773 2.4538867473602294922 2.2729439735412597656 
1.912405848503112793 1.9649969339370727539 2.2192487716674804688 2.5450885295867919922 1.7595522403717041016 1.5896085500717163086 1.4727457761764526367 2.0023436546325683594 2.9299590587615966797 1.8718312978744506836 1.8343920707702636719 1.7959272861480712891 1.683388829231262207 1.7005751132965087891 1.751567840576171875 2.1260509490966796875 2.6304659843444824219 2.6555812358856201172 3.1269431114196777344 2.80179595947265625 
2.7656991481781005859 2.3533647060394287109 3.1187326908111572266 3.7706310749053955078 2.6472558975219726563 2.1438570022583007813 1.9307374954223632813 2.0311617851257324219 2.0157842636108398438 2.0010733604431152344 1.8072572946548461914 1.8183891773223876953 3.3822169303894042969 2.3444230556488037109 2.6535403728485107422 3.4156246185302734375 3.1293761730194091797 3.6430318355560302734 3.6601853370666503906 3.2625639438629150391 
2.5792355537414550781 2.4061758518218994141 2.8120474815368652344 3.3858480453491210938 2.8681733608245849609 2.3025107383728027344 2.5058548450469970703 2.5133581161499023438 2.6782560348510742188 2.3242788314819335938 2.1280643939971923828 2.1052961349487304688 3.2875440120697021484 2.9735817909240722656 3.5249829292297363281 3.4415650367736816406 2.9984872341156005859 3.2074782848358154297 3.4297225475311279297 3.2522361278533935547 
4.9122157096862792969 4.4441094398498535156 3.10338592529296875 2.7978441715240478516 2.4520549774169921875 2.5777482986450195313 2.6968820095062255859 2.7936215400695800781 2.6522805690765380859 2.3116474151611328125 2.1219425201416015625 2.9062867164611816406 3.97057342529296875 4.2108592987060546875 4.2995519638061523438 4.2588977813720703125 4.2721972465515136719 3.8001880645751953125 3.003055572509765625 3.0756638050079345703 
4.7562031745910644531 4.2295513153076171875 4.0657606124877929688 3.8367967605590820313 3.2074491977691650391 2.9457535743713378906 2.7907695770263671875 3.1084241867065429688 2.7594535350799560547 2.7303466796875 2.8419084548950195313 3.1176359653472900391 3.97544097900390625 4.0845646858215332031 3.8554234504699707031 4.1831316947937011719 4.6434106826782226563 4.1952877044677734375 2.7939517498016357422 2.9031116962432861328 
4.244892120361328125 4.1523976325988769531 3.6363842487335205078 3.8832428455352783203 3.4089961051940917969 3.5604226589202880859 3.3467810153961181641 3.4051361083984375 3.3132581710815429688 2.9562237262725830078 3.0259521007537841797 2.7840383052825927734 3.3647329807281494141 4.0306267738342285156 3.9053406715393066406 3.9604063034057617188 4.1660790443420410156 3.8187923431396484375 2.8260760307312011719 2.8419809341430664063 
4.53902435302734375 4.5473308563232421875 4.0725216865539550781 3.3205344676971435547 3.8059473037719726563 3.8866121768951416016 3.6822431087493896484 3.7643594741821289063 3.7158517837524414063 4.097827911376953125 4.0937719345092773438 3.5938460826873779297 3.5025894641876220703 4.1175074577331542969 3.8343133926391601563 3.6571757793426513672 3.9717550277709960938 4.3303589820861816406 3.6881234645843505859 2.8530902862548828125 
