ncols        20
nrows        20
xllcorner    -0.000000000000
yllcorner    0.000000000000
cellsize     10.000000000000
NODATA_value nan
4.8610157966613769531 4.2330393791198730469 4.1325383186340332031 3.6901230812072753906 3.8528151512145996094 3.2972102165222167969 3.5862476825714111328 4.5768136978149414063 2.8181958198547363281 2.7216238975524902344 3.4825770854949951172 3.3688261508941650391 2.7772233486175537109 2.7394657135009765625 3.4269118309020996094 5.0054559707641601563 4.2399444580078125 2.982158660888671875 3.3739342689514160156 4.0278153419494628906 
4.4765133857727050781 4.6188135147094726563 4.544918060302734375 3.2361404895782470703 2.6446003913879394531 3.3131313323974609375 4.3156628608703613281 5.4667158126831054688 4.5423521995544433594 4.1068310737609863281 3.2008473873138427734 2.9989526271820068359 2.5210921764373779297 2.5850908756256103516 2.6871731281280517578 3.1678314208984375 3.1668567657470703125 3.2644667625427246094 3.7353067398071289063 4.0035719871520996094 
4.2202372550964355469 4.1271491050720214844 4.3186497688293457031 2.9281141757965087891 2.4140095710754394531 2.8368115425109863281 3.7690024375915527344 4.3425226211547851563 3.9621913433074951172 4.4034895896911621094 2.7596769332885742188 2.5156910419464111328 2.3963475227355957031 2.3814375400543212891 2.4385499954223632813 2.4122860431671142578 2.4002463817596435547 2.5320823192596435547 2.7274532318115234375 2.9761266708374023438 
3.8940184116363525391 3.6854441165924072266 3.6860704421997070313 2.7677249908447265625 2.2274127006530761719 2.7358572483062744141 3.8251204490661621094 4.1140980720520019531 4.0525164604187011719 4.3998246192932128906 2.8911507129669189453 2.4352338314056396484 2.2502458095550537109 2.2834436893463134766 2.2011821269989013672 2.28000640869140625 2.2841084003448486328 2.1925165653228759766 2.3743922710418701172 3.3972866535186767578 
3.0423085689544677734 3.3956208229064941406 2.7815108299255371094 2.4786016941070556641 2.5690186023712158203 3.0311992168426513672 3.1021506786346435547 4.0097794532775878906 5.2145648002624511719 5.5781636238098144531 3.3775758743286132813 2.8076293468475341797 2.7540903091430664063 2.0437150001525878906 2.0708756446838378906 2.0781152248382568359 2.0461020469665527344 2.0926518440246582031 2.091930389404296875 2.6505391597747802734 
4.4281506538391113281 3.5581815242767333984 2.1641931533813476563 1.9453595876693725586 2.0570931434631347656 1.9101209640502929688 2.3472142219543457031 2.6724758148193359375 3.9291436672210693359 3.8702921867370605469 2.5885977745056152344 1.8564199209213256836 2.6125555038452148438 3.0478794574737548828 1.8673502206802368164 1.8991712331771850586 1.9405274391174316406 1.9941703081130981445 1.9496374130249023438 2.6222598552703857422 
3.8416311740875244141 2.9166414737701416016 1.8939990997314453125 1.7390305995941162109 1.7341078519821166992 3.1465127468109130859 4.8850188255310058594 2.5556101799011230469 1.842844843864440918 1.8899811506271362305 1.8017410039901733398 1.6715072393417358398 2.6407191753387451172 2.0089905261993408203 1.7329705953598022461 2.7922637462615966797 1.7499034404754638672 1.9471404552459716797 1.9260914325714111328 2.1581282615661621094 
1.5462045669555664063 1.5539641380310058594 1.4350870847702026367 1.5625805854797363281 1.7383850812911987305 3.1008870601654052734 6.2015347480773925781 3.5489885807037353516 1.8057451248168945313 1.5650397539138793945 1.5731551647186279297 1.5588878393173217773 1.9883910417556762695 2.6867365837097167969 1.793993830680847168 1.796110987663269043 1.6230218410491943359 1.7631983757019042969 1.7971158027648925781 1.9148626327514648438 
1.3533207178115844727 1.4793323278427124023 1.4128777980804443359 1.9438699483871459961 2.4279243946075439453 3.9022896289825439453 4.3277163505554199219 2.0094189643859863281 1.5451631546020507813 1.3030567169189453125 1.3307659626007080078 1.3132824897766113281 1.6565455198287963867 2.7835285663604736328 2.067409515380859375 1.4118523597717285156 2.1709868907928466797 1.7398278713226318359 1.5823532342910766602 1.3359103202819824219 
1.1055843830108642578 1.931597590446472168 2.5920665264129638672 2.8141326904296875 3.1113657951354980469 3.1843414306640625 2.2487571239471435547 2.2402906417846679688 1.8324683904647827148 1.2046196460723876953 1.2003554105758666992 1.1505360603332519531 1.6073321104049682617 2.09047698974609375 2.5551607608795166016 1.9805701971054077148 1.8239102363586425781 1.0970575809478759766 1.1198172569274902344 1.1176831722259521484 
1.5275592803955078125 1.7904407978057861328 2.0951519012451171875 2.617870330810546875 3.6576120853424072266 2.7166624069213867188 1.3308415412902832031 1.9268224239349365234 1.3683340549468994141 1 1.2762098312377929688 1.1561142206192016602 1.0159258842468261719 2.1608588695526123047 2.7620761394500732422 3.6117024421691894531 1.6330648660659790039 1.0030077695846557617 1.0204665660858154297 1 
2.0161006450653076172 2.0297162532806396484 1.771054387092590332 1.9719854593276977539 3.3860204219818115234 3.410549163818359375 2.4312040805816650391 2.1825907230377197266 1.0731376409530639648 1 1 1 1.1193645000457763672 2.0050728321075439453 2.1456582546234130859 2.5671169757843017578 1.8443205356597900391 1 1 1.1900888681411743164 
2.21424102783203125 2.2990980148315429688 1.8792876005172729492 2.2931010723114013672 3.2714836597442626953 3.7770776748657226563 2.8162591457366943359 2.215213775634765625 1.4108572006225585938 1.1478555202484130859 1.0986163616180419922 1 1.2009223699569702148 1.6710511445999145508 2.4351704120635986328 2.1915922164916992188 1.4950795173645019531 1.1655242443084716797 1 1 
2.6979181766510009766 2.9889795780181884766 1.9646451473236083984 1.8716540336608886719 1.5545277595520019531 1.8568800687789916992 1.7665982246398925781 1.4368655681610107422 1.2871811389923095703 1.0357892513275146484 1.0306677818298339844 1.3599141836166381836 1.6477506160736083984 1.5543529987335205078 1.2675784826278686523 1 1.1572082042694091797 1 1 1 
3.5970859527587890625 3.0691766738891601563 2.4658803939819335938 1.6886681318283081055 1.1080307960510253906 1.1302095651626586914 1.1654092073440551758 1.1400161981582641602 1.0759176015853881836 1.6324033737182617188 2.3947274684906005859 1.4796518087387084961 2.2990968227386474609 1.681959986686706543 1.9246470928192138672 1.7198746204376220703 1.0072758197784423828 1 1 1 
3.0232324600219726563 2.0910024642944335938 2.2145535945892333984 1.4034886360168457031 1 1.2003263235092163086 1.5883257389068603516 1.4662214517593383789 1.2760486602783203125 1.5172048807144165039 2.5003523826599121094 1.1754312515258789063 1.8149156570434570313 1.5832446813583374023 1.8436706066131591797 2.1031115055084228516 1.191822052001953125 1 1 1 
4.4177517890930175781 4.5499095916748046875 2.9180421829223632813 1.3917238712310791016 1.0573469400405883789 1.0813403129577636719 1.6040307283401489258 1.4574005603790283203 1.5019800662994384766 1.5462118387222290039 1.7115738391876220703 1.6142268180847167969 1.8510781526565551758 2.1298420429229736328 1.7675722837448120117 2.1863348484039306641 2.0599522590637207031 1.5078489780426025391 1.0125703811645507813 1.1404961347579956055 
3.8081023693084716797 3.0620217323303222656 3.3614780902862548828 2.0846772193908691406 1.1904840469360351563 1.1430572271347045898 1.2429301738739013672 1.307007908821105957 1.1019189357757568359 1.3202221393585205078 1.5490195751190185547 1.6064233779907226563 1.8477464914321899414 1.217166900634765625 1.2540822029113769531 2.0057692527770996094 2.6058444976806640625 1.8740941286087036133 1.5516370534896850586 1.3760381937026977539 
2.3668155670166015625 1.981923222541809082 1.7859396934509277344 2.0597710609436035156 1.3976730108261108398 1 1 1 1.0601586103439331055 1.030081629753112793 1.3250224590301513672 1.6271806955337524414 1.8794571161270141602 1.716246485710144043 1.8050819635391235352 1.9630575180053710938 3.1146254539489746094 2.9088528156280517578 1.7887182235717773438 1.3173847198486328125 
2.0179104804992675781 2.1574316024780273438 1.6925073862075805664 1.5579329729080200195 2.0716023445129394531 1.9873900413513183594 1.9169967174530029297 1.5154879093170166016 1.511534571647644043 2.1326472759246826172 2.0946538448333740234 2.0345909595489501953 1.2315078973770141602 1.97330474853515625 2.1695582866668701172 2.0732424259185791016 2.7679173946380615234 3.0678055286407470703 1.8864490985870361328 1.6054137945175170898 
