ncols        20
nrows        20
xllcorner    -0.000000000000
yllcorner    0.000000000000
cellsize     10.000000000000
NODATA_value nan
3.0991551876068115234 2.4009749889373779297 2.5061130523681640625 2.3088066577911376953 1.1470803022384643555 1 1.5944941043853759766 2.1676886081695556641 1.5099322795867919922 2.2345674037933349609 2.0659208297729492188 2.1840152740478515625 2.7181077003479003906 2.4791457653045654297 1.6207059621810913086 2.0403385162353515625 1.5500860214233398438 1.6154993772506713867 2.1241326332092285156 4.3510951995849609375 
2.9112131595611572266 2.5454199314117431641 2.8661119937896728516 2.5936756134033203125 1.2237037420272827148 1.2458279132843017578 1.3124729394912719727 2.4952366352081298828 2.4296495914459228516 2.9101414680480957031 2.3330392837524414063 2.4016687870025634766 2.5448887348175048828 2.2488586902618408203 1.0191777944564819336 1 1 1.9692096710205078125 2.5485179424285888672 3.5107593536376953125 
2.8692657947540283203 2.5014369487762451172 2.8054800033569335938 2.2851428985595703125 1.8429955244064331055 1 1 1.6009207963943481445 1.969633936882019043 2.4619355201721191406 2.1014475822448730469 1.9835649728775024414 2.1130938529968261719 1.6945760250091552734 1.8153231143951416016 2.011852264404296875 2.3887739181518554688 2.4499182701110839844 2.2315945625305175781 2.2146465778350830078 
2.754177093505859375 2.3973670005798339844 2.1777291297912597656 2.3338072299957275391 1.5823274850845336914 1 1 1.730363011360168457 1.8940768241882324219 2.5398154258728027344 2.6481537818908691406 2.1901721954345703125 1.9817795753479003906 1.902130126953125 2.0144741535186767578 2.6077787876129150391 3.548198699951171875 3.2803010940551757813 3.3497023582458496094 1.8438113927841186523 
1.6172338724136352539 1.9307667016983032227 1.7997885942459106445 2.08293914794921875 1.8020942211151123047 1.4562867879867553711 1 1.6170086860656738281 3.0821990966796875 3.5609762668609619141 2.4752378463745117188 1.7034457921981811523 1.6698920726776123047 1.7342907190322875977 1.841185450553894043 2.1501231193542480469 2.1854529380798339844 1.197556614875793457 3.5766041278839111328 2.0658721923828125 
2.7975213527679443359 1.7885417938232421875 1.2275335788726806641 4.8496289253234863281 1.7619010210037231445 1.3298580646514892578 1.557185053825378418 1.6071687936782836914 2.557544708251953125 2.7774980068206787109 2.3102908134460449219 1.4728753566741943359 1.1314052343368530273 2.4434299468994140625 1.853167414665222168 1.8650774955749511719 2.4620068073272705078 2.4343645572662353516 2.4975008964538574219 2.3813230991363525391 
3.0630686283111572266 1.8780734539031982422 1.1337677240371704102 1.8024981021881103516 1.479870915412902832 3.0152363777160644531 4.6398754119873046875 2.9264678955078125 2.2182140350341796875 1.8979048728942871094 2.3889076709747314453 1.7198706865310668945 1 1.1177445650100708008 1.1333644390106201172 2.2364079952239990234 2.2272157669067382813 3.2534654140472412109 3.1213006973266601563 2.3717570304870605469 
1.39888763427734375 1.3701512813568115234 1.3085675239562988281 1.2965970039367675781 1.2013763189315795898 2.8481769561767578125 5.8527350425720214844 3.5535688400268554688 1.904160618782043457 1.8591625690460205078 5.8069062232971191406 4.1862378120422363281 1 1.1925997734069824219 1.4947053194046020508 1.6032688617706298828 2.1224191188812255859 2.4428253173828125 2.6299932003021240234 2.6799752712249755859 
2.6464474201202392578 1 1 1.4721472263336181641 1.5477626323699951172 3.0444281101226806641 3.9691929817199707031 1.6446565389633178711 1.2958382368087768555 1.7107688188552856445 2.9569692611694335938 2.270290374755859375 1.0777170658111572266 1.5191755294799804688 1.7001303434371948242 1.3911958932876586914 2.3004629611968994141 3.0756223201751708984 1.7452340126037597656 2.4316849708557128906 
2.4826064109802246094 1.7158544063568115234 1 1.6260105371475219727 1.6728292703628540039 1.9348742961883544922 1.5353170633316040039 1.1429816484451293945 1 1.5370562076568603516 2.1257617473602294922 1.0794795751571655273 1 1.3770591020584106445 1.68422698974609375 1.6578466892242431641 1.8945701122283935547 5.0074439048767089844 3.5533118247985839844 5.0421414375305175781 
1.0489075183868408203 1 1.9050352573394775391 1.6169598102569580078 2.0907511711120605469 1.5753412246704101563 1.165645599365234375 1 2.2580814361572265625 2.0500988960266113281 2.9097173213958740234 2.7287092208862304688 1.441511988639831543 1.4570845365524291992 1.5238624811172485352 2.6034700870513916016 1.2823146581649780273 1.5835843086242675781 1.9137383699417114258 3.4486060142517089844 
1.4929672479629516602 3.5501983165740966797 1 1.1843968629837036133 1.944180607795715332 1.9174597263336181641 1.7430495023727416992 1.1647292375564575195 2.0399451255798339844 2.9197456836700439453 3.1085269451141357422 3.1728157997131347656 1.9891037940979003906 2.3085305690765380859 1.5916814804077148438 1.4357235431671142578 1.2202687263488769531 1.7247098684310913086 1.5053974390029907227 1 
4.4361310005187988281 9.038787841796875 1.271677851676940918 1.1635602712631225586 2.3761606216430664063 2.1122720241546630859 1.3707872629165649414 1.1333644390106201172 1.1331341266632080078 1.1467462778091430664 2.3774731159210205078 1.5988882780075073242 1.3078824281692504883 1.8792784214019775391 2.3519551753997802734 1.7354829311370849609 1.2118005752563476563 1.1419079303741455078 1.5605704784393310547 1.45386505126953125 
5.7277102470397949219 5.0443139076232910156 1.3065038919448852539 1.4106963872909545898 1.2620866298675537109 1.2942045927047729492 1.3625847101211547852 1.2768278121948242188 1.2960443496704101563 1.6913024187088012695 1.4821816682815551758 1.3114315271377563477 1.3968204259872436523 1.7449882030487060547 1.6744210720062255859 1.4174200296401977539 1.3181337118148803711 1.6119494438171386719 2.3767678737640380859 1.9998724460601806641 
1.7362588644027709961 1.5662239789962768555 1.4876439571380615234 3.805423736572265625 2.2729630470275878906 1.9594839811325073242 1.6419551372528076172 1.6342432498931884766 1.5067876577377319336 2.1916680335998535156 2.4598846435546875 1.4882867336273193359 2.7620403766632080078 1.6981922388076782227 1.4778885841369628906 1.4775263071060180664 1.6469138860702514648 2.3243091106414794922 3.3781545162200927734 2.7848160266876220703 
1.6960132122039794922 1.6228551864624023438 1.6293448209762573242 1.6638779640197753906 4.6856393814086914063 2.4052367210388183594 3.2869319915771484375 2.8539822101593017578 2.9346568584442138672 2.5868310928344726563 2.9888861179351806641 1.7623594999313354492 2.1506147384643554688 1.624177098274230957 1.6155440807342529297 1.6312997341156005859 1.6598601341247558594 2.3761508464813232422 3.1672632694244384766 3.3349194526672363281 
3.5537557601928710938 3.4883131980895996094 1.8918659687042236328 1.8272609710693359375 3.4046730995178222656 2.6757321357727050781 5.5553927421569824219 3.32233428955078125 2.9730062484741210938 2.3887128829956054688 2.1148161888122558594 1.9375084638595581055 1.8057403564453125 1.8227908611297607422 1.8080174922943115234 1.8404942750930786133 1.800009608268737793 1.9468903541564941406 3.1768367290496826172 3.5565373897552490234 
3.3742303848266601563 2.8031642436981201172 2.773181915283203125 2.5525326728820800781 2.0756540298461914063 2.1348600387573242188 3.6333720684051513672 3.7226445674896240234 2.1395654678344726563 2.0002033710479736328 1.9823081493377685547 2.157642364501953125 2.0025365352630615234 2.0212798118591308594 1.9835593700408935547 1.9844368696212768555 1.9863282442092895508 1.988076329231262207 2.4082891941070556641 3.8279311656951904297 
2.3536520004272460938 2.3773565292358398438 2.1563088893890380859 2.6705145835876464844 2.1478025913238525391 3.2063565254211425781 5.1196818351745605469 5.3956141471862792969 2.9582216739654541016 2.5038244724273681641 2.1292941570281982422 2.1428289413452148438 2.9861440658569335938 3.7676177024841308594 2.1604878902435302734 2.1484401226043701172 2.1401050090789794922 2.12577056884765625 2.1255614757537841797 2.6435716152191162109 
2.343723297119140625 2.3086390495300292969 2.3328096866607666016 2.3163568973541259766 2.3583393096923828125 2.3538985252380371094 3.2765190601348876953 10.391167640686035156 4.6848912239074707031 2.321208953857421875 2.292003631591796875 2.3083219528198242188 5.1111226081848144531 12.014300346374511719 2.4628336429595947266 3.1344523429870605469 2.3360319137573242188 2.3052110671997070313 2.3283021450042724609 2.7710850238800048828 
