ncols        20
nrows        20
xllcorner    -0.000000000000
yllcorner    0.000000000000
cellsize     10.000000000000
NODATA_value nan
1.4813137054443359375 1.5176399946212768555 1.4479558467864990234 1.3561223745346069336 1.8563852310180664063 2.0609471797943115234 2.4057810306549072266 3.2934367656707763672 1.9844713211059570313 1.6261699199676513672 1.3817003965377807617 1.292706608772277832 1.7917326688766479492 1.9405761957168579102 2.5554862022399902344 4.0963597297668457031 2.9750649929046630859 1.7619016170501708984 1.3226989507675170898 1.452431797981262207 
1.4052715301513671875 1.604094386100769043 1.448714137077331543 1.0784959793090820313 1.4397482872009277344 2.5051834583282470703 2.8888547420501708984 4.3669061660766601563 3.3625204563140869141 2.7865004539489746094 1.1743032932281494141 1.0579742193222045898 1.0901151895523071289 1.6767765283584594727 2.3764035701751708984 2.9632482528686523438 2.2671396732330322266 1.384367823600769043 1.281003117561340332 1.2878663539886474609 
1.3326113224029541016 1.4319192171096801758 1.3933738470077514648 1.081885218620300293 1.9635627269744873047 2.0801541805267333984 2.5380775928497314453 3.1228189468383789063 2.3620276451110839844 2.5876801013946533203 1.0931382179260253906 1.0557979345321655273 1.1203415393829345703 1.4591301679611206055 1.9080789089202880859 2.1814236640930175781 1.4896383285522460938 1.0937324762344360352 1.1814959049224853516 1.1710053682327270508 
1.2670692205429077148 1.3146135807037353516 1.3978009223937988281 1.0251560211181640625 1.4016815423965454102 1.9799882173538208008 2.1542406082153320313 2.0152094364166259766 1.6461061239242553711 2.3079771995544433594 1.1879950761795043945 1.2710503339767456055 1.4804978370666503906 1.9164345264434814453 2.3932361602783203125 2.0338437557220458984 1.9046432971954345703 1.8286279439926147461 1.1747400760650634766 1.4204628467559814453 
1.3908946514129638672 1.3980797529220581055 1.2195132970809936523 1.0409351587295532227 1.1300421953201293945 1.4455776214599609375 1.8228975534439086914 1.9023797512054443359 2.5387294292449951172 3.7266516685485839844 1.6544444561004638672 1.2525984048843383789 1.2503969669342041016 1.2989935874938964844 1.7877031564712524414 2.05966949462890625 1.0492774248123168945 1.5839185714721679688 1.1984106302261352539 1.1371465921401977539 
2.3748295307159423828 1.485140681266784668 1.2616900205612182617 1.0130910873413085938 1 1.1551859378814697266 1.4892150163650512695 1.4106861352920532227 2.1480934619903564453 2.1212961673736572266 1 1.0726480484008789063 1.594369053840637207 2.6780955791473388672 1.3752498626708984375 1.8060255050659179688 1.8567216396331787109 1.6351429224014282227 1.4364427328109741211 1.002056121826171875 
2.6383330821990966797 1.7434074878692626953 1.1549611091613769531 1.209334254264831543 1.4235864877700805664 3.1820850372314453125 5.0645871162414550781 2.8113114833831787109 1.62451934814453125 1.0012811422348022461 1.0437753200531005859 1.4590805768966674805 2.0637087821960449219 2.5185124874114990234 1.8042635917663574219 2.7133121490478515625 2.0717866420745849609 1.8624465465545654297 1.2369649410247802734 1 
1.9251489639282226563 1.4649100303649902344 1.5085763931274414063 1.1250569820404052734 1.3114757537841796875 2.85347747802734375 6.4056334495544433594 3.8781268596649169922 1.7137305736541748047 1.263336181640625 2.0398473739624023438 2.7434213161468505859 2.6577115058898925781 3.6890604496002197266 2.4735209941864013672 2.1539995670318603516 1.4781798124313354492 1.0203897953033447266 1.0359423160552978516 1.0164515972137451172 
2.5525062084197998047 2.4328188896179199219 1.4386363029479980469 1.0307018756866455078 1.1774578094482421875 3.1775686740875244141 4.6291203498840332031 2.5858705043792724609 1.9207653999328613281 1.5409978628158569336 1.5731844902038574219 2.3341004848480224609 2.4780373573303222656 3.2823300361633300781 1.9941258430480957031 1.0027579069137573242 1.0779680013656616211 1.0026212930679321289 1 1.5696698427200317383 
2.7405619621276855469 2.9854021072387695313 1.7119601964950561523 1.2926082611083984375 1.3862257003784179688 2.0877442359924316406 2.6639544963836669922 3.2506611347198486328 2.9717855453491210938 2.5053181648254394531 2.4784448146820068359 2.4121766090393066406 2.2628774642944335938 2.3178510665893554688 1.8233692646026611328 1.0646032094955444336 1.0337672233581542969 1.3571544885635375977 1.6988047361373901367 1.7199261188507080078 
2.4831140041351318359 2.2744939327239990234 1.2410383224487304688 1.2325975894927978516 1.43363189697265625 1.2742288112640380859 1.3698267936706542969 2.3839368820190429688 2.8299877643585205078 2.8674566745758056641 3.285587310791015625 2.6458957195281982422 1.3863300085067749023 1.5932316780090332031 1.9621598720550537109 2.2867422103881835938 1.0943235158920288086 1.5958167314529418945 2.7436802387237548828 2.1367545127868652344 
2.9089479446411132813 2.8615887165069580078 1.4288203716278076172 1.1947706937789916992 1.3907551765441894531 1.4103157520294189453 1.8444250822067260742 2.4222025871276855469 2.7155251502990722656 3.0798792839050292969 3.2430140972137451172 2.7519130706787109375 1.3403136730194091797 1.2708145380020141602 1.2430547475814819336 1.2800149917602539063 1.2964633703231811523 2.0229003429412841797 2.3892755508422851563 1.7822291851043701172 
2.6725308895111083984 2.8528907299041748047 1.8641051054000854492 2.0753781795501708984 2.7155232429504394531 2.4605660438537597656 1.8318692445755004883 2.4904868602752685547 3.1108212471008300781 2.69232177734375 2.7359802722930908203 2.1854076385498046875 1.3388222455978393555 1.3886287212371826172 1.4030348062515258789 1.3643995523452758789 1.3514369726181030273 1.8656843900680541992 2.1616923809051513672 2.060283660888671875 
2.3126692771911621094 2.4713981151580810547 2.3463320732116699219 2.6780910491943359375 1.7630598545074462891 1.6793618202209472656 1.4913431406021118164 1.9608761072158813477 2.838573455810546875 1.6152133941650390625 1.5505247116088867188 1.7021155357360839844 1.6800264120101928711 1.4995397329330444336 1.4853683710098266602 1.8778960704803466797 2.4787683486938476563 2.3289029598236083984 2.5294370651245117188 2.3230054378509521484 
3.4470458030700683594 2.8587603569030761719 3.3809168338775634766 3.7752935886383056641 2.3763117790222167969 1.7248352766036987305 1.6422991752624511719 1.7380530834197998047 1.759695887565612793 1.6502029895782470703 1.649187922477722168 1.6924904584884643555 3.1235420703887939453 2.2395796775817871094 2.7224390506744384766 3.4124021530151367188 2.8049781322479248047 3.0660276412963867188 2.8544688224792480469 2.5077793598175048828 
2.9682669639587402344 2.4759845733642578125 2.9108688831329345703 3.2047054767608642578 2.4452800750732421875 1.8405379056930541992 1.863431096076965332 1.8896038532257080078 1.9532802104949951172 1.8130685091018676758 1.8028866052627563477 1.7859650850296020508 3.0717456340789794922 2.8686008453369140625 3.5270559787750244141 3.5296912193298339844 2.7322852611541748047 2.6426458358764648438 2.5149521827697753906 2.2806465625762939453 
5.1189494132995605469 4.7268614768981933594 3.3704538345336914063 2.5367434024810791016 2.0007257461547851563 2.0240480899810791016 1.996100306510925293 2.0390381813049316406 1.9829231500625610352 1.8814139366149902344 1.8558542728424072266 2.7403285503387451172 3.90543365478515625 4.2532167434692382813 4.2138347625732421875 4.3071875572204589844 4.2872643470764160156 3.6020448207855224609 2.5176575183868408203 2.1823554039001464844 
4.8099703788757324219 4.2337713241577148438 4.1842541694641113281 3.5721991062164306641 2.7892935276031494141 2.4805176258087158203 2.1486582756042480469 2.24542236328125 2.2794389724731445313 2.3613798618316650391 2.5747294425964355469 2.8449487686157226563 3.8338093757629394531 3.7212316989898681641 3.4898774623870849609 4.10311126708984375 4.7941718101501464844 4.0776772499084472656 2.5356326103210449219 2.1983616352081298828 
4.1657414436340332031 3.9275746345520019531 3.4081511497497558594 3.5587615966796875 3.0309367179870605469 2.8402631282806396484 2.5017631053924560547 2.6771755218505859375 2.7232065200805664063 2.3132693767547607422 2.6430697441101074219 2.4735918045043945313 3.1643269062042236328 3.8042156696319580078 3.6819751262664794922 3.8049941062927246094 4.4340600967407226563 4.0193738937377929688 2.5831708908081054688 2.25684356689453125 
4.3396105766296386719 4.4164419174194335938 3.7593362331390380859 2.9457685947418212891 3.6117427349090576172 3.6696774959564208984 3.4480152130126953125 3.37397003173828125 3.3308718204498291016 3.9397518634796142578 3.9420235157012939453 3.3872544765472412109 2.951305389404296875 3.9253816604614257813 3.6848676204681396484 3.4706158638000488281 4.0278172492980957031 4.537021636962890625 3.4297947883605957031 2.3247728347778320313 
