ncols        20
nrows        20
xllcorner    -0.000000000000
yllcorner    0.000000000000
cellsize     10.000000000000
NODATA_value nan
3.0846323966979980469 2.3288104534149169922 2.3588984012603759766 2.2375302314758300781 1.8644049167633056641 1.1285605430603027344 1 1.3862360715866088867 1.0595872402191162109 1.979174494743347168 2.4308218955993652344 2.5081496238708496094 2.8655860424041748047 2.5188896656036376953 1.0701761245727539063 1.2534681558609008789 1.0323294401168823242 1.0303310155868530273 2.3781018257141113281 4.920654296875 
3.2625250816345214844 1.999863743782043457 2.5953538417816162109 2.2829501628875732422 1.027018427848815918 1.0084646940231323242 1.1046855449676513672 1.584200739860534668 1.5140841007232666016 1.9475922584533691406 2.0009088516235351563 3.3151888847351074219 2.9847507476806640625 2.214618682861328125 1.0376946926116943359 1.0917904376983642578 1.823726654052734375 2.9387049674987792969 3.6641840934753417969 5.1498360633850097656 
2.9591910839080810547 2.2895641326904296875 3.1214430332183837891 2.5619380474090576172 2.7471010684967041016 1.6896138191223144531 1.2252815961837768555 1.0173511505126953125 1.2107406854629516602 1.5692846775054931641 1.4156502485275268555 2.1519153118133544922 1.9696094989776611328 1.6236548423767089844 2.3174455165863037109 3.2250390052795410156 3.7088901996612548828 4.0678362846374511719 3.8273761272430419922 3.8547060489654541016 
3.0799100399017333984 3.022411346435546875 2.7865200042724609375 3.1119711399078369141 2.8951663970947265625 1.8400689363479614258 1.2791931629180908203 1.0086838006973266602 1.2528653144836425781 1.5956510305404663086 1.6822293996810913086 1.3411302566528320313 1.9637930393218994141 2.082736968994140625 2.9998466968536376953 4.2294740676879882813 4.5572953224182128906 4.4119172096252441406 4.2372927665710449219 1.9672205448150634766 
1.2863470315933227539 1.6028107404708862305 2.0200963020324707031 3.1138067245483398438 2.8435988426208496094 2.3291289806365966797 1.7315351963043212891 1.0137218236923217773 2.0678699016571044922 2.4255013465881347656 1.5908468961715698242 1.3974275588989257813 1.570904850959777832 1.0407663583755493164 1.9365285634994506836 3.1465299129486083984 3.3316249847412109375 2.0648033618927001953 4.0466890335083007813 2.4286623001098632813 
1.8212943077087402344 1.3060451745986938477 1.4663361310958862305 4.1724138259887695313 2.3061225414276123047 1.0848566293716430664 1.0454678535461425781 1.0619678497314453125 1.6733314990997314453 1.7698299884796142578 1.7853400707244873047 1.5705277919769287109 1 1.5871937274932861328 1.5650011301040649414 1.886969447135925293 2.4708428382873535156 2.3643314838409423828 2.7993421554565429688 2.5558018684387207031 
2.0352392196655273438 1.2235394716262817383 1.4060331583023071289 2.5382964611053466797 1.2452609539031982422 2.0193808078765869141 3.4288175106048583984 1.8809641599655151367 1.4075407981872558594 1.3567894697189331055 2.6398780345916748047 2.8210806846618652344 1.8670691251754760742 1.0532181262969970703 1.045212864875793457 1.4306195974349975586 1.558115839958190918 3.2364556789398193359 3.6375448703765869141 3.7577805519104003906 
1.0181746482849121094 1.5665674209594726563 1.6928305625915527344 1.6349419355392456055 1.0121515989303588867 1.8875815868377685547 4.5520615577697753906 2.4814200401306152344 1.1137375831604003906 1.9437589645385742188 5.2107334136962890625 4.5816698074340820313 1.2644495964050292969 1 1.0074126720428466797 1.0019359588623046875 2.0777876377105712891 3.0608532428741455078 3.2166688442230224609 3.5321440696716308594 
3.1515369415283203125 1.6238008737564086914 1.1444586515426635742 1.5963556766510009766 1.2387245893478393555 2.0027432441711425781 2.8563663959503173828 1.0319551229476928711 1.0082937479019165039 2.1131711006164550781 3.4205758571624755859 3.4535822868347167969 1.0210953950881958008 1.0065702199935913086 1.0788136720657348633 1.154898524284362793 2.8494069576263427734 3.4016940593719482422 3.0040044784545898438 3.5571155548095703125 
3.2263610363006591797 2.3463735580444335938 1.7177686691284179688 1.9460592269897460938 1.3859953880310058594 1.2589355707168579102 1.0577055215835571289 1.0003856420516967773 1.1107083559036254883 1.7982196807861328125 2.465057373046875 2.0113847255706787109 1.0726948976516723633 1.0053167343139648438 1.0066896677017211914 1.0597110986709594727 2.4416961669921875 4.3016452789306640625 4.0285897254943847656 4.0001516342163085938 
1.7121845483779907227 2.0341327190399169922 2.6725773811340332031 2.7786328792572021484 2.3812241554260253906 1.5808022022247314453 1.0311318635940551758 1.6657431125640869141 2.2545344829559326172 2.6752057075500488281 4.0826702117919921875 3.7277331352233886719 1.9035100936889648438 1.0015882253646850586 1.0363922119140625 1.7308918237686157227 1.0070269107818603516 2.2066066265106201172 2.7042684555053710938 3.2009599208831787109 
2.1961646080017089844 3.2316086292266845703 1.9672540426254272461 2.0629231929779052734 1.5671979188919067383 1.3510316610336303711 1.1093873977661132813 1.1742078065872192383 2.2099719047546386719 3.3164944648742675781 3.5249459743499755859 3.6790337562561035156 2.4328737258911132813 2.1890268325805664063 1.3028048276901245117 1.0119346380233764648 1.0069748163223266602 1.9379123449325561523 1.8346830606460571289 2.0922186374664306641 
4.1919846534729003906 5.2190470695495605469 2.2958841323852539063 1.023184657096862793 1.4961216449737548828 1.3489378690719604492 1.1309372186660766602 1.1108481884002685547 1.2344280481338500977 1.7721458673477172852 2.6993079185485839844 1.8743928670883178711 1.6599050760269165039 2.1440832614898681641 2.9443149566650390625 1.8212339878082275391 1.0555267333984375 1.3345050811767578125 1.2732036113739013672 1.6193052530288696289 
4.2685446739196777344 3.8472301959991455078 1.8460179567337036133 1.5906136035919189453 1.1169148683547973633 1.1650198698043823242 1.0394247770309448242 1.3767894506454467773 1.4564899206161499023 2.5815942287445068359 2.1119332313537597656 1.0817065238952636719 1.0161963701248168945 1.4847104549407958984 1.7062605619430541992 1.4243907928466796875 1.5352441072463989258 2.1803288459777832031 2.5889046192169189453 1.6736040115356445313 
2.3544170856475830078 2.5262157917022705078 2.2700710296630859375 3.9146211147308349609 3.1314322948455810547 2.4281225204467773438 1.6179289817810058594 1.1025424003601074219 1.0996074676513671875 2.0663022994995117188 2.0911619663238525391 1.0008164644241333008 1.8382149934768676758 1.1330963373184204102 1.4165595769882202148 1.1480604410171508789 1.5592951774597167969 2.9131162166595458984 4.6176047325134277344 3.4699890613555908203 
1.0148344039916992188 1.1258815526962280273 1.2148816585540771484 2.350738525390625 4.372310638427734375 3.5166814327239990234 3.8757808208465576172 2.9110455513000488281 2.274616241455078125 2.16162109375 2.4390666484832763672 1.2046353816986083984 1.3874583244323730469 1.0491337776184082031 1.1572943925857543945 1.4023740291595458984 1.4202765226364135742 3.2987511157989501953 4.0700364112854003906 4.0030398368835449219 
2.4693503379821777344 2.3640291690826416016 1.2088220119476318359 1.7487015724182128906 3.4749119281768798828 3.7655265331268310547 5.5964679718017578125 3.9138267040252685547 2.4950394630432128906 1.7610902786254882813 2.3964073657989501953 2.4393851757049560547 1.2918916940689086914 1.1658588647842407227 1.6378884315490722656 2.0187032222747802734 1.8547636270523071289 2.4048917293548583984 3.8112847805023193359 4.3268384933471679688 
2.2638905048370361328 1.8714340925216674805 1.9042450189590454102 1.6699181795120239258 1.9891901016235351563 3.2547895908355712891 4.1845784187316894531 4.4226236343383789063 2.2424581050872802734 1.5897369384765625 1.7903301715850830078 3.1164796352386474609 2.5505771636962890625 1.6709420680999755859 2.0380470752716064453 2.1272966861724853516 1.9107886552810668945 2.0507349967956542969 3.0524916648864746094 4.0339756011962890625 
1.5042548179626464844 1.5204988718032836914 1.4711332321166992188 1.7661398649215698242 1.8701167106628417969 4.1927003860473632813 5.2035250663757324219 4.9547243118286132813 3.2510869503021240234 2.8186328411102294922 2.2717099189758300781 3.2721729278564453125 3.3891835212707519531 3.4695765972137451172 2.2982852458953857422 2.2715828418731689453 1.4473799467086791992 1.5377601385116577148 2.2876944541931152344 2.2162301540374755859 
1.8372461795806884766 2.0861082077026367188 1.9506757259368896484 1.6191909313201904297 2.2188518047332763672 3.1601283550262451172 4.1509280204772949219 5.95328521728515625 4.6248936653137207031 2.8373644351959228516 2.3368103504180908203 2.5328042507171630859 4.7602038383483886719 6.7862906455993652344 3.4992077350616455078 3.2507035732269287109 1.702991485595703125 1.7275921106338500977 2.0273466110229492188 2.2986245155334472656 
