ncols        20
nrows        20
xllcorner    -0.000000000000
yllcorner    0.000000000000
cellsize     10.000000000000
NODATA_value nan
5.1187534332275390625 4.4724335670471191406 4.4780650138854980469 4.1213283538818359375 3.730194091796875 3.3457894325256347656 3.756000518798828125 4.5976266860961914063 3.2936749458312988281 3.5330669879913330078 3.8990046977996826172 3.8872134685516357422 3.8034815788269042969 3.6558473110198974609 3.6619935035705566406 4.7419514656066894531 4.1103587150573730469 3.4155557155609130859 3.8759510517120361328 4.37512969970703125 
4.7195715904235839844 4.6468243598937988281 4.770702362060546875 3.8971219062805175781 2.9650998115539550781 3.3591110706329345703 3.9846870899200439453 5.1112751960754394531 4.5548038482666015625 4.5272288322448730469 3.7646033763885498047 3.6628630161285400391 3.4323458671569824219 3.3795642852783203125 2.9059011936187744141 3.1415374279022216797 3.1399703025817871094 3.5974042415618896484 4.1798377037048339844 4.4455366134643554688 
4.4775667190551757813 4.2597551345825195313 4.5159487724304199219 3.4871625900268554688 3.01129150390625 2.8930335044860839844 3.4033250808715820313 4.0289998054504394531 3.9307725429534912109 4.3971638679504394531 3.3381075859069824219 3.1273488998413085938 3.1142404079437255859 2.9124627113342285156 3.0314161777496337891 3.0868494510650634766 2.9887609481811523438 3.0847609043121337891 3.1763596534729003906 3.4139506816864013672 
4.1598372459411621094 3.8693053722381591797 3.7609822750091552734 3.3318226337432861328 2.6918163299560546875 2.7310707569122314453 3.3310005664825439453 3.8363001346588134766 3.8897044658660888672 4.3430690765380859375 3.5399193763732910156 3.0930476188659667969 2.8902273178100585938 2.8964014053344726563 2.8502798080444335938 3.0645420551300048828 3.0590853691101074219 2.7286622524261474609 2.7698004245758056641 3.4810202121734619141 
3.08608245849609375 3.4321832656860351563 3.0209910869598388672 2.8765876293182373047 2.8778083324432373047 3.016353607177734375 2.8116395473480224609 3.6701657772064208984 4.9599761962890625 5.3729882240295410156 3.6372694969177246094 2.9814617633819580078 2.9529352188110351563 2.5539102554321289063 2.6322374343872070313 2.7078697681427001953 2.6246578693389892578 2.3687710762023925781 2.5664029121398925781 3.0086541175842285156 
4.30710601806640625 3.3557322025299072266 2.2366151809692382813 2.3195402622222900391 2.4888694286346435547 2.222881317138671875 2.5637691020965576172 2.7993216514587402344 3.9187014102935791016 3.9547774791717529297 3.0418336391448974609 2.2299032211303710938 2.5566830635070800781 3.3615152835845947266 2.4077591896057128906 2.4394261837005615234 2.7184970378875732422 2.7656419277191162109 2.7344923019409179688 3.0900502204895019531 
3.9643015861511230469 2.9357318878173828125 2.0268499851226806641 2.241077423095703125 2.1094107627868652344 3.5666520595550537109 5.2451915740966796875 3.1837608814239501953 2.4728026390075683594 2.37183380126953125 2.4753563404083251953 2.0697991847991943359 2.4267268180847167969 2.1107985973358154297 1.9434974193572998047 2.9981706142425537109 2.4099636077880859375 2.9687743186950683594 2.9055249691009521484 2.715167999267578125 
1.8665828704833984375 1.861042022705078125 1.7098969221115112305 1.8455731868743896484 1.8871529102325439453 3.3463180065155029297 6.4348025321960449219 3.9035832881927490234 2.2225639820098876953 2.0732018947601318359 2.1962184906005859375 2.1046590805053710938 1.9233686923980712891 2.3991849422454833984 2.0366609096527099609 2.1005840301513671875 2.2204668521881103516 2.4140563011169433594 2.53206634521484375 2.5604114532470703125 
1.8158633708953857422 1.5498548746109008789 1.5372244119644165039 2.0138056278228759766 2.3283510208129882813 3.8159034252166748047 4.4382429122924804688 2.1255290508270263672 1.7097377777099609375 1.6751904487609863281 1.6984444856643676758 1.6294265985488891602 1.7104246616363525391 2.5729672908782958984 2.2074825763702392578 1.6641926765441894531 2.2168431282043457031 1.8716491460800170898 1.8818123340606689453 1.8204494714736938477 
1.2160260677337646484 1.5770105123519897461 2.0746281147003173828 2.4880831241607666016 2.6673958301544189453 2.8269057273864746094 2.1164746284484863281 1.9499590396881103516 1.6579835414886474609 1.5490604639053344727 1.6078045368194580078 1.3140016794204711914 1.5133212804794311523 1.951661229133605957 2.3553214073181152344 2.0149474143981933594 1.8674904108047485352 1.2213472127914428711 1.3801448345184326172 1.3129270076751708984 
1.2959502935409545898 1.5383399724960327148 1.7183166742324829102 2.2947344779968261719 3.0728068351745605469 2.3095760345458984375 1.3688983917236328125 1.5653907060623168945 1.214348912239074707 1.3521202802658081055 2.0532667636871337891 1.753757476806640625 1.2531963586807250977 1.9673564434051513672 2.3004195690155029297 3.2754807472229003906 1.5714066028594970703 1.2897351980209350586 1.4339418411254882813 1.0558984279632568359 
1.5428651571273803711 1.5655400753021240234 1.4278428554534912109 1.6478348970413208008 2.7806394100189208984 2.7779619693756103516 2.1091969013214111328 1.6524225473403930664 1.0189224481582641602 1.1783250570297241211 1.1322904825210571289 1.3887015581130981445 1.5059990882873535156 2.1456615924835205078 1.899699091911315918 2.0427768230438232422 1.5861322879791259766 1.3203045129776000977 1.2395159006118774414 1.1087343692779541016 
1.6437170505523681641 1.6834740638732910156 1.4573140144348144531 1.6687572002410888672 2.8030557632446289063 2.9712176322937011719 2.0656251907348632813 1.6668132543563842773 1.1765770912170410156 1.0334986448287963867 1.0251077413558959961 1.0530862808227539063 1.1434586048126220703 1.6540378332138061523 2.2972497940063476563 1.9169179201126098633 1.2444165945053100586 1.0573073625564575195 1.1611833572387695313 1.0426551103591918945 
1.9001060724258422852 2.0593838691711425781 1.4848653078079223633 1.4429526329040527344 1.2460399866104125977 1.4175786972045898438 1.3682094812393188477 1.1928468942642211914 1.1062114238739013672 1 1.0262770652770996094 1.1596022844314575195 1.3522088527679443359 1.4317095279693603516 1.2631669044494628906 1.0144518613815307617 1.0236266851425170898 1.0681681632995605469 1.4029078483581542969 1.2278847694396972656 
2.4003517627716064453 2.1080913543701171875 1.7342960834503173828 1.301533818244934082 1 1.1922314167022705078 1.087630152702331543 1.0668835639953613281 1 1.5542021989822387695 2.1210160255432128906 1.1984955072402954102 2.2201430797576904297 1.4068673849105834961 1.4345049858093261719 1.3214285373687744141 1 1.2817195653915405273 1.5656690597534179688 1.4754329919815063477 
2.0907061100006103516 1.5159664154052734375 1.5820037126541137695 1.1125990152359008789 1.0156133174896240234 1.211272120475769043 1.8127063512802124023 1.6717362403869628906 1.6096445322036743164 1.5915541648864746094 2.3111615180969238281 1.0522407293319702148 1.6189262866973876953 1.237624049186706543 1.3807891607284545898 1.5269024372100830078 1 1.1440895795822143555 1.5688316822052001953 1.6283003091812133789 
3.5667433738708496094 3.61151123046875 1.9861125946044921875 1.0979839563369750977 1 1.1052200794219970703 1.8237074613571166992 1.7331578731536865234 1.6636812686920166016 1.440123438835144043 1.4393988847732543945 1.2391829490661621094 1.365908503532409668 1.5332319736480712891 1.3197420835494995117 1.5446757078170776367 1.4744892120361328125 1.1675007343292236328 1 1.5902004241943359375 
3.0560464859008789063 2.3975746631622314453 2.5627062320709228516 1.7156149148941040039 1 1 1.284117579460144043 1.5877959728240966797 1 1.0187602043151855469 1.1667140722274780273 1.1917183399200439453 1.3279814720153808594 1 1 1.4195325374603271484 1.7702488899230957031 1.3657807111740112305 1.1728576421737670898 1.4829688072204589844 
1.6843221187591552734 1.5024235248565673828 1.2880485057830810547 1.6557357311248779297 1.0543855428695678711 1.041134953498840332 1.2176355123519897461 1.1217011213302612305 1 1.0136657953262329102 1.0463111400604248047 1.1611877679824829102 1.343493342399597168 1.2610476016998291016 1.2805209159851074219 1.3819763660430908203 2.0394341945648193359 1.9394450187683105469 1.2987375259399414063 1.2262592315673828125 
1.3925960063934326172 1.4897687435150146484 1.2093366384506225586 1.148112177848815918 1.4163647890090942383 1.3682761192321777344 1.3427662849426269531 1.1061804294586181641 1.09923553466796875 1.4496653079986572266 1.4343671798706054688 1.4028298854827880859 1 1.3847472667694091797 1.4830678701400756836 1.4179080724716186523 1.8177313804626464844 1.9990850687026977539 1.3133562803268432617 1.3278905153274536133 
