ncols        20
nrows        20
xllcorner    -0.000000000000
yllcorner    0.000000000000
cellsize     10.000000000000
NODATA_value nan
3.0948889255523681641 2.3368830680847167969 2.3499617576599121094 2.2392134666442871094 1.8522119522094726563 1.1308571100234985352 1.0040051937103271484 1.3837980031967163086 1.0584348440170288086 1.9745808839797973633 2.4347910881042480469 2.5105950832366943359 2.8644368648529052734 2.5204362869262695313 1.0706167221069335938 1.2527518272399902344 1.0282763242721557617 1.0269875526428222656 2.3754146099090576172 4.9341034889221191406 
3.2616026401519775391 2.0072784423828125 2.6020853519439697266 2.2754106521606445313 1.0124543905258178711 1.0150665044784545898 1.1019971370697021484 1.5836147069931030273 1.511323094367980957 1.9494385719299316406 2.0107343196868896484 3.3045859336853027344 2.9919793605804443359 2.2105536460876464844 1.0303835868835449219 1.0962166786193847656 1.8409427404403686523 2.92252349853515625 3.6573007106781005859 5.1435761451721191406 
2.9503540992736816406 2.2876949310302734375 3.1220886707305908203 2.5576562881469726563 2.7545084953308105469 1.6910347938537597656 1.2273861169815063477 1.0210905075073242188 1.2071464061737060547 1.5652700662612915039 1.41503143310546875 2.14167022705078125 1.9707815647125244141 1.6163011789321899414 2.3171679973602294922 3.2316048145294189453 3.7083399295806884766 4.0455760955810546875 3.8355641365051269531 3.8501102924346923828 
3.0799832344055175781 3.0189490318298339844 2.7825496196746826172 3.1112282276153564453 2.9025630950927734375 1.8474754095077514648 1.281108856201171875 1.0130885839462280273 1.2467708587646484375 1.5977649688720703125 1.682637333869934082 1.3448226451873779297 1.9663389921188354492 2.0824980735778808594 3.0004251003265380859 4.2474803924560546875 4.5691962242126464844 4.3990831375122070313 4.2422995567321777344 1.9619469642639160156 
1.2908890247344970703 1.6007256507873535156 2.0196964740753173828 3.1112928390502929688 2.8207945823669433594 2.3203518390655517578 1.7393422126770019531 1.0139702558517456055 2.0731027126312255859 2.4251801967620849609 1.5885432958602905273 1.3927450180053710938 1.5730507373809814453 1.0367002487182617188 1.9331902265548706055 3.1379914283752441406 3.3401885032653808594 2.0682401657104492188 4.0499320030212402344 2.42574310302734375 
1.8178220987319946289 1.3079911470413208008 1.4693863391876220703 4.1528348922729492188 2.2865242958068847656 1.0834525823593139648 1.0497300624847412109 1.0580248832702636719 1.6684434413909912109 1.7720978260040283203 1.7822062969207763672 1.5661695003509521484 1.0042212009429931641 1.5831239223480224609 1.5661045312881469727 1.8900363445281982422 2.4775104522705078125 2.3600437641143798828 2.80379486083984375 2.5614333152770996094 
2.0374686717987060547 1.2289623022079467773 1.4021549224853515625 2.5403790473937988281 1.2424048185348510742 2.0227296352386474609 3.4307584762573242188 1.884278416633605957 1.4126623868942260742 1.3583022356033325195 2.640903472900390625 2.8191382884979248047 1.8691363334655761719 1.0491827726364135742 1.0576683282852172852 1.4282776117324829102 1.5488795042037963867 3.2418925762176513672 3.6395630836486816406 3.7669465541839599609 
1.0180463790893554688 1.5536136627197265625 1.6948869228363037109 1.6518002748489379883 1.0039659738540649414 1.8891072273254394531 4.5523324012756347656 2.4819822311401367188 1.1132215261459350586 1.9425717592239379883 5.2191572189331054688 4.5715126991271972656 1.266066431999206543 1.0005186796188354492 1.006848454475402832 1.0048719644546508789 2.0761201381683349609 3.0563275814056396484 3.2183961868286132813 3.5292818546295166016 
3.1507692337036132813 1.6294900178909301758 1.1360144615173339844 1.5911422967910766602 1.2361162900924682617 1.9997457265853881836 2.8548860549926757813 1.0295841693878173828 1.0092911720275878906 2.1122426986694335938 3.4085319042205810547 3.4545271396636962891 1.0209313631057739258 1.0002883672714233398 1.0838545560836791992 1.1545894145965576172 2.8507454395294189453 3.4015688896179199219 3.004810333251953125 3.5576770305633544922 
3.2119200229644775391 2.3686487674713134766 1.7024669647216796875 1.9413299560546875 1.3821562528610229492 1.2552486658096313477 1.0527894496917724609 1.0068582296371459961 1.1145253181457519531 1.7951288223266601563 2.4666025638580322266 2.0018229484558105469 1.0893400907516479492 1 1.0114779472351074219 1.0576447248458862305 2.4360327720642089844 4.3124990463256835938 4.017322540283203125 4.0166683197021484375 
1.7177315950393676758 2.0346884727478027344 2.6663665771484375 2.7794651985168457031 2.3819169998168945313 1.5769199132919311523 1.0308974981307983398 1.6579675674438476563 2.2520382404327392578 2.6730482578277587891 4.0881247520446777344 3.7455966472625732422 1.9049602746963500977 1 1.0262066125869750977 1.7291532754898071289 1.0157095193862915039 2.2032153606414794922 2.7226452827453613281 3.2043881416320800781 
2.1982889175415039063 3.2209956645965576172 1.973229527473449707 2.0467426776885986328 1.5651444196701049805 1.3609236478805541992 1.1082931756973266602 1.1726087331771850586 2.1970551013946533203 3.3320522308349609375 3.5394523143768310547 3.666728973388671875 2.4273409843444824219 2.1990535259246826172 1.2960231304168701172 1.0000420808792114258 1.0062688589096069336 1.9348186254501342773 1.8261321783065795898 2.0950298309326171875 
4.2002348899841308594 5.2083678245544433594 2.2920374870300292969 1.0216777324676513672 1.4998668432235717773 1.3447989225387573242 1.1289374828338623047 1.1028814315795898438 1.2272019386291503906 1.775204777717590332 2.7255182266235351563 1.8746339082717895508 1.656209111213684082 2.1393280029296875 2.9446558952331542969 1.8304961919784545898 1.0448187589645385742 1.3367165327072143555 1.2734216451644897461 1.6229988336563110352 
4.2738490104675292969 3.8465583324432373047 1.8389490842819213867 1.584557652473449707 1.1256192922592163086 1.1513766050338745117 1.0419988632202148438 1.3763967752456665039 1.4575018882751464844 2.5963346958160400391 2.1042792797088623047 1.0885781049728393555 1.0181281566619873047 1.4878382682800292969 1.7097806930541992188 1.4232964515686035156 1.5358926057815551758 2.1605544090270996094 2.5934092998504638672 1.6727539300918579102 
2.3520479202270507813 2.5407688617706298828 2.2770128250122070313 3.9273540973663330078 3.1495358943939208984 2.4152560234069824219 1.6120737791061401367 1.1044396162033081055 1.0976667404174804688 2.0616474151611328125 2.0938279628753662109 1 1.8398458957672119141 1.1363267898559570313 1.4203293323516845703 1.1422419548034667969 1.5580664873123168945 2.9097893238067626953 4.6226544380187988281 3.4842743873596191406 
1.0095970630645751953 1.1245975494384765625 1.2158402204513549805 2.3574054241180419922 4.3431391716003417969 3.5126101970672607422 3.8763322830200195313 2.9121201038360595703 2.2794427871704101563 2.1609485149383544922 2.4382810592651367188 1.2151067256927490234 1.3889868259429931641 1.0507935285568237305 1.1576859951019287109 1.3993349075317382813 1.418784022331237793 3.2845952510833740234 4.0582323074340820313 4.0007691383361816406 
2.4709949493408203125 2.3654105663299560547 1.2136156558990478516 1.7521666288375854492 3.4785435199737548828 3.7596657276153564453 5.6015954017639160156 3.9199604988098144531 2.4904787540435791016 1.7597155570983886719 2.3945498466491699219 2.4490063190460205078 1.2878847122192382813 1.1655139923095703125 1.6467088460922241211 2.026363372802734375 1.8534198999404907227 2.4176449775695800781 3.8046438694000244141 4.3271341323852539063 
2.2677452564239501953 1.87340545654296875 1.9029049873352050781 1.6683310270309448242 1.9908466339111328125 3.2699456214904785156 4.1633348464965820313 4.4194307327270507813 2.2483317852020263672 1.5941768884658813477 1.792548060417175293 3.1200673580169677734 2.5565569400787353516 1.6703512668609619141 2.0380012989044189453 2.1254367828369140625 1.9051309823989868164 2.0550677776336669922 3.0659651756286621094 4.0406889915466308594 
1.5092480182647705078 1.5225520133972167969 1.4663684368133544922 1.7637921571731567383 1.8779309988021850586 4.1767678260803222656 5.1972069740295410156 4.9661865234375 3.2551646232604980469 2.8285989761352539063 2.2711536884307861328 3.2732727527618408203 3.3872323036193847656 3.4690911769866943359 2.2818899154663085938 2.2854859828948974609 1.4457808732986450195 1.5324453115463256836 2.2873628139495849609 2.2167437076568603516 
1.8384171724319458008 2.0871610641479492188 1.9493898153305053711 1.6228063106536865234 2.2232472896575927734 3.1775641441345214844 4.1491041183471679688 5.9677605628967285156 4.6444501876831054688 2.8438551425933837891 2.3467893600463867188 2.5135312080383300781 4.7320652008056640625 6.7638750076293945313 3.5016739368438720703 3.2602221965789794922 1.6991266012191772461 1.7324291467666625977 2.0352225303649902344 2.2911360263824462891 
