ncols        20
nrows        20
xllcorner    -0.000000000000
yllcorner    0.000000000000
cellsize     10.000000000000
NODATA_value nan
0.13732452690601348877 0.12049614638090133667 0.79635375738143920898 1.947124481201171875 1.8037239313125610352 0.13225109875202178955 0.49307918548583984375 -0.0058227633126080036163 -1.5803630352020263672 1.0960820913314819336 -0.36863547563552856445 1.7748712301254272461 -0.27185237407684326172 0.58763527870178222656 0.27251610159873962402 -1.1623187065124511719 -2.3303582668304443359 -1.2119095325469970703 0.60928124189376831055 1.7396939992904663086 
0.64750093221664428711 0.49735110998153686523 -0.65548193454742431641 0.46241882443428039551 0.16985239088535308838 0.12987761199474334717 -0.2674147188663482666 0.038119342178106307983 -0.3602969050407409668 -0.12278067320585250854 -0.80498582124710083008 0.87251865863800048828 1.4596141576766967773 -0.25249087810516357422 -0.43448102474212646484 0.58327597379684448242 -0.069472894072532653809 0.071368463337421417236 -0.39954325556755065918 0.17366784811019897461 
1.4468173980712890625 1.3794448375701904297 0.73118412494659423828 -0.043998185545206069946 -1.8016579151153564453 -1.5201765298843383789 -1.8950339555740356445 -0.29299628734588623047 -0.63276964426040649414 1.6653524637222290039 -0.64270198345184326172 0.3746375739574432373 0.86447554826736450195 -2.0144007205963134766 -1.9950095415115356445 1.2604491710662841797 0.2616316676139831543 -0.94010424613952636719 -0.74998742341995239258 0.73307424783706665039 
1.3078190088272094727 -0.48517423868179321289 0.15734946727752685547 0.82582366466522216797 -0.22856116294860839844 2.2736117839813232422 -0.10495627671480178833 1.5257462263107299805 1.5024042129516601563 0.74896818399429321289 -0.83090353012084960938 0.35550156235694885254 0.79806196689605712891 -0.0060680443421006202698 1.1086496114730834961 0.22331507503986358643 -0.18541248142719268799 -0.64389371871948242188 -0.26961368322372436523 1.1929529905319213867 
-0.9620888829231262207 -1.0094394683837890625 0.13098798692226409912 -0.28417801856994628906 -0.40554916858673095703 0.8796437382698059082 0.84996646642684936523 0.84367847442626953125 0.32314798235893249512 1.4973299503326416016 0.29491344094276428223 2.3334057331085205078 -0.59636723995208740234 0.89742833375930786133 0.60838645696640014648 -1.0647696256637573242 -0.65014749765396118164 0.29489469528198242188 -0.33906456828117370605 1.1689748764038085938 
-0.88938945531845092773 -0.08798955380916595459 1.3984400033950805664 -1.6580944061279296875 -1.5338239669799804688 0.17791275680065155029 0.19948920607566833496 0.088567957282066345215 -0.2584711611270904541 -0.90862089395523071289 -0.2588761746883392334 -0.26006028056144714355 -0.93701308965682983398 0.24973019957542419434 -0.5981152653694152832 -0.83355629444122314453 0.76938968896865844727 -0.5278657078742980957 -0.14464345574378967285 0.43911033868789672852 
1.0300675630569458008 0.31342545151710510254 1.1165432929992675781 -0.4387308657169342041 1.1273072957992553711 -1.3825412988662719727 1.1101366281509399414 -1.0919413566589355469 -1.065678715705871582 -0.36397439241409301758 -1.5195771455764770508 0.054678678512573242188 -0.3024985194206237793 0.75760066509246826172 -0.060734655708074569702 0.78438490629196166992 0.7277132868766784668 -0.37061005830764770508 0.78810405731201171875 -0.13081100583076477051 
0.069284051656723022461 -0.84485763311386108398 0.31161788105964660645 -0.57265836000442504883 0.3921654820442199707 0.27712154388427734375 -2.1424591541290283203 0.34547379612922668457 0.35898643732070922852 0.9124647974967956543 -1.1664268970489501953 -0.78170424699783325195 0.77848684787750244141 -0.73780763149261474609 -0.15906038880348205566 -0.69684314727783203125 0.67773389816284179688 1.2754037380218505859 0.81753516197204589844 -0.79264289140701293945 
-0.18013602495193481445 0.34923142194747924805 1.3458788394927978516 -0.45374432206153869629 0.81205224990844726563 1.0839972496032714844 -1.2607092857360839844 -1.6478018760681152344 -1.1901333332061767578 0.33828687667846679688 0.23374187946319580078 0.82026618719100952148 2.6312165260314941406 0.58422774076461791992 0.21042290329933166504 -0.23754256963729858398 1.460278630256652832 -0.040504090487957000732 -0.49224272370338439941 -0.93236082792282104492 
-1.2079635858535766602 0.5603008270263671875 2.2865936756134033203 0.27439090609550476074 -0.80659985542297363281 -1.0677003860473632813 0.72229975461959838867 -0.36496308445930480957 -1.6446516513824462891 -1.3845789432525634766 -1.5383535623550415039 -0.31095978617668151855 0.018642466515302658081 0.20506754517555236816 0.033900856971740722656 -1.3643703460693359375 -0.70767790079116821289 -0.87383413314819335938 -1.5483231544494628906 -2.2362034320831298828 
0.20667019486427307129 0.50594323873519897461 0.064015418291091918945 1.0987579822540283203 0.39599943161010742188 1.2297511100769042969 -1.3050594329833984375 -1.6682122945785522461 -2.0375704765319824219 -0.75469636917114257813 0.99775862693786621094 -0.72010457515716552734 0.49445059895515441895 1.643398284912109375 0.10953075438737869263 -0.80311632156372070313 1.1384509801864624023 -0.99810761213302612305 -0.48111781477928161621 0.74779641628265380859 
1.7629463672637939453 0.14303867518901824951 0.29562810063362121582 -0.23614034056663513184 -0.5421708226203918457 0.49480032920837402344 0.12103426456451416016 -0.57372903823852539063 -1.862282872200012207 -0.41467002034187316895 -0.21348057687282562256 0.03453221544623374939 -0.050808884203433990479 1.5626435279846191406 -0.3482392430305480957 -0.80600607395172119141 -0.64278066158294677734 0.29530039429664611816 -1.1591532230377197266 0.75653696060180664063 
-0.8758437037467956543 -0.41163185238838195801 0.81235015392303466797 -1.4343345165252685547 -0.26756301522254943848 0.16456177830696105957 0.54653269052505493164 -1.0143880844116210938 -0.39992180466651916504 1.5823931694030761719 -1.0590927600860595703 0.22792865335941314697 -1.5109803676605224609 -1.7034689188003540039 -0.75235748291015625 -0.62751740217208862305 -0.32911413908004760742 1.5730006694793701172 -1.4931266307830810547 0.31429684162139892578 
0.77578485012054443359 0.30748987197875976563 1.8225133419036865234 0.14684376120567321777 1.8525600433349609375 1.2212435007095336914 0.86500918865203857422 -0.10462613403797149658 0.40187507867813110352 2.8271157741546630859 1.5821710824966430664 1.289887547492980957 -0.55024570226669311523 -0.85080546140670776367 -0.61981779336929321289 1.0753791332244873047 -0.24652454257011413574 0.97776806354522705078 -0.28528559207916259766 -0.48627048730850219727 
1.561059117317199707 0.095262251794338226318 1.6870452165603637695 -0.63847237825393676758 0.7796280980110168457 1.1405719518661499023 1.0415318012237548828 0.60586178302764892578 0.19377356767654418945 -0.88267129659652709961 1.2752236127853393555 0.35926133394241333008 0.40261089801788330078 1.6532473564147949219 -0.91546279191970825195 -1.1454188823699951172 0.023442663252353668213 0.38060328364372253418 -0.41071078181266784668 -0.46142140030860900879 
-0.78116005659103393555 -0.86190742254257202148 -1.6670343875885009766 0.6353581547737121582 -0.25563454627990722656 0.53554534912109375 2.0749490261077880859 1.0423519611358642578 -0.71641469001770019531 0.25350213050842285156 0.45733252167701721191 0.22990755736827850342 0.27078711986541748047 -1.4242720603942871094 1.4687224626541137695 -0.17411948740482330322 0.48662143945693969727 1.5338225364685058594 1.5253182649612426758 0.35656249523162841797 
-1.3626841306686401367 -1.4962352514266967773 -0.49651065468788146973 -0.34421071410179138184 0.019992994144558906555 -1.7990579605102539063 0.52009510993957519531 -0.67172658443450927734 -1.8160881996154785156 -0.19617973268032073975 -0.53059023618698120117 0.32802921533584594727 -0.38850119709968566895 1.0554884672164916992 2.0896787643432617188 0.12120472639799118042 1.2192552089691162109 2.0496528148651123047 0.36735358834266662598 -1.3632756471633911133 
-1.5825064182281494141 0.36759531497955322266 1.9351513385772705078 -1.5773681402206420898 -1.4515203237533569336 0.39050924777984619141 0.31530055403709411621 0.41697815060615539551 -1.511521458625793457 -1.6773469448089599609 -1.9403651952743530273 -0.4027658998966217041 1.4789073467254638672 1.4647935628890991211 0.15539322793483734131 0.79739916324615478516 -1.3423316478729248047 -0.30143117904663085938 0.48906412720680236816 -0.43612429499626159668 
-0.27681678533554077148 -1.0463453531265258789 0.16013064980506896973 -0.54112958908081054688 -0.37335687875747680664 -2.3938596248626708984 -1.3019644021987915039 -0.39028415083885192871 -1.9633988142013549805 -0.99353063106536865234 0.5308659672737121582 -1.1669981479644775391 0.41355603933334350586 0.81992882490158081055 1.0851767063140869141 -0.81183201074600219727 -0.4070396125316619873 0.83149868249893188477 1.1522657871246337891 -1.5331833362579345703 
0.0017660523299127817154 -0.27534559369087219238 -0.58825457096099853516 0.65696614980697631836 0.43438392877578735352 -1.9793361425399780273 -2.1205685138702392578 -0.83829391002655029297 -1.1586264371871948242 1.3953529596328735352 0.46870747208595275879 0.66666871309280395508 0.57063305377960205078 -0.0090714534744620323181 -0.36018404364585876465 -0.15497346222400665283 -0.89980512857437133789 1.5874946117401123047 0.34690228104591369629 -0.88516503572463989258 
