ncols        40
nrows        40
xllcorner    -0.000000000000
yllcorner    0.000000000000
cellsize     5.000000000000
NODATA_value nan
0.67046678066253662109 -1.2794142961502075195 -1.0809665918350219727 0.35701072216033935547 0.26003253459930419922 1.0474345684051513672 0.026964392513036727905 1.9265981912612915039 3.0296654701232910156 0.66991335153579711914 -0.25392934679985046387 0.37615871429443359375 0.49857780337333679199 0.33293166756629943848 1.3774088621139526367 -0.18971242010593414307 -2.0300412178039550781 -1.1143954992294311523 1.0017985105514526367 0.61345624923706054688 0.32860848307609558105 -0.74048823118209838867 1.5987325906753540039 0.96797317266464233398 0.09390118718147277832 -1.0290399789810180664 0.46700584888458251953 1.1395217180252075195 0.70641684532165527344 0.42377170920372009277 -0.36669391393661499023 -1.8037644624710083008 -1.5070235729217529297 -1.3155956268310546875 0.16166695952415466309 -0.13952207565307617188 0.60457283258438110352 1.5163104534149169922 1.3570954799652099609 0.80000215768814086914 
0.17326806485652923584 0.83952313661575317383 0.71833819150924682617 0.35997250676155090332 0.30652636289596557617 0.72792190313339233398 1.1666105985641479492 2.6059262752532958984 1.8995671272277832031 -0.29475834965705871582 -0.3086541295051574707 0.5753485560417175293 -0.049131795763969421387 0.66766858100891113281 -0.12592068314552307129 -1.0788992643356323242 -1.0398759841918945313 -0.46321576833724975586 0.57128030061721801758 1.0368208885192871094 0.19773364067077636719 -0.86993634700775146484 0.92887800931930541992 1.7239538431167602539 0.45374006032943725586 -0.31806418299674987793 0.89714068174362182617 -0.77555167675018310547 -0.53241723775863647461 0.20364344120025634766 -0.10491027683019638062 -1.1427758932113647461 -0.97531241178512573242 -3.0551815032958984375 -2.4083943367004394531 -1.177731633186340332 -0.98125278949737548828 0.65214246511459350586 1.5589624643325805664 1.4000283479690551758 
-0.15945942699909210205 0.70325070619583129883 0.5441811680793762207 0.35148015618324279785 -0.55107510089874267578 -1.3825017213821411133 0.33983153104782104492 0.68816262483596801758 0.81627511978149414063 -0.39004731178283691406 0.22692081332206726074 -0.05142965167760848999 -0.35623633861541748047 -0.11659421026706695557 -0.65286397933959960938 -0.50412201881408691406 -0.2442175745964050293 -0.55377876758575439453 -0.49485734105110168457 -0.82589566707611083984 -0.53305470943450927734 -1.8758549690246582031 0.6206582188606262207 0.85575211048126220703 -0.079979300498962402344 1.5258523225784301758 0.77134764194488525391 -1.8686066865921020508 -1.5523489713668823242 1.0412251949310302734 -0.2284937053918838501 0.28697368502616882324 0.084439203143119812012 -0.598529815673828125 0.2497971951961517334 0.049764845520257949829 -0.4236526191234588623 -0.31513765454292297363 0.55857324600219726563 0.64243936538696289063 
0.065061129629611968994 1.2953169345855712891 -0.078350171446800231934 0.64529788494110107422 0.0068885497748851776123 -0.0009517696453258395195 -0.091310784220695495605 0.42319697141647338867 0.5238628387451171875 -0.45058912038803100586 -0.15439175069332122803 0.36084440350532531738 -0.29641374945640563965 -0.017168326303362846375 0.3731371462345123291 0.89595013856887817383 0.29790174961090087891 -0.55946576595306396484 0.59792858362197875977 0.36175128817558288574 0.52315557003021240234 -0.48154655098915100098 0.34459570050239562988 0.74489504098892211914 1.4902424812316894531 1.3563146591186523438 0.40734946727752685547 -0.052615061402320861816 -0.86712366342544555664 0.10052659362554550171 1.6268271207809448242 0.029989665374159812927 -0.53214949369430541992 0.84193438291549682617 -0.05242423713207244873 -0.037257574498653411865 0.80757093429565429688 -1.2437566518783569336 -0.93146413564682006836 0.24117361009120941162 
0.72707027196884155273 1.8035963773727416992 1.2467087507247924805 0.24471770226955413818 0.37948814034461975098 0.90684962272644042969 0.17591325938701629639 -0.75091022253036499023 -0.89144170284271240234 -2.039569854736328125 -2.0543847084045410156 -0.46798974275588989258 -1.5660927295684814453 -1.5238615274429321289 0.26395463943481445313 0.34079381823539733887 -0.37508812546730041504 -0.46863639354705810547 1.9636721611022949219 1.3598453998565673828 0.8051891326904296875 -0.59567868709564208984 0.084202848374843597412 0.7477467656135559082 1.8354637622833251953 0.79300200939178466797 -1.9420549869537353516 -1.3692700862884521484 -1.9420093297958374023 -2.7984135150909423828 1.621512293815612793 1.5086247920989990234 0.18915548920631408691 0.99306428432464599609 -0.41775587201118469238 -1.5131245851516723633 0.57361847162246704102 -0.8234259486198425293 0.48641413450241088867 0.72602236270904541016 
0.59164804220199584961 1.1324830055236816406 1.4849555492401123047 1.0802866220474243164 0.0046629090793430805206 0.85926413536071777344 0.69265675544738769531 -0.24704954028129577637 -0.55445647239685058594 -1.8128439188003540039 -1.171979069709777832 -0.77617824077606201172 -1.4384336471557617188 -1.0445239543914794922 -0.73844045400619506836 -0.72795093059539794922 -0.28837433457374572754 -0.72874879837036132813 1.1880850791931152344 0.38586246967315673828 -0.8844845890998840332 -1.2150825262069702148 -0.17695336043834686279 0.44673714041709899902 0.09107208251953125 -0.17728997766971588135 -1.6465184688568115234 -0.96610170602798461914 -0.043411862105131149292 -1.0830852985382080078 0.48969644308090209961 0.086892567574977874756 -0.37693119049072265625 -0.035882711410522460938 0.08062969893217086792 -0.91440582275390625 -1.5744123458862304688 -0.38134160637855529785 0.99179297685623168945 -0.048406235873699188232 
1.3440325260162353516 0.8769550323486328125 0.11708702147006988525 0.2739912569522857666 0.37173956632614135742 0.91262418031692504883 0.61629927158355712891 0.40671780705451965332 0.077048681676387786865 -2.24471282958984375 0.69041597843170166016 1.8289341926574707031 -0.36529341340065002441 -0.23440061509609222412 0.54632091522216796875 2.3027966022491455078 1.919658660888671875 -0.289920806884765625 -0.060851242393255233765 0.16621731221675872803 -1.3722225427627563477 -1.0162203311920166016 -1.1113026142120361328 0.24074546992778778076 0.65355384349822998047 0.59684830904006958008 -0.016173211857676506042 -0.12453226745128631592 1.2325021028518676758 -0.060220766812562942505 -0.62606137990951538086 -0.24648447334766387939 -0.50276261568069458008 -0.44959241151809692383 0.36176049709320068359 -0.71304291486740112305 -0.85251021385192871094 1.1646422147750854492 1.9477903842926025391 -0.066337242722511291504 
1.4583340883255004883 0.16670984029769897461 -1.3027842044830322266 -0.5150935053825378418 -0.42303857207298278809 -0.39859211444854736328 -0.31188908219337463379 1.7174525260925292969 1.5594025850296020508 -0.063890703022480010986 1.7859033346176147461 2.3809792995452880859 0.1188200041651725769 0.17221884429454803467 0.3044795989990234375 1.3333142995834350586 2.0238575935363769531 0.76467180252075195313 1.2723783254623413086 0.82481968402862548828 -0.39596083760261535645 0.34088423848152160645 0.5045273900032043457 1.4114879369735717773 0.63313567638397216797 0.4634011685848236084 0.041826877743005752563 0.0810337066650390625 2.0130715370178222656 0.074961461126804351807 -0.24994845688343048096 1.7792187929153442383 0.86488294601440429688 -0.45778855681419372559 -0.16498486697673797607 -1.3772939443588256836 -1.8667529821395874023 0.76174169778823852539 0.78151726722717285156 0.84526342153549194336 
0.6516265869140625 -1.7814851999282836914 -2.1171407699584960938 -1.1240687370300292969 -1.0519435405731201172 0.68432092666625976563 0.32377737760543823242 0.57802432775497436523 1.3208719491958618164 -0.38664519786834716797 1.927598118782043457 1.4668359756469726563 0.80275398492813110352 1.0541303157806396484 0.65882152318954467773 -0.36915105581283569336 0.67704337835311889648 1.1720964908599853516 1.9580094814300537109 1.698971867561340332 -0.41859737038612365723 0.86947262287139892578 2.6008279323577880859 2.1256613731384277344 0.092610746622085571289 -0.93776309490203857422 -0.21806530654430389404 0.75159889459609985352 1.5838506221771240234 0.23943689465522766113 -1.6591857671737670898 0.58037388324737548828 0.13434089720249176025 -1.707738041877746582 0.043972127139568328857 -0.76178520917892456055 -1.4712253808975219727 0.52662128210067749023 1.3237881660461425781 1.4198836088180541992 
-0.74636614322662353516 -0.95308417081832885742 0.39641848206520080566 -0.12376636266708374023 -0.47524473071098327637 1.2280765771865844727 -0.23689553141593933105 -1.5006163120269775391 -0.98373752832412719727 -1.14312744140625 -0.43576031923294067383 -0.37181922793388366699 0.35486927628517150879 0.28782606124877929688 1.015576481819152832 1.1758408546447753906 -0.65064948797225952148 -0.24817749857902526855 0.687969207763671875 0.058394260704517364502 -0.22381328046321868896 0.64021885395050048828 0.84090542793273925781 1.2946801185607910156 -0.3828735053539276123 -0.52576977014541625977 0.50585162639617919922 1.5997703075408935547 0.98353910446166992188 -1.0176850557327270508 -0.95278924703598022461 -1.0996713638305664063 -1.4089728593826293945 1.0704175233840942383 1.2519166469573974609 0.33312207460403442383 0.20745146274566650391 -0.25996771454811096191 0.92009848356246948242 -0.22605153918266296387 
-1.5241868495941162109 -0.23626266419887542725 -0.36769732832908630371 0.26037514209747314453 0.27748969197273254395 0.27154043316841125488 -1.4700624942779541016 -1.9370822906494140625 -2.3427164554595947266 -1.0023145675659179688 -0.45903912186622619629 -0.85511410236358642578 -1.0061396360397338867 -0.55425918102264404297 -0.0095500778406858444214 0.62869840860366821289 -0.46357747912406921387 -0.87329107522964477539 -0.097262047231197357178 -0.37320342659950256348 1.3352390527725219727 -0.2734527289867401123 -1.0526781082153320313 0.56357145309448242188 -0.49720880389213562012 -1.0507591962814331055 0.47999322414398193359 1.8943343162536621094 0.87310624122619628906 -0.67040091753005981445 -0.49498742818832397461 -0.82665789127349853516 -0.54916512966156005859 2.0011789798736572266 1.0979692935943603516 -0.48065513372421264648 0.23252578079700469971 -0.23560605943202972412 1.1448128223419189453 -0.11787679046392440796 
-0.66265583038330078125 -0.19240929186344146729 -1.1133825778961181641 0.9619452357292175293 1.9071106910705566406 1.6563886404037475586 -0.65522104501724243164 -0.81375479698181152344 -0.44758644700050354004 -0.7180487513542175293 1.1877576112747192383 0.64960110187530517578 1.0096471309661865234 1.1374090909957885742 -0.58836591243743896484 0.22967807948589324951 0.53339153528213500977 0.043365593999624252319 -0.96966278553009033203 -1.2319420576095581055 -0.43448409438133239746 -1.3886047601699829102 -0.50781178474426269531 0.23213367164134979248 -0.24512021243572235107 -0.96247792243957519531 -0.86726033687591552734 -0.77266108989715576172 -0.87060052156448364258 -1.0910409688949584961 -1.0230307579040527344 -0.10664446651935577393 -0.14439977705478668213 0.95500546693801879883 -0.64386463165283203125 -1.5257959365844726563 0.15820647776126861572 -0.58049339056015014648 0.19756668806076049805 0.066832005977630615234 
1.3976576328277587891 0.76440405845642089844 0.043265063315629959106 0.66601234674453735352 1.8433163166046142578 0.89361250400543212891 -0.7165622711181640625 -0.29152479767799377441 1.160851597785949707 0.86205565929412841797 -0.25348970293998718262 -0.44444951415061950684 1.1560438871383666992 1.367275238037109375 -0.59441888332366943359 -0.86256623268127441406 -0.8980884552001953125 0.33644059300422668457 0.62691831588745117188 -0.29420587420463562012 -0.82357245683670043945 -0.12734358012676239014 0.8140729069709777832 0.94614261388778686523 0.68850690126419067383 -0.9387073516845703125 -0.038818839937448501587 1.3721541166305541992 0.2647654116153717041 -0.25722420215606689453 0.24002799391746520996 1.2690660953521728516 1.1823943853378295898 0.12995259463787078857 -0.34101632237434387207 -1.2647967338562011719 -0.61451482772827148438 0.82046616077423095703 0.20863588154315948486 0.3414141237735748291 
0.50532293319702148438 0.36183586716651916504 -0.21592675149440765381 0.42837029695510864258 0.081942215561866760254 0.46465703845024108887 0.054326210170984268188 -0.33645793795585632324 0.95781463384628295898 0.33446103334426879883 -1.8237310647964477539 -1.544104456901550293 0.36315265297889709473 0.37821552157402038574 -1.0073951482772827148 -0.74679857492446899414 -1.2761206626892089844 -1.2961772680282592773 0.12788005173206329346 -1.53096771240234375 -1.8396598100662231445 -1.6781935691833496094 -0.32641163468360900879 -1.2730048894882202148 -0.29467025399208068848 -0.34471631050109863281 0.574306488037109375 0.32030880451202392578 0.73114764690399169922 -0.91729718446731567383 0.2673771977424621582 0.53024625778198242188 -0.15625683963298797607 0.98396754264831542969 0.76419317722320556641 -0.24826946854591369629 -0.027639355510473251343 2.1393427848815917969 0.62470781803131103516 -1.5594465732574462891 
-0.39302328228950500488 -0.28773707151412963867 -0.32448205351829528809 -0.53231030702590942383 -0.097205050289630889893 0.80356132984161376953 -0.41729027032852172852 -0.79152727127075195313 0.84477138519287109375 0.54027086496353149414 0.38863298296928405762 -0.25541529059410095215 -0.86839824914932250977 -0.25935900211334228516 1.1828147172927856445 -0.032398626208305358887 -0.71868759393692016602 -0.2943515777587890625 0.70031207799911499023 -0.65419691801071166992 -1.5253207683563232422 -1.0224440097808837891 -0.22321264445781707764 -1.0358405113220214844 -0.52234399318695068359 0.68151438236236572266 -0.012106107547879219055 -1.0645661354064941406 -0.49752813577651977539 -0.34451878070831298828 -0.59466153383255004883 -0.90179294347763061523 -0.63355314731597900391 0.94265902042388916016 1.320499420166015625 0.36717966198921203613 0.32138320803642272949 1.6913663148880004883 0.43481236696243286133 -1.6089607477188110352 
-0.053284227848052978516 0.9377949833869934082 -0.9911524653434753418 -0.63661062717437744141 -0.24120914936065673828 0.45125806331634521484 0.65972650051116943359 -1.1349813938140869141 -0.27056097984313964844 0.038798093795776367188 1.399689793586730957 -0.71794897317886352539 -3.0794749259948730469 -2.0933070182800292969 0.49204179644584655762 -0.62648934125900268555 0.83130383491516113281 1.2374418973922729492 1.495196223258972168 1.1420632600784301758 -0.50322753190994262695 -0.37923362851142883301 -0.85023635625839233398 -0.18954479694366455078 1.2887706756591796875 0.8414313197135925293 -0.42516624927520751953 -0.66790479421615600586 0.13940298557281494141 0.23487943410873413086 -0.43267354369163513184 -0.12014681100845336914 0.68958270549774169922 0.99438995122909545898 0.9850330352783203125 1.0779926776885986328 0.44992479681968688965 -0.058468621224164962769 -1.0577880144119262695 -0.099066294729709625244 
0.59132504463195800781 0.33268696069717407227 -0.77966022491455078125 0.30737680196762084961 0.6569913029670715332 -0.68248027563095092773 0.28946515917778015137 -0.33448913693428039551 -0.65206831693649291992 0.31228601932525634766 0.87660831212997436523 -0.76600801944732666016 -1.9519279003143310547 -2.5966839790344238281 -1.3620766401290893555 -0.35046857595443725586 -1.1240391731262207031 -1.3961408138275146484 0.24944463372230529785 1.2777116298675537109 0.83324021100997924805 0.65741878747940063477 0.041190437972545623779 0.85566186904907226563 2.8466303348541259766 1.4006273746490478516 0.23985585570335388184 -0.32371100783348083496 -0.84414899349212646484 -0.062362458556890487671 0.16671204566955566406 -0.10950236767530441284 1.5156770944595336914 0.44695824384689331055 0.55375206470489501953 -0.26589742302894592285 -0.16796669363975524902 0.16790911555290222168 -0.64781856536865234375 -0.12353876233100891113 
-0.68440008163452148438 -0.76935559511184692383 -0.33022409677505493164 1.8295265436172485352 3.1014537811279296875 0.88199293613433837891 -1.0006387233734130859 -0.28870767354965209961 0.3106937110424041748 2.4171702861785888672 1.9225821495056152344 1.1546345949172973633 0.95013695955276489258 -0.10901615768671035767 -2.4881544113159179688 -0.64515244960784912109 -0.29230684041976928711 -0.68745470046997070313 -0.43984442949295043945 -0.092478446662425994873 -0.1618054509162902832 -0.64146596193313598633 -0.45493206381797790527 1.9703168869018554688 2.3828148841857910156 1.1078039407730102539 0.50832849740982055664 1.2936224937438964844 0.66553461551666259766 0.85978811979293823242 -0.049503322690725326538 -0.70627105236053466797 1.5027868747711181641 0.82896220684051513672 0.46887379884719848633 -0.87584280967712402344 -0.5483677983283996582 -0.89916098117828369141 -1.1372394561767578125 -0.83328801393508911133 
-0.94380879402160644531 -0.17324095964431762695 0.36839017271995544434 1.9217859506607055664 4.0799298286437988281 1.5036643743515014648 -0.54393476247787475586 0.008828097023069858551 -0.44254764914512634277 0.13762892782688140869 0.31452828645706176758 0.20603537559509277344 0.52566850185394287109 0.50552481412887573242 -1.1615631580352783203 -0.60607290267944335938 -0.67731004953384399414 -0.66608762741088867188 -0.88124817609786987305 -0.95386958122253417969 -1.261608123779296875 -1.5165723562240600586 -0.38898679614067077637 0.99118119478225708008 1.0046541690826416016 -0.71949887275695800781 -0.20491079986095428467 0.37497016787528991699 0.25328731536865234375 0.19140671193599700928 -0.98575216531753540039 -1.3839234113693237305 0.0186148080974817276 0.60465955734252929688 -0.64539223909378051758 -1.0513290166854858398 -1.8885021209716796875 -2.7731692790985107422 -2.7057967185974121094 -1.271998286247253418 
-1.7289854288101196289 -0.7063414454460144043 -0.47350972890853881836 -0.16893494129180908203 1.13852691650390625 0.0022886551450937986374 0.49454730749130249023 0.84748756885528564453 -0.24125978350639343262 -1.8258686065673828125 -2.7170357704162597656 -0.94341909885406494141 0.37548145651817321777 0.71746289730072021484 0.1047886386513710022 0.58956480026245117188 -1.4450294971466064453 -2.0481610298156738281 -1.1110932826995849609 -1.1255559921264648438 -0.3993905484676361084 -1.3464159965515136719 -1.3727345466613769531 -0.14392974972724914551 -0.049217939376831054688 -0.18111361563205718994 -0.45011651515960693359 0.88311934471130371094 0.032905586063861846924 -0.37790402770042419434 -0.41342908143997192383 -1.2292329072952270508 -1.6553227901458740234 -1.0490893125534057617 -1.0093477964401245117 0.13629943132400512695 0.6730048060417175293 -0.5646387934684753418 -2.0433137416839599609 -0.55511373281478881836 
-0.41478866338729858398 0.47745504975318908691 -0.41028136014938354492 0.043286539614200592041 -0.049840096384286880493 -0.32150229811668395996 0.32891097664833068848 1.6763024330139160156 1.6156631708145141602 -0.95627701282501220703 -0.11873882263898849487 0.17247749865055084229 -0.16497538983821868896 -0.70798289775848388672 -0.97265160083770751953 0.091801531612873077393 -0.51788949966430664063 -2.3019022941589355469 -0.96941626071929931641 0.23749090731143951416 0.92831540107727050781 0.38466972112655639648 -1.1488755941390991211 -0.14758296310901641846 0.097727701067924499512 0.67640835046768188477 -0.00013107348058838397264 1.6348338127136230469 0.81806963682174682617 0.43979242444038391113 -0.51567292213439941406 -0.2595303952693939209 -0.27920836210250854492 0.52732521295547485352 -1.0405961275100708008 -0.49192646145820617676 -0.14374792575836181641 -0.63409882783889770508 -0.81201994419097900391 2.2655129432678222656 
0.15137454867362976074 0.39373430609703063965 1.4153590202331542969 0.43951252102851867676 -0.36144652962684631348 0.92104536294937133789 0.70428651571273803711 0.52172523736953735352 0.88386583328247070313 -0.3786977231502532959 2.4534194469451904297 1.1092915534973144531 -0.64417183399200439453 -2.3207859992980957031 -2.43056488037109375 -1.5944601297378540039 -1.6958000659942626953 -1.4764913320541381836 -1.177920222282409668 -0.3095639646053314209 1.3057171106338500977 0.31550422310829162598 -1.2089204788208007813 0.38769713044166564941 0.12709859013557434082 0.55284464359283447266 1.3058835268020629883 1.8923158645629882813 0.10945517569780349731 -1.0452095270156860352 -1.7910683155059814453 0.20446889102458953857 1.639129638671875 1.4607077836990356445 -0.60319173336029052734 -0.799518585205078125 0.56349813938140869141 -1.2005217075347900391 -0.87740480899810791016 1.6230299472808837891 
1.5914576053619384766 1.4460060596466064453 1.4748977422714233398 -0.34581828117370605469 -0.54347097873687744141 -0.01393158547580242157 -0.2897643744945526123 -0.43796399235725402832 -0.48783990740776062012 -0.29097652435302734375 0.96336257457733154297 1.2579529285430908203 0.61034893989562988281 -0.44586098194122314453 -0.28847712278366088867 -0.92644912004470825195 -2.0016374588012695313 -1.0243725776672363281 -0.39472591876983642578 -0.78024005889892578125 0.65235811471939086914 0.50815695524215698242 -0.21448130905628204346 0.71231222152709960938 0.34228804707527160645 0.17414861917495727539 1.8478105068206787109 2.2582745552062988281 0.57190161943435668945 -1.2436037063598632813 -1.2487208843231201172 0.2251676023006439209 -0.15566435456275939941 -0.19162023067474365234 -0.53322505950927734375 -0.44922658801078796387 -0.72702670097351074219 -1.013248443603515625 -1.2056776285171508789 1.0768134593963623047 
0.93664467334747314453 1.2103607654571533203 -0.40678778290748596191 -0.30164381861686706543 -0.04657251015305519104 1.4733575582504272461 0.79559534788131713867 -0.76230800151824951172 -0.47964486479759216309 -0.33595356345176696777 -1.3715152740478515625 0.60530751943588256836 0.99888056516647338867 -0.80743122100830078125 -0.60594511032104492188 0.1336501389741897583 -1.8625274896621704102 -0.58805996179580688477 0.10531608015298843384 -0.1498108208179473877 -0.82069957256317138672 -0.96761870384216308594 -0.68711715936660766602 0.29083853960037231445 -0.65724164247512817383 -0.0086137223988771438599 0.19116517901420593262 0.29816842079162597656 -0.26453661918640136719 -0.087862558662891387939 -0.70934981107711791992 -0.63739788532257080078 -0.78594112396240234375 -0.7570622563362121582 1.7114874124526977539 0.13938294351100921631 -1.3830411434173583984 -0.28551906347274780273 1.1120204925537109375 1.2416661977767944336 
-0.27491527795791625977 -0.38785085082054138184 -0.94234764575958251953 -0.79714107513427734375 0.62185835838317871094 0.66303402185440063477 -0.36455604434013366699 -0.88021385669708251953 -0.41501852869987487793 -0.55604195594787597656 -1.0123330354690551758 0.595935821533203125 0.10729238390922546387 -0.72831481695175170898 -2.1482028961181640625 -1.4251831769943237305 -1.6798245906829833984 0.46659192442893981934 0.98343038558959960938 1.0554407835006713867 -0.87643700838088989258 -1.2454192638397216797 0.33693411946296691895 -0.98781317472457885742 -1.3640159368515014648 -1.4035589694976806641 -0.92463034391403198242 -1.5517871379852294922 -0.4966945350170135498 -0.25862812995910644531 -0.74539101123809814453 -0.81708669662475585938 -0.42669925093650817871 0.1419394761323928833 2.5467979907989501953 1.1427899599075317383 -1.385407567024230957 -0.34584337472915649414 0.89641743898391723633 1.1715068817138671875 
-0.70476251840591430664 -1.2081506252288818359 -0.27721744775772094727 0.80618005990982055664 1.5931783914566040039 -0.48911309242248535156 -1.7611370086669921875 -1.2121812105178833008 0.27529489994049072266 -0.091083250939846038818 0.56286799907684326172 0.33747214078903198242 0.8082796931266784668 1.4199849367141723633 1.1094299554824829102 -0.51915431022644042969 -0.61466264724731445313 0.65180599689483642578 1.2595986127853393555 1.3550287485122680664 -0.25325065851211547852 -0.73947072029113769531 0.70573645830154418945 0.61543470621109008789 -0.3598111271858215332 -1.3161019086837768555 -1.5476700067520141602 -0.98547041416168212891 -0.073623552918434143066 -1.3835852146148681641 -0.52754032611846923828 0.24461610615253448486 -0.3109372556209564209 -0.37216117978096008301 1.1587150096893310547 -0.22242602705955505371 -1.5135281085968017578 -1.1462047100067138672 -1.1321541070938110352 -0.011486682109534740448 
0.2202923893928527832 -0.03027596697211265564 -0.12526424229145050049 0.52983814477920532227 1.7520704269409179688 0.94365388154983520508 -0.13787211477756500244 0.19480651617050170898 1.1957992315292358398 1.8114702701568603516 0.64846497774124145508 0.73197567462921142578 0.8343842625617980957 0.010945317335426807404 0.30536544322967529297 0.33490887284278869629 0.027403233572840690613 0.13074479997158050537 2.6726920604705810547 2.2206254005432128906 0.49251535534858703613 1.0527352094650268555 0.015276203863322734833 1.890324711799621582 1.0315573215484619141 -1.4726326465606689453 -1.4638195037841796875 0.19667331874370574951 0.37775641679763793945 0.39325380325317382813 0.2613086402416229248 0.98072057962417602539 -1.2878471612930297852 -0.63780570030212402344 0.44966170191764831543 0.8014176487922668457 -0.15027324855327606201 -0.56311976909637451172 -0.160234794020652771 -0.28676855564117431641 
2.2127292156219482422 -0.12131921201944351196 0.68911844491958618164 -0.18942672014236450195 0.22315455973148345947 2.4407644271850585938 0.90655881166458129883 -0.53165543079376220703 0.039901748299598693848 2.4008333683013916016 0.98724973201751708984 1.2237401008605957031 1.1020241975784301758 0.5964635014533996582 -1.0256807804107666016 0.077722176909446716309 0.90209507942199707031 0.12159025669097900391 2.5600545406341552734 0.86060422658920288086 1.0290949344635009766 2.0785000324249267578 1.1567548513412475586 0.7309430241584777832 -0.53989529609680175781 -0.63719075918197631836 -0.64928466081619262695 -0.58561605215072631836 -1.4702130556106567383 -1.1235560178756713867 0.65234863758087158203 1.2680950164794921875 0.42936369776725769043 0.77131032943725585938 1.1934931278228759766 0.43084576725959777832 -0.51271480321884155273 0.38714048266410827637 -0.017817314714193344116 -0.96520256996154785156 
2.0309963226318359375 1.0714865922927856445 0.28548923134803771973 0.27077433466911315918 1.0423485040664672852 3.3666331768035888672 1.258439183235168457 -1.414120793342590332 -0.10157690197229385376 2.5974884033203125 1.1014235019683837891 1.0276252031326293945 0.96375948190689086914 1.4894520044326782227 0.70657408237457275391 0.29596155881881713867 0.50400698184967041016 -0.25296324491500854492 0.61877214908599853516 -1.0965058803558349609 0.2566687464714050293 1.5835595130920410156 -0.011126135475933551788 -0.094291970133781433105 -0.73716187477111816406 0.2045259624719619751 1.5139273405075073242 1.3584883213043212891 -1.0076278448104858398 -1.2571237087249755859 -0.31218534708023071289 -0.39150005578994750977 -0.18517106771469116211 0.25521805882453918457 0.27320140600204467773 -0.46790167689323425293 -1.7850648164749145508 -0.30275222659111022949 0.6646868586540222168 -0.40245810151100158691 
0.90619921684265136719 0.58207732439041137695 -0.85222291946411132813 0.5761063694953918457 0.21051667630672454834 0.34176054596900939941 0.19413454830646514893 -1.9160710573196411133 -0.44880425930023193359 0.24562147259712219238 0.8511937260627746582 0.3739490509033203125 0.33523678779602050781 0.27448633313179016113 0.13088592886924743652 0.64829546213150024414 0.25118991732597351074 0.067615218460559844971 -0.12559039890766143799 -1.9924339056015014648 0.30962988734245300293 1.6003168821334838867 0.79495996236801147461 0.36697316169738769531 0.66563040018081665039 1.0510027408599853516 1.4823909997940063477 0.50705981254577636719 0.3167890012264251709 -0.74422854185104370117 -1.3114775419235229492 -1.3532824516296386719 -0.84643775224685668945 0.84533089399337768555 0.97090113162994384766 0.34307643771171569824 0.77771025896072387695 0.10228936374187469482 -0.90880346298217773438 -0.71037238836288452148 
-0.19040942192077636719 -0.83025842905044555664 -0.039216496050357818604 -0.50142788887023925781 -2.1365766525268554688 -1.5311635732650756836 -0.29341283440589904785 -0.3896872103214263916 -0.56482857465744018555 -0.22060994803905487061 -0.063639558851718902588 0.25752055644989013672 2.3205547332763671875 1.0958578586578369141 0.56470531225204467773 1.1874154806137084961 0.66317409276962280273 -0.77721190452575683594 -0.47974863648414611816 -0.5061518549919128418 0.55249500274658203125 -0.43225464224815368652 -0.06529280543327331543 0.68165075778961181641 0.79958093166351318359 0.65228891372680664063 -1.2673397064208984375 -1.7679144144058227539 0.23456706106662750244 1.1861727237701416016 0.11214821785688400269 -1.3463907241821289063 0.71790909767150878906 1.6121430397033691406 0.68595957756042480469 0.010593251325190067291 1.2495484352111816406 0.67768448591232299805 -0.34540078043937683105 -0.42549356818199157715 
-0.30589205026626586914 -0.97067403793334960938 -0.89957267045974731445 -1.0944784879684448242 -1.350414276123046875 0.1157434508204460144 0.60430371761322021484 1.9472563266754150391 0.58692383766174316406 -0.55325478315353393555 0.65241992473602294922 0.72862970829010009766 0.56238943338394165039 2.1232035160064697266 0.64768683910369873047 0.665538787841796875 -0.50523424148559570313 -1.4875588417053222656 0.33021938800811767578 1.4011796712875366211 0.64243292808532714844 0.58224928379058837891 0.064222097396850585938 -0.0044684065505862236023 -0.54436701536178588867 -0.11117268353700637817 -0.89296793937683105469 -0.2602742612361907959 0.96690964698791503906 1.9315664768218994141 0.70139813423156738281 0.02079410851001739502 -0.57780295610427856445 -0.32119387388229370117 1.6082183122634887695 2.2058911323547363281 1.23014068603515625 1.3282793760299682617 0.63981389999389648438 1.1796587705612182617 
-0.61780810356140136719 -1.5166850090026855469 -1.0304878950119018555 -0.28299978375434875488 0.37508043646812438965 -0.083455950021743774414 0.23728290200233459473 0.27014297246932983398 -0.24165083467960357666 -1.2265609502792358398 -0.95329660177230834961 -0.90573000907897949219 -1.139783024787902832 0.50053185224533081055 -0.6812114715576171875 -1.4530301094055175781 -2.0134735107421875 -1.003106236457824707 0.59989351034164428711 -0.00098190049175173044205 -0.63987809419631958008 1.0792775154113769531 0.69873219728469848633 0.36434099078178405762 -0.86897283792495727539 0.47521987557411193848 0.52995336055755615234 1.0347982645034790039 0.83142912387847900391 1.9359775781631469727 0.62164062261581420898 -0.10997032374143600464 0.15523253381252288818 0.96623957157135009766 2.118564605712890625 2.5040435791015625 0.86672955751419067383 -0.59160947799682617188 -2.1100993156433105469 -0.91435444355010986328 
-1.0749021768569946289 -0.79798334836959838867 -1.7370970249176025391 -1.3495408296585083008 -1.2928206920623779297 -0.45894122123718261719 -0.34200021624565124512 -1.1776797771453857422 1.1286896467208862305 0.39831745624542236328 -1.7995433807373046875 -1.6320959329605102539 1.0081673860549926758 1.1605783700942993164 0.43415880203247070313 -0.27532926201820373535 -1.8702787160873413086 -0.45388999581336975098 0.3797321319580078125 -1.555568695068359375 -1.643893122673034668 -0.35586488246917724609 -0.18637096881866455078 0.087965399026870727539 -1.0211175680160522461 0.27236700057983398438 0.92266470193862915039 0.61656194925308227539 1.7973788976669311523 1.5805373191833496094 0.22555691003799438477 -0.38078859448432922363 1.1482273340225219727 1.315883636474609375 0.35896274447441101074 1.0460442304611206055 1.0907568931579589844 -0.28556430339813232422 -1.0014293193817138672 0.016765058040618896484 
-1.9715369939804077148 -0.46229955554008483887 -0.042580105364322662354 -0.40544113516807556152 0.17824941873550415039 0.44705796241760253906 -1.3135917186737060547 -0.49288761615753173828 -0.51386296749114990234 -0.73040658235549926758 -0.48938000202178955078 0.43907946348190307617 0.65740495920181274414 1.5528044700622558594 1.0440604686737060547 -0.16263371706008911133 -1.4606311321258544922 -0.50675565004348754883 -0.79517322778701782227 -2.0063028335571289063 -1.7287833690643310547 -0.74154925346374511719 -0.26802846789360046387 0.40867036581039428711 0.6769949793815612793 1.2105537652969360352 1.6337801218032836914 1.1464912891387939453 1.581956028938293457 0.078819818794727325439 0.30471763014793395996 0.92288255691528320313 0.25172141194343566895 -0.48626929521560668945 -0.16340968012809753418 1.2638889551162719727 1.2424615621566772461 -0.91278100013732910156 -0.21364280581474304199 0.40793946385383605957 
-1.338045954704284668 -0.88194900751113891602 0.48172533512115478516 1.0473194122314453125 2.9571368694305419922 2.1084449291229248047 -1.6716020107269287109 -1.160639643669128418 -1.2398347854614257813 -1.7845236063003540039 0.03072617948055267334 1.1679831743240356445 -0.36902359127998352051 -0.91395068168640136719 0.56341964006423950195 -0.21859785914421081543 -1.397066950798034668 -1.0806254148483276367 -1.3287553787231445313 -0.8025067448616027832 -1.7879099845886230469 -1.4479792118072509766 -1.2991092205047607422 -0.025985728949308395386 0.75627905130386352539 1.7053396701812744141 1.0373498201370239258 0.49004074931144714355 -0.30415967106819152832 -0.89963608980178833008 0.67754381895065307617 0.43984586000442504883 -1.6436378955841064453 -2.0693402290344238281 -1.2054635286331176758 -0.78146386146545410156 0.59586286544799804688 0.5126953125 -0.58908104896545410156 -0.8877690434455871582 
0.16176843643188476563 -0.69223129749298095703 -1.0288929939270019531 -0.1258478313684463501 1.5347436666488647461 0.32446050643920898438 -1.0102404356002807617 0.41653355956077575684 0.55187976360321044922 -0.2908204495906829834 -2.2917344570159912109 -1.3745608329772949219 -1.7271547317504882813 -0.81697309017181396484 0.058340452611446380615 -0.016092702746391296387 -1.0082762241363525391 -1.9600424766540527344 -2.1269202232360839844 -0.24479873478412628174 0.79161310195922851563 -0.61108851432800292969 -0.99270731210708618164 -0.88307929039001464844 -0.40075507760047912598 1.1244268417358398438 1.0306497812271118164 0.22332680225372314453 -0.41992327570915222168 -0.10068427771329879761 -0.58597129583358764648 -1.0055216550827026367 -1.2233191728591918945 -1.623724818229675293 -0.65061497688293457031 0.2346003800630569458 1.3240047693252563477 0.59044349193572998047 -0.095978446304798126221 -2.3848938941955566406 
-0.39546942710876464844 0.11187008023262023926 -1.2129702568054199219 -0.70937925577163696289 -0.66800165176391601563 -0.72029066085815429688 -0.98281788825988769531 -0.014827956445515155792 -0.10770617425441741943 -1.2513202428817749023 -1.6717641353607177734 -1.7017978429794311523 -1.3092728853225708008 0.024586377665400505066 0.013777087442576885223 -1.2037717103958129883 -0.86815774440765380859 -1.9374828338623046875 -1.5285422801971435547 0.97848838567733764648 1.4399216175079345703 -0.059276655316352844238 -0.75137615203857421875 -0.80474287271499633789 -0.15211798250675201416 0.64463102817535400391 0.39889776706695556641 0.75837057828903198242 2.0422418117523193359 1.6696511507034301758 -0.027170252054929733276 -0.76877069473266601563 0.22563007473945617676 1.4243925809860229492 1.7457572221755981445 1.115527033805847168 0.52583515644073486328 0.94829738140106201172 -0.54270303249359130859 -1.4852070808410644531 
-0.40119269490242004395 0.77690392732620239258 -0.11239980161190032959 -0.40579053759574890137 -0.82841622829437255859 -0.21497787535190582275 0.1087072417140007019 0.93771964311599731445 0.98796564340591430664 0.088113501667976379395 -1.4495764970779418945 -2.1315848827362060547 -2.2861309051513671875 -0.33379200100898742676 0.19204659759998321533 -0.36293384432792663574 0.31834417581558227539 -0.63810074329376220703 1.4042310714721679688 1.2485837936401367188 0.73108756542205810547 0.42817169427871704102 0.6538689732551574707 0.97200846672058105469 0.83560037612915039063 1.0392528772354125977 0.05188871920108795166 -1.0543936491012573242 0.31042686104774475098 -0.24211686849594116211 0.63873094320297241211 -0.5354169011116027832 -1.1752015352249145508 0.5027936100959777832 2.5037782192230224609 1.544331669807434082 0.40643617510795593262 1.8230189085006713867 -0.11918398737907409668 -0.4719390571117401123 
-0.35964027047157287598 -0.010877355001866817474 -0.019909042865037918091 -0.27163636684417724609 -0.70520967245101928711 0.018665909767150878906 -0.47287333011627197266 1.3584511280059814453 0.69544482231140136719 -0.49408861994743347168 -1.1788647174835205078 -1.0608016252517700195 -2.1385238170623779297 -1.4777166843414306641 -1.1310347318649291992 -1.1633309125900268555 -2.0287709236145019531 -1.0587587356567382813 0.59036695957183837891 0.86026930809020996094 0.66945683956146240234 -0.4503421783447265625 0.27450841665267944336 0.060152124613523483276 -0.41590872406959533691 0.21917209029197692871 0.59902018308639526367 0.37680739164352416992 -0.17654651403427124023 -0.95099198818206787109 -0.23581859469413757324 -0.32324102520942687988 -1.425968170166015625 -0.54776895046234130859 0.24135324358940124512 0.37903773784637451172 -1.1865789890289306641 -0.022706521674990653992 -0.29319900274276733398 -1.7187695503234863281 
